P3
320 240
255
255 255 244
255 245 232
255 245 232
255 245 232
255 245 232
255 245 232
255 245 232
255 245 232
255 245 232
255 245 232
255 245 232
255 245 232
255 245 232
255 245 232
255 245 232
255 245 232
255 245 232
255 245 232
255 245 232
255 245 232
255 245 232
255 245 232
255 245 232
255 245 232
255 245 232
255 245 232
255 245 232
255 245 232
255 245 232
255 245 232
255 245 232
255 245 232
255 245 232
255 245 232
255 245 232
255 245 232
255 245 232
255 255 244
255 245 232
255 245 232
255 245 232
255 245 232
255 245 232
255 245 232
255 245 232
255 245 232
255 245 232
255 245 232
255 245 232
255 245 232
255 245 232
255 245 232
255 245 232
255 245 232
255 245 232
255 245 232
255 245 232
255 245 232
255 245 232
255 245 232
255 245 232
255 245 232
255 245 232
255 245 232
255 245 232
255 245 232
255 245 232
255 245 232
255 245 232
255 245 232
255 245 232
255 245 232
255 245 232
255 245 232
255 255 244
255 245 232
255 245 232
255 245 232
255 245 232
255 245 232
255 245 232
255 245 232
255 245 232
255 245 232
255 245 232
255 245 232
255 245 232
255 245 232
255 245 232
255 245 232
255 245 232
255 245 232
255 245 232
255 245 232
255 245 232
255 245 232
255 245 232
255 245 232
255 245 232
255 245 232
255 245 232
255 245 232
255 245 232
255 245 232
255 245 232
255 245 232
255 245 232
255 245 232
255 245 232
255 245 232
255 245 232
255 255 244
255 245 232
255 245 232
255 245 232
255 245 232
255 245 232
255 245 232
255 245 232
255 245 232
255 245 232
255 245 232
255 245 232
255 245 232
255 245 232
255 245 232
255 245 232
255 245 232
255 245 232
255 245 232
255 245 232
255 245 232
255 245 232
255 245 232
255 245 232
255 245 232
255 245 232
255 245 232
255 245 232
255 245 232
255 245 232
255 245 232
255 245 232
255 245 232
255 245 232
255 245 232
255 245 232
255 245 232
255 255 244
255 245 232
255 245 232
255 245 232
255 245 232
255 245 232
255 245 232
255 245 232
255 245 232
255 245 232
255 245 232
255 245 232
255 245 232
255 245 232
255 245 232
255 245 232
255 245 232
255 245 232
255 245 232
255 245 232
255 245 232
255 245 232
255 245 232
255 245 232
255 245 232
255 245 232
255 245 232
255 245 232
255 245 232
255 245 232
255 245 232
255 245 232
255 245 232
255 245 232
255 245 232
255 245 232
255 245 232
255 255 244
255 245 232
255 245 232
255 245 232
255 245 232
255 245 232
255 245 232
255 245 232
255 245 232
255 245 232
255 245 232
255 245 232
255 245 232
255 245 232
255 245 232
255 245 232
255 245 232
255 245 232
255 245 232
255 245 232
255 245 232
255 245 232
255 245 232
255 245 232
255 245 232
255 245 232
255 245 232
255 245 232
255 245 232
255 245 232
255 245 232
255 245 232
255 245 232
255 245 232
255 245 232
255 245 232
255 245 232
255 255 244
255 245 232
255 245 232
255 245 232
255 245 232
255 245 232
255 245 232
255 245 232
255 245 232
255 245 232
255 245 232
255 245 232
255 245 232
255 245 232
255 245 232
255 245 232
255 245 232
255 245 232
255 245 232
255 245 232
255 245 232
255 245 232
255 245 232
255 245 232
255 245 232
255 245 232
255 245 232
255 245 232
255 245 232
255 245 232
255 245 232
255 245 232
255 245 232
255 245 232
255 245 232
255 245 232
255 245 232
255 255 244
255 245 232
255 245 232
255 245 232
255 245 232
255 245 232
255 245 232
255 245 232
255 245 232
255 245 232
255 245 232
255 245 232
255 245 232
255 245 232
255 245 232
255 245 232
255 245 232
255 245 232
255 245 232
255 245 232
255 245 232
255 245 232
255 245 232
255 245 232
255 245 232
255 245 232
255 245 232
255 245 232
255 245 232
255 245 232
255 245 232
255 245 232
255 245 232
255 245 232
255 245 232
255 245 232
255 245 232
255 255 244
255 245 232
255 245 232
255 245 232
255 245 232
255 245 232
255 245 232
255 245 232
255 245 232
255 245 232
255 245 232
255 245 232
255 245 232
255 245 232
255 245 232
255 245 232
255 245 232
255 245 232
255 245 232
255 245 232
255 245 232
255 245 232
255 245 232
255 245 232
255 245 232
255 245 232
255 245 232
255 245 232
255 245 232
255 245 232
255 245 232
255 245 232
255 245 232
255 245 232
255 245 232
255 245 232
255 245 232
255 245 232
255 245 232
255 245 232
255 245 232
255 245 232
255 245 232
255 245 232
255 245 232
255 245 232
255 245 232
255 245 232
255 245 232
255 245 232
255 245 232
255 245 232
255 245 232
255 245 232
255 245 232
255 245 232
255 245 232
255 245 232
255 245 232
255 245 232
255 255 244
255 245 232
255 245 232
255 245 232
255 245 232
255 245 232
255 245 232
255 245 232
255 245 232
255 245 232
255 245 232
255 245 232
255 245 232
255 245 232
255 245 232
255 245 232
255 245 232
255 245 232
255 245 232
255 245 232
255 245 232
255 245 232
255 245 232
255 245 232
255 245 232
255 245 232
255 245 232
255 245 232
255 245 232
255 245 232
255 245 232
255 245 232
255 245 232
255 245 232
255 245 232
255 245 232
255 245 232
255 255 244
255 245 232
255 245 232
255 245 232
255 245 232
255 245 232
255 245 232
255 245 232
255 245 232
255 245 232
255 245 232
255 245 232
255 245 232
255 245 232
255 245 232
255 245 232
255 245 232
255 245 232
255 245 232
255 245 232
255 245 232
255 245 232
255 245 232
255 245 232
255 245 232
255 245 232
255 245 232
255 245 232
255 245 232
255 245 232
255 245 232
255 245 232
255 245 232
255 245 232
255 245 232
255 245 232
255 245 232
255 255 244
255 245 232
255 245 232
255 245 232
255 245 232
255 245 232
255 245 232
255 245 232
255 245 232
255 245 232
255 245 232
255 245 232
255 245 232
255 245 232
255 245 232
255 245 232
255 245 232
255 245 232
255 245 232
255 245 232
255 245 232
255 245 232
255 245 232
255 245 232
255 245 232
255 245 232
255 245 232
255 245 232
255 245 232
255 245 232
255 245 232
255 245 232
255 245 232
255 245 232
255 245 232
255 245 232
255 245 232
255 255 244
255 245 232
255 245 232
255 245 232
255 245 232
255 245 232
255 245 232
255 245 232
255 245 232
255 245 232
255 245 232
255 245 232
255 245 232
255 245 232
255 245 232
255 245 232
255 245 232
255 245 232
255 245 232
255 245 232
255 245 232
255 245 232
255 245 232
255 245 232
255 245 232
255 245 232
255 245 232
255 245 232
255 245 232
255 245 232
255 245 232
255 245 232
255 245 232
255 245 232
255 245 232
255 245 232
255 245 232
255 255 244
255 245 232
255 245 232
255 245 232
255 245 232
255 245 232
255 245 232
255 245 232
255 245 232
255 245 232
255 245 232
255 245 232
255 245 232
255 245 232
255 245 232
255 245 232
255 245 232
255 245 232
255 245 232
255 245 232
255 245 232
255 245 232
255 245 232
255 245 232
255 245 232
255 245 232
255 245 232
255 245 232
255 245 232
255 245 232
255 245 232
255 245 232
255 245 232
255 245 232
255 245 232
255 245 232
255 245 232
255 255 244
255 245 232
255 245 232
255 245 232
255 245 232
255 245 232
255 245 232
255 245 232
255 245 232
255 245 232
255 245 232
255 245 232
255 245 232
255 245 232
255 245 232
255 245 232
255 245 232
255 245 232
255 245 232
255 245 232
255 245 232
255 245 232
255 245 232
255 245 232
255 245 232
255 245 232
255 245 232
255 245 232
255 245 232
255 245 232
255 245 232
255 245 232
255 245 232
255 245 232
255 245 232
255 245 232
255 245 232
255 255 244
255 245 232
255 245 232
255 245 232
255 245 232
255 245 232
255 245 232
255 245 232
255 245 232
255 245 232
255 245 232
255 245 232
255 245 232
255 245 232
255 245 232
255 245 232
255 245 232
255 245 232
255 245 232
255 245 232
255 245 232
255 245 232
255 245 232
255 245 232
255 245 232
255 245 232
255 245 232
255 245 232
255 245 232
255 245 232
255 245 232
255 245 232
255 245 232
255 245 232
255 245 232
255 245 232
255 245 232
255 255 244
255 245 232
255 245 232
255 245 232
255 245 232
255 245 232
255 245 232
255 245 232
255 245 232
255 245 232
255 245 232
255 245 232
255 245 232
255 245 232
255 245 232
255 245 232
255 245 232
255 245 232
255 245 232
255 245 232
255 245 232
255 245 232
255 245 232
255 245 232
255 245 232
255 245 232
255 245 232
255 245 232
255 245 232
255 245 232
255 245 232
255 245 232
255 245 232
255 245 232
255 245 232
255 245 232
255 245 232
255 245 232
255 245 232
255 245 232
255 245 232
255 245 232
255 245 232
255 245 232
255 245 232
255 245 232
255 245 232
255 245 232
255 245 232
255 245 232
255 245 232
255 245 232
255 245 232
255 245 232
255 245 232
255 245 232
255 245 232
255 245 232
255 245 232
255 245 232
255 255 244
255 245 232
255 245 232
255 245 232
255 245 232
255 245 232
255 245 232
255 245 232
255 245 232
255 245 232
255 245 232
255 245 232
255 245 232
255 245 232
255 245 232
255 245 232
255 245 232
255 245 232
255 245 232
255 245 232
255 245 232
255 245 232
255 245 232
255 245 232
255 245 232
255 245 232
255 245 232
255 245 232
255 245 232
255 245 232
255 245 232
255 245 232
255 245 232
255 245 232
255 245 232
255 245 232
255 245 232
255 255 244
255 245 232
255 245 232
255 245 232
255 245 232
255 245 232
255 245 232
255 245 232
255 245 232
255 245 232
255 245 232
255 245 232
255 245 232
255 245 232
255 245 232
255 245 232
255 245 232
255 245 232
255 245 232
255 245 232
255 245 232
255 245 232
255 245 232
255 245 232
255 245 232
255 245 232
255 245 232
255 245 232
255 245 232
255 245 232
255 245 232
255 245 232
255 245 232
255 245 232
255 245 232
255 245 232
255 245 232
255 255 244
255 245 232
255 245 232
255 245 232
255 245 232
255 245 232
255 245 232
255 245 232
255 245 232
255 245 232
255 245 232
255 245 232
255 245 232
255 245 232
255 245 232
255 245 232
255 245 232
255 245 232
255 245 232
255 245 232
255 245 232
255 245 232
255 245 232
255 245 232
255 245 232
255 245 232
255 245 232
255 245 232
255 245 232
255 245 232
255 245 232
255 245 232
255 245 232
255 245 232
255 245 232
255 245 232
255 245 232
255 255 244
255 245 232
255 245 232
255 245 232
255 245 232
255 245 232
255 245 232
255 245 232
255 245 232
255 245 232
255 245 232
255 245 232
255 245 232
255 245 232
255 245 232
255 245 232
255 245 232
255 245 232
255 245 232
255 245 232
255 245 232
255 245 232
255 245 232
255 245 232
255 245 232
255 245 232
255 245 232
255 245 232
255 245 232
255 245 232
255 245 232
255 245 232
255 245 232
255 245 232
255 245 232
255 245 232
255 245 232
255 255 244
255 245 232
255 245 232
255 245 232
255 245 232
255 245 232
255 245 232
255 245 232
255 245 232
255 245 232
255 245 232
255 245 232
255 245 232
255 245 232
255 245 232
255 245 232
255 245 232
255 245 232
255 245 232
255 245 232
255 245 232
255 245 232
255 245 232
255 245 232
255 245 232
255 245 232
255 245 232
255 245 232
255 245 232
255 245 232
255 245 232
255 245 232
255 245 232
255 245 232
255 245 232
255 245 232
255 245 232
255 255 244
255 245 232
255 245 232
255 245 232
255 245 232
255 245 232
255 245 232
255 245 232
255 245 232
255 245 232
255 245 232
255 245 232
255 245 232
255 245 232
255 245 232
255 245 232
255 245 232
255 245 232
255 245 232
255 245 232
255 245 232
255 245 232
255 245 232
255 245 232
255 245 232
255 245 232
255 245 232
255 245 232
255 245 232
255 245 232
255 245 232
255 245 232
255 245 232
255 245 232
255 245 232
255 245 232
255 245 232
255 255 244
255 245 232
255 245 232
255 245 232
255 245 232
255 245 232
255 245 232
255 245 232
255 245 232
255 245 232
255 245 232
255 245 232
255 245 232
255 245 232
255 245 232
255 245 232
255 245 232
255 245 232
255 245 232
255 245 232
255 245 232
255 245 232
255 245 232
255 245 232
255 245 232
255 245 232
255 245 232
255 245 232
255 245 232
255 245 232
255 245 232
255 245 232
255 245 232
255 245 232
255 245 232
255 245 232
255 245 232
255 255 244
255 245 232
255 245 232
255 245 232
255 245 232
255 245 232
255 245 232
255 245 232
255 245 232
255 245 232
255 245 232
255 245 232
255 245 232
255 245 232
255 245 232
255 245 232
255 245 232
255 245 232
255 245 232
255 245 232
255 245 232
255 245 232
255 245 232
255 245 232
255 245 232
255 245 232
255 245 232
255 245 232
255 245 232
255 245 232
255 245 232
255 245 232
255 245 232
255 245 232
255 245 232
255 245 232
255 245 232
255 245 232
255 245 232
255 245 232
255 245 232
255 245 232
255 245 232
255 245 232
255 245 232
255 245 232
255 245 232
255 245 232
255 245 232
255 245 232
255 245 232
255 245 232
255 245 232
255 245 232
255 245 232
255 245 232
255 245 232
255 245 232
255 245 232
255 245 232
255 255 244
255 245 232
255 245 232
255 245 232
255 245 232
255 245 232
255 245 232
255 245 232
255 245 232
255 245 232
255 245 232
255 245 232
255 245 232
255 245 232
255 245 232
255 245 232
255 245 232
255 245 232
255 245 232
255 245 232
255 245 232
255 245 232
255 245 232
255 245 232
255 245 232
255 245 232
255 245 232
255 245 232
255 245 232
255 245 232
255 245 232
255 245 232
255 245 232
255 245 232
255 245 232
255 245 232
255 245 232
255 255 244
255 245 232
255 245 232
255 245 232
255 245 232
255 245 232
255 245 232
255 245 232
255 245 232
255 245 232
255 245 232
255 245 232
255 245 232
255 245 232
255 245 232
255 245 232
255 245 232
255 245 232
255 245 232
255 245 232
255 245 232
255 245 232
255 245 232
255 245 232
255 245 232
255 245 232
255 245 232
255 245 232
255 245 232
255 245 232
255 245 232
255 245 232
255 245 232
255 245 232
255 245 232
255 245 232
255 245 232
255 255 244
255 245 232
255 245 232
255 245 232
255 245 232
255 245 232
255 245 232
255 245 232
255 245 232
255 245 232
255 245 232
255 245 232
255 245 232
255 245 232
255 245 232
255 245 232
255 245 232
255 245 232
255 245 232
255 245 232
255 245 232
255 245 232
255 245 232
255 245 232
255 245 232
255 245 232
255 245 232
255 245 232
255 245 232
255 245 232
255 245 232
255 245 232
255 245 232
255 245 232
255 245 232
255 245 232
255 245 232
255 255 244
255 245 232
255 245 232
255 245 232
255 245 232
255 245 232
255 245 232
255 245 232
255 245 232
255 245 232
255 245 232
255 245 232
255 245 232
255 245 232
255 245 232
255 245 232
255 245 232
255 245 232
255 245 232
255 245 232
255 245 232
255 245 232
255 245 232
255 245 232
255 245 232
255 245 232
255 245 232
255 245 232
255 245 232
255 245 232
255 245 232
255 245 232
255 245 232
255 245 232
255 245 232
255 245 232
255 245 232
255 255 244
255 245 232
255 245 232
255 245 232
255 245 232
255 245 232
255 245 232
255 245 232
255 245 232
255 245 232
255 245 232
255 245 232
255 245 232
255 245 232
255 245 232
255 245 232
255 245 232
255 245 232
255 245 232
255 245 232
255 245 232
255 245 232
255 245 232
255 245 232
255 245 232
255 245 232
255 245 232
255 245 232
255 245 232
255 245 232
255 245 232
255 245 232
255 245 232
255 245 232
255 245 232
255 245 232
255 245 232
255 255 244
255 245 232
255 245 232
255 245 232
255 245 232
255 245 232
255 245 232
255 245 232
255 245 232
255 245 232
255 245 232
255 245 232
255 245 232
255 245 232
255 245 232
255 245 232
255 245 232
255 245 232
255 245 232
255 245 232
255 245 232
255 245 232
255 245 232
255 245 232
255 245 232
255 245 232
255 245 232
255 245 232
255 245 232
255 245 232
255 245 232
255 245 232
255 245 232
255 245 232
255 245 232
255 245 232
255 245 232
255 255 244
255 245 232
255 245 232
255 245 232
255 245 232
255 245 232
255 245 232
255 245 232
255 245 232
255 245 232
255 245 232
255 245 232
255 245 232
255 245 232
255 245 232
255 245 232
255 245 232
255 245 232
255 245 232
255 245 232
255 245 232
255 245 232
255 245 232
255 245 232
255 245 232
255 245 232
255 245 232
255 245 232
255 245 232
255 245 232
255 245 232
255 245 232
255 245 232
255 245 232
255 245 232
255 245 232
255 245 232
255 255 244
255 245 232
255 245 232
255 245 232
255 245 232
255 245 232
255 245 232
255 245 232
255 245 232
255 245 232
255 245 232
255 245 232
255 245 232
255 245 232
255 245 232
255 245 232
255 245 232
255 245 232
255 245 232
255 245 232
255 245 232
255 245 232
255 245 232
255 245 232
255 245 232
255 245 232
255 245 232
255 245 232
255 245 232
255 245 232
255 245 232
255 245 232
255 245 232
255 245 232
255 245 232
255 245 232
255 245 232
255 245 232
255 245 232
255 245 232
255 245 232
255 245 232
255 245 232
255 245 232
255 245 232
255 245 232
255 245 232
255 245 232
255 245 232
255 245 232
255 245 232
255 245 232
255 245 232
255 245 232
255 245 232
255 245 232
255 245 232
255 245 232
255 245 232
255 245 232
255 255 244
255 245 232
255 245 232
255 245 232
255 245 232
255 245 232
255 245 232
255 245 232
255 245 232
255 245 232
255 245 232
255 245 232
255 245 232
255 245 232
255 245 232
255 245 232
255 245 232
255 245 232
255 245 232
255 245 232
255 245 232
255 245 232
255 245 232
255 245 232
255 245 232
255 245 232
255 245 232
255 245 232
255 245 232
255 245 232
255 245 232
255 245 232
255 245 232
255 245 232
255 245 232
255 245 232
255 245 232
255 255 244
255 245 232
255 245 232
255 245 232
255 245 232
255 245 232
255 245 232
255 245 232
255 245 232
255 245 232
255 245 232
255 245 232
255 245 232
255 245 232
255 245 232
255 245 232
255 245 232
255 245 232
255 245 232
255 245 232
255 245 232
255 245 232
255 245 232
255 245 232
255 245 232
255 245 232
255 245 232
255 245 232
255 245 232
255 245 232
255 245 232
255 245 232
255 245 232
255 245 232
255 245 232
255 245 232
255 245 232
255 255 244
255 245 232
255 245 232
255 245 232
255 245 232
255 245 232
255 245 232
255 245 232
255 245 232
255 245 232
255 245 232
255 245 232
255 245 232
255 245 232
255 245 232
255 245 232
255 245 232
255 245 232
255 245 232
255 245 232
255 245 232
255 245 232
255 245 232
255 245 232
255 245 232
255 245 232
255 245 232
255 245 232
255 245 232
255 245 232
255 245 232
255 245 232
255 245 232
255 245 232
255 245 232
255 245 232
255 245 232
255 255 244
255 245 232
255 245 232
255 245 232
255 245 232
255 245 232
255 245 232
255 245 232
255 245 232
255 245 232
255 245 232
255 245 232
255 245 232
255 245 232
255 245 232
255 245 232
255 245 232
255 245 232
255 245 232
255 245 232
255 245 232
255 245 232
255 245 232
255 245 232
255 245 232
255 245 232
255 245 232
255 245 232
255 245 232
255 245 232
255 245 232
255 245 232
255 245 232
255 245 232
255 245 232
255 245 232
255 245 232
255 255 244
255 245 232
255 245 232
255 245 232
255 245 232
255 245 232
255 245 232
255 245 232
255 245 232
255 245 232
255 245 232
255 245 232
255 245 232
255 245 232
255 245 232
255 245 232
255 245 232
255 245 232
255 245 232
255 245 232
255 245 232
255 245 232
255 245 232
255 245 232
255 245 232
255 245 232
255 245 232
255 245 232
255 245 232
255 245 232
255 245 232
255 245 232
255 245 232
255 245 232
255 245 232
255 245 232
255 245 232
255 255 244
255 245 232
255 245 232
255 245 232
255 245 232
255 245 232
255 245 232
255 245 232
255 245 232
255 245 232
255 245 232
255 245 232
255 245 232
255 245 232
255 245 232
255 245 232
255 245 232
255 245 232
255 245 232
255 245 232
255 245 232
255 245 232
255 245 232
255 245 232
255 245 232
255 245 232
255 245 232
255 245 232
255 245 232
255 245 232
255 245 232
255 245 232
255 245 232
255 245 232
255 245 232
255 245 232
255 245 232
255 255 244
255 245 232
255 245 232
255 245 232
255 245 232
255 245 232
255 245 232
255 245 232
255 245 232
255 245 232
255 245 232
255 245 232
255 245 232
255 245 232
255 245 232
255 245 232
255 245 232
255 245 232
255 245 232
255 245 232
255 245 232
255 245 232
255 245 232
255 245 232
255 245 232
255 245 232
255 245 232
255 245 232
255 245 232
255 245 232
255 245 232
255 245 232
255 245 232
255 245 232
255 245 232
255 245 232
255 245 232
255 255 244
255 245 232
255 245 232
255 245 232
255 245 232
255 245 232
255 245 232
255 245 232
255 245 232
255 245 232
255 245 232
255 245 232
255 245 232
255 245 232
255 245 232
255 245 232
255 245 232
255 245 232
255 245 232
255 245 232
255 245 232
255 245 232
255 245 232
255 245 232
255 245 232
255 245 232
255 245 232
255 245 232
255 245 232
255 245 232
255 245 232
255 245 232
255 245 232
255 245 232
255 245 232
255 245 232
255 245 232
255 245 232
255 245 232
255 245 232
255 245 232
255 245 232
255 245 232
255 245 232
255 245 232
255 245 232
255 245 232
255 245 232
255 245 232
255 245 232
255 245 232
255 245 232
255 245 232
255 245 232
255 245 232
255 245 232
255 245 232
255 245 232
255 245 232
255 245 232
255 255 244
255 245 232
255 245 232
255 245 232
255 245 232
255 245 232
255 245 232
255 245 232
255 245 232
255 245 232
255 245 232
255 245 232
255 245 232
255 245 232
255 245 232
255 245 232
255 245 232
255 245 232
255 245 232
255 245 232
255 245 232
255 245 232
255 245 232
255 245 232
255 245 232
255 245 232
255 245 232
255 245 232
255 245 232
255 245 232
255 245 232
255 245 232
255 245 232
255 245 232
255 245 232
255 245 232
255 245 232
255 255 244
255 245 232
255 245 232
255 245 232
255 245 232
255 245 232
255 245 232
255 245 232
255 245 232
255 245 232
255 245 232
255 245 232
255 245 232
255 245 232
255 245 232
255 245 232
255 245 232
255 245 232
255 245 232
255 245 232
255 245 232
255 245 232
255 245 232
255 245 232
255 245 232
255 245 232
255 245 232
255 245 232
255 245 232
255 245 232
255 245 232
255 245 232
255 245 232
255 245 232
255 245 232
255 245 232
255 245 232
255 255 244
255 245 232
255 245 232
255 245 232
255 245 232
255 245 232
255 245 232
255 245 232
255 245 232
255 245 232
255 245 232
255 245 232
255 245 232
255 245 232
255 245 232
255 245 232
255 245 232
255 245 232
255 245 232
255 245 232
255 245 232
255 245 232
255 245 232
255 245 232
255 245 232
255 245 232
255 245 232
255 245 232
255 245 232
255 245 232
255 245 232
255 245 232
255 245 232
255 245 232
255 245 232
255 245 232
255 245 232
255 255 244
255 245 232
255 245 232
255 245 232
255 245 232
255 245 232
255 245 232
255 245 232
255 245 232
255 245 232
255 245 232
255 245 232
255 245 232
255 245 232
255 245 232
255 245 232
255 245 232
255 245 232
255 245 232
255 245 232
255 245 232
255 245 232
255 245 232
255 245 232
255 245 232
255 245 232
255 245 232
255 245 232
255 245 232
255 245 232
255 245 232
255 245 232
255 245 232
255 245 232
255 245 232
255 245 232
255 245 232
255 255 244
255 245 232
255 245 232
255 245 232
255 245 232
255 245 232
255 245 232
255 245 232
255 245 232
255 245 232
255 245 232
255 245 232
255 245 232
255 245 232
255 245 232
255 245 232
255 245 232
255 245 232
255 245 232
255 245 232
255 245 232
255 245 232
255 245 232
255 245 232
255 245 232
255 245 232
255 245 232
255 245 232
255 245 232
255 245 232
255 245 232
255 245 232
255 245 232
255 245 232
255 245 232
255 245 232
255 245 232
255 255 244
255 245 232
255 245 232
255 245 232
255 245 232
255 245 232
255 245 232
255 245 232
255 245 232
255 245 232
255 245 232
255 245 232
255 245 232
255 245 232
255 245 232
255 245 232
255 245 232
255 245 232
255 245 232
255 245 232
255 245 232
255 245 232
255 245 232
255 245 232
255 245 232
255 245 232
255 245 232
255 245 232
255 245 232
255 245 232
255 245 232
255 245 232
255 245 232
255 245 232
255 245 232
255 245 232
255 245 232
255 255 244
255 245 232
255 245 232
255 245 232
255 245 232
255 245 232
255 245 232
255 245 232
255 245 232
255 245 232
255 245 232
255 245 232
255 245 232
255 245 232
255 245 232
255 245 232
255 245 232
255 245 232
255 245 232
255 245 232
255 245 232
255 245 232
255 245 232
255 245 232
255 245 232
255 245 232
255 245 232
255 245 232
255 245 232
255 245 232
255 245 232
255 245 232
255 245 232
255 245 232
255 245 232
255 245 232
255 245 232
255 255 244
255 245 232
255 245 232
255 245 232
255 245 232
255 245 232
255 245 232
255 245 232
255 245 232
255 245 232
255 245 232
255 245 232
255 245 232
255 245 232
255 245 232
255 245 232
255 245 232
255 245 232
255 245 232
255 245 232
255 245 232
255 245 232
255 245 232
255 245 232
255 245 232
255 245 232
255 245 232
255 245 232
255 245 232
255 245 232
255 245 232
255 245 232
255 245 232
255 245 232
255 245 232
255 245 232
255 245 232
255 245 232
255 245 232
255 245 232
255 245 232
255 245 232
255 245 232
255 245 232
255 245 232
255 245 232
255 245 232
255 245 232
255 245 232
255 245 232
255 245 232
255 245 232
255 245 232
255 245 232
255 245 232
255 245 232
255 245 232
255 245 232
255 245 232
255 245 232
255 255 244
255 245 232
255 245 232
255 245 232
255 245 232
255 245 232
255 245 232
255 245 232
255 245 232
255 245 232
255 245 232
255 245 232
255 245 232
255 245 232
255 245 232
255 245 232
255 245 232
255 245 232
255 245 232
255 245 232
255 245 232
255 245 232
255 245 232
255 245 232
255 245 232
255 245 232
255 245 232
255 245 232
255 245 232
255 245 232
255 245 232
255 245 232
255 245 232
255 245 232
255 245 232
255 245 232
255 245 232
255 255 244
255 245 232
255 245 232
255 245 232
255 245 232
255 245 232
255 245 232
255 245 232
255 245 232
255 245 232
255 245 232
255 245 232
255 245 232
255 245 232
255 245 232
255 245 232
255 245 232
255 245 232
255 245 232
255 245 232
255 245 232
255 245 232
255 245 232
255 245 232
255 245 232
255 245 232
255 245 232
255 245 232
255 245 232
255 245 232
255 245 232
255 245 232
255 245 232
255 245 232
255 245 232
255 245 232
255 245 232
255 255 244
255 245 232
255 245 232
255 245 232
255 245 232
255 245 232
255 245 232
255 245 232
255 245 232
255 245 232
255 245 232
255 245 232
255 245 232
255 245 232
255 245 232
255 245 232
255 245 232
255 245 232
255 245 232
255 245 232
255 245 232
255 245 232
255 245 232
255 245 232
255 245 232
255 245 232
255 245 232
255 245 232
255 245 232
255 245 232
255 245 232
255 245 232
255 245 232
255 245 232
255 245 232
255 245 232
255 245 232
255 255 244
255 245 232
255 245 232
255 245 232
255 245 232
255 245 232
255 245 232
255 245 232
255 245 232
255 245 232
255 245 232
255 245 232
255 245 232
255 245 232
255 245 232
255 245 232
255 245 232
255 245 232
255 245 232
255 245 232
255 245 232
255 245 232
255 245 232
255 245 232
255 245 232
255 245 232
255 245 232
255 245 232
255 245 232
255 245 232
255 245 232
255 245 232
255 245 232
255 245 232
255 245 232
255 245 232
255 245 232
255 255 244
255 245 232
255 245 232
255 245 232
255 245 232
255 245 232
255 245 232
255 245 232
255 245 232
255 245 232
255 245 232
255 245 232
255 245 232
255 245 232
255 245 232
255 245 232
255 245 232
255 245 232
255 245 232
255 245 232
255 245 232
255 245 232
255 245 232
255 245 232
255 245 232
255 245 232
255 245 232
255 245 232
255 245 232
255 245 232
255 245 232
255 245 232
255 245 232
255 245 232
255 245 232
255 245 232
255 245 232
255 255 244
255 245 232
255 245 232
255 245 232
255 245 232
255 245 232
255 245 232
255 245 232
255 245 232
255 245 232
255 245 232
255 245 232
255 245 232
255 245 232
255 245 232
255 245 232
255 245 232
255 245 232
255 245 232
255 245 232
255 245 232
255 245 232
255 245 232
255 245 232
255 245 232
255 245 232
255 245 232
255 245 232
255 245 232
255 245 232
255 245 232
255 245 232
255 245 232
255 245 232
255 245 232
255 245 232
255 245 232
255 255 244
255 245 232
255 245 232
255 245 232
255 245 232
255 245 232
255 245 232
255 245 232
255 245 232
255 245 232
255 245 232
255 245 232
255 245 232
255 245 232
255 245 232
255 245 232
255 245 232
255 245 232
255 245 232
255 245 232
255 245 232
255 245 232
255 245 232
255 245 232
255 245 232
255 245 232
255 245 232
255 245 232
255 245 232
255 245 232
255 245 232
255 245 232
255 245 232
255 245 232
255 245 232
255 245 232
255 245 232
255 255 244
255 245 232
255 245 232
255 245 232
255 245 232
255 245 232
255 245 232
255 245 232
255 245 232
255 245 232
255 245 232
255 245 232
255 245 232
255 245 232
255 245 232
255 245 232
255 245 232
255 245 232
255 245 232
255 245 232
255 245 232
255 245 232
255 245 232
255 245 232
255 245 232
255 245 232
255 245 232
255 245 232
255 245 232
255 245 232
255 245 232
255 245 232
255 245 232
255 245 232
255 245 232
255 245 232
255 245 232
255 245 232
255 245 232
255 245 232
255 245 232
255 245 232
255 245 232
255 245 232
255 245 232
255 245 232
255 245 232
255 245 232
255 245 232
255 245 232
255 245 232
255 245 232
255 245 232
255 245 232
255 245 232
255 245 232
255 245 232
255 245 232
255 245 232
255 245 232
255 255 244
255 245 232
255 245 232
255 245 232
255 245 232
255 245 232
255 245 232
255 245 232
255 245 232
255 245 232
255 245 232
255 245 232
255 245 232
255 245 232
255 245 232
255 245 232
255 245 232
255 245 232
255 245 232
255 245 232
255 245 232
255 245 232
255 245 232
255 245 232
255 245 232
255 245 232
255 245 232
255 245 232
255 245 232
255 245 232
255 245 232
255 245 232
255 245 232
255 245 232
255 245 232
255 245 232
255 245 232
255 255 244
255 245 232
255 245 232
255 245 232
255 245 232
255 245 232
255 245 232
255 245 232
255 245 232
255 245 232
255 245 232
255 245 232
255 245 232
255 245 232
255 245 232
255 245 232
255 245 232
255 245 232
255 245 232
255 245 232
255 245 232
255 245 232
255 245 232
255 245 232
255 245 232
255 245 232
255 245 232
255 245 232
255 245 232
255 245 232
255 245 232
255 245 232
255 245 232
255 245 232
255 245 232
255 245 232
255 245 232
255 255 244
255 245 232
255 245 232
255 245 232
255 245 232
255 245 232
255 245 232
255 245 232
255 245 232
255 245 232
255 245 232
255 245 232
255 245 232
255 245 232
255 245 232
255 245 232
255 245 232
255 245 232
255 245 232
255 245 232
255 245 232
255 245 232
255 245 232
255 245 232
255 245 232
255 245 232
255 245 232
255 245 232
255 245 232
255 245 232
255 245 232
255 245 232
255 245 232
255 245 232
255 245 232
255 245 232
255 245 232
255 255 244
255 245 232
255 245 232
255 245 232
255 245 232
255 245 232
255 245 232
255 245 232
255 245 232
255 245 232
255 245 232
255 245 232
255 245 232
255 245 232
255 245 232
255 245 232
255 245 232
255 245 232
255 245 232
255 245 232
255 245 232
255 245 232
255 245 232
255 245 232
255 245 232
255 245 232
255 245 232
255 245 232
255 245 232
255 245 232
255 245 232
255 245 232
255 245 232
255 245 232
255 245 232
255 245 232
255 245 232
255 255 244
255 245 232
255 245 232
255 245 232
255 245 232
255 245 232
255 245 232
255 245 232
255 245 232
255 245 232
255 245 232
255 245 232
255 245 232
255 245 232
255 245 232
255 245 232
255 245 232
255 245 232
255 245 232
255 245 232
255 245 232
255 245 232
255 245 232
255 245 232
255 245 232
255 245 232
255 245 232
255 245 232
255 245 232
255 245 232
255 245 232
255 245 232
255 245 232
255 245 232
255 245 232
255 245 232
255 245 232
255 255 244
255 245 232
255 245 232
255 245 232
255 245 232
255 245 232
255 245 232
255 245 232
255 245 232
255 245 232
255 245 232
255 245 232
255 245 232
255 245 232
255 245 232
255 245 232
255 245 232
255 245 232
255 245 232
255 245 232
255 245 232
255 245 232
255 245 232
255 245 232
255 245 232
255 245 232
255 245 232
255 245 232
255 245 232
255 245 232
255 245 232
255 245 232
255 245 232
255 245 232
255 245 232
255 245 232
255 245 232
255 255 244
255 245 232
255 245 232
255 245 232
255 245 232
255 245 232
255 245 232
255 245 232
255 245 232
255 245 232
255 245 232
255 245 232
255 245 232
255 245 232
255 245 232
255 245 232
255 245 232
255 245 232
255 245 232
255 245 232
255 245 232
255 245 232
255 245 232
255 245 232
255 245 232
255 245 232
255 245 232
255 245 232
255 245 232
255 245 232
255 245 232
255 245 232
255 245 232
255 245 232
255 245 232
255 245 232
255 245 232
255 255 244
255 245 232
255 245 232
255 245 232
255 245 232
255 245 232
255 245 232
255 245 232
255 245 232
255 245 232
255 245 232
255 245 232
255 245 232
255 245 232
255 245 232
255 245 232
255 245 232
255 245 232
255 245 232
255 245 232
255 245 232
255 245 232
255 245 232
255 245 232
255 245 232
255 245 232
255 245 232
255 245 232
255 245 232
255 245 232
255 245 232
255 245 232
255 245 232
255 245 232
255 245 232
255 245 232
255 245 232
255 245 232
255 245 232
255 245 232
255 245 232
255 245 232
255 245 232
255 245 232
255 245 232
255 245 232
255 245 232
255 245 232
255 245 232
255 245 232
255 245 232
255 245 232
255 245 232
255 245 232
255 245 232
255 245 232
255 245 232
255 245 232
255 245 232
255 245 232
255 255 244
255 245 232
255 245 232
255 245 232
255 245 232
255 245 232
255 245 232
255 245 232
255 245 232
255 245 232
255 245 232
255 245 232
255 245 232
255 245 232
255 245 232
255 245 232
255 245 232
255 245 232
255 245 232
255 245 232
255 245 232
255 245 232
255 245 232
255 245 232
255 245 232
255 245 232
255 245 232
255 245 232
255 245 232
255 245 232
255 245 232
255 245 232
255 245 232
255 245 232
255 245 232
255 245 232
255 245 232
255 255 244
255 245 232
255 245 232
255 245 232
255 245 232
255 245 232
255 245 232
255 245 232
255 245 232
255 245 232
255 245 232
255 245 232
255 245 232
255 245 232
255 245 232
255 245 232
255 245 232
255 245 232
255 245 232
255 245 232
255 245 232
255 245 232
255 245 232
255 245 232
255 245 232
255 245 232
255 245 232
255 245 232
255 245 232
255 245 232
255 245 232
255 245 232
255 245 232
255 245 232
255 245 232
255 245 232
255 245 232
255 255 244
255 245 232
255 245 232
255 245 232
255 245 232
255 245 232
255 245 232
255 245 232
255 245 232
255 245 232
255 245 232
255 245 232
255 245 232
255 245 232
255 245 232
255 245 232
255 245 232
255 245 232
255 245 232
255 245 232
255 245 232
255 245 232
255 245 232
255 245 232
255 245 232
255 245 232
255 245 232
255 245 232
255 245 232
255 245 232
255 245 232
255 245 232
255 245 232
255 245 232
255 245 232
255 245 232
255 245 232
255 255 244
255 245 232
255 245 232
255 245 232
255 245 232
255 245 232
255 245 232
255 245 232
255 245 232
255 245 232
255 245 232
255 245 232
255 245 232
255 245 232
255 245 232
255 245 232
255 245 232
255 245 232
255 245 232
255 245 232
255 245 232
255 245 232
255 245 232
255 245 232
255 245 232
255 245 232
255 245 232
255 245 232
255 245 232
255 245 232
255 245 232
255 245 232
255 245 232
255 245 232
255 245 232
255 245 232
255 245 232
255 255 244
255 245 232
255 245 232
255 245 232
255 245 232
255 245 232
255 245 232
255 245 232
255 245 232
255 245 232
255 245 232
255 245 232
255 245 232
255 245 232
255 245 232
255 245 232
255 245 232
255 245 232
255 245 232
255 245 232
255 245 232
255 245 232
255 245 232
255 245 232
255 245 232
255 245 232
255 245 232
255 245 232
255 245 232
255 245 232
255 245 232
255 245 232
255 245 232
255 245 232
255 245 232
255 245 232
255 245 232
255 255 244
255 245 232
255 245 232
255 245 232
255 245 232
255 245 232
255 245 232
255 245 232
255 245 232
255 245 232
255 245 232
255 245 232
255 245 232
255 245 232
255 245 232
255 245 232
255 245 232
255 245 232
255 245 232
255 245 232
255 245 232
255 245 232
255 245 232
255 245 232
255 245 232
255 245 232
255 245 232
255 245 232
255 245 232
255 245 232
255 245 232
255 245 232
255 245 232
255 245 232
255 245 232
255 245 232
255 245 232
255 255 244
255 245 232
255 245 232
255 245 232
255 245 232
255 245 232
255 245 232
255 245 232
255 245 232
255 245 232
255 245 232
255 245 232
255 245 232
255 245 232
255 245 232
255 245 232
255 245 232
255 245 232
255 245 232
255 245 232
255 245 232
255 245 232
255 245 232
255 245 232
255 245 232
255 245 232
255 245 232
255 245 232
255 245 232
255 245 232
255 245 232
255 245 232
255 245 232
255 245 232
255 245 232
255 245 232
255 245 232
255 255 244
255 245 232
255 245 232
255 245 232
255 245 232
255 245 232
255 245 232
255 245 232
255 245 232
255 245 232
255 245 232
255 245 232
255 245 232
255 245 232
255 245 232
255 245 232
255 245 232
255 245 232
255 245 232
255 245 232
255 245 232
255 245 232
255 245 232
255 245 232
255 245 232
255 245 232
255 245 232
255 245 232
255 245 232
255 245 232
255 245 232
255 245 232
255 245 232
255 245 232
255 245 232
255 245 232
255 245 232
255 245 232
255 245 232
255 245 232
255 245 232
255 245 232
255 245 232
255 245 232
255 245 232
255 245 232
255 245 232
255 245 232
255 245 232
255 245 232
255 245 232
255 245 232
255 245 232
255 245 232
255 245 232
255 245 232
255 245 232
255 245 232
255 245 232
255 245 232
255 255 244
255 245 232
255 245 232
255 245 232
255 245 232
255 245 232
255 245 232
255 245 232
255 245 232
255 245 232
255 245 232
255 245 232
255 245 232
255 245 232
255 245 232
255 245 232
255 245 232
255 245 232
255 245 232
255 245 232
255 245 232
255 245 232
255 245 232
255 245 232
255 245 232
255 245 232
255 245 232
255 245 232
255 245 232
255 245 232
255 245 232
255 245 232
255 245 232
255 245 232
255 245 232
255 245 232
255 245 232
255 255 244
255 245 232
255 245 232
255 245 232
255 245 232
255 245 232
255 245 232
255 245 232
255 245 232
255 245 232
255 245 232
255 245 232
255 245 232
255 245 232
255 245 232
255 245 232
255 245 232
255 245 232
255 245 232
255 245 232
255 245 232
255 245 232
255 245 232
255 245 232
255 245 232
255 245 232
255 245 232
255 245 232
255 245 232
255 245 232
255 245 232
255 245 232
255 245 232
255 245 232
255 245 232
255 245 232
255 245 232
255 255 244
255 245 232
255 245 232
255 245 232
255 245 232
255 245 232
255 245 232
255 245 232
255 245 232
255 245 232
255 245 232
255 245 232
255 245 232
255 245 232
255 245 232
255 245 232
255 245 232
255 245 232
255 245 232
255 245 232
255 245 232
255 245 232
255 245 232
255 245 232
255 245 232
255 245 232
255 245 232
255 245 232
255 245 232
255 245 232
255 245 232
255 245 232
255 245 232
255 245 232
255 245 232
255 245 232
255 245 232
255 255 244
255 245 232
255 245 232
255 245 232
255 245 232
255 245 232
255 245 232
255 245 232
255 245 232
255 245 232
255 245 232
255 245 232
255 245 232
255 245 232
255 245 232
255 245 232
255 245 232
255 245 232
255 245 232
255 245 232
255 245 232
255 245 232
255 245 232
255 245 232
255 245 232
255 245 232
255 245 232
255 245 232
255 245 232
255 245 232
255 245 232
255 245 232
255 245 232
255 245 232
255 245 232
255 245 232
255 245 232
255 255 244
255 245 232
255 245 232
255 245 232
255 245 232
255 245 232
255 245 232
255 245 232
255 245 232
255 245 232
255 245 232
255 245 232
255 245 232
255 245 232
255 245 232
255 245 232
255 245 232
255 245 232
255 245 232
255 245 232
255 245 232
255 245 232
255 245 232
255 245 232
255 245 232
255 245 232
255 245 232
255 245 232
255 245 232
255 245 232
255 245 232
255 245 232
255 245 232
255 245 232
255 245 232
255 245 232
255 245 232
255 255 244
255 245 232
255 245 232
255 245 232
255 245 232
255 245 232
255 245 232
255 245 232
255 245 232
255 245 232
255 245 232
255 245 232
255 245 232
255 245 232
255 245 232
255 245 232
255 245 232
255 245 232
255 245 232
255 245 232
255 245 232
255 245 232
255 245 232
255 245 232
255 245 232
255 245 232
255 245 232
255 245 232
255 245 232
255 245 232
255 245 232
255 245 232
255 245 232
255 245 232
255 245 232
255 245 232
255 245 232
255 255 244
255 245 232
255 245 232
255 245 232
255 245 232
255 245 232
255 245 232
255 245 232
255 245 232
255 245 232
255 245 232
255 245 232
255 245 232
255 245 232
255 245 232
255 245 232
255 245 232
255 245 232
255 245 232
255 245 232
255 245 232
255 245 232
255 245 232
255 245 232
255 245 232
255 245 232
255 245 232
255 245 232
255 245 232
255 245 232
255 245 232
255 245 232
255 245 232
255 245 232
255 245 232
255 245 232
255 245 232
255 255 244
255 245 232
255 245 232
255 245 232
255 245 232
255 245 232
255 245 232
255 245 232
255 245 232
255 245 232
255 245 232
255 245 232
255 245 232
255 245 232
255 245 232
255 245 232
255 245 232
255 245 232
255 245 232
255 245 232
255 245 232
255 245 232
255 245 232
255 245 232
255 245 232
255 245 232
255 245 232
255 245 232
255 245 232
255 245 232
255 245 232
255 245 232
255 245 232
255 245 232
255 245 232
255 245 232
255 245 232
255 245 232
255 245 232
255 245 232
255 245 232
255 245 232
255 245 232
255 245 232
255 245 232
255 245 232
255 245 232
255 245 232
255 245 232
255 245 232
255 245 232
255 245 232
255 245 232
255 245 232
255 245 232
255 245 232
255 245 232
255 245 232
255 245 232
255 245 232
255 255 244
255 245 232
255 245 232
255 245 232
255 245 232
255 245 232
255 245 232
255 245 232
255 245 232
255 245 232
255 245 232
255 245 232
255 245 232
255 245 232
255 245 232
255 245 232
255 245 232
255 245 232
255 245 232
255 245 232
255 245 232
255 245 232
255 245 232
255 245 232
255 245 232
255 245 232
255 245 232
255 245 232
255 245 232
255 245 232
255 245 232
255 245 232
255 245 232
255 245 232
255 245 232
255 245 232
255 245 232
255 255 244
255 245 232
255 245 232
255 245 232
255 245 232
255 245 232
255 245 232
255 245 232
255 245 232
255 245 232
255 245 232
255 245 232
255 245 232
255 245 232
255 245 232
255 245 232
255 245 232
255 245 232
255 245 232
255 245 232
255 245 232
255 245 232
255 245 232
255 245 232
255 245 232
255 245 232
255 245 232
255 245 232
255 245 232
255 245 232
255 245 232
255 245 232
255 245 232
255 245 232
255 245 232
255 245 232
255 245 232
255 255 244
255 245 232
255 245 232
255 245 232
255 245 232
255 245 232
255 245 232
255 245 232
255 245 232
255 245 232
255 245 232
255 245 232
255 245 232
255 245 232
255 245 232
255 245 232
255 245 232
255 245 232
255 245 232
255 245 232
255 245 232
255 245 232
255 245 232
255 245 232
255 245 232
255 245 232
255 245 232
255 245 232
255 245 232
255 245 232
255 245 232
255 245 232
255 245 232
255 245 232
255 245 232
255 245 232
255 245 232
255 255 244
255 245 232
255 245 232
255 245 232
255 245 232
255 245 232
255 245 232
255 245 232
255 245 232
255 245 232
255 245 232
255 245 232
255 245 232
255 245 232
255 245 232
255 245 232
255 245 232
255 245 232
255 245 232
255 245 232
255 245 232
255 245 232
255 245 232
255 245 232
255 245 232
255 245 232
255 245 232
255 245 232
255 245 232
255 245 232
255 245 232
255 245 232
255 245 232
255 245 232
255 245 232
255 245 232
255 245 232
255 255 244
255 245 232
255 245 232
255 245 232
255 245 232
255 245 232
255 245 232
255 245 232
255 245 232
255 245 232
255 245 232
255 245 232
255 245 232
255 245 232
255 245 232
255 245 232
255 245 232
255 245 232
255 245 232
255 245 232
255 245 232
255 245 232
255 245 232
255 245 232
255 245 232
255 245 232
255 245 232
255 245 232
255 245 232
255 245 232
255 245 232
255 245 232
255 245 232
255 245 232
255 245 232
255 245 232
255 245 232
255 255 244
255 245 232
255 245 232
255 245 232
255 245 232
255 245 232
255 245 232
255 245 232
255 245 232
255 245 232
255 245 232
255 245 232
255 245 232
255 245 232
255 245 232
255 245 232
255 245 232
255 245 232
255 245 232
255 245 232
255 245 232
255 245 232
255 245 232
255 245 232
255 245 232
255 245 232
255 245 232
255 245 232
255 245 232
255 245 232
255 245 232
255 245 232
255 245 232
255 245 232
255 245 232
255 245 232
255 245 232
255 255 244
255 245 232
255 245 232
255 245 232
255 245 232
255 245 232
255 245 232
255 245 232
255 245 232
255 245 232
255 245 232
255 245 232
255 245 232
255 245 232
255 245 232
255 245 232
255 245 232
255 245 232
255 245 232
255 245 232
255 245 232
255 245 232
255 245 232
255 245 232
255 245 232
255 245 232
255 245 232
255 245 232
255 245 232
255 245 232
255 245 232
255 245 232
255 245 232
255 245 232
255 245 232
255 245 232
255 245 232
255 255 244
255 245 232
255 245 232
255 245 232
255 245 232
255 245 232
255 245 232
255 245 232
255 245 232
255 245 232
255 245 232
255 245 232
255 245 232
255 245 232
255 245 232
255 245 232
255 245 232
255 245 232
255 245 232
255 245 232
255 245 232
255 245 232
255 245 232
255 245 232
255 245 232
255 245 232
255 245 232
255 245 232
255 245 232
255 245 232
255 245 232
255 245 232
255 245 232
255 245 232
255 245 232
255 245 232
255 245 232
255 245 232
255 245 232
255 245 232
255 245 232
255 245 232
255 245 232
255 245 232
255 245 232
255 245 232
255 245 232
255 245 232
255 245 232
255 245 232
255 245 232
255 245 232
255 245 232
255 245 232
255 245 232
255 245 232
255 245 232
255 245 232
255 245 232
255 245 232
255 255 244
255 245 232
255 245 232
255 245 232
255 245 232
255 245 232
255 245 232
255 245 232
255 245 232
255 245 232
255 245 232
255 245 232
255 245 232
255 245 232
255 245 232
255 245 232
255 245 232
255 245 232
255 245 232
255 245 232
255 245 232
255 245 232
255 245 232
255 245 232
255 245 232
255 245 232
255 245 232
255 245 232
255 245 232
255 245 232
255 245 232
255 245 232
255 245 232
255 245 232
255 245 232
255 245 232
255 245 232
255 255 244
255 245 232
255 245 232
255 245 232
255 245 232
255 245 232
255 245 232
255 245 232
255 245 232
255 245 232
255 245 232
255 245 232
255 245 232
255 245 232
255 245 232
255 245 232
255 245 232
255 245 232
255 245 232
255 245 232
255 245 232
255 245 232
255 245 232
255 245 232
255 245 232
255 245 232
255 245 232
255 245 232
255 245 232
255 245 232
255 245 232
255 245 232
255 245 232
255 245 232
255 245 232
255 245 232
255 245 232
255 255 244
255 245 232
255 245 232
255 245 232
255 245 232
255 245 232
255 245 232
255 245 232
255 245 232
255 245 232
255 245 232
255 245 232
255 245 232
255 245 232
255 245 232
255 245 232
255 245 232
255 245 232
255 245 232
255 245 232
255 245 232
255 245 232
255 245 232
255 245 232
255 245 232
255 245 232
255 245 232
255 245 232
255 245 232
255 245 232
255 245 232
255 245 232
255 245 232
255 245 232
255 245 232
255 245 232
255 245 232
255 255 244
255 245 232
255 245 232
255 245 232
255 245 232
255 245 232
255 245 232
255 245 232
255 245 232
255 245 232
255 245 232
255 245 232
255 245 232
255 245 232
255 245 232
255 245 232
255 245 232
255 245 232
255 245 232
255 245 232
255 245 232
255 245 232
255 245 232
255 245 232
255 245 232
255 245 232
255 245 232
255 245 232
255 245 232
255 245 232
255 245 232
255 245 232
255 245 232
255 245 232
255 245 232
255 245 232
255 245 232
255 255 244
255 245 232
255 245 232
255 245 232
255 245 232
255 245 232
255 245 232
255 245 232
255 245 232
255 245 232
255 245 232
255 245 232
255 245 232
255 245 232
255 245 232
255 245 232
255 245 232
255 245 232
255 245 232
255 245 232
255 245 232
255 245 232
255 245 232
255 245 232
255 245 232
255 245 232
255 245 232
255 245 232
255 245 232
255 245 232
255 245 232
255 245 232
255 245 232
255 245 232
255 245 232
255 245 232
255 245 232
255 255 244
255 245 232
255 245 232
255 245 232
255 245 232
255 245 232
255 245 232
255 245 232
255 245 232
255 245 232
255 245 232
255 245 232
255 245 232
255 245 232
255 245 232
255 245 232
255 245 232
255 245 232
255 245 232
255 245 232
255 245 232
255 245 232
255 245 232
255 245 232
255 245 232
255 245 232
255 245 232
255 245 232
255 245 232
255 245 232
255 245 232
255 245 232
255 245 232
255 245 232
255 245 232
255 245 232
255 245 232
255 255 244
255 245 232
255 245 232
255 245 232
255 245 232
255 245 232
255 245 232
255 245 232
255 245 232
255 245 232
255 245 232
255 245 232
255 245 232
255 245 232
255 245 232
255 245 232
255 245 232
255 245 232
255 245 232
255 245 232
255 245 232
255 245 232
255 245 232
255 245 232
255 245 232
255 245 232
255 245 232
255 245 232
255 245 232
255 245 232
255 245 232
255 245 232
255 245 232
255 245 232
255 245 232
255 245 232
255 245 232
255 255 244
255 245 232
255 245 232
255 245 232
255 245 232
255 245 232
255 245 232
255 245 232
255 245 232
255 245 232
255 245 232
255 245 232
255 245 232
255 245 232
255 245 232
255 245 232
255 245 232
255 245 232
255 245 232
255 245 232
255 245 232
255 245 232
255 245 232
255 245 232
255 245 232
255 245 232
255 245 232
255 245 232
255 245 232
255 245 232
255 245 232
255 245 232
255 245 232
255 245 232
255 245 232
255 245 232
255 245 232
255 245 232
255 245 232
255 245 232
255 245 232
255 245 232
255 245 232
255 245 232
255 245 232
255 245 232
255 245 232
255 245 232
255 245 232
255 245 232
255 245 232
255 245 232
255 245 232
255 245 232
255 245 232
255 245 232
255 245 232
255 245 232
255 245 232
255 245 232
255 255 244
255 245 232
255 245 232
255 245 232
255 245 232
255 245 232
255 245 232
255 245 232
255 245 232
255 245 232
255 245 232
255 245 232
255 245 232
255 245 232
255 245 232
255 245 232
255 245 232
255 245 232
255 245 232
255 245 232
255 245 232
255 245 232
255 245 232
255 245 232
255 245 232
255 245 232
255 245 232
255 245 232
255 245 232
255 245 232
255 245 232
255 245 232
255 245 232
255 245 232
255 245 232
255 245 232
255 245 232
255 255 244
255 245 232
255 245 232
255 245 232
255 245 232
255 245 232
255 245 232
255 245 232
255 245 232
255 245 232
255 245 232
255 245 232
255 245 232
255 245 232
255 245 232
255 245 232
255 245 232
255 245 232
255 245 232
255 245 232
255 245 232
255 245 232
255 245 232
255 245 232
255 245 232
255 245 232
255 245 232
255 245 232
255 245 232
255 245 232
255 245 232
255 245 232
255 245 232
255 245 232
255 245 232
255 245 232
255 245 232
255 255 244
255 245 232
255 245 232
255 245 232
255 245 232
255 245 232
255 245 232
255 245 232
255 245 232
255 245 232
255 245 232
255 245 232
255 245 232
255 245 232
255 245 232
255 245 232
255 245 232
255 245 232
255 245 232
255 245 232
255 245 232
255 245 232
255 245 232
255 245 232
255 245 232
255 245 232
255 245 232
255 245 232
255 245 232
255 245 232
255 245 232
255 245 232
255 245 232
255 245 232
255 245 232
255 245 232
255 245 232
255 255 244
255 245 232
255 245 232
255 245 232
255 245 232
255 245 232
255 245 232
255 245 232
255 245 232
255 245 232
255 245 232
255 245 232
255 245 232
255 245 232
255 245 232
255 245 232
255 245 232
255 245 232
255 245 232
255 245 232
255 245 232
255 245 232
255 245 232
255 245 232
255 245 232
255 245 232
255 245 232
255 245 232
255 245 232
255 245 232
255 245 232
255 245 232
255 245 232
255 245 232
255 245 232
255 245 232
255 245 232
255 255 244
255 245 232
255 245 232
255 245 232
255 245 232
255 245 232
255 245 232
255 245 232
255 245 232
255 245 232
255 245 232
255 245 232
255 245 232
255 245 232
255 245 232
255 245 232
255 245 232
255 245 232
255 245 232
255 245 232
255 245 232
255 245 232
255 245 232
255 245 232
255 245 232
255 245 232
255 245 232
255 245 232
255 245 232
255 245 232
255 245 232
255 245 232
255 245 232
255 245 232
255 245 232
255 245 232
255 245 232
255 255 244
255 245 232
255 245 232
255 245 232
255 245 232
255 245 232
255 245 232
255 245 232
255 245 232
255 245 232
255 245 232
255 245 232
255 245 232
255 245 232
255 245 232
255 245 232
255 245 232
255 245 232
255 245 232
255 245 232
255 245 232
255 245 232
255 245 232
255 245 232
255 245 232
255 245 232
255 245 232
255 245 232
255 245 232
255 245 232
255 245 232
255 245 232
255 245 232
255 245 232
255 245 232
255 245 232
255 245 232
255 255 244
255 245 232
255 245 232
255 245 232
255 245 232
255 245 232
255 245 232
255 245 232
255 245 232
255 245 232
255 245 232
255 245 232
255 245 232
255 245 232
255 245 232
255 245 232
255 245 232
255 245 232
255 245 232
255 245 232
255 245 232
255 245 232
255 245 232
255 245 232
255 245 232
255 245 232
255 245 232
255 245 232
255 245 232
255 245 232
255 245 232
255 245 232
255 245 232
255 245 232
255 245 232
255 245 232
255 245 232
255 255 244
255 245 232
255 245 232
255 245 232
255 245 232
255 245 232
255 245 232
255 245 232
255 245 232
255 245 232
255 245 232
255 245 232
255 245 232
255 245 232
255 245 232
255 245 232
255 245 232
255 245 232
255 245 232
255 245 232
255 245 232
255 245 232
255 245 232
255 245 232
255 245 232
255 245 232
255 245 232
255 245 232
255 245 232
255 245 232
255 245 232
255 245 232
255 245 232
255 245 232
255 245 232
255 245 232
255 245 232
255 245 232
255 245 232
255 245 232
255 245 232
255 245 232
255 245 232
255 245 232
255 245 232
255 245 232
255 245 232
255 245 232
255 245 232
255 245 232
255 245 232
255 245 232
255 245 232
255 245 232
255 245 232
255 245 232
255 245 232
255 245 232
255 245 232
255 245 232
255 255 244
255 245 232
255 245 232
255 245 232
255 245 232
255 245 232
255 245 232
255 245 232
255 245 232
255 245 232
255 245 232
255 245 232
255 245 232
255 245 232
255 245 232
255 245 232
255 245 232
255 245 232
255 245 232
255 245 232
255 245 232
255 245 232
255 245 232
255 245 232
255 245 232
255 245 232
255 245 232
255 245 232
255 245 232
255 245 232
255 245 232
255 245 232
255 245 232
255 245 232
255 245 232
255 245 232
255 245 232
255 255 244
255 245 232
255 245 232
255 245 232
255 245 232
255 245 232
255 245 232
255 245 232
255 245 232
255 245 232
255 245 232
255 245 232
255 245 232
255 245 232
255 245 232
255 245 232
255 245 232
255 245 232
255 245 232
255 245 232
255 245 232
255 245 232
255 245 232
255 245 232
255 245 232
255 245 232
255 245 232
255 245 232
255 245 232
255 245 232
255 245 232
255 245 232
255 245 232
255 245 232
255 245 232
255 245 232
255 245 232
255 255 244
255 245 232
255 245 232
255 245 232
255 245 232
255 245 232
255 245 232
255 245 232
255 245 232
255 245 232
255 245 232
255 245 232
255 245 232
255 245 232
255 245 232
255 245 232
255 245 232
255 245 232
255 245 232
255 245 232
255 245 232
255 245 232
255 245 232
255 245 232
255 245 232
255 245 232
255 245 232
255 245 232
255 245 232
255 245 232
255 245 232
255 245 232
255 245 232
255 245 232
255 245 232
255 245 232
255 245 232
255 255 244
255 245 232
255 245 232
255 245 232
255 245 232
255 245 232
255 245 232
255 245 232
255 245 232
255 245 232
255 245 232
255 245 232
255 245 232
255 245 232
255 245 232
255 245 232
255 245 232
255 245 232
255 245 232
255 245 232
255 245 232
255 245 232
255 245 232
255 245 232
255 245 232
255 245 232
255 245 232
255 245 232
255 245 232
255 245 232
255 245 232
255 245 232
255 245 232
255 245 232
255 245 232
255 245 232
255 245 232
255 255 244
255 245 232
255 245 232
255 245 232
255 245 232
255 245 232
255 245 232
255 245 232
255 245 232
255 245 232
255 245 232
255 245 232
255 245 232
255 245 232
255 245 232
255 245 232
255 245 232
255 245 232
255 245 232
255 245 232
255 245 232
255 245 232
255 245 232
255 245 232
255 245 232
255 245 232
255 245 232
255 245 232
255 245 232
255 245 232
255 245 232
255 245 232
255 245 232
255 245 232
255 245 232
255 245 232
255 245 232
255 255 244
255 245 232
255 245 232
255 245 232
255 245 232
255 245 232
255 245 232
255 245 232
255 245 232
255 245 232
255 245 232
255 245 232
255 245 232
255 245 232
255 245 232
255 245 232
255 245 232
255 245 232
255 245 232
255 245 232
255 245 232
255 245 232
255 245 232
255 245 232
255 245 232
255 245 232
255 245 232
255 245 232
255 245 232
255 245 232
255 245 232
255 245 232
255 245 232
255 245 232
255 245 232
255 245 232
255 245 232
255 255 244
255 245 232
255 245 232
255 245 232
255 245 232
255 245 232
255 245 232
255 245 232
255 245 232
255 245 232
255 245 232
255 245 232
255 245 232
255 245 232
255 245 232
255 245 232
255 245 232
255 245 232
255 245 232
255 245 232
255 245 232
255 245 232
255 245 232
255 245 232
255 245 232
255 245 232
255 245 232
255 245 232
255 245 232
255 245 232
255 245 232
255 245 232
255 245 232
255 245 232
255 245 232
255 245 232
255 245 232
255 255 244
255 245 232
255 245 232
255 245 232
255 245 232
255 245 232
255 245 232
255 245 232
255 245 232
255 245 232
255 245 232
255 245 232
255 245 232
255 245 232
255 245 232
255 245 232
255 245 232
255 245 232
255 245 232
255 245 232
255 245 232
255 245 232
255 245 232
255 245 232
255 245 232
255 245 232
255 245 232
255 245 232
255 245 232
255 245 232
255 245 232
255 245 232
255 245 232
255 245 232
255 245 232
255 245 232
255 245 232
255 245 232
255 245 232
255 245 232
255 245 232
255 245 232
255 245 232
255 245 232
255 245 232
255 245 232
255 245 232
255 245 232
255 245 232
255 245 232
255 245 232
255 245 232
255 245 232
255 245 232
255 245 232
255 245 232
255 245 232
255 245 232
255 245 232
255 245 232
255 255 244
255 245 232
255 245 232
255 245 232
255 245 232
255 245 232
255 245 232
255 245 232
255 245 232
255 245 232
255 245 232
255 245 232
255 245 232
255 245 232
255 245 232
255 245 232
255 245 232
255 245 232
255 245 232
255 245 232
255 245 232
255 245 232
255 245 232
255 245 232
255 245 232
255 245 232
255 245 232
255 245 232
255 245 232
255 245 232
255 245 232
255 245 232
255 245 232
255 245 232
255 245 232
255 245 232
255 245 232
255 255 244
255 245 232
255 245 232
255 245 232
255 245 232
255 245 232
255 245 232
255 245 232
255 245 232
255 245 232
255 245 232
255 245 232
255 245 232
255 245 232
255 245 232
255 245 232
255 245 232
255 245 232
255 245 232
255 245 232
255 245 232
255 245 232
255 245 232
255 245 232
255 245 232
255 245 232
255 245 232
255 245 232
255 245 232
255 245 232
255 245 232
255 245 232
255 245 232
255 245 232
255 245 232
255 245 232
255 245 232
255 255 244
255 245 232
255 245 232
255 245 232
255 245 232
255 245 232
255 245 232
255 245 232
255 245 232
255 245 232
255 245 232
255 245 232
255 245 232
255 245 232
255 245 232
255 245 232
255 245 232
255 245 232
255 245 232
255 245 232
255 245 232
255 245 232
255 245 232
255 245 232
255 245 232
255 245 232
255 245 232
255 245 232
255 245 232
255 245 232
255 245 232
255 245 232
255 245 232
255 245 232
255 245 232
255 245 232
255 245 232
255 255 244
255 245 232
255 245 232
255 245 232
255 245 232
255 245 232
255 245 232
255 245 232
255 245 232
255 245 232
255 245 232
255 245 232
255 245 232
255 245 232
255 245 232
255 245 232
255 245 232
255 245 232
255 245 232
255 245 232
255 245 232
255 245 232
255 245 232
255 245 232
255 245 232
255 245 232
255 245 232
255 245 232
255 245 232
255 245 232
255 245 232
255 245 232
255 245 232
255 245 232
255 245 232
255 245 232
255 245 232
255 255 244
255 245 232
255 245 232
255 245 232
255 245 232
255 245 232
255 245 232
255 245 232
255 245 232
255 245 232
255 245 232
255 245 232
255 245 232
255 245 232
255 245 232
255 245 232
255 245 232
255 245 232
255 245 232
255 245 232
255 245 232
255 245 232
255 245 232
255 245 232
255 245 232
255 245 232
255 245 232
255 245 232
255 245 232
255 245 232
255 245 232
255 245 232
255 245 232
255 245 232
255 245 232
255 245 232
255 245 232
255 255 244
255 245 232
255 245 232
255 245 232
255 245 232
255 245 232
255 245 232
255 245 232
255 245 232
255 245 232
255 245 232
255 245 232
255 245 232
255 245 232
255 245 232
255 245 232
255 245 232
255 245 232
255 245 232
255 245 232
255 245 232
255 245 232
255 245 232
255 245 232
255 245 232
255 245 232
255 245 232
255 245 232
255 245 232
255 245 232
255 245 232
255 245 232
255 245 232
255 245 232
255 245 232
255 245 232
255 245 232
255 255 244
255 245 232
255 245 232
255 245 232
255 245 232
255 245 232
255 245 232
255 245 232
255 245 232
255 245 232
255 245 232
255 245 232
255 245 232
255 245 232
255 245 232
255 245 232
255 245 232
255 245 232
255 245 232
255 245 232
255 245 232
255 245 232
255 245 232
255 245 232
255 245 232
255 245 232
255 245 232
255 245 232
255 245 232
255 245 232
255 245 232
255 245 232
255 245 232
255 245 232
255 245 232
255 245 232
255 245 232
255 255 244
255 245 232
255 245 232
255 245 232
255 245 232
255 245 232
255 245 232
255 245 232
255 245 232
255 245 232
255 245 232
255 245 232
255 245 232
255 245 232
255 245 232
255 245 232
255 245 232
255 245 232
255 245 232
255 245 232
255 245 232
255 245 232
255 245 232
255 245 232
255 245 232
255 245 232
255 245 232
255 245 232
255 245 232
255 245 232
255 245 232
255 245 232
255 245 232
255 245 232
255 245 232
255 245 232
255 245 232
255 255 244
255 245 232
255 245 232
255 245 232
255 245 232
255 245 232
255 245 232
255 245 232
255 245 232
255 245 232
255 245 232
255 245 232
255 245 232
255 245 232
255 245 232
255 245 232
255 245 232
255 245 232
255 245 232
255 245 232
255 245 232
255 245 232
255 245 232
255 255 244
255 245 232
255 245 232
255 245 232
255 245 232
255 245 232
255 245 232
255 245 232
255 245 232
255 245 232
255 245 232
255 245 232
255 245 232
255 245 232
255 245 232
255 245 232
255 245 232
255 245 232
255 245 232
255 245 232
255 245 232
255 245 232
255 245 232
255 245 232
255 245 232
255 245 232
255 245 232
255 245 232
255 245 232
255 245 232
255 245 232
255 245 232
255 245 232
255 245 232
255 245 232
255 245 232
255 245 232
255 255 244
255 245 232
255 245 232
255 245 232
255 245 232
255 245 232
255 245 232
255 245 232
255 245 232
255 245 232
255 245 232
255 245 232
255 245 232
255 245 232
255 245 232
255 245 232
255 245 232
255 245 232
255 245 232
255 245 232
255 245 232
255 245 232
255 245 232
255 245 232
255 245 232
255 245 232
255 245 232
255 245 232
255 245 232
255 245 232
255 245 232
255 245 232
255 245 232
255 245 232
255 245 232
255 245 232
255 245 232
255 255 244
255 245 232
255 245 232
255 245 232
255 245 232
255 245 232
255 245 232
255 245 232
255 245 232
255 245 232
255 245 232
255 245 232
255 245 232
255 245 232
255 245 232
255 245 232
255 245 232
255 245 232
255 245 232
255 245 232
255 245 232
255 245 232
255 245 232
255 245 232
255 245 232
255 245 232
255 245 232
255 245 232
255 245 232
255 245 232
255 245 232
255 245 232
255 245 232
255 245 232
255 245 232
255 245 232
255 245 232
255 255 244
255 245 232
255 245 232
255 245 232
255 245 232
255 245 232
255 245 232
255 245 232
255 245 232
255 245 232
255 245 232
255 245 232
255 245 232
255 245 232
255 245 232
255 245 232
255 245 232
255 245 232
255 245 232
255 245 232
255 245 232
255 245 232
255 245 232
255 245 232
255 245 232
255 245 232
255 245 232
255 245 232
255 245 232
255 245 232
255 245 232
255 245 232
255 245 232
255 245 232
255 245 232
255 245 232
255 245 232
255 255 244
255 245 232
255 245 232
255 245 232
255 245 232
255 245 232
255 245 232
255 245 232
255 245 232
255 245 232
255 245 232
255 245 232
255 245 232
255 245 232
255 245 232
255 245 232
255 245 232
255 245 232
255 245 232
255 245 232
255 245 232
255 245 232
255 245 232
255 245 232
255 245 232
255 245 232
255 245 232
255 245 232
255 245 232
255 245 232
255 245 232
255 245 232
255 245 232
255 245 232
255 245 232
255 245 232
255 245 232
255 255 244
255 245 232
255 245 232
255 245 232
255 245 232
255 245 232
255 245 232
255 245 232
255 245 232
255 245 232
255 245 232
255 245 232
255 245 232
255 245 232
255 245 232
255 245 232
255 245 232
255 245 232
255 245 232
255 245 232
255 245 232
255 245 232
255 245 232
255 245 232
255 245 232
255 245 232
255 245 232
255 245 232
255 245 232
255 245 232
255 245 232
255 245 232
255 245 232
255 245 232
255 245 232
255 245 232
255 245 232
255 255 244
255 245 232
255 245 232
255 245 232
255 245 232
255 245 232
255 245 232
255 245 232
255 245 232
255 245 232
255 245 232
255 245 232
255 245 232
255 245 232
255 245 232
255 245 232
255 245 232
255 245 232
255 245 232
255 245 232
255 245 232
255 245 232
255 245 232
255 245 232
255 245 232
255 245 232
255 245 232
255 245 232
255 245 232
255 245 232
255 245 232
255 245 232
255 245 232
255 245 232
255 245 232
255 245 232
255 245 232
255 255 244
255 245 232
255 245 232
255 245 232
255 245 232
255 245 232
255 245 232
255 245 232
255 245 232
255 245 232
255 245 232
255 245 232
255 245 232
255 245 232
255 245 232
255 245 232
255 245 232
255 245 232
255 245 232
255 245 232
255 245 232
255 245 232
255 245 232
255 245 232
255 245 232
255 245 232
255 245 232
255 245 232
255 245 232
255 245 232
255 245 232
255 245 232
255 245 232
255 245 232
255 245 232
255 245 232
255 245 232
255 255 244
255 245 232
255 245 232
255 245 232
255 245 232
255 245 232
255 245 232
255 245 232
255 245 232
255 245 232
255 245 232
255 245 232
255 245 232
255 245 232
255 245 232
255 245 232
255 245 232
255 245 232
255 245 232
255 245 232
255 245 232
255 245 232
255 245 232
255 255 244
255 245 232
255 245 232
255 245 232
255 245 232
255 245 232
255 245 232
255 245 232
255 245 232
255 245 232
255 245 232
255 245 232
255 245 232
255 245 232
255 245 232
255 245 232
255 245 232
255 245 232
255 245 232
255 245 232
255 245 232
255 245 232
255 245 232
255 245 232
255 245 232
255 245 232
255 245 232
255 245 232
255 245 232
255 245 232
255 245 232
255 245 232
255 245 232
255 245 232
255 245 232
255 245 232
255 245 232
255 255 244
255 245 232
255 245 232
255 245 232
255 245 232
255 245 232
255 245 232
255 245 232
255 245 232
255 245 232
255 245 232
255 245 232
255 245 232
255 245 232
255 245 232
255 245 232
255 245 232
255 245 232
255 245 232
255 245 232
255 245 232
255 245 232
255 245 232
255 245 232
255 245 232
255 245 232
255 245 232
255 245 232
255 245 232
255 245 232
255 245 232
255 245 232
255 245 232
255 245 232
255 245 232
255 245 232
255 245 232
255 255 244
255 245 232
255 245 232
255 245 232
255 245 232
255 245 232
255 245 232
255 245 232
255 245 232
255 245 232
255 245 232
255 245 232
255 245 232
255 245 232
255 245 232
255 245 232
255 245 232
255 245 232
255 245 232
255 245 232
255 245 232
255 245 232
255 245 232
255 245 232
255 245 232
255 245 232
255 245 232
255 245 232
255 245 232
255 245 232
255 245 232
255 245 232
255 245 232
255 245 232
255 245 232
255 245 232
255 245 232
255 255 244
255 245 232
255 245 232
255 245 232
255 245 232
255 245 232
255 245 232
255 245 232
255 245 232
255 245 232
255 245 232
255 245 232
255 245 232
255 245 232
255 245 232
255 245 232
255 245 232
255 245 232
255 245 232
255 245 232
255 245 232
255 245 232
255 245 232
255 245 232
255 245 232
255 245 232
255 245 232
255 245 232
255 245 232
255 245 232
255 245 232
255 245 232
255 245 232
255 245 232
255 245 232
255 245 232
255 245 232
255 255 244
255 245 232
255 245 232
255 245 232
255 245 232
255 245 232
255 245 232
255 245 232
255 245 232
255 245 232
255 245 232
255 245 232
255 245 232
255 245 232
255 245 232
255 245 232
255 245 232
255 245 232
255 245 232
255 245 232
255 245 232
255 245 232
255 245 232
255 245 232
255 245 232
255 245 232
255 245 232
255 245 232
255 245 232
255 245 232
255 245 232
255 245 232
255 245 232
255 245 232
255 245 232
255 245 232
255 245 232
255 255 244
255 245 232
255 245 232
255 245 232
255 245 232
255 245 232
255 245 232
255 245 232
255 245 232
255 245 232
255 245 232
255 245 232
255 245 232
255 245 232
255 245 232
255 245 232
255 245 232
255 245 232
255 245 232
255 245 232
255 245 232
255 245 232
255 245 232
255 245 232
255 245 232
255 245 232
255 245 232
255 245 232
255 245 232
255 245 232
255 245 232
255 245 232
255 245 232
255 245 232
255 245 232
255 245 232
255 245 232
255 255 244
255 245 232
255 245 232
255 245 232
255 245 232
255 245 232
255 245 232
255 245 232
255 245 232
255 245 232
255 245 232
255 245 232
255 245 232
255 245 232
255 245 232
255 245 232
255 245 232
255 245 232
255 245 232
255 245 232
255 245 232
255 245 232
255 245 232
255 245 232
255 245 232
255 245 232
255 245 232
255 245 232
255 245 232
255 245 232
255 245 232
255 245 232
255 245 232
255 245 232
255 245 232
255 245 232
255 245 232
255 255 244
255 245 232
255 245 232
255 245 232
255 245 232
255 245 232
255 245 232
255 245 232
255 245 232
255 245 232
255 245 232
255 245 232
255 245 232
255 245 232
255 245 232
255 245 232
255 245 232
255 245 232
255 245 232
255 245 232
255 245 232
255 245 232
255 245 232
255 245 232
255 245 232
255 245 232
255 245 232
255 245 232
255 245 232
255 245 232
255 245 232
255 245 232
255 245 232
255 245 232
255 245 232
255 245 232
255 245 232
255 255 244
255 245 232
255 245 232
255 245 232
255 245 232
255 245 232
255 245 232
255 245 232
255 245 232
255 245 232
255 245 232
255 245 232
255 245 232
255 245 232
255 245 232
255 245 232
255 245 232
255 245 232
255 245 232
255 245 232
255 245 232
255 245 232
255 245 232
255 255 244
255 245 232
255 245 232
255 245 232
255 245 232
255 245 232
255 245 232
255 245 232
255 245 232
255 245 232
255 245 232
255 245 232
255 245 232
255 245 232
255 245 232
255 245 232
255 245 232
255 245 232
255 245 232
255 245 232
255 245 232
255 245 232
255 245 232
255 245 232
255 245 232
255 245 232
255 245 232
255 245 232
255 245 232
255 245 232
255 245 232
255 245 232
255 245 232
255 245 232
255 245 232
255 245 232
255 245 232
255 255 244
255 245 232
255 245 232
255 245 232
255 245 232
255 245 232
255 245 232
255 245 232
255 245 232
255 245 232
255 245 232
255 245 232
255 245 232
255 245 232
255 245 232
255 245 232
255 245 232
255 245 232
255 245 232
255 245 232
255 245 232
255 245 232
255 245 232
255 245 232
255 245 232
255 245 232
255 245 232
255 245 232
255 245 232
255 245 232
255 245 232
255 245 232
255 245 232
255 245 232
255 245 232
255 245 232
255 245 232
255 255 244
255 245 232
255 245 232
255 245 232
255 245 232
255 245 232
255 245 232
255 245 232
255 245 232
255 245 232
255 245 232
255 245 232
255 245 232
255 245 232
255 245 232
255 245 232
255 245 232
255 245 232
255 245 232
255 245 232
255 245 232
255 245 232
255 245 232
255 245 232
255 245 232
255 245 232
255 245 232
255 245 232
255 245 232
255 245 232
255 245 232
255 245 232
255 245 232
255 245 232
255 245 232
255 245 232
255 245 232
255 255 244
255 245 232
255 245 232
255 245 232
255 245 232
255 245 232
255 245 232
255 245 232
255 245 232
255 245 232
255 245 232
255 245 232
255 245 232
255 245 232
255 245 232
255 245 232
255 245 232
255 245 232
255 245 232
255 245 232
255 245 232
255 245 232
255 245 232
255 245 232
255 245 232
255 245 232
255 245 232
255 245 232
255 245 232
255 245 232
255 245 232
255 245 232
255 245 232
255 245 232
255 245 232
255 245 232
255 245 232
255 255 244
255 245 232
255 245 232
255 245 232
255 245 232
255 245 232
255 245 232
255 245 232
255 245 232
255 245 232
255 245 232
255 245 232
255 245 232
255 245 232
255 245 232
255 245 232
255 245 232
255 245 232
255 245 232
255 245 232
255 245 232
255 245 232
255 245 232
255 245 232
255 245 232
255 245 232
255 245 232
255 245 232
255 245 232
255 245 232
255 245 232
255 245 232
255 245 232
255 245 232
255 245 232
255 245 232
255 245 232
255 255 244
255 245 232
255 245 232
255 245 232
255 245 232
255 245 232
255 245 232
255 245 232
255 245 232
255 245 232
255 245 232
255 245 232
255 245 232
255 245 232
255 245 232
255 245 232
255 245 232
255 245 232
255 245 232
255 245 232
255 245 232
255 245 232
255 245 232
255 245 232
255 245 232
255 245 232
255 245 232
255 245 232
255 245 232
255 245 232
255 245 232
255 245 232
255 245 232
255 245 232
255 245 232
255 245 232
255 245 232
255 255 244
255 245 232
255 245 232
255 245 232
255 245 232
255 245 232
255 245 232
255 245 232
255 245 232
255 245 232
255 245 232
255 245 232
255 245 232
255 245 232
255 245 232
255 245 232
255 245 232
255 245 232
255 245 232
255 245 232
255 245 232
255 245 232
255 245 232
255 245 232
255 245 232
255 245 232
255 245 232
255 245 232
255 245 232
255 245 232
255 245 232
255 245 232
255 245 232
255 245 232
255 245 232
255 245 232
255 245 232
255 255 244
255 245 232
255 245 232
255 245 232
255 245 232
255 245 232
255 245 232
255 245 232
255 245 232
255 245 232
255 245 232
255 245 232
255 245 232
255 245 232
255 245 232
255 245 232
255 245 232
255 245 232
255 245 232
255 245 232
255 245 232
255 245 232
255 245 232
255 245 232
255 245 232
255 245 232
255 245 232
255 245 232
255 245 232
255 245 232
255 245 232
255 245 232
255 245 232
255 245 232
255 245 232
255 245 232
255 245 232
255 255 244
255 245 232
255 245 232
255 245 232
255 245 232
255 245 232
255 245 232
255 245 232
255 245 232
255 245 232
255 245 232
255 245 232
255 245 232
255 245 232
255 245 232
255 245 232
255 245 232
255 245 232
255 245 232
255 245 232
255 245 232
255 245 232
255 245 232
255 255 244
255 245 232
255 245 232
255 245 232
255 245 232
255 245 232
255 245 232
255 245 232
255 245 232
255 245 232
255 245 232
255 245 232
255 245 232
255 245 232
255 245 232
255 245 232
255 245 232
255 245 232
255 245 232
255 245 232
255 245 232
255 245 232
255 245 232
255 245 232
255 245 232
255 245 232
255 245 232
255 245 232
255 245 232
255 245 232
255 245 232
255 245 232
255 245 232
255 245 232
255 245 232
255 245 232
255 245 232
255 255 244
255 245 232
255 245 232
255 245 232
255 245 232
255 245 232
255 245 232
255 245 232
255 245 232
255 245 232
255 245 232
255 245 232
255 245 232
255 245 232
255 245 232
255 245 232
255 245 232
255 245 232
255 245 232
255 245 232
255 245 232
255 245 232
255 245 232
255 245 232
255 245 232
255 245 232
255 245 232
255 245 232
255 245 232
255 245 232
255 245 232
255 245 232
255 245 232
255 245 232
255 245 232
255 245 232
255 245 232
255 255 244
255 245 232
255 245 232
255 245 232
255 245 232
255 245 232
255 245 232
255 245 232
255 245 232
255 245 232
255 245 232
255 245 232
255 245 232
255 245 232
255 245 232
255 245 232
255 245 232
255 245 232
255 245 232
255 245 232
255 245 232
255 245 232
255 245 232
255 245 232
255 245 232
255 245 232
255 245 232
255 245 232
255 245 232
255 245 232
255 245 232
255 245 232
255 245 232
255 245 232
255 245 232
255 245 232
255 245 232
255 255 244
255 245 232
255 245 232
255 245 232
255 245 232
255 245 232
255 245 232
255 245 232
255 245 232
255 245 232
255 245 232
255 245 232
255 245 232
255 245 232
255 245 232
255 245 232
255 245 232
255 245 232
255 245 232
255 245 232
255 245 232
255 245 232
255 245 232
255 245 232
255 245 232
255 245 232
255 245 232
255 245 232
255 245 232
255 245 232
255 245 232
255 245 232
255 245 232
255 245 232
255 245 232
255 245 232
255 245 232
255 255 244
255 245 232
255 245 232
255 245 232
255 245 232
255 245 232
255 245 232
255 245 232
255 245 232
255 245 232
255 245 232
255 245 232
255 245 232
255 245 232
255 245 232
255 245 232
255 245 232
255 245 232
255 245 232
255 245 232
255 245 232
255 245 232
255 245 232
255 245 232
255 245 232
255 245 232
255 245 232
255 245 232
255 245 232
255 245 232
255 245 232
255 245 232
255 245 232
255 245 232
255 245 232
255 245 232
255 245 232
255 255 244
255 245 232
255 245 232
255 245 232
255 245 232
255 245 232
255 245 232
255 245 232
255 245 232
255 245 232
255 245 232
255 245 232
255 245 232
255 245 232
255 245 232
255 245 232
255 245 232
255 245 232
255 245 232
255 245 232
255 245 232
255 245 232
255 245 232
255 245 232
255 245 232
255 245 232
255 245 232
255 245 232
255 245 232
255 245 232
255 245 232
255 245 232
255 245 232
255 245 232
255 245 232
255 245 232
255 245 232
255 255 244
255 245 232
255 245 232
255 245 232
255 245 232
255 245 232
255 245 232
255 245 232
255 245 232
255 245 232
255 245 232
255 245 232
255 245 232
255 245 232
255 245 232
255 245 232
255 245 232
255 245 232
255 245 232
255 245 232
255 245 232
255 245 232
255 245 232
255 245 232
255 245 232
255 245 232
255 245 232
255 245 232
255 245 232
255 245 232
255 245 232
255 245 232
255 245 232
255 245 232
255 245 232
255 245 232
255 245 232
255 255 244
255 245 232
255 245 232
255 245 232
255 245 232
255 245 232
255 245 232
255 245 232
255 245 232
255 245 232
255 245 232
255 245 232
255 245 232
255 245 232
255 245 232
255 245 232
255 245 232
255 245 232
255 245 232
255 245 232
255 245 232
255 245 232
255 245 232
255 245 232
255 245 232
255 245 232
255 245 232
255 245 232
255 245 232
255 245 232
255 245 232
255 245 232
255 245 232
255 245 232
255 245 232
255 245 232
255 245 232
255 255 244
255 245 232
255 245 232
255 245 232
255 245 232
255 245 232
255 245 232
255 245 232
255 245 232
255 245 232
255 245 232
255 245 232
255 245 232
255 245 232
255 245 232
255 245 232
255 245 232
255 245 232
255 245 232
255 245 232
255 245 232
255 245 232
255 245 232
255 255 244
255 245 232
255 245 232
255 245 232
255 245 232
255 245 232
255 245 232
255 245 232
255 245 232
255 245 232
255 245 232
255 245 232
255 245 232
255 245 232
255 245 232
255 245 232
255 245 232
255 245 232
255 245 232
255 245 232
255 245 232
255 245 232
255 245 232
255 245 232
255 245 232
255 245 232
255 245 232
255 245 232
255 245 232
255 245 232
255 245 232
255 245 232
255 245 232
255 245 232
255 245 232
255 245 232
255 245 232
255 255 244
255 245 232
255 245 232
255 245 232
255 245 232
255 245 232
255 245 232
255 245 232
255 245 232
255 245 232
255 245 232
255 245 232
255 245 232
255 245 232
255 245 232
255 245 232
255 245 232
255 245 232
255 245 232
255 245 232
255 245 232
255 245 232
255 245 232
255 245 232
255 245 232
255 245 232
255 245 232
255 245 232
255 245 232
255 245 232
255 245 232
255 245 232
255 245 232
255 245 232
255 245 232
255 245 232
255 245 232
255 255 244
255 245 232
255 245 232
255 245 232
255 245 232
255 245 232
255 245 232
255 245 232
255 245 232
255 245 232
255 245 232
255 245 232
255 245 232
255 245 232
255 245 232
255 245 232
255 245 232
255 245 232
255 245 232
255 245 232
255 245 232
255 245 232
255 245 232
255 245 232
255 245 232
255 245 232
255 245 232
255 245 232
255 245 232
255 245 232
255 245 232
255 245 232
255 245 232
255 245 232
255 245 232
255 245 232
255 245 232
255 255 244
255 245 232
255 245 232
255 245 232
255 245 232
255 245 232
255 245 232
255 245 232
255 245 232
255 245 232
255 245 232
255 245 232
255 245 232
255 245 232
255 245 232
255 245 232
255 245 232
255 245 232
255 245 232
255 245 232
255 245 232
255 245 232
255 245 232
255 245 232
255 245 232
255 245 232
255 245 232
255 245 232
255 245 232
255 245 232
255 245 232
255 245 232
255 245 232
255 245 232
255 245 232
255 245 232
255 245 232
255 255 244
255 245 232
255 245 232
255 245 232
255 245 232
255 245 232
255 245 232
255 245 232
255 245 232
255 245 232
255 245 232
255 245 232
255 245 232
255 245 232
255 245 232
255 245 232
255 245 232
255 245 232
255 245 232
255 245 232
255 245 232
255 245 232
255 245 232
255 245 232
255 245 232
255 245 232
255 245 232
255 245 232
255 245 232
255 245 232
255 245 232
255 245 232
255 245 232
255 245 232
255 245 232
255 245 232
255 245 232
255 255 244
255 245 232
255 245 232
255 245 232
255 245 232
255 245 232
255 245 232
255 245 232
255 245 232
255 245 232
255 245 232
255 245 232
255 245 232
255 245 232
255 245 232
255 245 232
255 245 232
255 245 232
255 245 232
255 245 232
255 245 232
255 245 232
255 245 232
255 245 232
255 245 232
255 245 232
255 245 232
255 245 232
255 245 232
255 245 232
255 245 232
255 245 232
255 245 232
255 245 232
255 245 232
255 245 232
255 245 232
255 255 244
255 245 232
255 245 232
255 245 232
255 245 232
255 245 232
255 245 232
255 245 232
255 245 232
255 245 232
255 245 232
255 245 232
255 245 232
255 245 232
255 245 232
255 245 232
255 245 232
255 245 232
255 245 232
255 245 232
255 245 232
255 245 232
255 245 232
255 245 232
255 245 232
255 245 232
255 245 232
255 245 232
255 245 232
255 245 232
255 245 232
255 245 232
255 245 232
255 245 232
255 245 232
255 245 232
255 245 232
255 255 244
255 245 232
255 245 232
255 245 232
255 245 232
255 245 232
255 245 232
255 245 232
255 245 232
255 245 232
255 245 232
255 245 232
255 245 232
255 245 232
255 245 232
255 245 232
255 245 232
255 245 232
255 245 232
255 245 232
255 245 232
255 245 232
255 245 232
255 245 232
255 245 232
255 245 232
255 245 232
255 245 232
255 245 232
255 245 232
255 245 232
255 245 232
255 245 232
255 245 232
255 245 232
255 245 232
255 245 232
255 255 244
255 245 232
255 245 232
255 245 232
255 245 232
255 245 232
255 245 232
255 245 232
255 245 232
255 245 232
255 245 232
255 245 232
255 245 232
255 245 232
255 245 232
255 245 232
255 245 232
255 245 232
255 245 232
255 245 232
255 245 232
255 245 232
255 245 232
255 255 244
255 245 232
255 245 232
255 245 232
255 245 232
255 245 232
255 245 232
255 245 232
255 245 232
255 245 232
255 245 232
255 245 232
255 245 232
255 245 232
255 245 232
255 245 232
255 245 232
255 245 232
255 245 232
255 245 232
255 245 232
255 245 232
255 245 232
255 245 232
255 245 232
255 245 232
255 245 232
255 245 232
255 245 232
255 245 232
255 245 232
255 245 232
255 245 232
255 245 232
255 245 232
255 245 232
255 245 232
255 255 244
255 245 232
255 245 232
255 245 232
255 245 232
255 245 232
255 245 232
255 245 232
255 245 232
255 245 232
255 245 232
255 245 232
255 245 232
255 245 232
255 245 232
255 245 232
255 245 232
255 245 232
255 245 232
255 245 232
255 245 232
255 245 232
255 245 232
255 245 232
255 245 232
255 245 232
255 245 232
255 245 232
255 245 232
255 245 232
255 245 232
255 245 232
255 245 232
255 245 232
255 245 232
255 245 232
255 245 232
255 255 244
255 245 232
255 245 232
255 245 232
255 245 232
255 245 232
255 245 232
255 245 232
255 245 232
255 245 232
255 245 232
255 245 232
255 245 232
255 245 232
255 245 232
255 245 232
255 245 232
255 245 232
255 245 232
255 245 232
255 245 232
255 245 232
255 245 232
255 245 232
255 245 232
255 245 232
255 245 232
255 245 232
255 245 232
255 245 232
255 245 232
255 245 232
255 245 232
255 245 232
255 245 232
255 245 232
255 245 232
255 255 244
255 245 232
255 245 232
255 245 232
255 245 232
255 245 232
255 245 232
255 245 232
255 245 232
255 245 232
255 245 232
255 245 232
255 245 232
255 245 232
255 245 232
255 245 232
255 245 232
255 245 232
255 245 232
255 245 232
255 245 232
255 245 232
255 245 232
255 245 232
255 245 232
255 245 232
255 245 232
255 245 232
255 245 232
255 245 232
255 245 232
255 245 232
255 245 232
255 245 232
255 245 232
255 245 232
255 245 232
255 255 244
255 245 232
255 245 232
255 245 232
255 245 232
255 245 232
255 245 232
255 245 232
255 245 232
255 245 232
255 245 232
255 245 232
255 245 232
255 245 232
255 245 232
255 245 232
255 245 232
255 245 232
255 245 232
255 245 232
255 245 232
255 245 232
255 245 232
255 245 232
255 245 232
255 245 232
255 245 232
255 245 232
255 245 232
255 245 232
255 245 232
255 245 232
255 245 232
255 245 232
255 245 232
255 245 232
255 245 232
255 255 244
255 245 232
255 245 232
255 245 232
255 245 232
255 245 232
255 245 232
255 245 232
255 245 232
255 245 232
255 245 232
255 245 232
255 245 232
255 245 232
255 245 232
255 245 232
255 245 232
255 245 232
255 245 232
255 245 232
255 245 232
255 245 232
255 245 232
255 245 232
255 245 232
255 245 232
255 245 232
255 245 232
255 245 232
255 245 232
255 245 232
255 245 232
255 245 232
255 245 232
255 245 232
255 245 232
255 245 232
255 255 244
255 245 232
255 245 232
255 245 232
255 245 232
255 245 232
255 245 232
255 245 232
255 245 232
255 245 232
255 245 232
255 245 232
255 245 232
255 245 232
255 245 232
255 245 232
255 245 232
255 245 232
255 245 232
255 245 232
255 245 232
255 245 232
255 245 232
255 245 232
255 245 232
255 245 232
255 245 232
255 245 232
255 245 232
255 245 232
255 245 232
255 245 232
255 245 232
255 245 232
255 245 232
255 245 232
255 245 232
255 255 244
255 245 232
255 245 232
255 245 232
255 245 232
255 245 232
255 245 232
255 245 232
255 245 232
255 245 232
255 245 232
255 245 232
255 245 232
255 245 232
255 245 232
255 245 232
255 245 232
255 245 232
255 245 232
255 245 232
255 245 232
255 245 232
255 245 232
255 245 232
255 245 232
255 245 232
255 245 232
255 245 232
255 245 232
255 245 232
255 245 232
255 245 232
255 245 232
255 245 232
255 245 232
255 245 232
255 245 232
255 255 244
255 245 232
255 245 232
255 245 232
255 245 232
255 245 232
255 245 232
255 245 232
255 245 232
255 245 232
255 245 232
255 245 232
255 245 232
255 245 232
255 245 232
255 245 232
255 245 232
255 245 232
255 245 232
255 245 232
255 245 232
255 245 232
255 245 232
255 255 244
255 245 232
255 245 232
255 245 232
255 245 232
255 245 232
255 245 232
255 245 232
255 245 232
255 245 232
255 245 232
255 245 232
255 245 232
255 245 232
255 245 232
255 245 232
255 245 232
255 245 232
255 245 232
255 245 232
255 245 232
255 245 232
255 245 232
255 245 232
255 245 232
255 245 232
255 245 232
255 245 232
255 245 232
255 245 232
255 245 232
255 245 232
255 245 232
255 245 232
255 245 232
255 245 232
255 245 232
255 255 244
255 245 232
255 245 232
255 245 232
255 245 232
255 245 232
255 245 232
255 245 232
255 245 232
255 245 232
255 245 232
255 245 232
255 245 232
255 245 232
255 245 232
255 245 232
255 245 232
255 245 232
255 245 232
255 245 232
255 245 232
255 245 232
255 245 232
255 245 232
255 245 232
255 245 232
255 245 232
255 245 232
255 245 232
255 245 232
255 245 232
255 245 232
255 245 232
255 245 232
255 245 232
255 245 232
255 245 232
255 255 244
255 245 232
255 245 232
255 245 232
255 245 232
255 245 232
255 245 232
255 245 232
255 245 232
255 245 232
255 245 232
255 245 232
255 245 232
255 245 232
255 245 232
255 245 232
255 245 232
255 245 232
255 245 232
255 245 232
255 245 232
255 245 232
255 245 232
255 245 232
255 245 232
255 245 232
255 245 232
255 245 232
255 245 232
255 245 232
255 245 232
255 245 232
255 245 232
255 245 232
255 245 232
255 245 232
255 245 232
255 255 244
255 245 232
255 245 232
255 245 232
255 245 232
255 245 232
255 245 232
255 245 232
255 245 232
255 245 232
255 245 232
255 245 232
255 245 232
255 245 232
255 245 232
255 245 232
255 245 232
255 245 232
255 245 232
255 245 232
255 245 232
255 245 232
255 245 232
255 245 232
255 245 232
255 245 232
255 245 232
255 245 232
255 245 232
255 245 232
255 245 232
255 245 232
255 245 232
255 245 232
255 245 232
255 245 232
255 245 232
255 255 244
255 245 232
255 245 232
255 245 232
255 245 232
255 245 232
255 245 232
255 245 232
255 245 232
255 245 232
255 245 232
255 245 232
255 245 232
255 245 232
255 245 232
255 245 232
255 245 232
255 245 232
255 245 232
255 245 232
255 245 232
255 245 232
255 245 232
255 245 232
255 245 232
255 245 232
255 245 232
255 245 232
255 245 232
255 245 232
255 245 232
255 245 232
255 245 232
255 245 232
255 245 232
255 245 232
255 245 232
255 255 244
255 245 232
255 245 232
255 245 232
255 245 232
255 245 232
255 245 232
255 245 232
255 245 232
255 245 232
255 245 232
255 245 232
255 245 232
255 245 232
255 245 232
255 245 232
255 245 232
255 245 232
255 245 232
255 245 232
255 245 232
255 245 232
255 245 232
255 245 232
255 245 232
255 245 232
255 245 232
255 245 232
255 245 232
255 245 232
255 245 232
255 245 232
255 245 232
255 245 232
255 245 232
255 245 232
255 245 232
255 255 244
255 245 232
255 245 232
255 245 232
255 245 232
255 245 232
255 245 232
255 245 232
255 245 232
255 245 232
255 245 232
255 245 232
255 245 232
255 245 232
255 245 232
255 245 232
255 245 232
255 245 232
255 245 232
255 245 232
255 245 232
255 245 232
255 245 232
255 245 232
255 245 232
255 245 232
255 245 232
255 245 232
255 245 232
255 245 232
255 245 232
255 245 232
255 245 232
255 245 232
255 245 232
255 245 232
255 245 232
255 255 244
255 245 232
255 245 232
255 245 232
255 245 232
255 245 232
255 245 232
255 245 232
255 245 232
255 245 232
255 245 232
255 245 232
255 245 232
255 245 232
255 245 232
255 245 232
255 245 232
255 245 232
255 245 232
255 245 232
255 245 232
255 245 232
255 245 232
255 245 232
255 245 232
255 245 232
255 245 232
255 245 232
255 245 232
255 245 232
255 245 232
255 245 232
255 245 232
255 245 232
255 245 232
255 245 232
255 245 232
255 255 244
255 245 232
255 245 232
255 245 232
255 245 232
255 245 232
255 245 232
255 245 232
255 245 232
255 245 232
255 245 232
255 245 232
255 245 232
255 245 232
255 245 232
255 245 232
255 245 232
255 245 232
255 245 232
255 245 232
255 245 232
255 245 232
255 245 232
255 255 244
255 245 232
255 245 232
255 245 232
255 245 232
255 245 232
255 245 232
255 245 232
255 245 232
255 245 232
255 245 232
255 245 232
255 245 232
255 245 232
255 245 232
255 245 232
255 245 232
255 245 232
255 245 232
255 245 232
255 245 232
255 245 232
255 245 232
255 245 232
255 245 232
255 245 232
255 245 232
255 245 232
255 245 232
255 245 232
255 245 232
255 245 232
255 245 232
255 245 232
255 245 232
255 245 232
255 245 232
255 255 244
255 245 232
255 245 232
255 245 232
255 245 232
255 245 232
255 245 232
255 245 232
255 245 232
255 245 232
255 245 232
255 245 232
255 245 232
255 245 232
255 245 232
255 245 232
255 245 232
255 245 232
255 245 232
255 245 232
255 245 232
255 245 232
255 245 232
255 245 232
255 245 232
255 245 232
255 245 232
255 245 232
255 245 232
255 245 232
255 245 232
255 245 232
255 245 232
255 245 232
255 245 232
255 245 232
255 245 232
255 255 244
255 245 232
255 245 232
255 245 232
255 245 232
255 245 232
255 245 232
255 245 232
255 245 232
255 245 232
255 245 232
255 245 232
255 245 232
255 245 232
255 245 232
255 245 232
255 245 232
255 245 232
255 245 232
255 245 232
255 245 232
255 245 232
255 245 232
255 245 232
255 245 232
255 245 232
255 245 232
255 245 232
255 245 232
255 245 232
255 245 232
255 245 232
255 245 232
255 245 232
255 245 232
255 245 232
255 245 232
255 255 244
255 245 232
255 245 232
255 245 232
255 245 232
255 245 232
255 245 232
255 245 232
255 245 232
255 245 232
255 245 232
255 245 232
255 245 232
255 245 232
255 245 232
255 245 232
255 245 232
255 245 232
255 245 232
255 245 232
255 245 232
255 245 232
255 245 232
255 245 232
255 245 232
255 245 232
255 245 232
255 245 232
255 245 232
255 245 232
255 245 232
255 245 232
255 245 232
255 245 232
255 245 232
255 245 232
255 245 232
255 255 244
255 245 232
255 245 232
255 245 232
255 245 232
255 245 232
255 245 232
255 245 232
255 245 232
255 245 232
255 245 232
255 245 232
255 245 232
255 245 232
255 245 232
255 245 232
255 245 232
255 245 232
255 245 232
255 245 232
255 245 232
255 245 232
255 245 232
255 245 232
255 245 232
255 245 232
255 245 232
255 245 232
255 245 232
255 245 232
255 245 232
255 245 232
255 245 232
255 245 232
255 245 232
255 245 232
255 245 232
255 255 244
255 245 232
255 245 232
255 245 232
255 245 232
255 245 232
255 245 232
255 245 232
255 245 232
255 245 232
255 245 232
255 245 232
255 245 232
255 245 232
255 245 232
255 245 232
255 245 232
255 245 232
255 245 232
255 245 232
255 245 232
255 245 232
255 245 232
255 245 232
255 245 232
255 245 232
255 245 232
255 245 232
255 245 232
255 245 232
255 245 232
255 245 232
255 245 232
255 245 232
255 245 232
255 245 232
255 245 232
255 255 244
255 245 232
255 245 232
255 245 232
255 245 232
255 245 232
255 245 232
255 245 232
255 245 232
255 245 232
255 245 232
255 245 232
255 245 232
255 245 232
255 245 232
255 245 232
255 245 232
255 245 232
255 245 232
255 245 232
255 245 232
255 245 232
255 245 232
255 245 232
255 245 232
255 245 232
255 245 232
255 245 232
255 245 232
255 245 232
255 245 232
255 245 232
255 245 232
255 245 232
255 245 232
255 245 232
255 245 232
255 255 244
255 245 232
255 245 232
255 245 232
255 245 232
255 245 232
255 245 232
255 245 232
255 245 232
255 245 232
255 245 232
255 245 232
255 245 232
255 245 232
255 245 232
255 245 232
255 245 232
255 245 232
255 245 232
255 245 232
255 245 232
255 245 232
255 245 232
255 245 232
255 245 232
255 245 232
255 245 232
255 245 232
255 245 232
255 245 232
255 245 232
255 245 232
255 245 232
255 245 232
255 245 232
255 245 232
255 245 232
255 255 244
255 245 232
255 245 232
255 245 232
255 245 232
255 245 232
255 245 232
255 245 232
255 245 232
255 245 232
255 245 232
255 245 232
255 245 232
255 245 232
255 245 232
255 245 232
255 245 232
255 245 232
255 245 232
255 245 232
255 245 232
255 245 232
255 245 232
255 255 244
255 245 232
255 245 232
255 245 232
255 245 232
255 245 232
255 245 232
255 245 232
255 245 232
255 245 232
255 245 232
255 245 232
255 245 232
255 245 232
255 245 232
255 245 232
255 245 232
255 245 232
255 245 232
255 245 232
255 245 232
255 245 232
255 245 232
255 245 232
255 245 232
255 245 232
255 245 232
255 245 232
255 245 232
255 245 232
255 245 232
255 245 232
255 245 232
255 245 232
255 245 232
255 245 232
255 245 232
255 255 244
255 245 232
255 245 232
255 245 232
255 245 232
255 245 232
255 245 232
255 245 232
255 245 232
255 245 232
255 245 232
255 245 232
255 245 232
255 245 232
255 245 232
255 245 232
255 245 232
255 245 232
255 245 232
255 245 232
255 245 232
255 245 232
255 245 232
255 245 232
255 245 232
255 245 232
255 245 232
255 245 232
255 245 232
255 245 232
255 245 232
255 245 232
255 245 232
255 245 232
255 245 232
255 245 232
255 245 232
255 255 244
255 245 232
255 245 232
255 245 232
255 245 232
255 245 232
255 245 232
255 245 232
255 245 232
255 245 232
255 245 232
255 245 232
255 245 232
255 245 232
255 245 232
255 245 232
255 245 232
255 245 232
255 245 232
255 245 232
255 245 232
255 245 232
255 245 232
255 245 232
255 245 232
255 245 232
255 245 232
255 245 232
255 245 232
255 245 232
255 245 232
255 245 232
255 245 232
255 245 232
255 245 232
255 245 232
255 245 232
255 255 244
255 245 232
255 245 232
255 245 232
255 245 232
255 245 232
255 245 232
255 245 232
255 245 232
255 245 232
255 245 232
255 245 232
255 245 232
255 245 232
255 245 232
255 245 232
255 245 232
255 245 232
255 245 232
255 245 232
255 245 232
255 245 232
255 245 232
255 245 232
255 245 232
255 245 232
255 245 232
255 245 232
255 245 232
255 245 232
255 245 232
255 245 232
255 245 232
255 245 232
255 245 232
255 245 232
255 245 232
255 255 244
255 245 232
255 245 232
255 245 232
255 245 232
255 245 232
255 245 232
255 245 232
255 245 232
255 245 232
255 245 232
255 245 232
255 245 232
255 245 232
255 245 232
255 245 232
255 245 232
255 245 232
255 245 232
255 245 232
255 245 232
255 245 232
255 245 232
255 245 232
255 245 232
255 245 232
255 245 232
255 245 232
255 245 232
255 245 232
255 245 232
255 245 232
255 245 232
255 245 232
255 245 232
255 245 232
255 245 232
255 255 244
255 245 232
255 245 232
255 245 232
255 245 232
255 245 232
255 245 232
255 245 232
255 245 232
255 245 232
255 245 232
255 245 232
255 245 232
255 245 232
255 245 232
255 245 232
255 245 232
255 245 232
255 245 232
255 245 232
255 245 232
255 245 232
255 245 232
255 245 232
255 245 232
255 245 232
255 245 232
255 245 232
255 245 232
255 245 232
255 245 232
255 245 232
255 245 232
255 245 232
255 245 232
255 245 232
255 245 232
255 255 244
255 245 232
255 245 232
255 245 232
255 245 232
255 245 232
255 245 232
255 245 232
255 245 232
255 245 232
255 245 232
255 245 232
255 245 232
255 245 232
255 245 232
255 245 232
255 245 232
255 245 232
255 245 232
255 245 232
255 245 232
255 245 232
255 245 232
255 245 232
255 245 232
255 245 232
255 245 232
255 245 232
255 245 232
255 245 232
255 245 232
255 245 232
255 245 232
255 245 232
255 245 232
255 245 232
255 245 232
255 255 244
255 245 232
255 245 232
255 245 232
255 245 232
255 245 232
255 245 232
255 245 232
255 245 232
255 245 232
255 245 232
255 245 232
255 245 232
255 245 232
255 245 232
255 245 232
255 245 232
255 245 232
255 245 232
255 245 232
255 245 232
255 245 232
255 245 232
255 245 232
255 245 232
255 245 232
255 245 232
255 245 232
255 245 232
255 245 232
255 245 232
255 245 232
255 245 232
255 245 232
255 245 232
255 245 232
255 245 232
255 255 244
255 245 232
255 245 232
255 245 232
255 245 232
255 245 232
255 245 232
255 245 232
255 245 232
255 245 232
255 245 232
255 245 232
255 245 232
255 245 232
255 245 232
255 245 232
255 245 232
255 245 232
255 245 232
255 245 232
255 245 232
255 245 232
255 245 232
255 255 244
255 245 232
255 245 232
255 245 232
255 245 232
255 245 232
255 245 232
255 245 232
255 245 232
255 245 232
255 245 232
255 245 232
255 245 232
255 245 232
255 245 232
255 245 232
255 245 232
255 245 232
255 245 232
255 245 232
255 245 232
255 245 232
255 245 232
255 245 232
255 245 232
255 245 232
255 245 232
255 245 232
255 245 232
255 245 232
255 245 232
255 245 232
255 245 232
255 245 232
255 245 232
255 245 232
255 245 232
255 255 244
255 245 232
255 245 232
255 245 232
255 245 232
255 245 232
255 245 232
255 245 232
255 245 232
255 245 232
255 245 232
255 245 232
255 245 232
255 245 232
255 245 232
255 245 232
255 245 232
255 245 232
255 245 232
255 245 232
255 245 232
255 245 232
255 245 232
255 245 232
255 245 232
255 245 232
255 245 232
255 245 232
255 245 232
255 245 232
255 245 232
255 245 232
255 245 232
255 245 232
255 245 232
255 245 232
255 245 232
255 255 244
255 245 232
255 245 232
255 245 232
255 245 232
255 245 232
255 245 232
255 245 232
255 245 232
255 245 232
255 245 232
255 245 232
255 245 232
255 245 232
255 245 232
255 245 232
255 245 232
255 245 232
255 245 232
255 245 232
255 245 232
255 245 232
255 245 232
255 245 232
255 245 232
255 245 232
255 245 232
255 245 232
255 245 232
255 245 232
255 245 232
255 245 232
255 245 232
255 245 232
255 245 232
255 245 232
255 245 232
255 255 244
255 245 232
255 245 232
255 245 232
255 245 232
255 245 232
255 245 232
255 245 232
255 245 232
255 245 232
255 245 232
255 245 232
255 245 232
255 245 232
255 245 232
255 245 232
255 245 232
255 245 232
255 245 232
255 245 232
255 245 232
255 245 232
255 245 232
255 245 232
255 245 232
255 245 232
255 245 232
255 245 232
255 245 232
255 245 232
255 245 232
255 245 232
255 245 232
255 245 232
255 245 232
255 245 232
255 245 232
255 255 244
255 245 232
255 245 232
255 245 232
255 245 232
255 245 232
255 245 232
255 245 232
255 245 232
255 245 232
255 245 232
255 245 232
255 245 232
255 245 232
255 245 232
255 245 232
255 245 232
255 245 232
255 245 232
255 245 232
255 245 232
255 245 232
255 245 232
255 245 232
255 245 232
255 245 232
255 245 232
255 245 232
255 245 232
255 245 232
255 245 232
255 245 232
255 245 232
255 245 232
255 245 232
255 245 232
255 245 232
255 255 244
255 245 232
255 245 232
255 245 232
255 245 232
255 245 232
255 245 232
255 245 232
255 245 232
255 245 232
255 245 232
255 245 232
255 245 232
255 245 232
255 245 232
255 245 232
255 245 232
255 245 232
255 245 232
255 245 232
255 245 232
255 245 232
255 245 232
255 245 232
255 245 232
255 245 232
255 245 232
255 245 232
255 245 232
255 245 232
255 245 232
255 245 232
255 245 232
255 245 232
255 245 232
255 245 232
255 245 232
255 255 244
255 245 232
255 245 232
255 245 232
255 245 232
255 245 232
255 245 232
255 245 232
255 245 232
255 245 232
255 245 232
255 245 232
255 245 232
255 245 232
255 245 232
255 245 232
255 245 232
255 245 232
255 245 232
255 245 232
255 245 232
255 245 232
255 245 232
255 245 232
255 245 232
255 245 232
255 245 232
255 245 232
255 245 232
255 245 232
255 245 232
255 245 232
255 245 232
255 245 232
255 245 232
255 245 232
255 245 232
255 255 244
255 245 232
255 245 232
255 245 232
255 245 232
255 245 232
255 245 232
255 245 232
255 245 232
255 245 232
255 245 232
255 245 232
255 245 232
255 245 232
255 245 232
255 245 232
255 245 232
255 245 232
255 245 232
255 245 232
255 245 232
255 245 232
255 245 232
255 245 232
255 245 232
255 245 232
255 245 232
255 245 232
255 245 232
255 245 232
255 245 232
255 245 232
255 245 232
255 245 232
255 245 232
255 245 232
255 245 232
255 255 244
255 245 232
255 245 232
255 245 232
255 245 232
255 245 232
255 245 232
255 245 232
255 245 232
255 245 232
255 245 232
255 245 232
255 245 232
255 245 232
255 245 232
255 245 232
255 245 232
255 245 232
255 245 232
255 245 232
255 245 232
255 245 232
255 245 232
255 255 244
255 245 232
255 245 232
255 245 232
255 245 232
255 245 232
255 245 232
255 245 232
255 245 232
255 245 232
255 245 232
255 245 232
255 245 232
255 245 232
255 245 232
255 245 232
255 245 232
255 245 232
255 245 232
255 245 232
255 245 232
255 245 232
255 245 232
255 245 232
255 245 232
255 245 232
255 245 232
255 245 232
255 245 232
255 245 232
255 245 232
255 245 232
255 245 232
255 245 232
255 245 232
255 245 232
255 245 232
255 255 244
255 245 232
255 245 232
255 245 232
255 245 232
255 245 232
255 245 232
255 245 232
255 245 232
255 245 232
255 245 232
255 245 232
255 245 232
255 245 232
255 245 232
255 245 232
255 245 232
255 245 232
255 245 232
255 245 232
255 245 232
255 245 232
255 245 232
255 245 232
255 245 232
255 245 232
255 245 232
255 245 232
255 245 232
255 245 232
255 245 232
255 245 232
255 245 232
255 245 232
255 245 232
255 245 232
255 245 232
255 255 244
255 245 232
255 245 232
255 245 232
255 245 232
255 245 232
255 245 232
255 245 232
255 245 232
255 245 232
255 245 232
255 245 232
255 245 232
255 245 232
255 245 232
255 245 232
255 245 232
255 245 232
255 245 232
255 245 232
255 245 232
255 245 232
255 245 232
255 245 232
255 245 232
255 245 232
255 245 232
255 245 232
255 245 232
255 245 232
255 245 232
255 245 232
255 245 232
255 245 232
255 245 232
255 245 232
255 245 232
255 255 244
255 245 232
255 245 232
255 245 232
255 245 232
255 245 232
255 245 232
255 245 232
255 245 232
255 245 232
255 245 232
255 245 232
255 245 232
255 245 232
255 245 232
255 245 232
255 245 232
255 245 232
255 245 232
255 245 232
255 245 232
255 245 232
255 245 232
255 245 232
255 245 232
255 245 232
255 245 232
255 245 232
255 245 232
255 245 232
255 245 232
255 245 232
255 245 232
255 245 232
255 245 232
255 245 232
255 245 232
255 255 244
255 245 232
255 245 232
255 245 232
255 245 232
255 245 232
255 245 232
255 245 232
255 245 232
255 245 232
255 245 232
255 245 232
255 245 232
255 245 232
255 245 232
255 245 232
255 245 232
255 245 232
255 245 232
255 245 232
255 245 232
255 245 232
255 245 232
255 245 232
255 245 232
255 245 232
255 245 232
255 245 232
255 245 232
255 245 232
255 245 232
255 245 232
255 245 232
255 245 232
255 245 232
255 245 232
255 245 232
255 255 244
255 245 232
255 245 232
255 245 232
255 245 232
255 245 232
255 245 232
255 245 232
255 245 232
255 245 232
255 245 232
255 245 232
255 245 232
255 245 232
255 245 232
255 245 232
255 245 232
255 245 232
255 245 232
255 245 232
255 245 232
255 245 232
255 245 232
255 245 232
255 245 232
255 245 232
255 245 232
255 245 232
255 245 232
255 245 232
255 245 232
255 245 232
255 245 232
255 245 232
255 245 232
255 245 232
255 245 232
255 255 244
255 245 232
255 245 232
255 245 232
255 245 232
255 245 232
255 245 232
255 245 232
255 245 232
255 245 232
255 245 232
255 245 232
255 245 232
255 245 232
255 245 232
255 245 232
255 245 232
255 245 232
255 245 232
255 245 232
255 245 232
255 245 232
255 245 232
255 245 232
255 245 232
255 245 232
255 245 232
255 245 232
255 245 232
255 245 232
255 245 232
255 245 232
255 245 232
255 245 232
255 245 232
255 245 232
255 245 232
255 255 244
255 245 232
255 245 232
255 245 232
255 245 232
255 245 232
255 245 232
255 245 232
255 245 232
255 245 232
255 245 232
255 245 232
255 245 232
255 245 232
255 245 232
255 245 232
255 245 232
255 245 232
255 245 232
255 245 232
255 245 232
255 245 232
255 245 232
255 245 232
255 245 232
255 245 232
255 245 232
255 245 232
255 245 232
255 245 232
255 245 232
255 245 232
255 245 232
255 245 232
255 245 232
255 245 232
255 245 232
255 255 244
255 245 232
255 245 232
255 245 232
255 245 232
255 245 232
255 245 232
255 245 232
255 245 232
255 245 232
255 245 232
255 245 232
255 245 232
255 245 232
255 245 232
255 245 232
255 245 232
255 245 232
255 245 232
255 245 232
255 245 232
255 245 232
255 245 232
255 255 244
255 245 232
255 245 232
255 245 232
255 245 232
255 245 232
255 245 232
255 245 232
255 245 232
255 245 232
255 245 232
255 245 232
255 245 232
255 245 232
255 245 232
255 245 232
255 245 232
255 245 232
255 245 232
255 245 232
255 245 232
255 245 232
255 245 232
255 245 232
255 245 232
255 245 232
255 245 232
255 245 232
255 245 232
255 245 232
255 245 232
255 245 232
255 245 232
255 245 232
255 245 232
255 245 232
255 245 232
255 255 244
255 245 232
255 245 232
255 245 232
255 245 232
255 245 232
255 245 232
255 245 232
255 245 232
255 245 232
255 245 232
255 245 232
255 245 232
255 245 232
255 245 232
255 245 232
255 245 232
255 245 232
255 245 232
255 245 232
255 245 232
255 245 232
255 245 232
255 245 232
255 245 232
255 245 232
255 245 232
255 245 232
255 245 232
255 245 232
255 245 232
255 245 232
255 245 232
255 245 232
255 245 232
255 245 232
255 245 232
255 255 244
255 245 232
255 245 232
255 245 232
255 245 232
255 245 232
255 245 232
255 245 232
255 245 232
255 245 232
255 245 232
255 245 232
255 245 232
255 245 232
255 245 232
255 245 232
255 245 232
255 245 232
255 245 232
255 245 232
255 245 232
255 245 232
255 245 232
255 245 232
255 245 232
255 245 232
255 245 232
255 245 232
255 245 232
255 245 232
255 245 232
255 245 232
255 245 232
255 245 232
255 245 232
255 245 232
255 245 232
255 255 244
255 245 232
255 245 232
255 245 232
255 245 232
255 245 232
255 245 232
255 245 232
255 245 232
255 245 232
255 245 232
255 245 232
255 245 232
255 245 232
255 245 232
255 245 232
255 245 232
255 245 232
255 245 232
255 245 232
255 245 232
255 245 232
255 245 232
255 245 232
255 245 232
255 245 232
255 245 232
255 245 232
255 245 232
255 245 232
255 245 232
255 245 232
255 245 232
255 245 232
255 245 232
255 245 232
255 245 232
255 255 244
255 245 232
255 245 232
255 245 232
255 245 232
255 245 232
255 245 232
255 245 232
255 245 232
255 245 232
255 245 232
255 245 232
255 245 232
255 245 232
255 245 232
255 245 232
255 245 232
255 245 232
255 245 232
255 245 232
255 245 232
255 245 232
255 245 232
255 245 232
255 245 232
255 245 232
255 245 232
255 245 232
255 245 232
255 245 232
255 245 232
255 245 232
255 245 232
255 245 232
255 245 232
255 245 232
255 245 232
255 255 244
255 245 232
255 245 232
255 245 232
255 245 232
255 245 232
255 245 232
255 245 232
255 245 232
255 245 232
255 245 232
255 245 232
255 245 232
255 245 232
255 245 232
255 245 232
255 245 232
255 245 232
255 245 232
255 245 232
255 245 232
255 245 232
255 245 232
255 245 232
255 245 232
255 245 232
255 245 232
255 245 232
255 245 232
255 245 232
255 245 232
255 245 232
255 245 232
255 245 232
255 245 232
255 245 232
255 245 232
255 255 244
255 245 232
255 245 232
255 245 232
255 245 232
255 245 232
255 245 232
255 245 232
255 245 232
255 245 232
255 245 232
255 245 232
255 245 232
255 245 232
255 245 232
255 245 232
255 245 232
255 245 232
255 245 232
255 245 232
255 245 232
255 245 232
255 245 232
255 245 232
255 245 232
255 245 232
255 245 232
255 245 232
255 245 232
255 245 232
255 245 232
255 245 232
255 245 232
255 245 232
255 245 232
255 245 232
255 245 232
255 255 244
255 245 232
255 245 232
255 245 232
255 245 232
255 245 232
255 245 232
255 245 232
255 245 232
255 245 232
255 245 232
255 245 232
255 245 232
255 245 232
255 245 232
255 245 232
255 245 232
255 245 232
255 245 232
255 245 232
255 245 232
255 245 232
255 245 232
255 245 232
255 245 232
255 245 232
255 245 232
255 245 232
255 245 232
255 245 232
255 245 232
255 245 232
255 245 232
255 245 232
255 245 232
255 245 232
255 245 232
255 255 244
255 245 232
255 245 232
255 245 232
255 245 232
255 245 232
255 245 232
255 245 232
255 245 232
255 245 232
255 245 232
255 245 232
255 245 232
255 245 232
255 245 232
255 245 232
255 245 232
255 245 232
255 245 232
255 245 232
255 245 232
255 245 232
255 245 232
255 255 244
255 245 232
255 245 232
255 245 232
255 245 232
255 245 232
255 245 232
255 245 232
255 245 232
255 245 232
255 245 232
255 245 232
255 245 232
255 245 232
255 245 232
255 245 232
255 245 232
255 245 232
255 245 232
255 245 232
255 245 232
255 245 232
255 245 232
255 245 232
255 245 232
255 245 232
255 245 232
255 245 232
255 245 232
255 245 232
255 245 232
255 245 232
255 245 232
255 245 232
255 245 232
255 245 232
255 245 232
255 255 244
255 245 232
255 245 232
255 245 232
255 245 232
255 245 232
255 245 232
255 245 232
255 245 232
255 245 232
255 245 232
255 245 232
255 245 232
255 245 232
255 245 232
255 245 232
255 245 232
255 245 232
255 245 232
255 245 232
255 245 232
255 245 232
255 245 232
255 245 232
255 245 232
255 245 232
255 245 232
255 245 232
255 245 232
255 245 232
255 245 232
255 245 232
255 245 232
255 245 232
255 245 232
255 245 232
255 245 232
255 255 244
255 245 232
255 245 232
255 245 232
255 245 232
255 245 232
255 245 232
255 245 232
255 245 232
255 245 232
255 245 232
255 245 232
255 245 232
255 245 232
255 245 232
255 245 232
255 245 232
255 245 232
255 245 232
255 245 232
255 245 232
255 245 232
255 245 232
255 245 232
255 245 232
255 245 232
255 245 232
255 245 232
255 245 232
255 245 232
255 245 232
255 245 232
255 245 232
255 245 232
255 245 232
255 245 232
255 245 232
255 255 244
255 245 232
255 245 232
255 245 232
255 245 232
255 245 232
255 245 232
255 245 232
255 245 232
255 245 232
255 245 232
255 245 232
255 245 232
255 245 232
255 245 232
255 245 232
255 245 232
255 245 232
255 245 232
255 245 232
255 245 232
255 245 232
255 245 232
255 245 232
255 245 232
255 245 232
255 245 232
255 245 232
255 245 232
255 245 232
255 245 232
255 245 232
255 245 232
255 245 232
255 245 232
255 245 232
255 245 232
255 255 244
255 245 232
255 245 232
255 245 232
255 245 232
255 245 232
255 245 232
255 245 232
255 245 232
255 245 232
255 245 232
255 245 232
255 245 232
255 245 232
255 245 232
255 245 232
255 245 232
255 245 232
255 245 232
255 245 232
255 245 232
255 245 232
255 245 232
255 245 232
255 245 232
255 245 232
255 245 232
255 245 232
255 245 232
255 245 232
255 245 232
255 245 232
255 245 232
255 245 232
255 245 232
255 245 232
255 245 232
255 255 244
255 245 232
255 245 232
255 245 232
255 245 232
255 245 232
255 245 232
255 245 232
255 245 232
255 245 232
255 245 232
255 245 232
255 245 232
255 245 232
255 245 232
255 245 232
255 245 232
255 245 232
255 245 232
255 245 232
255 245 232
255 245 232
255 245 232
255 245 232
255 245 232
255 245 232
255 245 232
255 245 232
255 245 232
255 245 232
255 245 232
255 245 232
255 245 232
255 245 232
255 245 232
255 245 232
255 245 232
255 255 244
255 245 232
255 245 232
255 245 232
255 245 232
255 245 232
255 245 232
255 245 232
255 245 232
255 245 232
255 245 232
255 245 232
255 245 232
255 245 232
255 245 232
255 245 232
255 245 232
255 245 232
255 245 232
255 245 232
255 245 232
255 245 232
255 245 232
255 245 232
255 245 232
255 245 232
255 245 232
255 245 232
255 245 232
255 245 232
255 245 232
255 245 232
255 245 232
255 245 232
255 245 232
255 245 232
255 245 232
255 255 244
255 245 232
255 245 232
255 245 232
255 245 232
255 245 232
255 245 232
255 245 232
255 245 232
255 245 232
255 245 232
255 245 232
255 245 232
255 245 232
255 245 232
255 245 232
255 245 232
255 245 232
255 245 232
255 245 232
255 245 232
255 245 232
255 245 232
255 245 232
255 245 232
255 245 232
255 245 232
255 245 232
255 245 232
255 245 232
255 245 232
255 245 232
255 245 232
255 245 232
255 245 232
255 245 232
255 245 232
255 255 244
255 245 232
255 245 232
255 245 232
255 245 232
255 245 232
255 245 232
255 245 232
255 245 232
255 245 232
255 245 232
255 245 232
255 245 232
255 245 232
255 245 232
255 245 232
255 245 232
255 245 232
255 245 232
255 245 232
255 245 232
255 245 232
255 245 232
255 255 244
255 245 232
255 245 232
255 245 232
255 245 232
255 245 232
255 245 232
255 245 232
255 245 232
255 245 232
255 245 232
255 245 232
255 245 232
255 245 232
255 245 232
255 245 232
255 245 232
255 245 232
255 245 232
255 245 232
255 245 232
255 245 232
255 245 232
255 245 232
255 245 232
255 245 232
255 245 232
255 245 232
255 245 232
255 245 232
255 245 232
255 245 232
255 245 232
255 245 232
255 245 232
255 245 232
255 245 232
255 255 244
255 245 232
255 245 232
255 245 232
255 245 232
255 245 232
255 245 232
255 245 232
255 245 232
255 245 232
255 245 232
255 245 232
255 245 232
255 245 232
255 245 232
255 245 232
255 245 232
255 245 232
255 245 232
255 245 232
255 245 232
255 245 232
255 245 232
255 245 232
255 245 232
255 245 232
255 245 232
255 245 232
255 245 232
255 245 232
255 245 232
255 245 232
255 245 232
255 245 232
255 245 232
255 245 232
255 245 232
255 255 244
255 245 232
255 245 232
255 245 232
255 245 232
255 245 232
255 245 232
255 245 232
255 245 232
255 245 232
255 245 232
255 245 232
255 245 232
255 245 232
255 245 232
255 245 232
255 245 232
255 245 232
255 245 232
255 245 232
255 245 232
255 245 232
255 245 232
255 245 232
255 245 232
255 245 232
255 245 232
255 245 232
255 245 232
255 245 232
255 245 232
255 245 232
255 245 232
255 245 232
255 245 232
255 245 232
255 245 232
255 255 244
255 245 232
255 245 232
255 245 232
255 245 232
255 245 232
255 245 232
255 245 232
255 245 232
255 245 232
255 245 232
255 245 232
255 245 232
255 245 232
255 245 232
255 245 232
255 245 232
255 245 232
255 245 232
255 245 232
255 245 232
255 245 232
255 245 232
255 245 232
255 245 232
255 245 232
255 245 232
255 245 232
255 245 232
255 245 232
255 245 232
255 245 232
255 245 232
255 245 232
255 245 232
255 245 232
255 245 232
255 255 244
255 245 232
255 245 232
255 245 232
255 245 232
255 245 232
255 245 232
255 245 232
255 245 232
255 245 232
255 245 232
255 245 232
255 245 232
255 245 232
255 245 232
255 245 232
255 245 232
255 245 232
255 245 232
255 245 232
255 245 232
255 245 232
255 245 232
255 245 232
255 245 232
255 245 232
255 245 232
255 245 232
255 245 232
255 245 232
255 245 232
255 245 232
255 245 232
255 245 232
255 245 232
255 245 232
255 245 232
255 255 244
255 245 232
255 245 232
255 245 232
255 245 232
255 245 232
255 245 232
255 245 232
255 245 232
255 245 232
255 245 232
255 245 232
255 245 232
255 245 232
255 245 232
255 245 232
255 245 232
255 245 232
255 245 232
255 245 232
255 245 232
255 245 232
255 245 232
255 245 232
255 245 232
255 245 232
255 245 232
255 245 232
255 245 232
255 245 232
255 245 232
255 245 232
255 245 232
255 245 232
255 245 232
255 245 232
255 245 232
255 255 244
255 245 232
255 245 232
255 245 232
255 245 232
255 245 232
255 245 232
255 245 232
255 245 232
255 245 232
255 245 232
255 245 232
255 245 232
255 245 232
255 245 232
255 245 232
255 245 232
255 245 232
255 245 232
255 245 232
255 245 232
255 245 232
255 245 232
255 245 232
255 245 232
255 245 232
255 245 232
255 245 232
255 245 232
255 245 232
255 245 232
255 245 232
255 245 232
255 245 232
255 245 232
255 245 232
255 245 232
255 255 244
255 245 232
255 245 232
255 245 232
255 245 232
255 245 232
255 245 232
255 245 232
255 245 232
255 245 232
255 245 232
255 245 232
255 245 232
255 245 232
255 245 232
255 245 232
255 245 232
255 245 232
255 245 232
255 245 232
255 245 232
255 245 232
255 245 232
255 245 232
255 245 232
255 245 232
255 245 232
255 245 232
255 245 232
255 245 232
255 245 232
255 245 232
255 245 232
255 245 232
255 245 232
255 245 232
255 245 232
255 255 244
255 245 232
255 245 232
255 245 232
255 245 232
255 245 232
255 245 232
255 245 232
255 245 232
255 245 232
255 245 232
255 245 232
255 245 232
255 245 232
255 245 232
255 245 232
255 245 232
255 245 232
255 245 232
255 245 232
255 245 232
255 245 232
255 245 232
255 255 244
255 245 232
255 245 232
255 245 232
255 245 232
255 245 232
255 245 232
255 245 232
255 245 232
255 245 232
255 245 232
255 245 232
255 245 232
255 245 232
255 245 232
255 245 232
255 245 232
255 245 232
255 245 232
255 245 232
255 245 232
255 245 232
255 245 232
255 245 232
255 245 232
255 245 232
255 245 232
255 245 232
255 245 232
255 245 232
255 245 232
255 245 232
255 245 232
255 245 232
255 245 232
255 245 232
255 245 232
255 255 244
255 245 232
255 245 232
255 245 232
255 245 232
255 245 232
255 245 232
255 245 232
255 245 232
255 245 232
255 245 232
255 245 232
255 245 232
255 245 232
255 245 232
255 245 232
255 245 232
255 245 232
255 245 232
255 245 232
255 245 232
255 245 232
255 245 232
255 245 232
255 245 232
255 245 232
255 245 232
255 245 232
255 245 232
255 245 232
255 245 232
255 245 232
255 245 232
255 245 232
255 245 232
255 245 232
255 245 232
255 255 244
255 245 232
255 245 232
255 245 232
255 245 232
255 245 232
255 245 232
255 245 232
255 245 232
255 245 232
255 245 232
255 245 232
255 245 232
255 245 232
255 245 232
255 245 232
255 245 232
255 245 232
255 245 232
255 245 232
255 245 232
255 245 232
255 245 232
255 245 232
255 245 232
255 245 232
255 245 232
255 245 232
255 245 232
255 245 232
255 245 232
255 245 232
255 245 232
255 245 232
255 245 232
255 245 232
255 245 232
255 255 244
255 245 232
255 245 232
255 245 232
255 245 232
255 245 232
255 245 232
255 245 232
255 245 232
255 245 232
255 245 232
255 245 232
255 245 232
255 245 232
255 245 232
255 245 232
255 245 232
255 245 232
255 245 232
255 245 232
255 245 232
255 245 232
255 245 232
255 245 232
255 245 232
255 245 232
255 245 232
255 245 232
255 245 232
255 245 232
255 245 232
255 245 232
255 245 232
255 245 232
255 245 232
255 245 232
255 245 232
255 255 244
255 245 232
255 245 232
255 245 232
255 245 232
255 245 232
255 245 232
255 245 232
255 245 232
255 245 232
255 245 232
255 245 232
255 245 232
255 245 232
255 245 232
255 245 232
255 245 232
255 245 232
255 245 232
255 245 232
255 245 232
255 245 232
255 245 232
255 245 232
255 245 232
255 245 232
255 245 232
255 245 232
255 245 232
255 245 232
255 245 232
255 245 232
255 245 232
255 245 232
255 245 232
255 245 232
255 245 232
255 255 244
255 245 232
255 245 232
255 245 232
255 245 232
255 245 232
255 245 232
255 245 232
255 245 232
255 245 232
255 245 232
255 245 232
255 245 232
255 245 232
255 245 232
255 245 232
255 245 232
255 245 232
255 245 232
255 245 232
255 245 232
255 245 232
255 245 232
255 245 232
255 245 232
255 245 232
255 245 232
255 245 232
255 245 232
255 245 232
255 245 232
255 245 232
255 245 232
255 245 232
255 245 232
255 245 232
255 245 232
255 255 244
255 245 232
255 245 232
255 245 232
255 245 232
255 245 232
255 245 232
255 245 232
255 245 232
255 245 232
255 245 232
255 245 232
255 245 232
255 245 232
255 245 232
255 245 232
255 245 232
255 245 232
255 245 232
255 245 232
255 245 232
255 245 232
255 245 232
255 245 232
255 245 232
255 245 232
255 245 232
255 245 232
255 245 232
255 245 232
255 245 232
255 245 232
255 245 232
255 245 232
255 245 232
255 245 232
255 245 232
255 255 244
255 245 232
255 245 232
255 245 232
255 245 232
255 245 232
255 245 232
255 245 232
255 245 232
255 245 232
255 245 232
255 245 232
255 245 232
255 245 232
255 245 232
255 245 232
255 245 232
255 245 232
255 245 232
255 245 232
255 245 232
255 245 232
255 245 232
255 245 232
255 245 232
255 245 232
255 245 232
255 245 232
255 245 232
255 245 232
255 245 232
255 245 232
255 245 232
255 245 232
255 245 232
255 245 232
255 245 232
255 255 244
255 245 232
255 245 232
255 245 232
255 245 232
255 245 232
255 245 232
255 245 232
255 245 232
255 245 232
255 245 232
255 245 232
255 245 232
255 245 232
255 245 232
255 245 232
255 245 232
255 245 232
255 245 232
255 245 232
255 245 232
255 245 232
255 245 232
255 255 244
255 245 232
255 245 232
255 245 232
255 245 232
255 245 232
255 245 232
255 245 232
255 245 232
255 245 232
255 245 232
255 245 232
255 245 232
255 245 232
255 245 232
255 245 232
255 245 232
255 245 232
255 245 232
255 245 232
255 245 232
255 245 232
255 245 232
255 245 232
255 245 232
255 245 232
255 245 232
255 245 232
255 245 232
255 245 232
255 245 232
255 245 232
255 245 232
255 245 232
255 245 232
255 245 232
255 245 232
255 255 244
255 245 232
255 245 232
255 245 232
255 245 232
255 245 232
255 245 232
255 245 232
255 245 232
255 245 232
255 245 232
255 245 232
255 245 232
255 245 232
255 245 232
255 245 232
255 245 232
255 245 232
255 245 232
255 245 232
255 245 232
255 245 232
255 245 232
255 245 232
255 245 232
255 245 232
255 245 232
255 245 232
255 245 232
255 245 232
255 245 232
255 245 232
255 245 232
255 245 232
255 245 232
255 245 232
255 245 232
255 255 244
255 245 232
255 245 232
255 245 232
255 245 232
255 245 232
255 245 232
255 245 232
255 245 232
255 245 232
255 245 232
255 245 232
255 245 232
255 245 232
255 245 232
255 245 232
255 245 232
255 245 232
255 245 232
255 245 232
255 245 232
255 245 232
255 245 232
255 245 232
255 245 232
255 245 232
255 245 232
255 245 232
255 245 232
255 245 232
255 245 232
255 245 232
255 245 232
255 245 232
255 245 232
255 245 232
255 245 232
255 255 244
255 245 232
255 245 232
255 245 232
255 245 232
255 245 232
255 245 232
255 245 232
255 245 232
255 245 232
255 245 232
255 245 232
255 245 232
255 245 232
255 245 232
255 245 232
255 245 232
255 245 232
255 245 232
255 245 232
255 245 232
255 245 232
255 245 232
255 245 232
255 245 232
255 245 232
255 245 232
255 245 232
255 245 232
255 245 232
255 245 232
255 245 232
255 245 232
255 245 232
255 245 232
255 245 232
255 245 232
255 255 244
255 245 232
255 245 232
255 245 232
255 245 232
255 245 232
255 245 232
255 245 232
255 245 232
255 245 232
255 245 232
255 245 232
255 245 232
255 245 232
255 245 232
255 245 232
255 245 232
255 245 232
255 245 232
255 245 232
255 245 232
255 245 232
255 245 232
255 245 232
255 245 232
255 245 232
255 245 232
255 245 232
255 245 232
255 245 232
255 245 232
255 245 232
255 245 232
255 245 232
255 245 232
255 245 232
255 245 232
255 255 244
255 245 232
255 245 232
255 245 232
255 245 232
255 245 232
255 245 232
255 245 232
255 245 232
255 245 232
255 245 232
255 245 232
255 245 232
255 245 232
255 245 232
255 245 232
255 245 232
255 245 232
255 245 232
255 245 232
255 245 232
255 245 232
255 245 232
255 245 232
255 245 232
255 245 232
255 245 232
255 245 232
255 245 232
255 245 232
255 245 232
255 245 232
255 245 232
255 245 232
255 245 232
255 245 232
255 245 232
255 255 244
255 245 232
255 245 232
255 245 232
255 245 232
255 245 232
255 245 232
255 245 232
255 245 232
255 245 232
255 245 232
255 245 232
255 245 232
255 245 232
255 245 232
255 245 232
255 245 232
255 245 232
255 245 232
255 245 232
255 245 232
255 245 232
255 245 232
255 245 232
255 245 232
255 245 232
255 245 232
255 245 232
255 245 232
255 245 232
255 245 232
255 245 232
255 245 232
255 245 232
255 245 232
255 245 232
255 245 232
255 255 244
255 245 232
255 245 232
255 245 232
255 245 232
255 245 232
255 245 232
255 245 232
255 245 232
255 245 232
255 245 232
255 245 232
255 245 232
255 245 232
255 245 232
255 245 232
255 245 232
255 245 232
255 245 232
255 245 232
255 245 232
255 245 232
255 245 232
255 245 232
255 245 232
255 245 232
255 245 232
255 245 232
255 245 232
255 245 232
255 245 232
255 245 232
255 245 232
255 245 232
255 245 232
255 245 232
255 245 232
255 255 244
255 245 232
255 245 232
255 245 232
255 245 232
255 245 232
255 245 232
255 245 232
255 245 232
255 245 232
255 245 232
255 245 232
255 245 232
255 245 232
255 245 232
255 245 232
255 245 232
255 245 232
255 245 232
255 245 232
255 245 232
255 245 232
255 245 232
255 255 244
255 245 232
255 245 232
255 245 232
255 245 232
255 245 232
255 245 232
255 245 232
255 245 232
255 245 232
255 245 232
255 245 232
255 245 232
255 245 232
255 245 232
255 245 232
255 245 232
255 245 232
255 245 232
255 245 232
255 245 232
255 245 232
255 245 232
255 245 232
255 245 232
255 245 232
255 245 232
255 245 232
255 245 232
255 245 232
255 245 232
255 245 232
255 245 232
255 245 232
255 245 232
255 245 232
255 245 232
255 255 244
255 245 232
255 245 232
255 245 232
255 245 232
255 245 232
255 245 232
255 245 232
255 245 232
255 245 232
255 245 232
255 245 232
255 245 232
255 245 232
255 245 232
255 245 232
255 245 232
255 245 232
255 245 232
255 245 232
255 245 232
255 245 232
255 245 232
255 245 232
255 245 232
255 245 232
255 245 232
255 245 232
255 245 232
255 245 232
255 245 232
255 245 232
255 245 232
255 245 232
255 245 232
255 245 232
255 245 232
255 255 244
255 245 232
255 245 232
255 245 232
255 245 232
255 245 232
255 245 232
255 245 232
255 245 232
255 245 232
255 245 232
255 245 232
255 245 232
255 245 232
255 245 232
255 245 232
255 245 232
255 245 232
255 245 232
255 245 232
255 245 232
255 245 232
255 245 232
255 245 232
255 245 232
255 245 232
255 245 232
255 245 232
255 245 232
255 245 232
255 245 232
255 245 232
255 245 232
255 245 232
255 245 232
255 245 232
255 245 232
255 255 244
255 245 232
255 245 232
255 245 232
255 245 232
255 245 232
255 245 232
255 245 232
255 245 232
255 245 232
255 245 232
255 245 232
255 245 232
255 245 232
255 245 232
255 245 232
255 245 232
255 245 232
255 245 232
255 245 232
255 245 232
255 245 232
255 245 232
255 245 232
255 245 232
255 245 232
255 245 232
255 245 232
255 245 232
255 245 232
255 245 232
255 245 232
255 245 232
255 245 232
255 245 232
255 245 232
255 245 232
255 255 244
255 245 232
255 245 232
255 245 232
255 245 232
255 245 232
255 245 232
255 245 232
255 245 232
255 245 232
255 245 232
255 245 232
255 245 232
255 245 232
255 245 232
255 245 232
255 245 232
255 245 232
255 245 232
255 245 232
255 245 232
255 245 232
255 245 232
255 245 232
255 245 232
255 245 232
255 245 232
255 245 232
255 245 232
255 245 232
255 245 232
255 245 232
255 245 232
255 245 232
255 245 232
255 245 232
255 245 232
255 255 244
255 245 232
255 245 232
255 245 232
255 245 232
255 245 232
255 245 232
255 245 232
255 245 232
255 245 232
255 245 232
255 245 232
255 245 232
255 245 232
255 245 232
255 245 232
255 245 232
255 245 232
255 245 232
255 245 232
255 245 232
255 245 232
255 245 232
255 245 232
255 245 232
255 245 232
255 245 232
255 245 232
255 245 232
255 245 232
255 245 232
255 245 232
255 245 232
255 245 232
255 245 232
255 245 232
255 245 232
255 255 244
255 245 232
255 245 232
255 245 232
255 245 232
255 245 232
255 245 232
255 245 232
255 245 232
255 245 232
255 245 232
255 245 232
255 245 232
255 245 232
255 245 232
255 245 232
255 245 232
255 245 232
255 245 232
255 245 232
255 245 232
255 245 232
255 245 232
255 245 232
255 245 232
255 245 232
255 245 232
255 245 232
255 245 232
255 245 232
255 245 232
255 245 232
255 245 232
255 245 232
255 245 232
255 245 232
255 245 232
255 255 244
255 245 232
255 245 232
255 245 232
255 245 232
255 245 232
255 245 232
255 245 232
255 245 232
255 245 232
255 245 232
255 245 232
255 245 232
255 245 232
255 245 232
255 245 232
255 245 232
255 245 232
255 245 232
255 245 232
255 245 232
255 245 232
255 245 232
255 245 232
255 245 232
255 245 232
255 245 232
255 245 232
255 245 232
255 245 232
255 245 232
255 245 232
255 245 232
255 245 232
255 245 232
255 245 232
255 245 232
255 255 244
255 245 232
255 245 232
255 245 232
255 245 232
255 245 232
255 245 232
255 245 232
255 245 232
255 245 232
255 245 232
255 245 232
255 245 232
255 245 232
255 245 232
255 245 232
255 245 232
255 245 232
255 245 232
255 245 232
255 245 232
255 245 232
255 245 232
255 255 244
255 245 232
255 245 232
255 245 232
255 245 232
255 245 232
255 245 232
255 245 232
255 245 232
255 245 232
255 245 232
255 245 232
255 245 232
255 245 232
255 245 232
255 245 232
255 245 232
255 245 232
255 245 232
255 245 232
255 245 232
255 245 232
255 245 232
255 245 232
255 245 232
255 245 232
255 245 232
255 245 232
255 245 232
255 245 232
255 245 232
255 245 232
255 245 232
255 245 232
255 245 232
255 245 232
255 245 232
255 255 244
255 245 232
255 245 232
255 245 232
255 245 232
255 245 232
255 245 232
255 245 232
255 245 232
255 245 232
255 245 232
255 245 232
255 245 232
255 245 232
255 245 232
255 245 232
255 245 232
255 245 232
255 245 232
255 245 232
255 245 232
255 245 232
255 245 232
255 245 232
255 245 232
255 245 232
255 245 232
255 245 232
255 245 232
255 245 232
255 245 232
255 245 232
255 245 232
255 245 232
255 245 232
255 245 232
255 245 232
255 255 244
255 245 232
255 245 232
255 245 232
255 245 232
255 245 232
255 245 232
255 245 232
255 245 232
255 245 232
255 245 232
255 245 232
255 245 232
255 245 232
255 245 232
255 245 232
255 245 232
255 245 232
255 245 232
255 245 232
255 245 232
255 245 232
255 245 232
255 245 232
255 245 232
255 245 232
255 245 232
255 245 232
255 245 232
255 245 232
255 245 232
255 245 232
255 245 232
255 245 232
255 245 232
255 245 232
255 245 232
255 255 244
255 245 232
255 245 232
255 245 232
255 245 232
255 245 232
255 245 232
255 245 232
255 245 232
255 245 232
255 245 232
255 245 232
255 245 232
255 245 232
255 245 232
255 245 232
255 245 232
255 245 232
255 245 232
255 245 232
255 245 232
255 245 232
255 245 232
255 245 232
255 245 232
255 245 232
255 245 232
255 245 232
255 245 232
255 245 232
255 245 232
255 245 232
255 245 232
255 245 232
255 245 232
255 245 232
255 245 232
255 255 244
255 245 232
255 245 232
255 245 232
255 245 232
255 245 232
255 245 232
255 245 232
255 245 232
255 245 232
255 245 232
255 245 232
255 245 232
255 245 232
255 245 232
255 245 232
255 245 232
255 245 232
255 245 232
255 245 232
255 245 232
255 245 232
255 245 232
255 245 232
255 245 232
255 245 232
255 245 232
255 245 232
255 245 232
255 245 232
255 245 232
255 245 232
255 245 232
255 245 232
255 245 232
255 245 232
255 245 232
255 255 244
255 245 232
255 245 232
255 245 232
255 245 232
255 245 232
255 245 232
255 245 232
255 245 232
255 245 232
255 245 232
255 245 232
255 245 232
255 245 232
255 245 232
255 245 232
255 245 232
255 245 232
255 245 232
255 245 232
255 245 232
255 245 232
255 245 232
255 245 232
255 245 232
255 245 232
255 245 232
255 245 232
255 245 232
255 245 232
255 245 232
255 245 232
255 245 232
255 245 232
255 245 232
255 245 232
255 245 232
255 255 244
255 245 232
255 245 232
255 245 232
255 245 232
255 245 232
255 245 232
255 245 232
255 245 232
255 245 232
255 245 232
255 245 232
255 245 232
255 245 232
255 245 232
255 245 232
255 245 232
255 245 232
255 245 232
255 245 232
255 245 232
255 245 232
255 245 232
255 245 232
255 245 232
255 245 232
255 245 232
255 245 232
255 245 232
255 245 232
255 245 232
255 245 232
255 245 232
255 245 232
255 245 232
255 245 232
255 245 232
255 255 244
255 245 232
255 245 232
255 245 232
255 245 232
255 245 232
255 245 232
255 245 232
255 245 232
255 245 232
255 245 232
255 245 232
255 245 232
255 245 232
255 245 232
255 245 232
255 245 232
255 245 232
255 245 232
255 245 232
255 245 232
255 245 232
255 245 232
255 245 232
255 245 232
255 245 232
255 245 232
255 245 232
255 245 232
255 245 232
255 245 232
255 245 232
255 245 232
255 245 232
255 245 232
255 245 232
255 245 232
255 255 244
255 245 232
255 245 232
255 245 232
255 245 232
255 245 232
255 245 232
255 245 232
255 245 232
255 245 232
255 245 232
255 245 232
255 245 232
255 245 232
255 245 232
255 245 232
255 245 232
255 245 232
255 245 232
255 245 232
255 245 232
255 245 232
255 245 232
255 255 244
255 245 232
255 245 232
255 245 232
255 245 232
255 245 232
255 245 232
255 245 232
255 245 232
255 245 232
255 245 232
255 245 232
255 245 232
255 245 232
255 245 232
255 245 232
255 245 232
255 245 232
255 245 232
255 245 232
255 245 232
255 245 232
255 245 232
255 245 232
255 245 232
255 245 232
255 245 232
255 245 232
255 245 232
255 245 232
255 245 232
255 245 232
255 245 232
255 245 232
255 245 232
255 245 232
255 245 232
255 255 244
255 245 232
255 245 232
255 245 232
255 245 232
255 245 232
255 245 232
255 245 232
255 245 232
255 245 232
255 245 232
255 245 232
255 245 232
255 245 232
255 245 232
255 245 232
255 245 232
255 245 232
255 245 232
255 245 232
255 245 232
255 245 232
255 245 232
255 245 232
255 245 232
255 245 232
255 245 232
255 245 232
255 245 232
255 245 232
255 245 232
255 245 232
255 245 232
255 245 232
255 245 232
255 245 232
255 245 232
255 255 244
255 245 232
255 245 232
255 245 232
255 245 232
255 245 232
255 245 232
255 245 232
255 245 232
255 245 232
255 245 232
255 245 232
255 245 232
255 245 232
255 245 232
255 245 232
255 245 232
255 245 232
255 245 232
255 245 232
255 245 232
255 245 232
255 245 232
255 245 232
255 245 232
255 245 232
255 245 232
255 245 232
255 245 232
255 245 232
255 245 232
255 245 232
255 245 232
255 245 232
255 245 232
255 245 232
255 245 232
255 255 244
255 245 232
255 245 232
255 245 232
255 245 232
255 245 232
255 245 232
255 245 232
255 245 232
255 245 232
255 245 232
255 245 232
255 245 232
255 245 232
255 245 232
255 245 232
255 245 232
255 245 232
255 245 232
255 245 232
255 245 232
255 245 232
255 245 232
255 245 232
255 245 232
255 245 232
255 245 232
255 245 232
255 245 232
255 245 232
255 245 232
255 245 232
255 245 232
255 245 232
255 245 232
255 245 232
255 245 232
255 255 244
255 245 232
255 245 232
255 245 232
255 245 232
255 245 232
255 245 232
255 245 232
255 245 232
255 245 232
255 245 232
255 245 232
255 245 232
255 245 232
255 245 232
255 245 232
255 245 232
255 245 232
255 245 232
255 245 232
255 245 232
255 245 232
255 245 232
255 245 232
255 245 232
255 245 232
255 245 232
255 245 232
255 245 232
255 245 232
255 245 232
255 245 232
255 245 232
255 245 232
255 245 232
255 245 232
255 245 232
255 255 244
255 245 232
255 245 232
255 245 232
255 245 232
255 245 232
255 245 232
255 245 232
255 245 232
255 245 232
255 245 232
255 245 232
255 245 232
255 245 232
255 245 232
255 245 232
255 245 232
255 245 232
255 245 232
255 245 232
255 245 232
255 245 232
255 245 232
255 245 232
255 245 232
255 245 232
255 245 232
255 245 232
255 245 232
255 245 232
255 245 232
255 245 232
255 245 232
255 245 232
255 245 232
255 245 232
255 245 232
255 255 244
255 245 232
255 245 232
255 245 232
255 245 232
255 245 232
255 245 232
255 245 232
255 245 232
255 245 232
255 245 232
255 245 232
255 245 232
255 245 232
255 245 232
255 245 232
255 245 232
255 245 232
255 245 232
255 245 232
255 245 232
255 245 232
255 245 232
255 245 232
255 245 232
255 245 232
255 245 232
255 245 232
255 245 232
255 245 232
255 245 232
255 245 232
255 245 232
255 245 232
255 245 232
255 245 232
255 245 232
255 255 244
255 245 232
255 245 232
255 245 232
255 245 232
255 245 232
255 245 232
255 245 232
255 245 232
255 245 232
255 245 232
255 245 232
255 245 232
255 245 232
255 245 232
255 245 232
255 245 232
255 245 232
255 245 232
255 245 232
255 245 232
255 245 232
255 245 232
255 245 232
255 245 232
255 245 232
255 245 232
255 245 232
255 245 232
255 245 232
255 245 232
255 245 232
255 245 232
255 245 232
255 245 232
255 245 232
255 245 232
255 255 244
255 245 232
255 245 232
255 245 232
255 245 232
255 245 232
255 245 232
255 245 232
255 245 232
255 245 232
255 245 232
255 245 232
255 245 232
255 245 232
255 245 232
255 245 232
255 245 232
255 245 232
255 245 232
255 245 232
255 245 232
255 245 232
255 245 232
255 255 244
255 245 232
255 245 232
255 245 232
255 245 232
255 245 232
255 245 232
255 245 232
255 245 232
255 245 232
255 245 232
255 245 232
255 245 232
255 245 232
255 245 232
255 245 232
255 245 232
255 245 232
255 245 232
255 245 232
255 245 232
255 245 232
255 245 232
255 245 232
255 245 232
255 245 232
255 245 232
255 245 232
255 245 232
255 245 232
255 245 232
255 245 232
255 245 232
255 245 232
255 245 232
255 245 232
255 245 232
255 255 244
255 245 232
255 245 232
255 245 232
255 245 232
255 245 232
255 245 232
255 245 232
255 245 232
255 245 232
255 245 232
255 245 232
255 245 232
255 245 232
255 245 232
255 245 232
255 245 232
255 245 232
255 245 232
255 245 232
255 245 232
255 245 232
255 245 232
255 245 232
255 245 232
255 245 232
255 245 232
255 245 232
255 245 232
255 245 232
255 245 232
255 245 232
255 245 232
255 245 232
255 245 232
255 245 232
255 245 232
255 255 244
255 245 232
255 245 232
255 245 232
255 245 232
255 245 232
255 245 232
255 245 232
255 245 232
255 245 232
255 245 232
255 245 232
255 245 232
255 245 232
255 245 232
255 245 232
255 245 232
255 245 232
255 245 232
255 245 232
255 245 232
255 245 232
255 245 232
255 245 232
255 245 232
255 245 232
255 245 232
255 245 232
255 245 232
255 245 232
255 245 232
255 245 232
255 245 232
255 245 232
255 245 232
255 245 232
255 245 232
255 255 244
255 245 232
255 245 232
255 245 232
255 245 232
255 245 232
255 245 232
255 245 232
255 245 232
255 245 232
255 245 232
255 245 232
255 245 232
255 245 232
255 245 232
255 245 232
255 245 232
255 245 232
255 245 232
255 245 232
255 245 232
255 245 232
255 245 232
255 245 232
255 245 232
255 245 232
255 245 232
255 245 232
255 245 232
255 245 232
255 245 232
255 245 232
255 245 232
255 245 232
255 245 232
255 245 232
255 245 232
255 255 244
255 245 232
255 245 232
255 245 232
255 245 232
255 245 232
255 245 232
255 245 232
255 245 232
255 245 232
255 245 232
255 245 232
255 245 232
255 245 232
255 245 232
255 245 232
255 245 232
255 245 232
255 245 232
255 245 232
255 245 232
255 245 232
255 245 232
255 245 232
255 245 232
255 245 232
255 245 232
255 245 232
255 245 232
255 245 232
255 245 232
255 245 232
255 245 232
255 245 232
255 245 232
255 245 232
255 245 232
255 255 244
255 245 232
255 245 232
255 245 232
255 245 232
255 245 232
255 245 232
255 245 232
255 245 232
255 245 232
255 245 232
255 245 232
255 245 232
255 245 232
255 245 232
255 245 232
255 245 232
255 245 232
255 245 232
255 245 232
255 245 232
255 245 232
255 245 232
255 245 232
255 245 232
255 245 232
255 245 232
255 245 232
255 245 232
255 245 232
255 245 232
255 245 232
255 245 232
255 245 232
255 245 232
255 245 232
255 245 232
255 255 244
255 245 232
255 245 232
255 245 232
255 245 232
255 245 232
255 245 232
255 245 232
255 245 232
255 245 232
255 245 232
255 245 232
255 245 232
255 245 232
255 245 232
255 245 232
255 245 232
255 245 232
255 245 232
255 245 232
255 245 232
255 245 232
255 245 232
255 245 232
255 245 232
255 245 232
255 245 232
255 245 232
255 245 232
255 245 232
255 245 232
255 245 232
255 245 232
255 245 232
255 245 232
255 245 232
255 245 232
255 255 244
255 245 232
255 245 232
255 245 232
255 245 232
255 245 232
255 245 232
255 245 232
255 245 232
255 245 232
255 245 232
255 245 232
255 245 232
255 245 232
255 245 232
255 245 232
255 245 232
255 245 232
255 245 232
255 245 232
255 245 232
255 245 232
255 245 232
255 245 232
255 245 232
255 245 232
255 245 232
255 245 232
255 245 232
255 245 232
255 245 232
255 245 232
255 245 232
255 245 232
255 245 232
255 245 232
255 245 232
255 255 244
255 245 232
255 245 232
255 245 232
255 245 232
255 245 232
255 245 232
255 245 232
255 245 232
255 245 232
255 245 232
255 245 232
255 245 232
255 245 232
255 245 232
255 245 232
255 245 232
255 245 232
255 245 232
255 245 232
255 245 232
255 245 232
255 245 232
255 255 244
255 245 232
255 245 232
255 245 232
255 245 232
255 245 232
255 245 232
255 245 232
255 245 232
255 245 232
255 245 232
255 245 232
255 245 232
255 245 232
255 245 232
255 245 232
255 245 232
255 245 232
255 245 232
255 245 232
255 245 232
255 245 232
255 245 232
255 245 232
255 245 232
255 245 232
255 245 232
255 245 232
255 245 232
255 245 232
255 245 232
255 245 232
255 245 232
255 245 232
255 245 232
255 245 232
255 245 232
255 255 244
255 245 232
255 245 232
255 245 232
255 245 232
255 245 232
255 245 232
255 245 232
255 245 232
255 245 232
255 245 232
255 245 232
255 245 232
255 245 232
255 245 232
255 245 232
255 245 232
255 245 232
255 245 232
255 245 232
255 245 232
255 245 232
255 245 232
255 245 232
255 245 232
255 245 232
255 245 232
255 245 232
255 245 232
255 245 232
255 245 232
255 245 232
255 245 232
255 245 232
255 245 232
255 245 232
255 245 232
255 255 244
255 245 232
255 245 232
255 245 232
255 245 232
255 245 232
255 245 232
255 245 232
255 245 232
255 245 232
255 245 232
255 245 232
255 245 232
255 245 232
255 245 232
255 245 232
255 245 232
255 245 232
255 245 232
255 245 232
255 245 232
255 245 232
255 245 232
255 245 232
255 245 232
255 245 232
255 245 232
255 245 232
255 245 232
255 245 232
255 245 232
255 245 232
255 245 232
255 245 232
255 245 232
255 245 232
255 245 232
255 255 244
255 245 232
255 245 232
255 245 232
255 245 232
255 245 232
255 245 232
255 245 232
255 245 232
255 245 232
255 245 232
255 245 232
255 245 232
255 245 232
255 245 232
255 245 232
255 245 232
255 245 232
255 245 232
255 245 232
255 245 232
255 245 232
255 245 232
255 245 232
255 245 232
255 245 232
255 245 232
255 245 232
255 245 232
255 245 232
255 245 232
255 245 232
255 245 232
255 245 232
255 245 232
255 245 232
255 245 232
255 255 244
255 245 232
255 245 232
255 245 232
255 245 232
255 245 232
255 245 232
255 245 232
255 245 232
255 245 232
255 245 232
255 245 232
255 245 232
255 245 232
255 245 232
255 245 232
255 245 232
255 245 232
255 245 232
255 245 232
255 245 232
255 245 232
255 245 232
255 245 232
255 245 232
255 245 232
255 245 232
255 245 232
255 245 232
255 245 232
255 245 232
255 245 232
255 245 232
255 245 232
255 245 232
255 245 232
255 245 232
255 255 244
255 245 232
255 245 232
255 245 232
255 245 232
255 245 232
255 245 232
255 245 232
255 245 232
255 245 232
255 245 232
255 245 232
255 245 232
255 245 232
255 245 232
255 245 232
255 245 232
255 245 232
255 245 232
255 245 232
255 245 232
255 245 232
255 245 232
255 245 232
255 245 232
255 245 232
255 245 232
255 245 232
255 245 232
255 245 232
255 245 232
255 245 232
255 245 232
255 245 232
255 245 232
255 245 232
255 245 232
255 255 244
255 245 232
255 245 232
255 245 232
255 245 232
255 245 232
255 245 232
255 245 232
255 245 232
255 245 232
255 245 232
255 245 232
255 245 232
255 245 232
255 245 232
255 245 232
255 245 232
255 245 232
255 245 232
255 245 232
255 245 232
255 245 232
255 245 232
255 245 232
255 245 232
255 245 232
255 245 232
255 245 232
255 245 232
255 245 232
255 245 232
255 245 232
255 245 232
255 245 232
255 245 232
255 245 232
255 245 232
255 255 244
255 245 232
255 245 232
255 245 232
255 245 232
255 245 232
255 245 232
255 245 232
255 245 232
255 245 232
255 245 232
255 245 232
255 245 232
255 245 232
255 245 232
255 245 232
255 245 232
255 245 232
255 245 232
255 245 232
255 245 232
255 245 232
255 245 232
255 245 232
255 245 232
255 245 232
255 245 232
255 245 232
255 245 232
255 245 232
255 245 232
255 245 232
255 245 232
255 245 232
255 245 232
255 245 232
255 245 232
255 255 244
255 245 232
255 245 232
255 245 232
255 245 232
255 245 232
255 245 232
255 245 232
255 245 232
255 245 232
255 245 232
255 245 232
255 245 232
255 245 232
255 245 232
255 245 232
255 245 232
255 245 232
255 245 232
255 245 232
255 245 232
255 245 232
255 245 232
255 255 244
255 245 232
255 245 232
255 245 232
255 245 232
255 245 232
255 245 232
255 245 232
255 245 232
255 245 232
255 245 232
255 245 232
255 245 232
255 245 232
255 245 232
255 245 232
255 245 232
255 245 232
255 245 232
255 245 232
255 245 232
255 245 232
255 245 232
255 245 232
255 245 232
255 245 232
255 245 232
255 245 232
255 245 232
255 245 232
255 245 232
255 245 232
255 245 232
255 245 232
255 245 232
255 245 232
255 245 232
255 255 244
255 245 232
255 245 232
255 245 232
255 245 232
255 245 232
255 245 232
255 245 232
255 245 232
255 245 232
255 245 232
255 245 232
255 245 232
255 245 232
255 245 232
255 245 232
255 245 232
255 245 232
255 245 232
255 245 232
255 245 232
255 245 232
255 245 232
255 245 232
255 245 232
255 245 232
255 245 232
255 245 232
255 245 232
255 245 232
255 245 232
255 245 232
255 245 232
255 245 232
255 245 232
255 245 232
255 245 232
255 255 244
255 245 232
255 245 232
255 245 232
255 245 232
255 245 232
255 245 232
255 245 232
255 245 232
255 245 232
255 245 232
255 245 232
255 245 232
255 245 232
255 245 232
255 245 232
255 245 232
255 245 232
255 245 232
255 245 232
255 245 232
255 245 232
255 245 232
255 245 232
255 245 232
255 245 232
255 245 232
255 245 232
255 245 232
255 245 232
255 245 232
255 245 232
255 245 232
255 245 232
255 245 232
255 245 232
255 245 232
255 255 244
255 245 232
255 245 232
255 245 232
255 245 232
255 245 232
255 245 232
255 245 232
255 245 232
255 245 232
255 245 232
255 245 232
255 245 232
255 245 232
255 245 232
255 245 232
255 245 232
255 245 232
255 245 232
255 245 232
255 245 232
255 245 232
255 245 232
255 245 232
255 245 232
255 245 232
255 245 232
255 245 232
255 245 232
255 245 232
255 245 232
255 245 232
255 245 232
255 245 232
255 245 232
255 245 232
255 245 232
255 255 244
255 245 232
255 245 232
255 245 232
255 245 232
255 245 232
255 245 232
255 245 232
255 245 232
255 245 232
255 245 232
255 245 232
255 245 232
255 245 232
255 245 232
255 245 232
255 245 232
255 245 232
255 245 232
255 245 232
255 245 232
255 245 232
255 245 232
255 245 232
255 245 232
255 245 232
255 245 232
255 245 232
255 245 232
255 245 232
255 245 232
255 245 232
255 245 232
255 245 232
255 245 232
255 245 232
255 245 232
255 255 244
255 245 232
255 245 232
255 245 232
255 245 232
255 245 232
255 245 232
255 245 232
255 245 232
255 245 232
255 245 232
255 245 232
255 245 232
255 245 232
255 245 232
255 245 232
255 245 232
255 245 232
255 245 232
255 245 232
255 245 232
255 245 232
255 245 232
255 245 232
255 245 232
255 245 232
255 245 232
255 245 232
255 245 232
255 245 232
255 245 232
255 245 232
255 245 232
255 245 232
255 245 232
255 245 232
255 245 232
255 255 244
255 245 232
255 245 232
255 245 232
255 245 232
255 245 232
255 245 232
255 245 232
255 245 232
255 245 232
255 245 232
255 245 232
255 245 232
255 245 232
255 245 232
255 245 232
255 245 232
255 245 232
255 245 232
255 245 232
255 245 232
255 245 232
255 245 232
255 245 232
255 245 232
255 245 232
255 245 232
255 245 232
255 245 232
255 245 232
255 245 232
255 245 232
255 245 232
255 245 232
255 245 232
255 245 232
255 245 232
255 255 244
255 245 232
255 245 232
255 245 232
255 245 232
255 245 232
255 245 232
255 245 232
255 245 232
255 245 232
255 245 232
255 245 232
255 245 232
255 245 232
255 245 232
255 245 232
255 245 232
255 245 232
255 245 232
255 245 232
255 245 232
255 245 232
255 245 232
255 245 232
255 245 232
255 245 232
255 245 232
255 245 232
255 245 232
255 245 232
255 245 232
255 245 232
255 245 232
255 245 232
255 245 232
255 245 232
255 245 232
255 255 244
255 245 232
255 245 232
255 245 232
255 245 232
255 245 232
255 245 232
255 245 232
255 245 232
255 245 232
255 245 232
255 245 232
255 245 232
255 245 232
255 245 232
255 245 232
255 245 232
255 245 232
255 245 232
255 245 232
255 245 232
255 245 232
255 245 232
255 255 244
255 245 232
255 245 232
255 245 232
255 245 232
255 245 232
255 245 232
255 245 232
255 245 232
255 245 232
255 245 232
255 245 232
255 245 232
255 245 232
255 245 232
255 245 232
255 245 232
255 245 232
255 245 232
255 245 232
255 245 232
255 245 232
255 245 232
255 245 232
255 245 232
255 245 232
255 245 232
255 245 232
255 245 232
255 245 232
255 245 232
255 245 232
255 245 232
255 245 232
255 245 232
255 245 232
255 245 232
255 255 244
255 245 232
255 245 232
255 245 232
255 245 232
255 245 232
255 245 232
255 245 232
255 245 232
255 245 232
255 245 232
255 245 232
255 245 232
255 245 232
255 245 232
255 245 232
255 245 232
255 245 232
255 245 232
255 245 232
255 245 232
255 245 232
255 245 232
255 245 232
255 245 232
255 245 232
255 245 232
255 245 232
255 245 232
255 245 232
255 245 232
255 245 232
255 245 232
255 245 232
255 245 232
255 245 232
255 245 232
255 255 244
255 245 232
255 245 232
255 245 232
255 245 232
255 245 232
255 245 232
255 245 232
255 245 232
255 245 232
255 245 232
255 245 232
255 245 232
255 245 232
255 245 232
255 245 232
255 245 232
255 245 232
255 245 232
255 245 232
255 245 232
255 245 232
255 245 232
255 245 232
255 245 232
255 245 232
255 245 232
255 245 232
255 245 232
255 245 232
255 245 232
255 245 232
255 245 232
255 245 232
255 245 232
255 245 232
255 245 232
255 255 244
255 245 232
255 245 232
255 245 232
255 245 232
255 245 232
255 245 232
255 245 232
255 245 232
255 245 232
255 245 232
255 245 232
255 245 232
255 245 232
255 245 232
255 245 232
255 245 232
255 245 232
255 245 232
255 245 232
255 245 232
255 245 232
255 245 232
255 245 232
255 245 232
255 245 232
255 245 232
255 245 232
255 245 232
255 245 232
255 245 232
255 245 232
255 245 232
255 245 232
255 245 232
255 245 232
255 245 232
255 255 244
255 245 232
255 245 232
255 245 232
255 245 232
255 245 232
255 245 232
255 245 232
255 245 232
255 245 232
255 245 232
255 245 232
255 245 232
255 245 232
255 245 232
255 245 232
255 245 232
255 245 232
255 245 232
255 245 232
255 245 232
255 245 232
255 245 232
255 245 232
255 245 232
255 245 232
255 245 232
255 245 232
255 245 232
255 245 232
255 245 232
255 245 232
255 245 232
255 245 232
255 245 232
255 245 232
255 245 232
255 255 244
255 245 232
255 245 232
255 245 232
255 245 232
255 245 232
255 245 232
255 245 232
255 245 232
255 245 232
255 245 232
255 245 232
255 245 232
255 245 232
255 245 232
255 245 232
255 245 232
255 245 232
255 245 232
255 245 232
255 245 232
255 245 232
255 245 232
255 245 232
255 245 232
255 245 232
255 245 232
255 245 232
255 245 232
255 245 232
255 245 232
255 245 232
255 245 232
255 245 232
255 245 232
255 245 232
255 245 232
255 255 244
255 245 232
255 245 232
255 245 232
255 245 232
255 245 232
255 245 232
255 245 232
255 245 232
255 245 232
255 245 232
255 245 232
255 245 232
255 245 232
255 245 232
255 245 232
255 245 232
255 245 232
255 245 232
255 245 232
255 245 232
255 245 232
255 245 232
255 245 232
255 245 232
255 245 232
255 245 232
255 245 232
255 245 232
255 245 232
255 245 232
255 245 232
255 245 232
255 245 232
255 245 232
255 245 232
255 245 232
255 255 244
255 245 232
255 245 232
255 245 232
255 245 232
255 245 232
255 245 232
255 245 232
255 245 232
255 245 232
255 245 232
255 245 232
255 245 232
255 245 232
255 245 232
255 245 232
255 245 232
255 245 232
255 245 232
255 245 232
255 245 232
255 245 232
255 245 232
255 245 232
255 245 232
255 245 232
255 245 232
255 245 232
255 245 232
255 245 232
255 245 232
255 245 232
255 245 232
255 245 232
255 245 232
255 245 232
255 245 232
255 255 244
255 245 232
255 245 232
255 245 232
255 245 232
255 245 232
255 245 232
255 245 232
255 245 232
255 245 232
255 245 232
255 245 232
255 245 232
255 245 232
255 245 232
255 245 232
255 245 232
255 245 232
255 245 232
255 245 232
255 245 232
255 245 232
255 245 232
255 245 232
255 245 232
255 245 232
255 245 232
255 245 232
255 245 232
255 245 232
255 245 232
255 245 232
255 245 232
255 245 232
255 245 232
255 245 232
255 245 232
255 245 232
255 245 232
255 245 232
255 245 232
255 245 232
255 245 232
255 245 232
255 245 232
255 245 232
255 245 232
255 245 232
255 245 232
255 245 232
255 245 232
255 245 232
255 245 232
255 245 232
255 245 232
255 245 232
255 245 232
255 245 232
255 245 232
255 245 232
255 255 244
255 245 232
255 245 232
255 245 232
255 245 232
255 245 232
255 245 232
255 245 232
255 245 232
255 245 232
255 245 232
255 245 232
255 245 232
255 245 232
255 245 232
255 245 232
255 245 232
255 245 232
255 245 232
255 245 232
255 245 232
255 245 232
255 245 232
255 245 232
255 245 232
255 245 232
255 245 232
255 245 232
255 245 232
255 245 232
255 245 232
255 245 232
255 245 232
255 245 232
255 245 232
255 245 232
255 245 232
255 255 244
255 245 232
255 245 232
255 245 232
255 245 232
255 245 232
255 245 232
255 245 232
255 245 232
255 245 232
255 245 232
255 245 232
255 245 232
255 245 232
255 245 232
255 245 232
255 245 232
255 245 232
255 245 232
255 245 232
255 245 232
255 245 232
255 245 232
255 245 232
255 245 232
255 245 232
255 245 232
255 245 232
255 245 232
255 245 232
255 245 232
255 245 232
255 245 232
255 245 232
255 245 232
255 245 232
255 245 232
255 255 244
255 245 232
255 245 232
255 245 232
255 245 232
255 245 232
255 245 232
255 245 232
255 245 232
255 245 232
255 245 232
255 245 232
255 245 232
255 245 232
255 245 232
255 245 232
255 245 232
255 245 232
255 245 232
255 245 232
255 245 232
255 245 232
255 245 232
255 245 232
255 245 232
255 245 232
255 245 232
255 245 232
255 245 232
255 245 232
255 245 232
255 245 232
255 245 232
255 245 232
255 245 232
255 245 232
255 245 232
255 255 244
255 245 232
255 245 232
255 245 232
255 245 232
255 245 232
255 245 232
255 245 232
255 245 232
255 245 232
255 245 232
255 245 232
255 245 232
255 245 232
255 245 232
255 245 232
255 245 232
255 245 232
255 245 232
255 245 232
255 245 232
255 245 232
255 245 232
255 245 232
255 245 232
255 245 232
255 245 232
255 245 232
255 245 232
255 245 232
255 245 232
255 245 232
255 245 232
255 245 232
255 245 232
255 245 232
255 245 232
255 255 244
255 245 232
255 245 232
255 245 232
255 245 232
255 245 232
255 245 232
255 245 232
255 245 232
255 245 232
255 245 232
255 245 232
255 245 232
255 245 232
255 245 232
255 245 232
255 245 232
255 245 232
255 245 232
255 245 232
255 245 232
255 245 232
255 245 232
255 245 232
255 245 232
255 245 232
255 245 232
255 245 232
255 245 232
255 245 232
255 245 232
255 245 232
255 245 232
255 245 232
255 245 232
255 245 232
255 245 232
255 255 244
255 245 232
255 245 232
255 245 232
255 245 232
255 245 232
255 245 232
255 245 232
255 245 232
255 245 232
255 245 232
255 245 232
255 245 232
255 245 232
255 245 232
255 245 232
255 245 232
255 245 232
255 245 232
255 245 232
255 245 232
255 245 232
255 245 232
255 245 232
255 245 232
255 245 232
255 245 232
255 245 232
255 245 232
255 245 232
255 245 232
255 245 232
255 245 232
255 245 232
255 245 232
255 245 232
255 245 232
255 255 244
255 245 232
255 245 232
255 245 232
255 245 232
255 245 232
255 245 232
255 245 232
255 245 232
255 245 232
255 245 232
255 245 232
255 245 232
255 245 232
255 245 232
255 245 232
255 245 232
255 245 232
255 245 232
255 245 232
255 245 232
255 245 232
255 245 232
255 245 232
255 245 232
255 245 232
255 245 232
255 245 232
255 245 232
255 245 232
255 245 232
255 245 232
255 245 232
255 245 232
255 245 232
255 245 232
255 245 232
255 255 244
255 245 232
255 245 232
255 245 232
255 245 232
255 245 232
255 245 232
255 245 232
255 245 232
255 245 232
255 245 232
255 245 232
255 245 232
255 245 232
255 245 232
255 245 232
255 245 232
255 245 232
255 245 232
255 245 232
255 245 232
255 245 232
255 245 232
255 245 232
255 245 232
255 245 232
255 245 232
255 245 232
255 245 232
255 245 232
255 245 232
255 245 232
255 245 232
255 245 232
255 245 232
255 245 232
255 245 232
255 245 232
255 245 232
255 245 232
255 245 232
255 245 232
255 245 232
255 245 232
255 245 232
255 245 232
255 245 232
255 245 232
255 245 232
255 245 232
255 245 232
255 245 232
255 245 232
255 245 232
255 245 232
255 245 232
255 245 232
255 245 232
255 245 232
255 245 232
255 255 244
255 245 232
255 245 232
255 245 232
255 245 232
255 245 232
255 245 232
255 245 232
255 245 232
255 245 232
255 245 232
255 245 232
255 245 232
255 245 232
255 245 232
255 245 232
255 245 232
255 245 232
255 245 232
255 245 232
255 245 232
255 245 232
255 245 232
255 245 232
255 245 232
255 245 232
255 245 232
255 245 232
255 245 232
255 245 232
255 245 232
255 245 232
255 245 232
255 245 232
255 245 232
255 245 232
255 245 232
255 255 244
255 245 232
255 245 232
255 245 232
255 245 232
255 245 232
255 245 232
255 245 232
255 245 232
255 245 232
255 245 232
255 245 232
255 245 232
255 245 232
255 245 232
255 245 232
255 245 232
255 245 232
255 245 232
255 245 232
255 245 232
255 245 232
255 245 232
255 245 232
255 245 232
255 245 232
255 245 232
255 245 232
255 245 232
255 245 232
255 245 232
255 245 232
255 245 232
255 245 232
255 245 232
255 245 232
255 245 232
255 255 244
255 245 232
255 245 232
255 245 232
255 245 232
255 245 232
255 245 232
255 245 232
255 245 232
255 245 232
255 245 232
255 245 232
255 245 232
255 245 232
255 245 232
255 245 232
255 245 232
255 245 232
255 245 232
255 245 232
255 245 232
255 245 232
255 245 232
255 245 232
255 245 232
255 245 232
255 245 232
255 245 232
255 245 232
255 245 232
255 245 232
255 245 232
255 245 232
255 245 232
255 245 232
255 245 232
255 245 232
255 255 244
255 245 232
255 245 232
255 245 232
255 245 232
255 245 232
255 245 232
255 245 232
255 245 232
255 245 232
255 245 232
255 245 232
255 245 232
255 245 232
255 245 232
255 245 232
255 245 232
255 245 232
255 245 232
255 245 232
255 245 232
255 245 232
255 245 232
255 245 232
255 245 232
255 245 232
255 245 232
255 245 232
255 245 232
255 245 232
255 245 232
255 245 232
255 245 232
255 245 232
255 245 232
255 245 232
255 245 232
255 255 244
255 245 232
255 245 232
255 245 232
255 245 232
255 245 232
255 245 232
255 245 232
255 245 232
255 245 232
255 245 232
255 245 232
255 245 232
255 245 232
255 245 232
255 245 232
255 245 232
255 245 232
255 245 232
255 245 232
255 245 232
255 245 232
255 245 232
255 245 232
255 245 232
255 245 232
255 245 232
255 245 232
255 245 232
255 245 232
255 245 232
255 245 232
255 245 232
255 245 232
255 245 232
255 245 232
255 245 232
255 255 244
255 245 232
255 245 232
255 245 232
255 245 232
255 245 232
255 245 232
255 245 232
255 245 232
255 245 232
255 245 232
255 245 232
255 245 232
255 245 232
255 245 232
255 245 232
255 245 232
255 245 232
255 245 232
255 245 232
255 245 232
255 245 232
255 245 232
255 245 232
255 245 232
255 245 232
255 245 232
255 245 232
255 245 232
255 245 232
255 245 232
255 245 232
255 245 232
255 245 232
255 245 232
255 245 232
255 245 232
255 255 244
255 245 232
255 245 232
255 245 232
255 245 232
255 245 232
255 245 232
255 245 232
255 245 232
255 245 232
255 245 232
255 245 232
255 245 232
255 245 232
255 245 232
255 245 232
255 245 232
255 245 232
255 245 232
255 245 232
255 245 232
255 245 232
255 245 232
255 245 232
255 245 232
255 245 232
255 245 232
255 245 232
255 245 232
255 245 232
255 245 232
255 245 232
255 245 232
255 245 232
255 245 232
255 245 232
255 245 232
255 255 244
255 245 232
255 245 232
255 245 232
255 245 232
255 245 232
255 245 232
255 245 232
255 245 232
255 245 232
255 245 232
255 245 232
255 245 232
255 245 232
255 245 232
255 245 232
255 245 232
255 245 232
255 245 232
255 245 232
255 245 232
255 245 232
255 245 232
255 245 232
255 245 232
255 245 232
255 245 232
255 245 232
255 245 232
255 245 232
255 245 232
255 245 232
255 245 232
255 245 232
255 245 232
255 245 232
255 245 232
255 245 232
255 245 232
255 245 232
255 245 232
255 245 232
255 245 232
255 245 232
255 245 232
255 245 232
255 245 232
255 245 232
255 245 232
255 245 232
255 245 232
255 245 232
255 245 232
255 245 232
255 245 232
255 245 232
255 245 232
255 245 232
255 245 232
255 245 232
255 255 244
255 245 232
255 245 232
255 245 232
255 245 232
255 245 232
255 245 232
255 245 232
255 245 232
255 245 232
255 245 232
255 245 232
255 245 232
255 245 232
255 245 232
255 245 232
255 245 232
255 245 232
255 245 232
255 245 232
255 245 232
255 245 232
255 245 232
255 245 232
255 245 232
255 245 232
255 245 232
255 245 232
255 245 232
255 245 232
255 245 232
255 245 232
255 245 232
255 245 232
255 245 232
255 245 232
255 245 232
255 255 244
255 245 232
255 245 232
255 245 232
255 245 232
255 245 232
255 245 232
255 245 232
255 245 232
255 245 232
255 245 232
255 245 232
255 245 232
255 245 232
255 245 232
255 245 232
255 245 232
255 245 232
255 245 232
255 245 232
255 245 232
255 245 232
255 245 232
255 245 232
255 245 232
255 245 232
255 245 232
255 245 232
255 245 232
255 245 232
255 245 232
255 245 232
255 245 232
255 245 232
255 245 232
255 245 232
255 245 232
255 255 244
255 245 232
255 245 232
255 245 232
255 245 232
255 245 232
255 245 232
255 245 232
255 245 232
255 245 232
255 245 232
255 245 232
255 245 232
255 245 232
255 245 232
255 245 232
255 245 232
255 245 232
255 245 232
255 245 232
255 245 232
255 245 232
255 245 232
255 245 232
255 245 232
255 245 232
255 245 232
255 245 232
255 245 232
255 245 232
255 245 232
255 245 232
255 245 232
255 245 232
255 245 232
255 245 232
255 245 232
255 255 244
255 245 232
255 245 232
255 245 232
255 245 232
255 245 232
255 245 232
255 245 232
255 245 232
255 245 232
255 245 232
255 245 232
255 245 232
255 245 232
255 245 232
255 245 232
255 245 232
255 245 232
255 245 232
255 245 232
255 245 232
255 245 232
255 245 232
255 245 232
255 245 232
255 245 232
255 245 232
255 245 232
255 245 232
255 245 232
255 245 232
255 245 232
255 245 232
255 245 232
255 245 232
255 245 232
255 245 232
255 255 244
255 245 232
255 245 232
255 245 232
255 245 232
255 245 232
255 245 232
255 245 232
255 245 232
255 245 232
255 245 232
255 245 232
255 245 232
255 245 232
255 245 232
255 245 232
255 245 232
255 245 232
255 245 232
255 245 232
255 245 232
255 245 232
255 245 232
255 245 232
255 245 232
255 245 232
255 245 232
255 245 232
255 245 232
255 245 232
255 245 232
255 245 232
255 245 232
255 245 232
255 245 232
255 245 232
255 245 232
255 255 244
255 245 232
255 245 232
255 245 232
255 245 232
255 245 232
255 245 232
255 245 232
255 245 232
255 245 232
255 245 232
255 245 232
255 245 232
255 245 232
255 245 232
255 245 232
255 245 232
255 245 232
255 245 232
255 245 232
255 245 232
255 245 232
255 245 232
255 245 232
255 245 232
255 245 232
255 245 232
255 245 232
255 245 232
255 245 232
255 245 232
255 245 232
255 245 232
255 245 232
255 245 232
255 245 232
255 245 232
255 255 244
255 245 232
255 245 232
255 245 232
255 245 232
255 245 232
255 245 232
255 245 232
255 245 232
255 245 232
255 245 232
255 245 232
255 245 232
255 245 232
255 245 232
255 245 232
255 245 232
255 245 232
255 245 232
255 245 232
255 245 232
255 245 232
255 245 232
255 245 232
255 245 232
255 245 232
255 245 232
255 245 232
255 245 232
255 245 232
255 245 232
255 245 232
255 245 232
255 245 232
255 245 232
255 245 232
255 245 232
255 255 244
255 245 232
255 245 232
255 245 232
255 245 232
255 245 232
255 245 232
255 245 232
255 245 232
255 245 232
255 245 232
255 245 232
255 245 232
255 245 232
255 245 232
255 245 232
255 245 232
255 245 232
255 245 232
255 245 232
255 245 232
255 245 232
255 245 232
255 245 232
255 245 232
255 245 232
255 245 232
255 245 232
255 245 232
255 245 232
255 245 232
255 245 232
255 245 232
255 245 232
255 245 232
255 245 232
255 245 232
255 245 232
255 245 232
255 245 232
255 245 232
255 245 232
255 245 232
255 245 232
255 245 232
255 245 232
255 245 232
255 245 232
255 245 232
255 245 232
255 245 232
255 245 232
255 245 232
255 245 232
255 245 232
255 245 232
255 245 232
255 245 232
255 245 232
255 245 232
255 255 244
255 245 232
255 245 232
255 245 232
255 245 232
255 245 232
255 245 232
255 245 232
255 245 232
255 245 232
255 245 232
255 245 232
255 245 232
255 245 232
255 245 232
255 245 232
255 245 232
255 245 232
255 245 232
255 245 232
255 245 232
255 245 232
255 245 232
255 245 232
255 245 232
255 245 232
255 245 232
255 245 232
255 245 232
255 245 232
255 245 232
255 245 232
255 245 232
255 245 232
255 245 232
255 245 232
255 245 232
255 255 244
255 245 232
255 245 232
255 245 232
255 245 232
255 245 232
255 245 232
255 245 232
255 245 232
255 245 232
255 245 232
255 245 232
255 245 232
255 245 232
255 245 232
255 245 232
255 245 232
255 245 232
255 245 232
255 245 232
255 245 232
255 245 232
255 245 232
255 245 232
255 245 232
255 245 232
255 245 232
255 245 232
255 245 232
255 245 232
255 245 232
255 245 232
255 245 232
255 245 232
255 245 232
255 245 232
255 245 232
255 255 244
255 245 232
255 245 232
255 245 232
255 245 232
255 245 232
255 245 232
255 245 232
255 245 232
255 245 232
255 245 232
255 245 232
255 245 232
255 245 232
255 245 232
255 245 232
255 245 232
255 245 232
255 245 232
255 245 232
255 245 232
255 245 232
255 245 232
255 245 232
255 245 232
255 245 232
255 245 232
255 245 232
255 245 232
255 245 232
255 245 232
255 245 232
255 245 232
255 245 232
255 245 232
255 245 232
255 245 232
255 255 244
255 245 232
255 245 232
255 245 232
255 245 232
255 245 232
255 245 232
255 245 232
255 245 232
255 245 232
255 245 232
255 245 232
255 245 232
255 245 232
255 245 232
255 245 232
255 245 232
255 245 232
255 245 232
255 245 232
255 245 232
255 245 232
255 245 232
255 245 232
255 245 232
255 245 232
255 245 232
255 245 232
255 245 232
255 245 232
255 245 232
255 245 232
255 245 232
255 245 232
255 245 232
255 245 232
255 245 232
255 255 244
255 245 232
255 245 232
255 245 232
255 245 232
255 245 232
255 245 232
255 245 232
255 245 232
255 245 232
255 245 232
255 245 232
255 245 232
255 245 232
255 245 232
255 245 232
255 245 232
255 245 232
255 245 232
255 245 232
255 245 232
255 245 232
255 245 232
255 245 232
255 245 232
255 245 232
255 245 232
255 245 232
255 245 232
255 245 232
255 245 232
255 245 232
255 245 232
255 245 232
255 245 232
255 245 232
255 245 232
255 255 244
255 245 232
255 245 232
255 245 232
255 245 232
255 245 232
255 245 232
255 245 232
255 245 232
255 245 232
255 245 232
255 245 232
255 245 232
255 245 232
255 245 232
255 245 232
255 245 232
255 245 232
255 245 232
255 245 232
255 245 232
255 245 232
255 245 232
255 245 232
255 245 232
255 245 232
255 245 232
255 245 232
255 245 232
255 245 232
255 245 232
255 245 232
255 245 232
255 245 232
255 245 232
255 245 232
255 245 232
255 255 244
255 245 232
255 245 232
255 245 232
255 245 232
255 245 232
255 245 232
255 245 232
255 245 232
255 245 232
255 245 232
255 245 232
255 245 232
255 245 232
255 245 232
255 245 232
255 245 232
255 245 232
255 245 232
255 245 232
255 245 232
255 245 232
255 245 232
255 245 232
255 245 232
255 245 232
255 245 232
255 245 232
255 245 232
255 245 232
255 245 232
255 245 232
255 245 232
255 245 232
255 245 232
255 245 232
255 245 232
255 255 244
255 245 232
255 245 232
255 245 232
255 245 232
255 245 232
255 245 232
255 245 232
255 245 232
255 245 232
255 245 232
255 245 232
255 245 232
255 245 232
255 245 232
255 245 232
255 245 232
255 245 232
255 245 232
255 245 232
255 245 232
255 245 232
255 245 232
255 245 232
255 245 232
255 245 232
255 245 232
255 245 232
255 245 232
255 245 232
255 245 232
255 245 232
255 245 232
255 245 232
255 245 232
255 245 232
255 245 232
255 245 232
255 245 232
255 245 232
255 245 232
255 245 232
255 245 232
255 245 232
255 245 232
255 245 232
255 245 232
255 245 232
255 245 232
255 245 232
255 245 232
255 245 232
255 245 232
255 245 232
255 245 232
255 245 232
255 245 232
255 245 232
255 245 232
255 245 232
255 255 244
255 245 232
255 245 232
255 245 232
255 245 232
255 245 232
255 245 232
255 245 232
255 245 232
255 245 232
255 245 232
255 245 232
255 245 232
255 245 232
255 245 232
255 245 232
255 245 232
255 245 232
255 245 232
255 245 232
255 245 232
255 245 232
255 245 232
255 245 232
255 245 232
255 245 232
255 245 232
255 245 232
255 245 232
255 245 232
255 245 232
255 245 232
255 245 232
255 245 232
255 245 232
255 245 232
255 245 232
255 255 244
255 245 232
255 245 232
255 245 232
255 245 232
255 245 232
255 245 232
255 245 232
255 245 232
255 245 232
255 245 232
255 245 232
255 245 232
255 245 232
255 245 232
255 245 232
255 245 232
255 245 232
255 245 232
255 245 232
255 245 232
255 245 232
255 245 232
255 245 232
255 245 232
255 245 232
255 245 232
255 245 232
255 245 232
255 245 232
255 245 232
255 245 232
255 245 232
255 245 232
255 245 232
255 245 232
255 245 232
255 255 244
255 245 232
255 245 232
255 245 232
255 245 232
255 245 232
255 245 232
255 245 232
255 245 232
255 245 232
255 245 232
255 245 232
255 245 232
255 245 232
255 245 232
255 245 232
255 245 232
255 245 232
255 245 232
255 245 232
255 245 232
255 245 232
255 245 232
255 245 232
255 245 232
255 245 232
255 245 232
255 245 232
255 245 232
255 245 232
255 245 232
255 245 232
255 245 232
255 245 232
255 245 232
255 245 232
255 245 232
255 255 244
255 245 232
255 245 232
255 245 232
255 245 232
255 245 232
255 245 232
255 245 232
255 245 232
255 245 232
255 245 232
255 245 232
255 245 232
255 245 232
255 245 232
255 245 232
255 245 232
255 245 232
255 245 232
255 245 232
255 245 232
255 245 232
255 245 232
255 245 232
255 245 232
255 245 232
255 245 232
255 245 232
255 245 232
255 245 232
255 245 232
255 245 232
255 245 232
255 245 232
255 245 232
255 245 232
255 245 232
255 255 244
255 245 232
255 245 232
255 245 232
255 245 232
255 245 232
255 245 232
255 245 232
255 245 232
255 245 232
255 245 232
255 245 232
255 245 232
255 245 232
255 245 232
255 245 232
255 245 232
255 245 232
255 245 232
255 245 232
255 245 232
255 245 232
255 245 232
255 245 232
255 245 232
255 245 232
255 245 232
255 245 232
255 245 232
255 245 232
255 245 232
255 245 232
255 245 232
255 245 232
255 245 232
255 245 232
255 245 232
255 255 244
255 245 232
255 245 232
255 245 232
255 245 232
255 245 232
255 245 232
255 245 232
255 245 232
255 245 232
255 245 232
255 245 232
255 245 232
255 245 232
255 245 232
255 245 232
255 245 232
255 245 232
255 245 232
255 245 232
255 245 232
255 245 232
255 245 232
255 245 232
255 245 232
255 245 232
255 245 232
255 245 232
255 245 232
255 245 232
255 245 232
255 245 232
255 245 232
255 245 232
255 245 232
255 245 232
255 245 232
255 255 244
255 245 232
255 245 232
255 245 232
255 245 232
255 245 232
255 245 232
255 245 232
255 245 232
255 245 232
255 245 232
255 245 232
255 245 232
255 245 232
255 245 232
255 245 232
255 245 232
255 245 232
255 245 232
255 245 232
255 245 232
255 245 232
255 245 232
255 245 232
255 245 232
255 245 232
255 245 232
255 245 232
255 245 232
255 245 232
255 245 232
255 245 232
255 245 232
255 245 232
255 245 232
255 245 232
255 245 232
255 255 244
255 245 232
255 245 232
255 245 232
255 245 232
255 245 232
255 245 232
255 245 232
255 245 232
255 245 232
255 245 232
255 245 232
255 245 232
255 245 232
255 245 232
255 245 232
255 245 232
255 245 232
255 245 232
255 245 232
255 245 232
255 245 232
255 245 232
255 245 232
255 245 232
255 245 232
255 245 232
255 245 232
255 245 232
255 245 232
255 245 232
255 245 232
255 245 232
255 245 232
255 245 232
255 245 232
255 245 232
255 245 232
255 245 232
255 245 232
255 245 232
255 245 232
255 245 232
255 245 232
255 245 232
255 245 232
255 245 232
255 245 232
255 245 232
255 245 232
255 245 232
255 245 232
255 245 232
255 245 232
255 245 232
255 245 232
255 245 232
255 245 232
255 245 232
255 245 232
255 255 244
255 245 232
255 245 232
255 245 232
255 245 232
255 245 232
255 245 232
255 245 232
255 245 232
255 245 232
255 245 232
255 245 232
255 245 232
255 245 232
255 245 232
255 245 232
255 245 232
255 245 232
255 245 232
255 245 232
255 245 232
255 245 232
255 245 232
255 245 232
255 245 232
255 245 232
255 245 232
255 245 232
255 245 232
255 245 232
255 245 232
255 245 232
255 245 232
255 245 232
255 245 232
255 245 232
255 245 232
255 255 244
255 245 232
255 245 232
255 245 232
255 245 232
255 245 232
255 245 232
255 245 232
255 245 232
255 245 232
255 245 232
255 245 232
255 245 232
255 245 232
255 245 232
255 245 232
255 245 232
255 245 232
255 245 232
255 245 232
255 245 232
255 245 232
255 245 232
255 245 232
255 245 232
255 245 232
255 245 232
255 245 232
255 245 232
255 245 232
255 245 232
255 245 232
255 245 232
255 245 232
255 245 232
255 245 232
255 245 232
255 255 244
255 245 232
255 245 232
255 245 232
255 245 232
255 245 232
255 245 232
255 245 232
255 245 232
255 245 232
255 245 232
255 245 232
255 245 232
255 245 232
255 245 232
255 245 232
255 245 232
255 245 232
255 245 232
255 245 232
255 245 232
255 245 232
255 245 232
255 245 232
255 245 232
255 245 232
255 245 232
255 245 232
255 245 232
255 245 232
255 245 232
255 245 232
255 245 232
255 245 232
255 245 232
255 245 232
255 245 232
255 255 244
255 245 232
255 245 232
255 245 232
255 245 232
255 245 232
255 245 232
255 245 232
255 245 232
255 245 232
255 245 232
255 245 232
255 245 232
255 245 232
255 245 232
255 245 232
255 245 232
255 245 232
255 245 232
255 245 232
255 245 232
255 245 232
255 245 232
255 245 232
255 245 232
255 245 232
255 245 232
255 245 232
255 245 232
255 245 232
255 245 232
255 245 232
255 245 232
255 245 232
255 245 232
255 245 232
255 245 232
255 255 244
255 245 232
255 245 232
255 245 232
255 245 232
255 245 232
255 245 232
255 245 232
255 245 232
255 245 232
255 245 232
255 245 232
255 245 232
255 245 232
255 245 232
255 245 232
255 245 232
255 245 232
255 245 232
255 245 232
255 245 232
255 245 232
255 245 232
255 245 232
255 245 232
255 245 232
255 245 232
255 245 232
255 245 232
255 245 232
255 245 232
255 245 232
255 245 232
255 245 232
255 245 232
255 245 232
255 245 232
255 255 244
255 245 232
255 245 232
255 245 232
255 245 232
255 245 232
255 245 232
255 245 232
255 245 232
255 245 232
255 245 232
255 245 232
255 245 232
255 245 232
255 245 232
255 245 232
255 245 232
255 245 232
255 245 232
255 245 232
255 245 232
255 245 232
255 245 232
255 245 232
255 245 232
255 245 232
255 245 232
255 245 232
255 245 232
255 245 232
255 245 232
255 245 232
255 245 232
255 245 232
255 245 232
255 245 232
255 245 232
255 255 244
255 245 232
255 245 232
255 245 232
255 245 232
255 245 232
255 245 232
255 245 232
255 245 232
255 245 232
255 245 232
255 245 232
255 245 232
255 245 232
255 245 232
255 245 232
255 245 232
255 245 232
255 245 232
255 245 232
255 245 232
255 245 232
255 245 232
255 245 232
255 245 232
255 245 232
255 245 232
255 245 232
255 245 232
255 245 232
255 245 232
255 245 232
255 245 232
255 245 232
255 245 232
255 245 232
255 245 232
255 255 244
255 245 232
255 245 232
255 245 232
255 245 232
255 245 232
255 245 232
255 245 232
255 245 232
255 245 232
255 245 232
255 245 232
255 245 232
255 245 232
255 245 232
255 245 232
255 245 232
255 245 232
255 245 232
255 245 232
255 245 232
255 245 232
255 245 232
255 245 232
255 245 232
255 245 232
255 245 232
255 245 232
255 245 232
255 245 232
255 245 232
255 245 232
255 245 232
255 245 232
255 245 232
255 245 232
255 245 232
255 245 232
255 245 232
255 245 232
255 245 232
255 245 232
255 245 232
255 245 232
255 245 232
255 245 232
255 245 232
255 245 232
255 245 232
255 245 232
255 245 232
255 245 232
255 245 232
255 245 232
255 245 232
255 245 232
255 245 232
255 245 232
255 245 232
255 245 232
255 255 244
255 245 232
255 245 232
255 245 232
255 245 232
255 245 232
255 245 232
255 245 232
255 245 232
255 245 232
255 245 232
255 245 232
255 245 232
255 245 232
255 245 232
255 245 232
255 245 232
255 245 232
255 245 232
255 245 232
255 245 232
255 245 232
255 245 232
255 245 232
255 245 232
255 245 232
255 245 232
255 245 232
255 245 232
255 245 232
255 245 232
255 245 232
255 245 232
255 245 232
255 245 232
255 245 232
255 245 232
255 255 244
255 245 232
255 245 232
255 245 232
255 245 232
255 245 232
255 245 232
255 245 232
255 245 232
255 245 232
255 245 232
255 245 232
255 245 232
255 245 232
255 245 232
255 245 232
255 245 232
255 245 232
255 245 232
255 245 232
255 245 232
255 245 232
255 245 232
255 245 232
255 245 232
255 245 232
255 245 232
255 245 232
255 245 232
255 245 232
255 245 232
255 245 232
255 245 232
255 245 232
255 245 232
255 245 232
255 245 232
255 255 244
255 245 232
255 245 232
255 245 232
255 245 232
255 245 232
255 245 232
255 245 232
255 245 232
255 245 232
255 245 232
255 245 232
255 245 232
255 245 232
255 245 232
255 245 232
255 245 232
255 245 232
255 245 232
255 245 232
255 245 232
255 245 232
255 245 232
255 245 232
255 245 232
255 245 232
255 245 232
255 245 232
255 245 232
255 245 232
255 245 232
255 245 232
255 245 232
255 245 232
255 245 232
255 245 232
255 245 232
255 255 244
255 245 232
255 245 232
255 245 232
255 245 232
255 245 232
255 245 232
255 245 232
255 245 232
255 245 232
255 245 232
255 245 232
255 245 232
255 245 232
255 245 232
255 245 232
255 245 232
255 245 232
255 245 232
255 245 232
255 245 232
255 245 232
255 245 232
255 245 232
255 245 232
255 245 232
255 245 232
255 245 232
255 245 232
255 245 232
255 245 232
255 245 232
255 245 232
255 245 232
255 245 232
255 245 232
255 245 232
255 255 244
255 245 232
255 245 232
255 245 232
255 245 232
255 245 232
255 245 232
255 245 232
255 245 232
255 245 232
255 245 232
255 245 232
255 245 232
255 245 232
255 245 232
255 245 232
255 245 232
255 245 232
255 245 232
255 245 232
255 245 232
255 245 232
255 245 232
255 245 232
255 245 232
255 245 232
255 245 232
255 245 232
255 245 232
255 245 232
255 245 232
255 245 232
255 245 232
255 245 232
255 245 232
255 245 232
255 245 232
255 255 244
255 245 232
255 245 232
255 245 232
255 245 232
255 245 232
255 245 232
255 245 232
255 245 232
255 245 232
255 245 232
255 245 232
255 245 232
255 245 232
255 245 232
255 245 232
255 245 232
255 245 232
255 245 232
255 245 232
255 245 232
255 245 232
255 245 232
255 245 232
255 245 232
255 245 232
255 245 232
255 245 232
255 245 232
255 245 232
255 245 232
255 245 232
255 245 232
255 245 232
255 245 232
255 245 232
255 245 232
255 255 244
255 245 232
255 245 232
255 245 232
255 245 232
255 245 232
255 245 232
255 245 232
255 245 232
255 245 232
255 245 232
255 245 232
255 245 232
255 245 232
255 245 232
255 245 232
255 245 232
255 245 232
255 245 232
255 245 232
255 245 232
255 245 232
255 245 232
255 245 232
255 245 232
255 245 232
255 245 232
255 245 232
255 245 232
255 245 232
255 245 232
255 245 232
255 245 232
255 245 232
255 245 232
255 245 232
255 245 232
255 255 244
255 245 232
255 245 232
255 245 232
255 245 232
255 245 232
255 245 232
255 245 232
255 245 232
255 245 232
255 245 232
255 245 232
255 245 232
255 245 232
255 245 232
255 245 232
255 245 232
255 245 232
255 245 232
255 245 232
255 245 232
255 245 232
255 245 232
255 245 232
255 245 232
255 245 232
255 245 232
255 245 232
255 245 232
255 245 232
255 245 232
255 245 232
255 245 232
255 245 232
255 245 232
255 245 232
255 245 232
255 245 232
255 245 232
255 245 232
255 245 232
255 245 232
255 245 232
255 245 232
255 245 232
255 245 232
255 245 232
255 245 232
255 245 232
255 245 232
255 245 232
255 245 232
255 245 232
255 245 232
255 245 232
255 245 232
255 245 232
255 245 232
255 245 232
255 245 232
255 255 244
255 245 232
255 245 232
255 245 232
255 245 232
255 245 232
255 245 232
255 245 232
255 245 232
255 245 232
255 245 232
255 245 232
255 245 232
255 245 232
255 245 232
255 245 232
255 245 232
255 245 232
255 245 232
255 245 232
255 245 232
255 245 232
255 245 232
255 245 232
255 245 232
255 245 232
255 245 232
255 245 232
255 245 232
255 245 232
255 245 232
255 245 232
255 245 232
255 245 232
255 245 232
255 245 232
255 245 232
255 255 244
255 245 232
255 245 232
255 245 232
255 245 232
255 245 232
255 245 232
255 245 232
255 245 232
255 245 232
255 245 232
255 245 232
255 245 232
255 245 232
255 245 232
255 245 232
255 245 232
255 245 232
255 245 232
255 245 232
255 245 232
255 245 232
255 245 232
255 245 232
255 245 232
255 245 232
255 245 232
255 245 232
255 245 232
255 245 232
255 245 232
255 245 232
255 245 232
255 245 232
255 245 232
255 245 232
255 245 232
255 255 244
255 245 232
255 245 232
255 245 232
255 245 232
255 245 232
255 245 232
255 245 232
255 245 232
255 245 232
255 245 232
255 245 232
255 245 232
255 245 232
255 245 232
255 245 232
255 245 232
255 245 232
255 245 232
255 245 232
255 245 232
255 245 232
255 245 232
255 245 232
255 245 232
255 245 232
255 245 232
255 245 232
255 245 232
255 245 232
255 245 232
255 245 232
255 245 232
255 245 232
255 245 232
255 245 232
255 245 232
255 255 244
255 245 232
255 245 232
255 245 232
255 245 232
255 245 232
255 245 232
255 245 232
255 245 232
255 245 232
255 245 232
255 245 232
255 245 232
255 245 232
255 245 232
255 245 232
255 245 232
255 245 232
255 245 232
255 245 232
255 245 232
255 245 232
255 245 232
255 245 232
255 245 232
255 245 232
255 245 232
255 245 232
255 245 232
255 245 232
255 245 232
255 245 232
255 245 232
255 245 232
255 245 232
255 245 232
255 245 232
255 255 244
255 245 232
255 245 232
255 245 232
255 245 232
255 245 232
255 245 232
255 245 232
255 245 232
255 245 232
255 245 232
255 245 232
255 245 232
255 245 232
255 245 232
255 245 232
255 245 232
255 245 232
255 245 232
255 245 232
255 245 232
255 245 232
255 245 232
255 245 232
255 245 232
255 245 232
255 245 232
255 245 232
255 245 232
255 245 232
255 245 232
255 245 232
255 245 232
255 245 232
255 245 232
255 245 232
255 245 232
255 255 244
255 245 232
255 245 232
255 245 232
255 245 232
255 245 232
255 245 232
255 245 232
255 245 232
255 245 232
255 245 232
255 245 232
255 245 232
255 245 232
255 245 232
255 245 232
255 245 232
255 245 232
255 245 232
255 245 232
255 245 232
255 245 232
255 245 232
255 245 232
255 245 232
255 245 232
255 245 232
255 245 232
255 245 232
255 245 232
255 245 232
255 245 232
255 245 232
255 245 232
255 245 232
255 245 232
255 245 232
255 255 244
255 245 232
255 245 232
255 245 232
255 245 232
255 245 232
255 245 232
255 245 232
255 245 232
255 245 232
255 245 232
255 245 232
255 245 232
255 245 232
255 245 232
255 245 232
255 245 232
255 245 232
255 245 232
255 245 232
255 245 232
255 245 232
255 245 232
255 245 232
255 245 232
255 245 232
255 245 232
255 245 232
255 245 232
255 245 232
255 245 232
255 245 232
255 245 232
255 245 232
255 245 232
255 245 232
255 245 232
255 255 244
255 245 232
255 245 232
255 245 232
255 245 232
255 245 232
255 245 232
255 245 232
255 245 232
255 245 232
255 245 232
255 245 232
255 245 232
255 245 232
255 245 232
255 245 232
255 245 232
255 245 232
255 245 232
255 245 232
255 245 232
255 245 232
255 245 232
255 245 232
255 245 232
255 245 232
255 245 232
255 245 232
255 245 232
255 245 232
255 245 232
255 245 232
255 245 232
255 245 232
255 245 232
255 245 232
255 245 232
255 245 232
255 245 232
255 245 232
255 245 232
255 245 232
255 245 232
255 245 232
255 245 232
255 245 232
255 245 232
255 245 232
255 245 232
255 245 232
255 245 232
255 245 232
255 245 232
255 245 232
255 245 232
255 245 232
255 245 232
255 245 232
255 245 232
255 245 232
255 255 244
255 245 232
255 245 232
255 245 232
255 245 232
255 245 232
255 245 232
255 245 232
255 245 232
255 245 232
255 245 232
255 245 232
255 245 232
255 245 232
255 245 232
255 245 232
255 245 232
255 245 232
255 245 232
255 245 232
255 245 232
255 245 232
255 245 232
255 245 232
255 245 232
255 245 232
255 245 232
255 245 232
255 245 232
255 245 232
255 245 232
255 245 232
255 245 232
255 245 232
255 245 232
255 245 232
255 245 232
255 255 244
255 245 232
255 245 232
255 245 232
255 245 232
255 245 232
255 245 232
255 245 232
255 245 232
255 245 232
255 245 232
255 245 232
255 245 232
255 245 232
255 245 232
255 245 232
255 245 232
255 245 232
255 245 232
255 245 232
255 245 232
255 245 232
255 245 232
255 245 232
255 245 232
255 245 232
255 245 232
255 245 232
255 245 232
255 245 232
255 245 232
255 245 232
255 245 232
255 245 232
255 245 232
255 245 232
255 245 232
255 255 244
255 245 232
255 245 232
255 245 232
255 245 232
255 245 232
255 245 232
255 245 232
255 245 232
255 245 232
255 245 232
255 245 232
255 245 232
255 245 232
255 245 232
255 245 232
255 245 232
255 245 232
255 245 232
255 245 232
255 245 232
255 245 232
255 245 232
255 245 232
255 245 232
255 245 232
255 245 232
255 245 232
255 245 232
255 245 232
255 245 232
255 245 232
255 245 232
255 245 232
255 245 232
255 245 232
255 245 232
255 255 244
255 245 232
255 245 232
255 245 232
255 245 232
255 245 232
255 245 232
255 245 232
255 245 232
255 245 232
255 245 232
255 245 232
255 245 232
255 245 232
255 245 232
255 245 232
255 245 232
255 245 232
255 245 232
255 245 232
255 245 232
255 245 232
255 245 232
255 245 232
255 245 232
255 245 232
255 245 232
255 245 232
255 245 232
255 245 232
255 245 232
255 245 232
255 245 232
255 245 232
255 245 232
255 245 232
255 245 232
255 255 244
255 245 232
255 245 232
255 245 232
255 245 232
255 245 232
255 245 232
255 245 232
255 245 232
255 245 232
255 245 232
255 245 232
255 245 232
255 245 232
255 245 232
255 245 232
255 245 232
255 245 232
255 245 232
255 245 232
255 245 232
255 245 232
255 245 232
255 245 232
255 245 232
255 245 232
255 245 232
255 245 232
255 245 232
255 245 232
255 245 232
255 245 232
255 245 232
255 245 232
255 245 232
255 245 232
255 245 232
255 255 244
255 245 232
255 245 232
255 245 232
255 245 232
255 245 232
255 245 232
255 245 232
255 245 232
255 245 232
255 245 232
255 245 232
255 245 232
255 245 232
255 245 232
255 245 232
255 245 232
255 245 232
255 245 232
255 245 232
255 245 232
255 245 232
255 245 232
255 245 232
255 245 232
255 245 232
255 245 232
255 245 232
255 245 232
255 245 232
255 245 232
255 245 232
255 245 232
255 245 232
255 245 232
255 245 232
255 245 232
255 255 244
255 245 232
255 245 232
255 245 232
255 245 232
255 245 232
255 245 232
255 245 232
255 245 232
255 245 232
255 245 232
255 245 232
255 245 232
255 245 232
255 245 232
255 245 232
255 245 232
255 245 232
255 245 232
255 245 232
255 245 232
255 245 232
255 245 232
255 245 232
255 245 232
255 245 232
255 245 232
255 245 232
255 245 232
255 245 232
255 245 232
255 245 232
255 245 232
255 245 232
255 245 232
255 245 232
255 245 232
255 255 244
255 245 232
255 245 232
255 245 232
255 245 232
255 245 232
255 245 232
255 245 232
255 245 232
255 245 232
255 245 232
255 245 232
255 245 232
255 245 232
255 245 232
255 245 232
255 245 232
255 245 232
255 245 232
255 245 232
255 245 232
255 245 232
255 245 232
255 245 232
255 245 232
255 245 232
255 245 232
255 245 232
255 245 232
255 245 232
255 245 232
255 245 232
255 245 232
255 245 232
255 245 232
255 245 232
255 245 232
255 245 232
255 245 232
255 245 232
255 245 232
255 245 232
255 245 232
255 245 232
255 245 232
255 245 232
255 245 232
255 245 232
255 245 232
255 245 232
255 245 232
255 245 232
255 245 232
255 245 232
255 245 232
255 245 232
255 245 232
255 245 232
255 245 232
255 245 232
255 255 244
255 245 232
255 245 232
255 245 232
255 245 232
255 245 232
255 245 232
255 245 232
255 245 232
255 245 232
255 245 232
255 245 232
255 245 232
255 245 232
255 245 232
255 245 232
255 245 232
255 245 232
255 245 232
255 245 232
255 245 232
255 245 232
255 245 232
255 245 232
255 245 232
255 245 232
255 245 232
255 245 232
255 245 232
255 245 232
255 245 232
255 245 232
255 245 232
255 245 232
255 245 232
255 245 232
255 245 232
255 255 244
255 245 232
255 245 232
255 245 232
255 245 232
255 245 232
255 245 232
255 245 232
255 245 232
255 245 232
255 245 232
255 245 232
255 245 232
255 245 232
255 245 232
255 245 232
255 245 232
255 245 232
255 245 232
255 245 232
255 245 232
255 245 232
255 245 232
255 245 232
255 245 232
255 245 232
255 245 232
255 245 232
255 245 232
255 245 232
255 245 232
255 245 232
255 245 232
255 245 232
255 245 232
255 245 232
255 245 232
255 255 244
255 245 232
255 245 232
255 245 232
255 245 232
255 245 232
255 245 232
255 245 232
255 245 232
255 245 232
255 245 232
255 245 232
255 245 232
255 245 232
255 245 232
255 245 232
255 245 232
255 245 232
255 245 232
255 245 232
255 245 232
255 245 232
255 245 232
255 245 232
255 245 232
255 245 232
255 245 232
255 245 232
255 245 232
255 245 232
255 245 232
255 245 232
255 245 232
255 245 232
255 245 232
255 245 232
255 245 232
255 255 244
255 245 232
255 245 232
255 245 232
255 245 232
255 245 232
255 245 232
255 245 232
255 245 232
255 245 232
255 245 232
255 245 232
255 245 232
255 245 232
255 245 232
255 245 232
255 245 232
255 245 232
255 245 232
255 245 232
255 245 232
255 245 232
255 245 232
255 245 232
255 245 232
255 245 232
255 245 232
255 245 232
255 245 232
255 245 232
255 245 232
255 245 232
255 245 232
255 245 232
255 245 232
255 245 232
255 245 232
255 255 244
255 245 232
255 245 232
255 245 232
255 245 232
255 245 232
255 245 232
255 245 232
255 245 232
255 245 232
255 245 232
255 245 232
255 245 232
255 245 232
255 245 232
255 245 232
255 245 232
255 245 232
255 245 232
255 245 232
255 245 232
255 245 232
255 245 232
255 245 232
255 245 232
255 245 232
255 245 232
255 245 232
255 245 232
255 245 232
255 245 232
255 245 232
255 245 232
255 245 232
255 245 232
255 245 232
255 245 232
255 255 244
255 245 232
255 245 232
255 245 232
255 245 232
255 245 232
255 245 232
255 245 232
255 245 232
255 245 232
255 245 232
255 245 232
255 245 232
255 245 232
255 245 232
255 245 232
255 245 232
255 245 232
255 245 232
255 245 232
255 245 232
255 245 232
255 245 232
255 245 232
255 245 232
255 245 232
255 245 232
255 245 232
255 245 232
255 245 232
255 245 232
255 245 232
255 245 232
255 245 232
255 245 232
255 245 232
255 245 232
255 255 244
255 245 232
255 245 232
255 245 232
255 245 232
255 245 232
255 245 232
255 245 232
255 245 232
255 245 232
255 245 232
255 245 232
255 245 232
255 245 232
255 245 232
255 245 232
255 245 232
255 245 232
255 245 232
255 245 232
255 245 232
255 245 232
255 245 232
255 245 232
255 245 232
255 245 232
255 245 232
255 245 232
255 245 232
255 245 232
255 245 232
255 245 232
255 245 232
255 245 232
255 245 232
255 245 232
255 245 232
255 255 244
255 245 232
255 245 232
255 245 232
255 245 232
255 245 232
255 245 232
255 245 232
255 245 232
255 245 232
255 245 232
255 245 232
255 245 232
255 245 232
255 245 232
255 245 232
255 245 232
255 245 232
255 245 232
255 245 232
255 245 232
255 245 232
255 245 232
255 245 232
255 245 232
255 245 232
255 245 232
255 245 232
255 245 232
255 245 232
255 245 232
255 245 232
255 245 232
255 245 232
255 245 232
255 245 232
255 245 232
255 245 232
255 245 232
255 245 232
255 245 232
255 245 232
255 245 232
255 245 232
255 245 232
255 245 232
255 245 232
255 245 232
255 245 232
255 245 232
255 245 232
255 245 232
255 245 232
255 245 232
255 245 232
255 245 232
255 245 232
255 245 232
255 245 232
255 245 232
255 255 244
255 245 232
255 245 232
255 245 232
255 245 232
255 245 232
255 245 232
255 245 232
255 245 232
255 245 232
255 245 232
255 245 232
255 245 232
255 245 232
255 245 232
255 245 232
255 245 232
255 245 232
255 245 232
255 245 232
255 245 232
255 245 232
255 245 232
255 245 232
255 245 232
255 245 232
255 245 232
255 245 232
255 245 232
255 245 232
255 245 232
255 245 232
255 245 232
255 245 232
255 245 232
255 245 232
255 245 232
255 255 244
255 245 232
255 245 232
255 245 232
255 245 232
255 245 232
255 245 232
255 245 232
255 245 232
255 245 232
255 245 232
255 245 232
255 245 232
255 245 232
255 245 232
255 245 232
255 245 232
255 245 232
255 245 232
255 245 232
255 245 232
255 245 232
255 245 232
255 245 232
255 245 232
255 245 232
255 245 232
255 245 232
255 245 232
255 245 232
255 245 232
255 245 232
255 245 232
255 245 232
255 245 232
255 245 232
255 245 232
255 255 244
255 245 232
255 245 232
255 245 232
255 245 232
255 245 232
255 245 232
255 245 232
255 245 232
255 245 232
255 245 232
255 245 232
255 245 232
255 245 232
255 245 232
255 245 232
255 245 232
255 245 232
255 245 232
255 245 232
255 245 232
255 245 232
255 245 232
255 245 232
255 245 232
255 245 232
255 245 232
255 245 232
255 245 232
255 245 232
255 245 232
255 245 232
255 245 232
255 245 232
255 245 232
255 245 232
255 245 232
255 255 244
255 245 232
255 245 232
255 245 232
255 245 232
255 245 232
255 245 232
255 245 232
255 245 232
255 245 232
255 245 232
255 245 232
255 245 232
255 245 232
255 245 232
255 245 232
255 245 232
255 245 232
255 245 232
255 245 232
255 245 232
255 245 232
255 245 232
255 245 232
255 245 232
255 245 232
255 245 232
255 245 232
255 245 232
255 245 232
255 245 232
255 245 232
255 245 232
255 245 232
255 245 232
255 245 232
255 245 232
255 255 244
255 245 232
255 245 232
255 245 232
255 245 232
255 245 232
255 245 232
255 245 232
255 245 232
255 245 232
255 245 232
255 245 232
255 245 232
255 245 232
255 245 232
255 245 232
255 245 232
255 245 232
255 245 232
255 245 232
255 245 232
255 245 232
255 245 232
255 245 232
255 245 232
255 245 232
255 245 232
255 245 232
255 245 232
255 245 232
255 245 232
255 245 232
255 245 232
255 245 232
255 245 232
255 245 232
255 245 232
255 255 244
255 245 232
255 245 232
255 245 232
255 245 232
255 245 232
255 245 232
255 245 232
255 245 232
255 245 232
255 245 232
255 245 232
255 245 232
255 245 232
255 245 232
255 245 232
255 245 232
255 245 232
255 245 232
255 245 232
255 245 232
255 245 232
255 245 232
255 245 232
255 245 232
255 245 232
255 245 232
255 245 232
255 245 232
255 245 232
255 245 232
255 245 232
255 245 232
255 245 232
255 245 232
255 245 232
255 245 232
255 255 244
255 245 232
255 245 232
255 245 232
255 245 232
255 245 232
255 245 232
255 245 232
255 245 232
255 245 232
255 245 232
255 245 232
255 245 232
255 245 232
255 245 232
255 245 232
255 245 232
255 245 232
255 245 232
255 245 232
255 245 232
255 245 232
255 245 232
255 245 232
255 245 232
255 245 232
255 245 232
255 245 232
255 245 232
255 245 232
255 245 232
255 245 232
255 245 232
255 245 232
255 245 232
255 245 232
255 245 232
255 255 244
255 245 232
255 245 232
255 245 232
255 245 232
255 245 232
255 245 232
255 245 232
255 245 232
255 245 232
255 245 232
255 245 232
255 245 232
255 245 232
255 245 232
255 245 232
255 245 232
255 245 232
255 245 232
255 245 232
255 245 232
255 245 232
255 245 232
255 245 232
255 245 232
255 245 232
255 245 232
255 245 232
255 245 232
255 245 232
255 245 232
255 245 232
255 245 232
255 245 232
255 245 232
255 245 232
255 245 232
255 245 232
255 245 232
255 245 232
255 245 232
255 245 232
255 245 232
255 245 232
255 245 232
255 245 232
255 245 232
255 245 232
255 245 232
255 245 232
255 245 232
255 245 232
255 245 232
255 245 232
255 245 232
255 245 232
255 245 232
255 245 232
255 245 232
255 245 232
255 255 244
255 245 232
255 245 232
255 245 232
255 245 232
255 245 232
255 245 232
255 245 232
255 245 232
255 245 232
255 245 232
255 245 232
255 245 232
255 245 232
255 245 232
255 245 232
255 245 232
255 245 232
255 245 232
255 245 232
255 245 232
255 245 232
255 245 232
255 245 232
255 245 232
255 245 232
255 245 232
255 245 232
255 245 232
255 245 232
255 245 232
255 245 232
255 245 232
255 245 232
255 245 232
255 245 232
255 245 232
255 255 244
255 245 232
255 245 232
255 245 232
255 245 232
255 245 232
255 245 232
255 245 232
255 245 232
255 245 232
255 245 232
255 245 232
255 245 232
255 245 232
255 245 232
255 245 232
255 245 232
255 245 232
255 245 232
255 245 232
255 245 232
255 245 232
255 245 232
255 245 232
255 245 232
255 245 232
255 245 232
255 245 232
255 245 232
255 245 232
255 245 232
255 245 232
255 245 232
255 245 232
255 245 232
255 245 232
255 245 232
255 255 244
255 245 232
255 245 232
255 245 232
255 245 232
255 245 232
255 245 232
255 245 232
255 245 232
255 245 232
255 245 232
255 245 232
255 245 232
255 245 232
255 245 232
255 245 232
255 245 232
255 245 232
255 245 232
255 245 232
255 245 232
255 245 232
255 245 232
255 245 232
255 245 232
255 245 232
255 245 232
255 245 232
255 245 232
255 245 232
255 245 232
255 245 232
255 245 232
255 245 232
255 245 232
255 245 232
255 245 232
255 255 244
255 245 232
255 245 232
255 245 232
255 245 232
255 245 232
255 245 232
255 245 232
255 245 232
255 245 232
255 245 232
255 245 232
255 245 232
255 245 232
255 245 232
255 245 232
255 245 232
255 245 232
255 245 232
255 245 232
255 245 232
255 245 232
255 245 232
255 245 232
255 245 232
255 245 232
255 245 232
255 245 232
255 245 232
255 245 232
255 245 232
255 245 232
255 245 232
255 245 232
255 245 232
255 245 232
255 245 232
255 255 244
255 245 232
255 245 232
255 245 232
255 245 232
255 245 232
255 245 232
255 245 232
255 245 232
255 245 232
255 245 232
255 245 232
255 245 232
255 245 232
255 245 232
255 245 232
255 245 232
255 245 232
255 245 232
255 245 232
255 245 232
255 245 232
255 245 232
255 245 232
255 245 232
255 245 232
255 245 232
255 245 232
255 245 232
255 245 232
255 245 232
255 245 232
255 245 232
255 245 232
255 245 232
255 245 232
255 245 232
255 255 244
255 245 232
255 245 232
255 245 232
255 245 232
255 245 232
255 245 232
255 245 232
255 245 232
255 245 232
255 245 232
255 245 232
255 245 232
255 245 232
255 245 232
255 245 232
255 245 232
255 245 232
255 245 232
255 245 232
255 245 232
255 245 232
255 245 232
255 245 232
255 245 232
255 245 232
255 245 232
255 245 232
255 245 232
255 245 232
255 245 232
255 245 232
255 245 232
255 245 232
255 245 232
255 245 232
255 245 232
255 255 244
255 245 232
255 245 232
255 245 232
255 245 232
255 245 232
255 245 232
255 245 232
255 245 232
255 245 232
255 245 232
255 245 232
255 245 232
255 245 232
255 245 232
255 245 232
255 245 232
255 245 232
255 245 232
255 245 232
255 245 232
255 245 232
255 245 232
255 245 232
255 245 232
255 245 232
255 245 232
255 245 232
255 245 232
255 245 232
255 245 232
255 245 232
255 245 232
255 245 232
255 245 232
255 245 232
255 245 232
255 255 244
255 245 232
255 245 232
255 245 232
255 245 232
255 245 232
255 245 232
255 245 232
255 245 232
255 245 232
255 245 232
255 245 232
255 245 232
255 245 232
255 245 232
255 245 232
255 245 232
255 245 232
255 245 232
255 245 232
255 245 232
255 245 232
255 245 232
255 245 232
255 245 232
255 245 232
255 245 232
255 245 232
255 245 232
255 245 232
255 245 232
255 245 232
255 245 232
255 245 232
255 245 232
255 245 232
255 245 232
255 245 232
255 245 232
255 245 232
255 245 232
255 245 232
255 245 232
255 245 232
255 245 232
255 245 232
255 245 232
255 245 232
255 245 232
255 245 232
255 245 232
255 245 232
255 245 232
255 245 232
255 245 232
255 245 232
255 245 232
255 245 232
255 245 232
255 245 232
255 255 244
255 245 232
255 245 232
255 245 232
255 245 232
255 245 232
255 245 232
255 245 232
255 245 232
255 245 232
255 245 232
255 245 232
255 245 232
255 245 232
255 245 232
255 245 232
255 245 232
255 245 232
255 245 232
255 245 232
255 245 232
255 245 232
255 245 232
255 245 232
255 245 232
255 245 232
255 245 232
255 245 232
255 245 232
255 245 232
255 245 232
255 245 232
255 245 232
255 245 232
255 245 232
255 245 232
255 245 232
255 255 244
255 245 232
255 245 232
255 245 232
255 245 232
255 245 232
255 245 232
255 245 232
255 245 232
255 245 232
255 245 232
255 245 232
255 245 232
255 245 232
255 245 232
255 245 232
255 245 232
255 245 232
255 245 232
255 245 232
255 245 232
255 245 232
255 245 232
255 245 232
255 245 232
255 245 232
255 245 232
255 245 232
255 245 232
255 245 232
255 245 232
255 245 232
255 245 232
255 245 232
255 245 232
255 245 232
255 245 232
255 255 244
255 245 232
255 245 232
255 245 232
255 245 232
255 245 232
255 245 232
255 245 232
255 245 232
255 245 232
255 245 232
255 245 232
255 245 232
255 245 232
255 245 232
255 245 232
255 245 232
255 245 232
255 245 232
255 245 232
255 245 232
255 245 232
255 245 232
255 245 232
255 245 232
255 245 232
255 245 232
255 245 232
255 245 232
255 245 232
255 245 232
255 245 232
255 245 232
255 245 232
255 245 232
255 245 232
255 245 232
255 255 244
255 245 232
255 245 232
255 245 232
255 245 232
255 245 232
255 245 232
255 245 232
255 245 232
255 245 232
255 245 232
255 245 232
255 245 232
255 245 232
255 245 232
255 245 232
255 245 232
255 245 232
255 245 232
255 245 232
255 245 232
255 245 232
255 245 232
255 245 232
255 245 232
255 245 232
255 245 232
255 245 232
255 245 232
255 245 232
255 245 232
255 245 232
255 245 232
255 245 232
255 245 232
255 245 232
255 245 232
255 255 244
255 245 232
255 245 232
255 245 232
255 245 232
255 245 232
255 245 232
255 245 232
255 245 232
255 245 232
255 245 232
255 245 232
255 245 232
255 245 232
255 245 232
255 245 232
255 245 232
255 245 232
255 245 232
255 245 232
255 245 232
255 245 232
255 245 232
255 245 232
255 245 232
255 245 232
255 245 232
255 245 232
255 245 232
255 245 232
255 245 232
255 245 232
255 245 232
255 245 232
255 245 232
255 245 232
255 245 232
255 255 244
255 245 232
255 245 232
255 245 232
255 245 232
255 245 232
255 245 232
255 245 232
255 245 232
255 245 232
255 245 232
255 245 232
255 245 232
255 245 232
255 245 232
255 245 232
255 245 232
255 245 232
255 245 232
255 245 232
255 245 232
255 245 232
255 245 232
255 245 232
255 245 232
255 245 232
255 245 232
255 245 232
255 245 232
255 245 232
255 245 232
255 245 232
255 245 232
255 245 232
255 245 232
255 245 232
255 245 232
255 255 244
255 245 232
255 245 232
255 245 232
255 245 232
255 245 232
255 245 232
255 245 232
255 245 232
255 245 232
255 245 232
255 245 232
255 245 232
255 245 232
255 245 232
255 245 232
255 245 232
255 245 232
255 245 232
255 245 232
255 245 232
255 245 232
255 245 232
255 245 232
255 245 232
255 245 232
255 245 232
255 245 232
255 245 232
255 245 232
255 245 232
255 245 232
255 245 232
255 245 232
255 245 232
255 245 232
255 245 232
255 255 244
255 245 232
255 245 232
255 245 232
255 245 232
255 245 232
255 245 232
255 245 232
255 245 232
255 245 232
255 245 232
255 245 232
255 245 232
255 245 232
255 245 232
255 245 232
255 245 232
255 245 232
255 245 232
255 245 232
255 245 232
255 245 232
255 245 232
255 245 232
255 245 232
255 245 232
255 245 232
255 245 232
255 245 232
255 245 232
255 245 232
255 245 232
255 245 232
255 245 232
255 245 232
255 245 232
255 245 232
255 245 232
255 245 232
255 245 232
255 245 232
255 245 232
255 245 232
255 245 232
255 245 232
255 245 232
255 245 232
255 245 232
255 245 232
255 245 232
255 245 232
255 245 232
255 245 232
255 245 232
255 245 232
255 245 232
255 245 232
255 245 232
255 245 232
255 245 232
255 255 244
255 245 232
255 245 232
255 245 232
255 245 232
255 245 232
255 245 232
255 245 232
255 245 232
255 245 232
255 245 232
255 245 232
255 245 232
255 245 232
255 245 232
255 245 232
255 245 232
255 245 232
255 245 232
255 245 232
255 245 232
255 245 232
255 245 232
255 245 232
255 245 232
255 245 232
255 245 232
255 245 232
255 245 232
255 245 232
255 245 232
255 245 232
255 245 232
255 245 232
255 245 232
255 245 232
255 245 232
255 255 244
255 245 232
255 245 232
255 245 232
255 245 232
255 245 232
255 245 232
255 245 232
255 245 232
255 245 232
255 245 232
255 245 232
255 245 232
255 245 232
255 245 232
255 245 232
255 245 232
255 245 232
255 245 232
255 245 232
255 245 232
255 245 232
255 245 232
255 245 232
255 245 232
255 245 232
255 245 232
255 245 232
255 245 232
255 245 232
255 245 232
255 245 232
255 245 232
255 245 232
255 245 232
255 245 232
255 245 232
255 255 244
255 245 232
255 245 232
255 245 232
255 245 232
255 245 232
255 245 232
255 245 232
255 245 232
255 245 232
255 245 232
255 245 232
255 245 232
255 245 232
255 245 232
255 245 232
255 245 232
255 245 232
255 245 232
255 245 232
255 245 232
255 245 232
255 245 232
255 245 232
255 245 232
255 245 232
255 245 232
255 245 232
255 245 232
255 245 232
255 245 232
255 245 232
255 245 232
255 245 232
255 245 232
255 245 232
255 245 232
255 255 244
255 245 232
255 245 232
255 245 232
255 245 232
255 245 232
255 245 232
255 245 232
255 245 232
255 245 232
255 245 232
255 245 232
255 245 232
255 245 232
255 245 232
255 245 232
255 245 232
255 245 232
255 245 232
255 245 232
255 245 232
255 245 232
255 245 232
255 245 232
255 245 232
255 245 232
255 245 232
255 245 232
255 245 232
255 245 232
255 245 232
255 245 232
255 245 232
255 245 232
255 245 232
255 245 232
255 245 232
255 255 244
255 245 232
255 245 232
255 245 232
255 245 232
255 245 232
255 245 232
255 245 232
255 245 232
255 245 232
255 245 232
255 245 232
255 245 232
255 245 232
255 245 232
255 245 232
255 245 232
255 245 232
255 245 232
255 245 232
255 245 232
255 245 232
255 245 232
255 245 232
255 245 232
255 245 232
255 245 232
255 245 232
255 245 232
255 245 232
255 245 232
255 245 232
255 245 232
255 245 232
255 245 232
255 245 232
255 245 232
255 255 244
255 245 232
255 245 232
255 245 232
255 245 232
255 245 232
255 245 232
255 245 232
255 245 232
255 245 232
255 245 232
255 245 232
255 245 232
255 245 232
255 245 232
255 245 232
255 245 232
255 245 232
255 245 232
255 245 232
255 245 232
255 245 232
255 245 232
255 245 232
255 245 232
255 245 232
255 245 232
255 245 232
255 245 232
255 245 232
255 245 232
255 245 232
255 245 232
255 245 232
255 245 232
255 245 232
255 245 232
255 255 244
255 245 232
255 245 232
255 245 232
255 245 232
255 245 232
255 245 232
255 245 232
255 245 232
255 245 232
255 245 232
255 245 232
255 245 232
255 245 232
255 245 232
255 245 232
255 245 232
255 245 232
255 245 232
255 245 232
255 245 232
255 245 232
255 245 232
255 245 232
255 245 232
255 245 232
255 245 232
255 245 232
255 245 232
255 245 232
255 245 232
255 245 232
255 245 232
255 245 232
255 245 232
255 245 232
255 245 232
255 255 244
255 245 232
255 245 232
255 245 232
255 245 232
255 245 232
255 245 232
255 245 232
255 245 232
255 245 232
255 245 232
255 245 232
255 245 232
255 245 232
255 245 232
255 245 232
255 245 232
255 245 232
255 245 232
255 245 232
255 245 232
255 245 232
255 245 232
255 245 232
255 245 232
255 245 232
255 245 232
255 245 232
255 245 232
255 245 232
255 245 232
255 245 232
255 245 232
255 245 232
255 245 232
255 245 232
255 245 232
255 255 244
255 245 232
255 245 232
255 245 232
255 245 232
255 245 232
255 245 232
255 245 232
255 245 232
255 245 232
255 245 232
255 245 232
255 245 232
255 245 232
255 245 232
255 245 232
255 245 232
255 245 232
255 245 232
255 245 232
255 245 232
255 245 232
255 245 232
255 255 244
255 245 232
255 245 232
255 245 232
255 245 232
255 245 232
255 245 232
255 245 232
255 245 232
255 245 232
255 245 232
255 245 232
255 245 232
255 245 232
255 245 232
255 245 232
255 245 232
255 245 232
255 245 232
255 245 232
255 245 232
255 245 232
255 245 232
255 245 232
255 245 232
255 245 232
255 245 232
255 245 232
255 245 232
255 245 232
255 245 232
255 245 232
255 245 232
255 245 232
255 245 232
255 245 232
255 245 232
255 255 244
255 245 232
255 245 232
255 245 232
255 245 232
255 245 232
255 245 232
255 245 232
255 245 232
255 245 232
255 245 232
255 245 232
255 245 232
255 245 232
255 245 232
255 245 232
255 245 232
255 245 232
255 245 232
255 245 232
255 245 232
255 245 232
255 245 232
255 245 232
255 245 232
255 245 232
255 245 232
255 245 232
255 245 232
255 245 232
255 245 232
255 245 232
255 245 232
255 245 232
255 245 232
255 245 232
255 245 232
255 255 244
255 245 232
255 245 232
255 245 232
255 245 232
255 245 232
255 245 232
255 245 232
255 245 232
255 245 232
255 245 232
255 245 232
255 245 232
255 245 232
255 245 232
255 245 232
255 245 232
255 245 232
255 245 232
255 245 232
255 245 232
255 245 232
255 245 232
255 245 232
255 245 232
255 245 232
255 245 232
255 245 232
255 245 232
255 245 232
255 245 232
255 245 232
255 245 232
255 245 232
255 245 232
255 245 232
255 245 232
255 255 244
255 245 232
255 245 232
255 245 232
255 245 232
255 245 232
255 245 232
255 245 232
255 245 232
255 245 232
255 245 232
255 245 232
255 245 232
255 245 232
255 245 232
255 245 232
255 245 232
255 245 232
255 245 232
255 245 232
255 245 232
255 245 232
255 245 232
255 245 232
255 245 232
255 245 232
255 245 232
255 245 232
255 245 232
255 245 232
255 245 232
255 245 232
255 245 232
255 245 232
255 245 232
255 245 232
255 245 232
255 255 244
255 245 232
255 245 232
255 245 232
255 245 232
255 245 232
255 245 232
255 245 232
255 245 232
255 245 232
255 245 232
255 245 232
255 245 232
255 245 232
255 245 232
255 245 232
255 245 232
255 245 232
255 245 232
255 245 232
255 245 232
255 245 232
255 245 232
255 245 232
255 245 232
255 245 232
255 245 232
255 245 232
255 245 232
255 245 232
255 245 232
255 245 232
255 245 232
255 245 232
255 245 232
255 245 232
255 245 232
255 255 244
255 245 232
255 245 232
255 245 232
255 245 232
255 245 232
255 245 232
255 245 232
255 245 232
255 245 232
255 245 232
255 245 232
255 245 232
255 245 232
255 245 232
255 245 232
255 245 232
255 245 232
255 245 232
255 245 232
255 245 232
255 245 232
255 245 232
255 245 232
255 245 232
255 245 232
255 245 232
255 245 232
255 245 232
255 245 232
255 245 232
255 245 232
255 245 232
255 245 232
255 245 232
255 245 232
255 245 232
255 255 244
255 245 232
255 245 232
255 245 232
255 245 232
255 245 232
255 245 232
255 245 232
255 245 232
255 245 232
255 245 232
255 245 232
255 245 232
255 245 232
255 245 232
255 245 232
255 245 232
255 245 232
255 245 232
255 245 232
255 245 232
255 245 232
255 245 232
255 245 232
255 245 232
255 245 232
255 245 232
255 245 232
255 245 232
255 245 232
255 245 232
255 245 232
255 245 232
255 245 232
255 245 232
255 245 232
255 245 232
255 255 244
255 245 232
255 245 232
255 245 232
255 245 232
255 245 232
255 245 232
255 245 232
255 245 232
255 245 232
255 245 232
255 245 232
255 245 232
255 245 232
255 245 232
255 245 232
255 245 232
255 245 232
255 245 232
255 245 232
255 245 232
255 245 232
255 245 232
255 245 232
255 245 232
255 245 232
255 245 232
255 245 232
255 245 232
255 245 232
255 245 232
255 245 232
255 245 232
255 245 232
255 245 232
255 245 232
255 245 232
255 255 244
255 245 232
255 245 232
255 245 232
255 245 232
255 245 232
255 245 232
255 245 232
255 245 232
255 245 232
255 245 232
255 245 232
255 245 232
255 245 232
255 245 232
255 245 232
255 245 232
255 245 232
255 245 232
255 245 232
255 245 232
255 245 232
255 245 232
255 255 244
255 245 232
255 245 232
255 245 232
255 245 232
255 245 232
255 245 232
255 245 232
255 245 232
255 245 232
255 245 232
255 245 232
255 245 232
255 245 232
255 245 232
255 245 232
255 245 232
255 245 232
255 245 232
255 245 232
255 245 232
255 245 232
255 245 232
255 245 232
255 245 232
255 245 232
255 245 232
255 245 232
255 245 232
255 245 232
255 245 232
255 245 232
255 245 232
255 245 232
255 245 232
255 245 232
255 245 232
255 255 244
255 245 232
255 245 232
255 245 232
255 245 232
255 245 232
255 245 232
255 245 232
255 245 232
255 245 232
255 245 232
255 245 232
255 245 232
255 245 232
255 245 232
255 245 232
255 245 232
255 245 232
255 245 232
255 245 232
255 245 232
255 245 232
255 245 232
255 245 232
255 245 232
255 245 232
255 245 232
255 245 232
255 245 232
255 245 232
255 245 232
255 245 232
255 245 232
255 245 232
255 245 232
255 245 232
255 245 232
255 255 244
255 245 232
255 245 232
255 245 232
255 245 232
255 245 232
255 245 232
255 245 232
255 245 232
255 245 232
255 245 232
255 245 232
255 245 232
255 245 232
255 245 232
255 245 232
255 245 232
255 245 232
255 245 232
255 245 232
255 245 232
255 245 232
255 245 232
255 245 232
255 245 232
255 245 232
255 245 232
255 245 232
255 245 232
255 245 232
255 245 232
255 245 232
255 245 232
255 245 232
255 245 232
255 245 232
255 245 232
255 255 244
255 245 232
255 245 232
255 245 232
255 245 232
255 245 232
255 245 232
255 245 232
255 245 232
255 245 232
255 245 232
255 245 232
255 245 232
255 245 232
255 245 232
255 245 232
255 245 232
255 245 232
255 245 232
255 245 232
255 245 232
255 245 232
255 245 232
255 245 232
255 245 232
255 245 232
255 245 232
255 245 232
255 245 232
255 245 232
255 245 232
255 245 232
255 245 232
255 245 232
255 245 232
255 245 232
255 245 232
255 255 244
255 245 232
255 245 232
255 245 232
255 245 232
255 245 232
255 245 232
255 245 232
255 245 232
255 245 232
255 245 232
255 245 232
255 245 232
255 245 232
255 245 232
255 245 232
255 245 232
255 245 232
255 245 232
255 245 232
255 245 232
255 245 232
255 245 232
255 245 232
255 245 232
255 245 232
255 245 232
255 245 232
255 245 232
255 245 232
255 245 232
255 245 232
255 245 232
255 245 232
255 245 232
255 245 232
255 245 232
255 255 244
255 245 232
255 245 232
255 245 232
255 245 232
255 245 232
255 245 232
255 245 232
255 245 232
255 245 232
255 245 232
255 245 232
255 245 232
255 245 232
255 245 232
255 245 232
255 245 232
255 245 232
255 245 232
255 245 232
255 245 232
255 245 232
255 245 232
255 245 232
255 245 232
255 245 232
255 245 232
255 245 232
255 245 232
255 245 232
255 245 232
255 245 232
255 245 232
255 245 232
255 245 232
255 245 232
255 245 232
255 255 244
255 245 232
255 245 232
255 245 232
255 245 232
255 245 232
255 245 232
255 245 232
255 245 232
255 245 232
255 245 232
255 245 232
255 245 232
255 245 232
255 245 232
255 245 232
255 245 232
255 245 232
255 245 232
255 245 232
255 245 232
255 245 232
255 245 232
255 245 232
255 245 232
255 245 232
255 245 232
255 245 232
255 245 232
255 245 232
255 245 232
255 245 232
255 245 232
255 245 232
255 245 232
255 245 232
255 245 232
255 255 244
255 245 232
255 245 232
255 245 232
255 245 232
255 245 232
255 245 232
255 245 232
255 245 232
255 245 232
255 245 232
255 245 232
255 245 232
255 245 232
255 245 232
255 245 232
255 245 232
255 245 232
255 245 232
255 245 232
255 245 232
255 245 232
255 245 232
255 245 232
255 245 232
255 245 232
255 245 232
255 245 232
255 245 232
255 245 232
255 245 232
255 245 232
255 245 232
255 245 232
255 245 232
255 245 232
255 245 232
255 255 244
255 245 232
255 245 232
255 245 232
255 245 232
255 245 232
255 245 232
255 245 232
255 245 232
255 245 232
255 245 232
255 245 232
255 245 232
255 245 232
255 245 232
255 245 232
255 245 232
255 245 232
255 245 232
255 245 232
255 245 232
255 245 232
255 245 232
255 255 244
255 245 232
255 245 232
255 245 232
255 245 232
255 245 232
255 245 232
255 245 232
255 245 232
255 245 232
255 245 232
255 245 232
255 245 232
255 245 232
255 245 232
255 245 232
255 245 232
255 245 232
255 245 232
255 245 232
255 245 232
255 245 232
255 245 232
255 245 232
255 245 232
255 245 232
255 245 232
255 245 232
255 245 232
255 245 232
255 245 232
255 245 232
255 245 232
255 245 232
255 245 232
255 245 232
255 245 232
255 255 244
255 245 232
255 245 232
255 245 232
255 245 232
255 245 232
255 245 232
255 245 232
255 245 232
255 245 232
255 245 232
255 245 232
255 245 232
255 245 232
255 245 232
255 245 232
255 245 232
255 245 232
255 245 232
255 245 232
255 245 232
255 245 232
255 245 232
255 245 232
255 245 232
255 245 232
255 245 232
255 245 232
255 245 232
255 245 232
255 245 232
255 245 232
255 245 232
255 245 232
255 245 232
255 245 232
255 245 232
255 255 244
255 245 232
255 245 232
255 245 232
255 245 232
255 245 232
255 245 232
255 245 232
255 245 232
255 245 232
255 245 232
255 245 232
255 245 232
255 245 232
255 245 232
255 245 232
255 245 232
255 245 232
255 245 232
255 245 232
255 245 232
255 245 232
255 245 232
255 245 232
255 245 232
255 245 232
255 245 232
255 245 232
255 245 232
255 245 232
255 245 232
255 245 232
255 245 232
255 245 232
255 245 232
255 245 232
255 245 232
255 255 244
255 245 232
255 245 232
255 245 232
255 245 232
255 245 232
255 245 232
255 245 232
255 245 232
255 245 232
255 245 232
255 245 232
255 245 232
255 245 232
255 245 232
255 245 232
255 245 232
255 245 232
255 245 232
255 245 232
255 245 232
255 245 232
255 245 232
255 245 232
255 245 232
255 245 232
255 245 232
255 245 232
255 245 232
255 245 232
255 245 232
255 245 232
255 245 232
255 245 232
255 245 232
255 245 232
255 245 232
255 255 244
255 245 232
255 245 232
255 245 232
255 245 232
255 245 232
255 245 232
255 245 232
255 245 232
255 245 232
255 245 232
255 245 232
255 245 232
255 245 232
255 245 232
255 245 232
255 245 232
255 245 232
255 245 232
255 245 232
255 245 232
255 245 232
255 245 232
255 245 232
255 245 232
255 245 232
255 245 232
255 245 232
255 245 232
255 245 232
255 245 232
255 245 232
255 245 232
255 245 232
255 245 232
255 245 232
255 245 232
255 255 244
255 245 232
255 245 232
255 245 232
255 245 232
255 245 232
255 245 232
255 245 232
255 245 232
255 245 232
255 245 232
255 245 232
255 245 232
255 245 232
255 245 232
255 245 232
255 245 232
255 245 232
255 245 232
255 245 232
255 245 232
255 245 232
255 245 232
255 245 232
255 245 232
255 245 232
255 245 232
255 245 232
255 245 232
255 245 232
255 245 232
255 245 232
255 245 232
255 245 232
255 245 232
255 245 232
255 245 232
255 255 244
255 245 232
255 245 232
255 245 232
255 245 232
255 245 232
255 245 232
255 245 232
255 245 232
255 245 232
255 245 232
255 245 232
255 245 232
255 245 232
255 245 232
255 245 232
255 245 232
255 245 232
255 245 232
255 245 232
255 245 232
255 245 232
255 245 232
255 245 232
255 245 232
255 245 232
255 245 232
255 245 232
255 245 232
255 245 232
255 245 232
255 245 232
255 245 232
255 245 232
255 245 232
255 245 232
255 245 232
255 255 244
255 245 232
255 245 232
255 245 232
255 245 232
255 245 232
255 245 232
255 245 232
255 245 232
255 245 232
255 245 232
255 245 232
255 245 232
255 245 232
255 245 232
255 245 232
255 245 232
255 245 232
255 245 232
255 245 232
255 245 232
255 245 232
255 245 232
255 245 232
255 245 232
255 245 232
255 245 232
255 245 232
255 245 232
255 245 232
255 245 232
255 245 232
255 245 232
255 245 232
255 245 232
255 245 232
255 245 232
255 255 244
255 245 232
255 245 232
255 245 232
255 245 232
255 245 232
255 245 232
255 245 232
255 245 232
255 245 232
255 245 232
255 245 232
255 245 232
255 245 232
255 245 232
255 245 232
255 245 232
255 245 232
255 245 232
255 245 232
255 245 232
255 245 232
255 245 232
255 255 244
255 245 232
255 245 232
255 245 232
255 245 232
255 245 232
255 245 232
255 245 232
255 245 232
255 245 232
255 245 232
255 245 232
255 245 232
255 245 232
255 245 232
255 245 232
255 245 232
255 245 232
255 245 232
255 245 232
255 245 232
255 245 232
255 245 232
255 245 232
255 245 232
255 245 232
255 245 232
255 245 232
255 245 232
255 245 232
255 245 232
255 245 232
255 245 232
255 245 232
255 245 232
255 245 232
255 245 232
255 255 244
255 245 232
255 245 232
255 245 232
255 245 232
255 245 232
255 245 232
255 245 232
255 245 232
255 245 232
255 245 232
255 245 232
255 245 232
255 245 232
255 245 232
255 245 232
255 245 232
255 245 232
255 245 232
255 245 232
255 245 232
255 245 232
255 245 232
255 245 232
255 245 232
255 245 232
255 245 232
255 245 232
255 245 232
255 245 232
255 245 232
255 245 232
255 245 232
255 245 232
255 245 232
255 245 232
255 245 232
255 255 244
255 245 232
255 245 232
255 245 232
255 245 232
255 245 232
255 245 232
255 245 232
255 245 232
255 245 232
255 245 232
255 245 232
255 245 232
255 245 232
255 245 232
255 245 232
255 245 232
255 245 232
255 245 232
255 245 232
255 245 232
255 245 232
255 245 232
255 245 232
255 245 232
255 245 232
255 245 232
255 245 232
255 245 232
255 245 232
255 245 232
255 245 232
255 245 232
255 245 232
255 245 232
255 245 232
255 245 232
255 255 244
255 245 232
255 245 232
255 245 232
255 245 232
255 245 232
255 245 232
255 245 232
255 245 232
255 245 232
255 245 232
255 245 232
255 245 232
255 245 232
255 245 232
255 245 232
255 245 232
255 245 232
255 245 232
255 245 232
255 245 232
255 245 232
255 245 232
255 245 232
255 245 232
255 245 232
255 245 232
255 245 232
255 245 232
255 245 232
255 245 232
255 245 232
255 245 232
255 245 232
255 245 232
255 245 232
255 245 232
255 255 244
255 245 232
255 245 232
255 245 232
255 245 232
255 245 232
255 245 232
255 245 232
255 245 232
255 245 232
255 245 232
255 245 232
255 245 232
255 245 232
255 245 232
255 245 232
255 245 232
255 245 232
255 245 232
255 245 232
255 245 232
255 245 232
255 245 232
255 245 232
255 245 232
255 245 232
255 245 232
255 245 232
255 245 232
255 245 232
255 245 232
255 245 232
255 245 232
255 245 232
255 245 232
255 245 232
255 245 232
255 255 244
255 245 232
255 245 232
255 245 232
255 245 232
255 245 232
255 245 232
255 245 232
255 245 232
255 245 232
255 245 232
255 245 232
255 245 232
255 245 232
255 245 232
255 245 232
255 245 232
255 245 232
255 245 232
255 245 232
255 245 232
255 245 232
255 245 232
255 245 232
255 245 232
255 245 232
255 245 232
255 245 232
255 245 232
255 245 232
255 245 232
255 245 232
255 245 232
255 245 232
255 245 232
255 245 232
255 245 232
255 255 244
255 245 232
255 245 232
255 245 232
255 245 232
255 245 232
255 245 232
255 245 232
255 245 232
255 245 232
255 245 232
255 245 232
255 245 232
255 245 232
255 245 232
255 245 232
255 245 232
255 245 232
255 245 232
255 245 232
255 245 232
255 245 232
255 245 232
255 245 232
255 245 232
255 245 232
255 245 232
255 245 232
255 245 232
255 245 232
255 245 232
255 245 232
255 245 232
255 245 232
255 245 232
255 245 232
255 245 232
255 255 244
255 245 232
255 245 232
255 245 232
255 245 232
255 245 232
255 245 232
255 245 232
255 245 232
255 245 232
255 245 232
255 245 232
255 245 232
255 245 232
255 245 232
255 245 232
255 245 232
255 245 232
255 245 232
255 245 232
255 245 232
255 245 232
255 245 232
255 245 232
255 245 232
255 245 232
255 245 232
255 245 232
255 245 232
255 245 232
255 245 232
255 245 232
255 245 232
255 245 232
255 245 232
255 245 232
255 245 232
255 255 244
255 245 232
255 245 232
255 245 232
255 245 232
255 245 232
255 245 232
255 245 232
255 245 232
255 245 232
255 245 232
255 245 232
255 245 232
255 245 232
255 245 232
255 245 232
255 245 232
255 245 232
255 245 232
255 245 232
255 245 232
255 245 232
255 245 232
255 255 244
255 245 232
255 245 232
255 245 232
255 245 232
255 245 232
255 245 232
255 245 232
255 245 232
255 245 232
255 245 232
255 245 232
255 245 232
255 245 232
255 245 232
255 245 232
255 245 232
255 245 232
255 245 232
255 245 232
255 245 232
255 245 232
255 245 232
255 245 232
255 245 232
255 245 232
255 245 232
255 245 232
255 245 232
255 245 232
255 245 232
255 245 232
255 245 232
255 245 232
255 245 232
255 245 232
255 245 232
255 255 244
255 245 232
255 245 232
255 245 232
255 245 232
255 245 232
255 245 232
255 245 232
255 245 232
255 245 232
255 245 232
255 245 232
255 245 232
255 245 232
255 245 232
255 245 232
255 245 232
255 245 232
255 245 232
255 245 232
255 245 232
255 245 232
255 245 232
255 245 232
255 245 232
255 245 232
255 245 232
255 245 232
255 245 232
255 245 232
255 245 232
255 245 232
255 245 232
255 245 232
255 245 232
255 245 232
255 245 232
255 255 244
255 245 232
255 245 232
255 245 232
255 245 232
255 245 232
255 245 232
255 245 232
255 245 232
255 245 232
255 245 232
255 245 232
255 245 232
255 245 232
255 245 232
255 245 232
255 245 232
255 245 232
255 245 232
255 245 232
255 245 232
255 245 232
255 245 232
255 245 232
255 245 232
255 245 232
255 245 232
255 245 232
255 245 232
255 245 232
255 245 232
255 245 232
255 245 232
255 245 232
255 245 232
255 245 232
255 245 232
255 255 244
255 245 232
255 245 232
255 245 232
255 245 232
255 245 232
255 245 232
255 245 232
255 245 232
255 245 232
255 245 232
255 245 232
255 245 232
255 245 232
255 245 232
255 245 232
255 245 232
255 245 232
255 245 232
255 245 232
255 245 232
255 245 232
255 245 232
255 245 232
255 245 232
255 245 232
255 245 232
255 245 232
255 245 232
255 245 232
255 245 232
255 245 232
255 245 232
255 245 232
255 245 232
255 245 232
255 245 232
255 255 244
255 245 232
255 245 232
255 245 232
255 245 232
255 245 232
255 245 232
255 245 232
255 245 232
255 245 232
255 245 232
255 245 232
255 245 232
255 245 232
255 245 232
255 245 232
255 245 232
255 245 232
255 245 232
255 245 232
255 245 232
255 245 232
255 245 232
255 245 232
255 245 232
255 245 232
255 245 232
255 245 232
255 245 232
255 245 232
255 245 232
255 245 232
255 245 232
255 245 232
255 245 232
255 245 232
255 245 232
255 255 244
255 245 232
255 245 232
255 245 232
255 245 232
255 245 232
255 245 232
255 245 232
255 245 232
255 245 232
255 245 232
255 245 232
255 245 232
255 245 232
255 245 232
255 245 232
255 245 232
255 245 232
255 245 232
255 245 232
255 245 232
255 245 232
255 245 232
255 245 232
255 245 232
255 245 232
255 245 232
255 245 232
255 245 232
255 245 232
255 245 232
255 245 232
255 245 232
255 245 232
255 245 232
255 245 232
255 245 232
255 255 244
255 245 232
255 245 232
255 245 232
255 245 232
255 245 232
255 245 232
255 245 232
255 245 232
255 245 232
255 245 232
255 245 232
255 245 232
255 245 232
255 245 232
255 245 232
255 245 232
255 245 232
255 245 232
255 245 232
255 245 232
255 245 232
255 245 232
255 245 232
255 245 232
255 245 232
255 245 232
255 245 232
255 245 232
255 245 232
255 245 232
255 245 232
255 245 232
255 245 232
255 245 232
255 245 232
255 245 232
255 255 244
255 245 232
255 245 232
255 245 232
255 245 232
255 245 232
255 245 232
255 245 232
255 245 232
255 245 232
255 245 232
255 245 232
255 245 232
255 245 232
255 245 232
255 245 232
255 245 232
255 245 232
255 245 232
255 245 232
255 245 232
255 245 232
255 245 232
255 245 232
255 245 232
255 245 232
255 245 232
255 245 232
255 245 232
255 245 232
255 245 232
255 245 232
255 245 232
255 245 232
255 245 232
255 245 232
255 245 232
255 255 244
255 245 232
255 245 232
255 245 232
255 245 232
255 245 232
255 245 232
255 245 232
255 245 232
255 245 232
255 245 232
255 245 232
255 245 232
255 245 232
255 245 232
255 245 232
255 245 232
255 245 232
255 245 232
255 245 232
255 245 232
255 245 232
255 245 232
255 255 244
255 245 232
255 245 232
255 245 232
255 245 232
255 245 232
255 245 232
255 245 232
255 245 232
255 245 232
255 245 232
255 245 232
255 245 232
255 245 232
255 245 232
255 245 232
255 245 232
255 245 232
255 245 232
255 245 232
255 245 232
255 245 232
255 245 232
255 245 232
255 245 232
255 245 232
255 245 232
255 245 232
255 245 232
255 245 232
255 245 232
255 245 232
255 245 232
255 245 232
255 245 232
255 245 232
255 245 232
255 255 244
255 245 232
255 245 232
255 245 232
255 245 232
255 245 232
255 245 232
255 245 232
255 245 232
255 245 232
255 245 232
255 245 232
255 245 232
255 245 232
255 245 232
255 245 232
255 245 232
255 245 232
255 245 232
255 245 232
255 245 232
255 245 232
255 245 232
255 245 232
255 245 232
255 245 232
255 245 232
255 245 232
255 245 232
255 245 232
255 245 232
255 245 232
255 245 232
255 245 232
255 245 232
255 245 232
255 245 232
255 255 244
255 245 232
255 245 232
255 245 232
255 245 232
255 245 232
255 245 232
255 245 232
255 245 232
255 245 232
255 245 232
255 245 232
255 245 232
255 245 232
255 245 232
255 245 232
255 245 232
255 245 232
255 245 232
255 245 232
255 245 232
255 245 232
255 245 232
255 245 232
255 245 232
255 245 232
255 245 232
255 245 232
255 245 232
255 245 232
255 245 232
255 245 232
255 245 232
255 245 232
255 245 232
255 245 232
255 245 232
255 255 244
255 245 232
255 245 232
255 245 232
255 245 232
255 245 232
255 245 232
255 245 232
255 245 232
255 245 232
255 245 232
255 245 232
255 245 232
255 245 232
255 245 232
255 245 232
255 245 232
255 245 232
255 245 232
255 245 232
255 245 232
255 245 232
255 245 232
255 245 232
255 245 232
255 245 232
255 245 232
255 245 232
255 245 232
255 245 232
255 245 232
255 245 232
255 245 232
255 245 232
255 245 232
255 245 232
255 245 232
255 255 244
255 245 232
255 245 232
255 245 232
255 245 232
255 245 232
255 245 232
255 245 232
255 245 232
255 245 232
255 245 232
255 245 232
255 245 232
255 245 232
255 245 232
255 245 232
255 245 232
255 245 232
255 245 232
255 245 232
255 245 232
255 245 232
255 245 232
255 245 232
255 245 232
255 245 232
255 245 232
255 245 232
255 245 232
255 245 232
255 245 232
255 245 232
255 245 232
255 245 232
255 245 232
255 245 232
255 245 232
255 255 244
255 245 232
255 245 232
255 245 232
255 245 232
255 245 232
255 245 232
255 245 232
255 245 232
255 245 232
255 245 232
255 245 232
255 245 232
255 245 232
255 245 232
255 245 232
255 245 232
255 245 232
255 245 232
255 245 232
255 245 232
255 245 232
255 245 232
255 245 232
255 245 232
255 245 232
255 245 232
255 245 232
255 245 232
255 245 232
255 245 232
255 245 232
255 245 232
255 245 232
255 245 232
255 245 232
255 245 232
255 255 244
255 245 232
255 245 232
255 245 232
255 245 232
255 245 232
255 245 232
255 245 232
255 245 232
255 245 232
255 245 232
255 245 232
255 245 232
255 245 232
255 245 232
255 245 232
255 245 232
255 245 232
255 245 232
255 245 232
255 245 232
255 245 232
255 245 232
255 245 232
255 245 232
255 245 232
255 245 232
255 245 232
255 245 232
255 245 232
255 245 232
255 245 232
255 245 232
255 245 232
255 245 232
255 245 232
255 245 232
255 255 244
255 245 232
255 245 232
255 245 232
255 245 232
255 245 232
255 245 232
255 245 232
255 245 232
255 245 232
255 245 232
255 245 232
255 245 232
255 245 232
255 245 232
255 245 232
255 245 232
255 245 232
255 245 232
255 245 232
255 245 232
255 245 232
255 245 232
255 245 232
255 245 232
255 245 232
255 245 232
255 245 232
255 245 232
255 245 232
255 245 232
255 245 232
255 245 232
255 245 232
255 245 232
255 245 232
255 245 232
255 255 244
255 245 232
255 245 232
255 245 232
255 245 232
255 245 232
255 245 232
255 245 232
255 245 232
255 245 232
255 245 232
255 245 232
255 245 232
255 245 232
255 245 232
255 245 232
255 245 232
255 245 232
255 245 232
255 245 232
255 245 232
255 245 232
255 245 232
255 255 244
255 245 232
255 245 232
255 245 232
255 245 232
255 245 232
255 245 232
255 245 232
255 245 232
255 245 232
255 245 232
255 245 232
255 245 232
255 245 232
255 245 232
255 245 232
255 245 232
255 245 232
255 245 232
255 245 232
255 245 232
255 245 232
255 245 232
255 245 232
255 245 232
255 245 232
255 245 232
255 245 232
255 245 232
255 245 232
255 245 232
255 245 232
255 245 232
255 245 232
255 245 232
255 245 232
255 245 232
255 255 244
255 245 232
255 245 232
255 245 232
255 245 232
255 245 232
255 245 232
255 245 232
255 245 232
255 245 232
255 245 232
255 245 232
255 245 232
255 245 232
255 245 232
255 245 232
255 245 232
255 245 232
255 245 232
255 245 232
255 245 232
255 245 232
255 245 232
255 245 232
255 245 232
255 245 232
255 245 232
255 245 232
255 245 232
255 245 232
255 245 232
255 245 232
255 245 232
255 245 232
255 245 232
255 245 232
255 245 232
255 255 244
255 245 232
255 245 232
255 245 232
255 245 232
255 245 232
255 245 232
255 245 232
255 245 232
255 245 232
255 245 232
255 245 232
255 245 232
255 245 232
255 245 232
255 245 232
255 245 232
255 245 232
255 245 232
255 245 232
255 245 232
255 245 232
255 245 232
255 245 232
255 245 232
255 245 232
255 245 232
255 245 232
255 245 232
255 245 232
255 245 232
255 245 232
255 245 232
255 245 232
255 245 232
255 245 232
255 245 232
255 255 244
255 245 232
255 245 232
255 245 232
255 245 232
255 245 232
255 245 232
255 245 232
255 245 232
255 245 232
255 245 232
255 245 232
255 245 232
255 245 232
255 245 232
255 245 232
255 245 232
255 245 232
255 245 232
255 245 232
255 245 232
255 245 232
255 245 232
255 245 232
255 245 232
255 245 232
255 245 232
255 245 232
255 245 232
255 245 232
255 245 232
255 245 232
255 245 232
255 245 232
255 245 232
255 245 232
255 245 232
255 255 244
255 245 232
255 245 232
255 245 232
255 245 232
255 245 232
255 245 232
255 245 232
255 245 232
255 245 232
255 245 232
255 245 232
255 245 232
255 245 232
255 245 232
255 245 232
255 245 232
255 245 232
255 245 232
255 245 232
255 245 232
255 245 232
255 245 232
255 245 232
255 245 232
255 245 232
255 245 232
255 245 232
255 245 232
255 245 232
255 245 232
255 245 232
255 245 232
255 245 232
255 245 232
255 245 232
255 245 232
255 255 244
255 245 232
255 245 232
255 245 232
255 245 232
255 245 232
255 245 232
255 245 232
255 245 232
255 245 232
255 245 232
255 245 232
255 245 232
255 245 232
255 245 232
255 245 232
255 245 232
255 245 232
255 245 232
255 245 232
255 245 232
255 245 232
255 245 232
255 245 232
255 245 232
255 245 232
255 245 232
255 245 232
255 245 232
255 245 232
255 245 232
255 245 232
255 245 232
255 245 232
255 245 232
255 245 232
255 245 232
255 255 244
255 245 232
255 245 232
255 245 232
255 245 232
255 245 232
255 245 232
255 245 232
255 245 232
255 245 232
255 245 232
255 245 232
255 245 232
255 245 232
255 245 232
255 245 232
255 245 232
255 245 232
255 245 232
255 245 232
255 245 232
255 245 232
255 245 232
255 245 232
255 245 232
255 245 232
255 245 232
255 245 232
255 245 232
255 245 232
255 245 232
255 245 232
255 245 232
255 245 232
255 245 232
255 245 232
255 245 232
255 255 244
255 245 232
255 245 232
255 245 232
255 245 232
255 245 232
255 245 232
255 245 232
255 245 232
255 245 232
255 245 232
255 245 232
255 245 232
255 245 232
255 245 232
255 245 232
255 245 232
255 245 232
255 245 232
255 245 232
255 245 232
255 245 232
255 245 232
255 245 232
255 245 232
255 245 232
255 245 232
255 245 232
255 245 232
255 245 232
255 245 232
255 245 232
255 245 232
255 245 232
255 245 232
255 245 232
255 245 232
255 255 244
255 245 232
255 245 232
255 245 232
255 245 232
255 245 232
255 245 232
255 245 232
255 245 232
255 245 232
255 245 232
255 245 232
255 245 232
255 245 232
255 245 232
255 245 232
255 245 232
255 245 232
255 245 232
255 245 232
255 245 232
255 245 232
255 245 232
255 255 244
255 245 232
255 245 232
255 245 232
255 245 232
255 245 232
255 245 232
255 245 232
255 245 232
255 245 232
255 245 232
255 245 232
255 245 232
255 245 232
255 245 232
255 245 232
255 245 232
255 245 232
255 245 232
255 245 232
255 245 232
255 245 232
255 245 232
255 245 232
255 245 232
255 245 232
255 245 232
255 245 232
255 245 232
255 245 232
255 245 232
255 245 232
255 245 232
255 245 232
255 245 232
255 245 232
255 245 232
255 255 244
255 245 232
255 245 232
255 245 232
255 245 232
255 245 232
255 245 232
255 245 232
255 245 232
255 245 232
255 245 232
255 245 232
255 245 232
255 245 232
255 245 232
255 245 232
255 245 232
255 245 232
255 245 232
255 245 232
255 245 232
255 245 232
255 245 232
255 245 232
255 245 232
255 245 232
255 245 232
255 245 232
255 245 232
255 245 232
255 245 232
255 245 232
255 245 232
255 245 232
255 245 232
255 245 232
255 245 232
255 255 244
255 245 232
255 245 232
255 245 232
255 245 232
255 245 232
255 245 232
255 245 232
255 245 232
255 245 232
255 245 232
255 245 232
255 245 232
255 245 232
255 245 232
255 245 232
255 245 232
255 245 232
255 245 232
255 245 232
255 245 232
255 245 232
255 245 232
255 245 232
255 245 232
255 245 232
255 245 232
255 245 232
255 245 232
255 245 232
255 245 232
255 245 232
255 245 232
255 245 232
255 245 232
255 245 232
255 245 232
255 255 244
255 245 232
255 245 232
255 245 232
255 245 232
255 245 232
255 245 232
255 245 232
255 245 232
255 245 232
255 245 232
255 245 232
255 245 232
255 245 232
255 245 232
255 245 232
255 245 232
255 245 232
255 245 232
255 245 232
255 245 232
255 245 232
255 245 232
255 245 232
255 245 232
255 245 232
255 245 232
255 245 232
255 245 232
255 245 232
255 245 232
255 245 232
255 245 232
255 245 232
255 245 232
255 245 232
255 245 232
255 255 244
255 245 232
255 245 232
255 245 232
255 245 232
255 245 232
255 245 232
255 245 232
255 245 232
255 245 232
255 245 232
255 245 232
255 245 232
255 245 232
255 245 232
255 245 232
255 245 232
255 245 232
255 245 232
255 245 232
255 245 232
255 245 232
255 245 232
255 245 232
255 245 232
255 245 232
255 245 232
255 245 232
255 245 232
255 245 232
255 245 232
255 245 232
255 245 232
255 245 232
255 245 232
255 245 232
255 245 232
255 255 244
255 245 232
255 245 232
255 245 232
255 245 232
255 245 232
255 245 232
255 245 232
255 245 232
255 245 232
255 245 232
255 245 232
255 245 232
255 245 232
255 245 232
255 245 232
255 245 232
255 245 232
255 245 232
255 245 232
255 245 232
255 245 232
255 245 232
255 245 232
255 245 232
255 245 232
255 245 232
255 245 232
255 245 232
255 245 232
255 245 232
255 245 232
255 245 232
255 245 232
255 245 232
255 245 232
255 245 232
255 255 244
255 245 232
255 245 232
255 245 232
255 245 232
255 245 232
255 245 232
255 245 232
255 245 232
255 245 232
255 245 232
255 245 232
255 245 232
255 245 232
255 245 232
255 245 232
255 245 232
255 245 232
255 245 232
255 245 232
255 245 232
255 245 232
255 245 232
255 245 232
255 245 232
255 245 232
255 245 232
255 245 232
255 245 232
255 245 232
255 245 232
255 245 232
255 245 232
255 245 232
255 245 232
255 245 232
255 245 232
255 255 244
255 245 232
255 245 232
255 245 232
255 245 232
255 245 232
255 245 232
255 245 232
255 245 232
255 245 232
255 245 232
255 245 232
255 245 232
255 245 232
255 245 232
255 245 232
255 245 232
255 245 232
255 245 232
255 245 232
255 245 232
255 245 232
255 245 232
255 245 232
255 245 232
255 245 232
255 245 232
255 245 232
255 245 232
255 245 232
255 245 232
255 245 232
255 245 232
255 245 232
255 245 232
255 245 232
255 245 232
255 255 244
255 245 232
255 245 232
255 245 232
255 245 232
255 245 232
255 245 232
255 245 232
255 245 232
255 245 232
255 245 232
255 245 232
255 245 232
255 245 232
255 245 232
255 245 232
255 245 232
255 245 232
255 245 232
255 245 232
255 245 232
255 245 232
255 245 232
255 255 244
255 245 232
255 245 232
255 245 232
255 245 232
255 245 232
255 245 232
255 245 232
255 245 232
255 245 232
255 245 232
255 245 232
255 245 232
255 245 232
255 245 232
255 245 232
255 245 232
255 245 232
255 245 232
255 245 232
255 245 232
255 245 232
255 245 232
255 245 232
255 245 232
255 245 232
255 245 232
255 245 232
255 245 232
255 245 232
255 245 232
255 245 232
255 245 232
255 245 232
255 245 232
255 245 232
255 245 232
255 255 244
255 245 232
255 245 232
255 245 232
255 245 232
255 245 232
255 245 232
255 245 232
255 245 232
255 245 232
255 245 232
255 245 232
255 245 232
255 245 232
255 245 232
255 245 232
255 245 232
255 245 232
255 245 232
255 245 232
255 245 232
255 245 232
255 245 232
255 245 232
255 245 232
255 245 232
255 245 232
255 245 232
255 245 232
255 245 232
255 245 232
255 245 232
255 245 232
255 245 232
255 245 232
255 245 232
255 245 232
255 255 244
255 245 232
255 245 232
255 245 232
255 245 232
255 245 232
255 245 232
255 245 232
255 245 232
255 245 232
255 245 232
255 245 232
255 245 232
255 245 232
255 245 232
255 245 232
255 245 232
255 245 232
255 245 232
255 245 232
255 245 232
255 245 232
255 245 232
255 245 232
255 245 232
255 245 232
255 245 232
255 245 232
255 245 232
255 245 232
255 245 232
255 245 232
255 245 232
255 245 232
255 245 232
255 245 232
255 245 232
255 255 244
255 245 232
255 245 232
255 245 232
255 245 232
255 245 232
255 245 232
255 245 232
255 245 232
255 245 232
255 245 232
255 245 232
255 245 232
255 245 232
255 245 232
255 245 232
255 245 232
255 245 232
255 245 232
255 245 232
255 245 232
255 245 232
255 245 232
255 245 232
255 245 232
255 245 232
255 245 232
255 245 232
255 245 232
255 245 232
255 245 232
255 245 232
255 245 232
255 245 232
255 245 232
255 245 232
255 245 232
255 255 244
255 245 232
255 245 232
255 245 232
255 245 232
255 245 232
255 245 232
255 245 232
255 245 232
255 245 232
255 245 232
255 245 232
255 245 232
255 245 232
255 245 232
255 245 232
255 245 232
255 245 232
255 245 232
255 245 232
255 245 232
255 245 232
255 245 232
255 245 232
255 245 232
255 245 232
255 245 232
255 245 232
255 245 232
255 245 232
255 245 232
255 245 232
255 245 232
255 245 232
255 245 232
255 245 232
255 245 232
255 255 244
255 245 232
255 245 232
255 245 232
255 245 232
255 245 232
255 245 232
255 245 232
255 245 232
255 245 232
255 245 232
255 245 232
255 245 232
255 245 232
255 245 232
255 245 232
255 245 232
255 245 232
255 245 232
255 245 232
255 245 232
255 245 232
255 245 232
255 245 232
255 245 232
255 245 232
255 245 232
255 245 232
255 245 232
255 245 232
255 245 232
255 245 232
255 245 232
255 245 232
255 245 232
255 245 232
255 245 232
255 255 244
255 245 232
255 245 232
255 245 232
255 245 232
255 245 232
255 245 232
255 245 232
255 245 232
255 245 232
255 245 232
255 245 232
255 245 232
255 245 232
255 245 232
255 245 232
255 245 232
255 245 232
255 245 232
255 245 232
255 245 232
255 245 232
255 245 232
255 245 232
255 245 232
255 245 232
255 245 232
255 245 232
255 245 232
255 245 232
255 245 232
255 245 232
255 245 232
255 245 232
255 245 232
255 245 232
255 245 232
255 255 244
255 245 232
255 245 232
255 245 232
255 245 232
255 245 232
255 245 232
255 245 232
255 245 232
255 245 232
255 245 232
255 245 232
255 245 232
255 245 232
255 245 232
255 245 232
255 245 232
255 245 232
255 245 232
255 245 232
255 245 232
255 245 232
255 245 232
255 245 232
255 245 232
255 245 232
255 245 232
255 245 232
255 245 232
255 245 232
255 245 232
255 245 232
255 245 232
255 245 232
255 245 232
255 245 232
255 245 232
255 255 244
255 245 232
255 245 232
255 245 232
255 245 232
255 245 232
255 245 232
255 245 232
255 245 232
255 245 232
255 245 232
255 245 232
255 245 232
255 245 232
255 245 232
255 245 232
255 245 232
255 245 232
255 245 232
255 245 232
255 245 232
255 245 232
255 245 232
255 255 244
255 245 232
255 245 232
255 245 232
255 245 232
255 245 232
255 245 232
255 245 232
255 245 232
255 245 232
255 245 232
255 245 232
255 245 232
255 245 232
255 245 232
255 245 232
255 245 232
255 245 232
255 245 232
255 245 232
255 245 232
255 245 232
255 245 232
255 245 232
255 245 232
255 245 232
255 245 232
255 245 232
255 245 232
255 245 232
255 245 232
255 245 232
255 245 232
255 245 232
255 245 232
255 245 232
255 245 232
255 255 244
255 245 232
255 245 232
255 245 232
255 245 232
255 245 232
255 245 232
255 245 232
255 245 232
255 245 232
255 245 232
255 245 232
255 245 232
255 245 232
255 245 232
255 245 232
255 245 232
255 245 232
255 245 232
255 245 232
255 245 232
255 245 232
255 245 232
255 245 232
255 245 232
255 245 232
255 245 232
255 245 232
255 245 232
255 245 232
255 245 232
255 245 232
255 245 232
255 245 232
255 245 232
255 245 232
255 245 232
255 255 244
255 245 232
255 245 232
255 245 232
255 245 232
255 245 232
255 245 232
255 245 232
255 245 232
255 245 232
255 245 232
255 245 232
255 245 232
255 245 232
255 245 232
255 245 232
255 245 232
255 245 232
255 245 232
255 245 232
255 245 232
255 245 232
255 245 232
255 245 232
255 245 232
255 245 232
255 245 232
255 245 232
255 245 232
255 245 232
255 245 232
255 245 232
255 245 232
255 245 232
255 245 232
255 245 232
255 245 232
255 255 244
255 245 232
255 245 232
255 245 232
255 245 232
255 245 232
255 245 232
255 245 232
255 245 232
255 245 232
255 245 232
255 245 232
255 245 232
255 245 232
255 245 232
255 245 232
255 245 232
255 245 232
255 245 232
255 245 232
255 245 232
255 245 232
255 245 232
255 245 232
255 245 232
255 245 232
255 245 232
255 245 232
255 245 232
255 245 232
255 245 232
255 245 232
255 245 232
255 245 232
255 245 232
255 245 232
255 245 232
255 255 244
255 245 232
255 245 232
255 245 232
255 245 232
255 245 232
255 245 232
255 245 232
255 245 232
255 245 232
255 245 232
255 245 232
255 245 232
255 245 232
255 245 232
255 245 232
255 245 232
255 245 232
255 245 232
255 245 232
255 245 232
255 245 232
255 245 232
255 245 232
255 245 232
255 245 232
255 245 232
255 245 232
255 245 232
255 245 232
255 245 232
255 245 232
255 245 232
255 245 232
255 245 232
255 245 232
255 245 232
255 255 244
255 245 232
255 245 232
255 245 232
255 245 232
255 245 232
255 245 232
255 245 232
255 245 232
255 245 232
255 245 232
255 245 232
255 245 232
255 245 232
255 245 232
255 245 232
255 245 232
255 245 232
255 245 232
255 245 232
255 245 232
255 245 232
255 245 232
255 245 232
255 245 232
255 245 232
255 245 232
255 245 232
255 245 232
255 245 232
255 245 232
255 245 232
255 245 232
255 245 232
255 245 232
255 245 232
255 245 232
255 255 244
255 245 232
255 245 232
255 245 232
255 245 232
255 245 232
255 245 232
255 245 232
255 245 232
255 245 232
255 245 232
255 245 232
255 245 232
255 245 232
255 245 232
255 245 232
255 245 232
255 245 232
255 245 232
255 245 232
255 245 232
255 245 232
255 245 232
255 245 232
255 245 232
255 245 232
255 245 232
255 245 232
255 245 232
255 245 232
255 245 232
255 245 232
255 245 232
255 245 232
255 245 232
255 245 232
255 245 232
255 255 244
255 245 232
255 245 232
255 245 232
255 245 232
255 245 232
255 245 232
255 245 232
255 245 232
255 245 232
255 245 232
255 245 232
255 245 232
255 245 232
255 245 232
255 245 232
255 245 232
255 245 232
255 245 232
255 245 232
255 245 232
255 245 232
255 245 232
255 245 232
255 245 232
255 245 232
255 245 232
255 245 232
255 245 232
255 245 232
255 245 232
255 245 232
255 245 232
255 245 232
255 245 232
255 245 232
255 245 232
255 255 244
255 245 232
255 245 232
255 245 232
255 245 232
255 245 232
255 245 232
255 245 232
255 245 232
255 245 232
255 245 232
255 245 232
255 245 232
255 245 232
255 245 232
255 245 232
255 245 232
255 245 232
255 245 232
255 245 232
255 245 232
255 245 232
255 245 232
255 255 244
255 245 232
255 245 232
255 245 232
255 245 232
255 245 232
255 245 232
255 245 232
255 245 232
255 245 232
255 245 232
255 245 232
255 245 232
255 245 232
255 245 232
255 245 232
255 245 232
255 245 232
255 245 232
255 245 232
255 245 232
255 245 232
255 245 232
255 245 232
255 245 232
255 245 232
255 245 232
255 245 232
255 245 232
255 245 232
255 245 232
255 245 232
255 245 232
255 245 232
255 245 232
255 245 232
255 245 232
255 255 244
255 245 232
255 245 232
255 245 232
255 245 232
255 245 232
255 245 232
255 245 232
255 245 232
255 245 232
255 245 232
255 245 232
255 245 232
255 245 232
255 245 232
255 245 232
255 245 232
255 245 232
255 245 232
255 245 232
255 245 232
255 245 232
255 245 232
255 245 232
255 245 232
255 245 232
255 245 232
255 245 232
255 245 232
255 245 232
255 245 232
255 245 232
255 245 232
255 245 232
255 245 232
255 245 232
255 245 232
255 255 244
255 245 232
255 245 232
255 245 232
255 245 232
255 245 232
255 245 232
255 245 232
255 245 232
255 245 232
255 245 232
255 245 232
255 245 232
255 245 232
255 245 232
255 245 232
255 245 232
255 245 232
255 245 232
255 245 232
255 245 232
255 245 232
255 245 232
255 245 232
255 245 232
255 245 232
255 245 232
255 245 232
255 245 232
255 245 232
255 245 232
255 245 232
255 245 232
255 245 232
255 245 232
255 245 232
255 245 232
255 255 244
255 245 232
255 245 232
255 245 232
255 245 232
255 245 232
255 245 232
255 245 232
255 245 232
255 245 232
255 245 232
255 245 232
255 245 232
255 245 232
255 245 232
255 245 232
255 245 232
255 245 232
255 245 232
255 245 232
255 245 232
255 245 232
255 245 232
255 245 232
255 245 232
255 245 232
255 245 232
255 245 232
255 245 232
255 245 232
255 245 232
255 245 232
255 245 232
255 245 232
255 245 232
255 245 232
255 245 232
255 255 244
255 245 232
255 245 232
255 245 232
255 245 232
255 245 232
255 245 232
255 245 232
255 245 232
255 245 232
255 245 232
255 245 232
255 245 232
255 245 232
255 245 232
255 245 232
255 245 232
255 245 232
255 245 232
255 245 232
255 245 232
255 245 232
255 245 232
255 245 232
255 245 232
255 245 232
255 245 232
255 245 232
255 245 232
255 245 232
255 245 232
255 245 232
255 245 232
255 245 232
255 245 232
255 245 232
255 245 232
255 255 244
255 245 232
255 245 232
255 245 232
255 245 232
255 245 232
255 245 232
255 245 232
255 245 232
255 245 232
255 245 232
255 245 232
255 245 232
255 245 232
255 245 232
255 245 232
255 245 232
255 245 232
255 245 232
255 245 232
255 245 232
255 245 232
255 245 232
255 245 232
255 245 232
255 245 232
255 245 232
255 245 232
255 245 232
255 245 232
255 245 232
255 245 232
255 245 232
255 245 232
255 245 232
255 245 232
255 245 232
255 255 244
255 245 232
255 245 232
255 245 232
255 245 232
255 245 232
255 245 232
255 245 232
255 245 232
255 245 232
255 245 232
255 245 232
255 245 232
255 245 232
255 245 232
255 245 232
255 245 232
255 245 232
255 245 232
255 245 232
255 245 232
255 245 232
255 245 232
255 245 232
255 245 232
255 245 232
255 245 232
255 245 232
255 245 232
255 245 232
255 245 232
255 245 232
255 245 232
255 245 232
255 245 232
255 245 232
255 245 232
255 255 244
255 245 232
255 245 232
255 245 232
255 245 232
255 245 232
255 245 232
255 245 232
255 245 232
255 245 232
255 245 232
255 245 232
255 245 232
255 245 232
255 245 232
255 245 232
255 245 232
255 245 232
255 245 232
255 245 232
255 245 232
255 245 232
255 245 232
255 245 232
255 245 232
255 245 232
255 245 232
255 245 232
255 245 232
255 245 232
255 245 232
255 245 232
255 245 232
255 245 232
255 245 232
255 245 232
255 245 232
255 255 244
255 245 232
255 245 232
255 245 232
255 245 232
255 245 232
255 245 232
255 245 232
255 245 232
255 245 232
255 245 232
255 245 232
255 245 232
255 245 232
255 245 232
255 245 232
255 245 232
255 245 232
255 245 232
255 245 232
255 245 232
255 245 232
255 245 232
255 255 244
255 245 232
255 245 232
255 245 232
255 245 232
255 245 232
255 245 232
255 245 232
255 245 232
255 245 232
255 245 232
255 245 232
255 245 232
255 245 232
255 245 232
255 245 232
255 245 232
255 245 232
255 245 232
255 245 232
255 245 232
255 245 232
255 245 232
255 245 232
255 245 232
255 245 232
255 245 232
255 245 232
255 245 232
255 245 232
255 245 232
255 245 232
255 245 232
255 245 232
255 245 232
255 245 232
255 245 232
255 255 244
255 245 232
255 245 232
255 245 232
255 245 232
255 245 232
255 245 232
255 245 232
255 245 232
255 245 232
255 245 232
255 245 232
255 245 232
255 245 232
255 245 232
255 245 232
255 245 232
255 245 232
255 245 232
255 245 232
255 245 232
255 245 232
255 245 232
255 245 232
255 245 232
255 245 232
255 245 232
255 245 232
255 245 232
255 245 232
255 245 232
255 245 232
255 245 232
255 245 232
255 245 232
255 245 232
255 245 232
255 255 244
255 245 232
255 245 232
255 245 232
255 245 232
255 245 232
255 245 232
255 245 232
255 245 232
255 245 232
255 245 232
255 245 232
255 245 232
255 245 232
255 245 232
255 245 232
255 245 232
255 245 232
255 245 232
255 245 232
255 245 232
255 245 232
255 245 232
255 245 232
255 245 232
255 245 232
255 245 232
255 245 232
255 245 232
255 245 232
255 245 232
255 245 232
255 245 232
255 245 232
255 245 232
255 245 232
255 245 232
255 255 244
255 245 232
255 245 232
255 245 232
255 245 232
255 245 232
255 245 232
255 245 232
255 245 232
255 245 232
255 245 232
255 245 232
255 245 232
255 245 232
255 245 232
255 245 232
255 245 232
255 245 232
255 245 232
255 245 232
255 245 232
255 245 232
255 245 232
255 245 232
255 245 232
255 245 232
255 245 232
255 245 232
255 245 232
255 245 232
255 245 232
255 245 232
255 245 232
255 245 232
255 245 232
255 245 232
255 245 232
255 255 244
255 245 232
255 245 232
255 245 232
255 245 232
255 245 232
255 245 232
255 245 232
255 245 232
255 245 232
255 245 232
255 245 232
255 245 232
255 245 232
255 245 232
255 245 232
255 245 232
255 245 232
255 245 232
255 245 232
255 245 232
255 245 232
255 245 232
255 245 232
255 245 232
255 245 232
255 245 232
255 245 232
255 245 232
255 245 232
255 245 232
255 245 232
255 245 232
255 245 232
255 245 232
255 245 232
255 245 232
255 255 244
255 245 232
255 245 232
255 245 232
255 245 232
255 245 232
255 245 232
255 245 232
255 245 232
255 245 232
255 245 232
255 245 232
255 245 232
255 245 232
255 245 232
255 245 232
255 245 232
255 245 232
255 245 232
255 245 232
255 245 232
255 245 232
255 245 232
255 245 232
255 245 232
255 245 232
255 245 232
255 245 232
255 245 232
255 245 232
255 245 232
255 245 232
255 245 232
255 245 232
255 245 232
255 245 232
255 245 232
255 255 244
255 245 232
255 245 232
255 245 232
255 245 232
255 245 232
255 245 232
255 245 232
255 245 232
255 245 232
255 245 232
255 245 232
255 245 232
255 245 232
255 245 232
255 245 232
255 245 232
255 245 232
255 245 232
255 245 232
255 245 232
255 245 232
255 245 232
255 245 232
255 245 232
255 245 232
255 245 232
255 245 232
255 245 232
255 245 232
255 245 232
255 245 232
255 245 232
255 245 232
255 245 232
255 245 232
255 245 232
255 255 244
255 245 232
255 245 232
255 245 232
255 245 232
255 245 232
255 245 232
255 245 232
255 245 232
255 245 232
255 245 232
255 245 232
255 245 232
255 245 232
255 245 232
255 245 232
255 245 232
255 245 232
255 245 232
255 245 232
255 245 232
255 245 232
255 245 232
255 245 232
255 245 232
255 245 232
255 245 232
255 245 232
255 245 232
255 245 232
255 245 232
255 245 232
255 245 232
255 245 232
255 245 232
255 245 232
255 245 232
255 255 244
255 245 232
255 245 232
255 245 232
255 245 232
255 245 232
255 245 232
255 245 232
255 245 232
255 245 232
255 245 232
255 245 232
255 245 232
255 245 232
255 245 232
255 245 232
255 245 232
255 245 232
255 245 232
255 245 232
255 245 232
255 245 232
255 245 232
255 255 244
255 245 232
255 245 232
255 245 232
255 245 232
255 245 232
255 245 232
255 245 232
255 245 232
255 245 232
255 245 232
255 245 232
255 245 232
255 245 232
255 245 232
255 245 232
255 245 232
255 245 232
255 245 232
255 245 232
255 245 232
255 245 232
255 245 232
255 245 232
255 245 232
255 245 232
255 245 232
255 245 232
255 245 232
255 245 232
255 245 232
255 245 232
255 245 232
255 245 232
255 245 232
255 245 232
255 245 232
255 255 244
255 245 232
255 245 232
255 245 232
255 245 232
255 245 232
255 245 232
255 245 232
255 245 232
255 245 232
255 245 232
255 245 232
255 245 232
255 245 232
255 245 232
255 245 232
255 245 232
255 245 232
255 245 232
255 245 232
255 245 232
255 245 232
255 245 232
255 245 232
255 245 232
255 245 232
255 245 232
255 245 232
255 245 232
255 245 232
255 245 232
255 245 232
255 245 232
255 245 232
255 245 232
255 245 232
255 245 232
255 255 244
255 245 232
255 245 232
255 245 232
255 245 232
255 245 232
255 245 232
255 245 232
255 245 232
255 245 232
255 245 232
255 245 232
255 245 232
255 245 232
255 245 232
255 245 232
255 245 232
255 245 232
255 245 232
255 245 232
255 245 232
255 245 232
255 245 232
255 245 232
255 245 232
255 245 232
255 245 232
255 245 232
255 245 232
255 245 232
255 245 232
255 245 232
255 245 232
255 245 232
255 245 232
255 245 232
255 245 232
255 255 244
255 245 232
255 245 232
255 245 232
255 245 232
255 245 232
255 245 232
255 245 232
255 245 232
255 245 232
255 245 232
255 245 232
255 245 232
255 245 232
255 245 232
255 245 232
255 245 232
255 245 232
255 245 232
255 245 232
255 245 232
255 245 232
255 245 232
255 245 232
255 245 232
255 245 232
255 245 232
255 245 232
255 245 232
255 245 232
255 245 232
255 245 232
255 245 232
255 245 232
255 245 232
255 245 232
255 245 232
255 255 244
255 245 232
255 245 232
255 245 232
255 245 232
255 245 232
255 245 232
255 245 232
255 245 232
255 245 232
255 245 232
255 245 232
255 245 232
255 245 232
255 245 232
255 245 232
255 245 232
255 245 232
255 245 232
255 245 232
255 245 232
255 245 232
255 245 232
255 245 232
255 245 232
255 245 232
255 245 232
255 245 232
255 245 232
255 245 232
255 245 232
255 245 232
255 245 232
255 245 232
255 245 232
255 245 232
255 245 232
255 255 244
255 245 232
255 245 232
255 245 232
255 245 232
255 245 232
255 245 232
255 245 232
255 245 232
255 245 232
255 245 232
255 245 232
255 245 232
255 245 232
255 245 232
255 245 232
255 245 232
255 245 232
255 245 232
255 245 232
255 245 232
255 245 232
255 245 232
255 245 232
255 245 232
255 245 232
255 245 232
255 245 232
255 245 232
255 245 232
255 245 232
255 245 232
255 245 232
255 245 232
255 245 232
255 245 232
255 245 232
255 255 244
255 245 232
255 245 232
255 245 232
255 245 232
255 245 232
255 245 232
255 245 232
255 245 232
255 245 232
255 245 232
255 245 232
255 245 232
255 245 232
255 245 232
255 245 232
255 245 232
255 245 232
255 245 232
255 245 232
255 245 232
255 245 232
255 245 232
255 245 232
255 245 232
255 245 232
255 245 232
255 245 232
255 245 232
255 245 232
255 245 232
255 245 232
255 245 232
255 245 232
255 245 232
255 245 232
255 245 232
255 255 244
255 245 232
255 245 232
255 245 232
255 245 232
255 245 232
255 245 232
255 245 232
255 245 232
255 245 232
255 245 232
255 245 232
255 245 232
255 245 232
255 245 232
255 245 232
255 245 232
255 245 232
255 245 232
255 245 232
255 245 232
255 245 232
255 245 232
255 245 232
255 245 232
255 245 232
255 245 232
255 245 232
255 245 232
255 245 232
255 245 232
255 245 232
255 245 232
255 245 232
255 245 232
255 245 232
255 245 232
255 255 244
255 245 232
255 245 232
255 245 232
255 245 232
255 245 232
255 245 232
255 245 232
255 245 232
255 245 232
255 245 232
255 245 232
255 245 232
255 245 232
255 245 232
255 245 232
255 245 232
255 245 232
255 245 232
255 245 232
255 245 232
255 245 232
255 245 232
255 255 244
255 245 232
255 245 232
255 245 232
255 245 232
255 245 232
255 245 232
255 245 232
255 245 232
255 245 232
255 245 232
255 245 232
255 245 232
255 245 232
255 245 232
255 245 232
255 245 232
255 245 232
255 245 232
255 245 232
255 245 232
255 245 232
255 245 232
255 245 232
255 245 232
255 245 232
255 245 232
255 245 232
255 245 232
255 245 232
255 245 232
255 245 232
255 245 232
255 245 232
255 245 232
255 245 232
255 245 232
255 255 244
255 245 232
255 245 232
255 245 232
255 245 232
255 245 232
255 245 232
255 245 232
255 245 232
255 245 232
255 245 232
255 245 232
255 245 232
255 245 232
255 245 232
255 245 232
255 245 232
255 245 232
255 245 232
255 245 232
255 245 232
255 245 232
255 245 232
255 245 232
255 245 232
255 245 232
255 245 232
255 245 232
255 245 232
255 245 232
255 245 232
255 245 232
255 245 232
255 245 232
255 245 232
255 245 232
255 245 232
255 255 244
255 245 232
255 245 232
255 245 232
255 245 232
255 245 232
255 245 232
255 245 232
255 245 232
255 245 232
255 245 232
255 245 232
255 245 232
255 245 232
255 245 232
255 245 232
255 245 232
255 245 232
255 245 232
255 245 232
255 245 232
255 245 232
255 245 232
255 245 232
255 245 232
255 245 232
255 245 232
255 245 232
255 245 232
255 245 232
255 245 232
255 245 232
255 245 232
255 245 232
255 245 232
255 245 232
255 245 232
255 255 244
255 245 232
255 245 232
255 245 232
255 245 232
255 245 232
255 245 232
255 245 232
255 245 232
255 245 232
255 245 232
255 245 232
255 245 232
255 245 232
255 245 232
255 245 232
255 245 232
255 245 232
255 245 232
255 245 232
255 245 232
255 245 232
255 245 232
255 245 232
255 245 232
255 245 232
255 245 232
255 245 232
255 245 232
255 245 232
255 245 232
255 245 232
255 245 232
255 245 232
255 245 232
255 245 232
255 245 232
255 255 244
255 245 232
255 245 232
255 245 232
255 245 232
255 245 232
255 245 232
255 245 232
255 245 232
255 245 232
255 245 232
255 245 232
255 245 232
255 245 232
255 245 232
255 245 232
255 245 232
255 245 232
255 245 232
255 245 232
255 245 232
255 245 232
255 245 232
255 245 232
255 245 232
255 245 232
255 245 232
255 245 232
255 245 232
255 245 232
255 245 232
255 245 232
255 245 232
255 245 232
255 245 232
255 245 232
255 245 232
255 255 244
255 245 232
255 245 232
255 245 232
255 245 232
255 245 232
255 245 232
255 245 232
255 245 232
255 245 232
255 245 232
255 245 232
255 245 232
255 245 232
255 245 232
255 245 232
255 245 232
255 245 232
255 245 232
255 245 232
255 245 232
255 245 232
255 245 232
255 245 232
255 245 232
255 245 232
255 245 232
255 245 232
255 245 232
255 245 232
255 245 232
255 245 232
255 245 232
255 245 232
255 245 232
255 245 232
255 245 232
255 255 244
255 245 232
255 245 232
255 245 232
255 245 232
255 245 232
255 245 232
255 245 232
255 245 232
255 245 232
255 245 232
255 245 232
255 245 232
255 245 232
255 245 232
255 245 232
255 245 232
255 245 232
255 245 232
255 245 232
255 245 232
255 245 232
255 245 232
255 245 232
255 245 232
255 245 232
255 245 232
255 245 232
255 245 232
255 245 232
255 245 232
255 245 232
255 245 232
255 245 232
255 245 232
255 245 232
255 245 232
255 255 244
255 245 232
255 245 232
255 245 232
255 245 232
255 245 232
255 245 232
255 245 232
255 245 232
255 245 232
255 245 232
255 245 232
255 245 232
255 245 232
255 245 232
255 245 232
255 245 232
255 245 232
255 245 232
255 245 232
255 245 232
255 245 232
255 245 232
255 245 232
255 245 232
255 245 232
255 245 232
255 245 232
255 245 232
255 245 232
255 245 232
255 245 232
255 245 232
255 245 232
255 245 232
255 245 232
255 245 232
255 255 244
255 245 232
255 245 232
255 245 232
255 245 232
255 245 232
255 245 232
255 245 232
255 245 232
255 245 232
255 245 232
255 245 232
255 245 232
255 245 232
255 245 232
255 245 232
255 245 232
255 245 232
255 245 232
255 245 232
255 245 232
255 245 232
255 245 232
255 255 244
255 245 232
255 245 232
255 245 232
255 245 232
255 245 232
255 245 232
255 245 232
255 245 232
255 245 232
255 245 232
255 245 232
255 245 232
255 245 232
255 245 232
255 245 232
255 245 232
255 245 232
255 245 232
255 245 232
255 245 232
255 245 232
255 245 232
255 245 232
255 245 232
255 245 232
255 245 232
255 245 232
255 245 232
255 245 232
255 245 232
255 245 232
255 245 232
255 245 232
255 245 232
255 245 232
255 245 232
255 255 244
255 245 232
255 245 232
255 245 232
255 245 232
255 245 232
255 245 232
255 245 232
255 245 232
255 245 232
255 245 232
255 245 232
255 245 232
255 245 232
255 245 232
255 245 232
255 245 232
255 245 232
255 245 232
255 245 232
255 245 232
255 245 232
255 245 232
255 245 232
255 245 232
255 245 232
255 245 232
255 245 232
255 245 232
255 245 232
255 245 232
255 245 232
255 245 232
255 245 232
255 245 232
255 245 232
255 245 232
255 255 244
255 245 232
255 245 232
255 245 232
255 245 232
255 245 232
255 245 232
255 245 232
255 245 232
255 245 232
255 245 232
255 245 232
255 245 232
255 245 232
255 245 232
255 245 232
255 245 232
255 245 232
255 245 232
255 245 232
255 245 232
255 245 232
255 245 232
255 245 232
255 245 232
255 245 232
255 245 232
255 245 232
255 245 232
255 245 232
255 245 232
255 245 232
255 245 232
255 245 232
255 245 232
255 245 232
255 245 232
255 255 244
255 245 232
255 245 232
255 245 232
255 245 232
255 245 232
255 245 232
255 245 232
255 245 232
255 245 232
255 245 232
255 245 232
255 245 232
255 245 232
255 245 232
255 245 232
255 245 232
255 245 232
255 245 232
255 245 232
255 245 232
255 245 232
255 245 232
255 245 232
255 245 232
255 245 232
255 245 232
255 245 232
255 245 232
255 245 232
255 245 232
255 245 232
255 245 232
255 245 232
255 245 232
255 245 232
255 245 232
255 255 244
255 245 232
255 245 232
255 245 232
255 245 232
255 245 232
255 245 232
255 245 232
255 245 232
255 245 232
255 245 232
255 245 232
255 245 232
255 245 232
255 245 232
255 245 232
255 245 232
255 245 232
255 245 232
255 245 232
255 245 232
255 245 232
255 245 232
255 245 232
255 245 232
255 245 232
255 245 232
255 245 232
255 245 232
255 245 232
255 245 232
255 245 232
255 245 232
255 245 232
255 245 232
255 245 232
255 245 232
255 255 244
255 245 232
255 245 232
255 245 232
255 245 232
255 245 232
255 245 232
255 245 232
255 245 232
255 245 232
255 245 232
255 245 232
255 245 232
255 245 232
255 245 232
255 245 232
255 245 232
255 245 232
255 245 232
255 245 232
255 245 232
255 245 232
255 245 232
255 245 232
255 245 232
255 245 232
255 245 232
255 245 232
255 245 232
255 245 232
255 245 232
255 245 232
255 245 232
255 245 232
255 245 232
255 245 232
255 245 232
255 255 244
255 245 232
255 245 232
255 245 232
255 245 232
255 245 232
255 245 232
255 245 232
255 245 232
255 245 232
255 245 232
255 245 232
255 245 232
255 245 232
255 245 232
255 245 232
255 245 232
255 245 232
255 245 232
255 245 232
255 245 232
255 245 232
255 245 232
255 245 232
255 245 232
255 245 232
255 245 232
255 245 232
255 245 232
255 245 232
255 245 232
255 245 232
255 245 232
255 245 232
255 245 232
255 245 232
255 245 232
255 255 244
255 245 232
255 245 232
255 245 232
255 245 232
255 245 232
255 245 232
255 245 232
255 245 232
255 245 232
255 245 232
255 245 232
255 245 232
255 245 232
255 245 232
255 245 232
255 245 232
255 245 232
255 245 232
255 245 232
255 245 232
255 245 232
255 245 232
255 245 232
255 245 232
255 245 232
255 245 232
255 245 232
255 245 232
255 245 232
255 245 232
255 245 232
255 245 232
255 245 232
255 245 232
255 245 232
255 245 232
255 255 244
255 245 232
255 245 232
255 245 232
255 245 232
255 245 232
255 245 232
255 245 232
255 245 232
255 245 232
255 245 232
255 245 232
255 245 232
255 245 232
255 245 232
255 245 232
255 245 232
255 245 232
255 245 232
255 245 232
255 245 232
255 245 232
255 245 232
255 255 244
255 245 232
255 245 232
255 245 232
255 245 232
255 245 232
255 245 232
255 245 232
255 245 232
255 245 232
255 245 232
255 245 232
255 245 232
255 245 232
255 245 232
255 245 232
255 245 232
255 245 232
255 245 232
255 245 232
255 245 232
255 245 232
255 245 232
255 245 232
255 245 232
255 245 232
255 245 232
255 245 232
255 245 232
255 245 232
255 245 232
255 245 232
255 245 232
255 245 232
255 245 232
255 245 232
255 245 232
255 255 244
255 245 232
255 245 232
255 245 232
255 245 232
255 245 232
255 245 232
255 245 232
255 245 232
255 245 232
255 245 232
255 245 232
255 245 232
255 245 232
255 245 232
255 245 232
255 245 232
255 245 232
255 245 232
255 245 232
255 245 232
255 245 232
255 245 232
255 245 232
255 245 232
255 245 232
255 245 232
255 245 232
255 245 232
255 245 232
255 245 232
255 245 232
255 245 232
255 245 232
255 245 232
255 245 232
255 245 232
255 255 244
255 245 232
255 245 232
255 245 232
255 245 232
255 245 232
255 245 232
255 245 232
255 245 232
255 245 232
255 245 232
255 245 232
255 245 232
255 245 232
255 245 232
255 245 232
255 245 232
255 245 232
255 245 232
255 245 232
255 245 232
255 245 232
255 245 232
255 245 232
255 245 232
255 245 232
255 245 232
255 245 232
255 245 232
255 245 232
255 245 232
255 245 232
255 245 232
255 245 232
255 245 232
255 245 232
255 245 232
255 255 244
255 245 232
255 245 232
255 245 232
255 245 232
255 245 232
255 245 232
255 245 232
255 245 232
255 245 232
255 245 232
255 245 232
255 245 232
255 245 232
255 245 232
255 245 232
255 245 232
255 245 232
255 245 232
255 245 232
255 245 232
255 245 232
255 245 232
255 245 232
255 245 232
255 245 232
255 245 232
255 245 232
255 245 232
255 245 232
255 245 232
255 245 232
255 245 232
255 245 232
255 245 232
255 245 232
255 245 232
255 255 244
255 245 232
255 245 232
255 245 232
255 245 232
255 245 232
255 245 232
255 245 232
255 245 232
255 245 232
255 245 232
255 245 232
255 245 232
255 245 232
255 245 232
255 245 232
255 245 232
255 245 232
255 245 232
255 245 232
255 245 232
255 245 232
255 245 232
255 245 232
255 245 232
255 245 232
255 245 232
255 245 232
255 245 232
255 245 232
255 245 232
255 245 232
255 245 232
255 245 232
255 245 232
255 245 232
255 245 232
255 255 244
255 245 232
255 245 232
255 245 232
255 245 232
255 245 232
255 245 232
255 245 232
255 245 232
255 245 232
255 245 232
255 245 232
255 245 232
255 245 232
255 245 232
255 245 232
255 245 232
255 245 232
255 245 232
255 245 232
255 245 232
255 245 232
255 245 232
255 245 232
255 245 232
255 245 232
255 245 232
255 245 232
255 245 232
255 245 232
255 245 232
255 245 232
255 245 232
255 245 232
255 245 232
255 245 232
255 245 232
255 255 244
255 245 232
255 245 232
255 245 232
255 245 232
255 245 232
255 245 232
255 245 232
255 245 232
255 245 232
255 245 232
255 245 232
255 245 232
255 245 232
255 245 232
255 245 232
255 245 232
255 245 232
255 245 232
255 245 232
255 245 232
255 245 232
255 245 232
255 245 232
255 245 232
255 245 232
255 245 232
255 245 232
255 245 232
255 245 232
255 245 232
255 245 232
255 245 232
255 245 232
255 245 232
255 245 232
255 245 232
255 255 244
255 245 232
255 245 232
255 245 232
255 245 232
255 245 232
255 245 232
255 245 232
255 245 232
255 245 232
255 245 232
255 245 232
255 245 232
255 245 232
255 245 232
255 245 232
255 245 232
255 245 232
255 245 232
255 245 232
255 245 232
255 245 232
255 245 232
255 245 232
255 245 232
255 245 232
255 245 232
255 245 232
255 245 232
255 245 232
255 245 232
255 245 232
255 245 232
255 245 232
255 245 232
255 245 232
255 245 232
255 255 244
255 245 232
255 245 232
255 245 232
255 245 232
255 245 232
255 245 232
255 245 232
255 245 232
255 245 232
255 245 232
255 245 232
255 245 232
255 245 232
255 245 232
255 245 232
255 245 232
255 245 232
255 245 232
255 245 232
255 245 232
255 245 232
255 245 232
255 255 244
255 245 232
255 245 232
255 245 232
255 245 232
255 245 232
255 245 232
255 245 232
255 245 232
255 245 232
255 245 232
255 245 232
255 245 232
255 245 232
255 245 232
255 245 232
255 245 232
255 245 232
255 245 232
255 245 232
255 245 232
255 245 232
255 245 232
255 245 232
255 245 232
255 245 232
255 245 232
255 245 232
255 245 232
255 245 232
255 245 232
255 245 232
255 245 232
255 245 232
255 245 232
255 245 232
255 245 232
255 255 244
255 245 232
255 245 232
255 245 232
255 245 232
255 245 232
255 245 232
255 245 232
255 245 232
255 245 232
255 245 232
255 245 232
255 245 232
255 245 232
255 245 232
255 245 232
255 245 232
255 245 232
255 245 232
255 245 232
255 245 232
255 245 232
255 245 232
255 245 232
255 245 232
255 245 232
255 245 232
255 245 232
255 245 232
255 245 232
255 245 232
255 245 232
255 245 232
255 245 232
255 245 232
255 245 232
255 245 232
255 255 244
255 245 232
255 245 232
255 245 232
255 245 232
255 245 232
255 245 232
255 245 232
255 245 232
255 245 232
255 245 232
255 245 232
255 245 232
255 245 232
255 245 232
255 245 232
255 245 232
255 245 232
255 245 232
255 245 232
255 245 232
255 245 232
255 245 232
255 245 232
255 245 232
255 245 232
255 245 232
255 245 232
255 245 232
255 245 232
255 245 232
255 245 232
255 245 232
255 245 232
255 245 232
255 245 232
255 245 232
255 255 244
255 245 232
255 245 232
255 245 232
255 245 232
255 245 232
255 245 232
255 245 232
255 245 232
255 245 232
255 245 232
255 245 232
255 245 232
255 245 232
255 245 232
255 245 232
255 245 232
255 245 232
255 245 232
255 245 232
255 245 232
255 245 232
255 245 232
255 245 232
255 245 232
255 245 232
255 245 232
255 245 232
255 245 232
255 245 232
255 245 232
255 245 232
255 245 232
255 245 232
255 245 232
255 245 232
255 245 232
255 255 244
255 245 232
255 245 232
255 245 232
255 245 232
255 245 232
255 245 232
255 245 232
255 245 232
255 245 232
255 245 232
255 245 232
255 245 232
255 245 232
255 245 232
255 245 232
255 245 232
255 245 232
255 245 232
255 245 232
255 245 232
255 245 232
255 245 232
255 245 232
255 245 232
255 245 232
255 245 232
255 245 232
255 245 232
255 245 232
255 245 232
255 245 232
255 245 232
255 245 232
255 245 232
255 245 232
255 245 232
255 255 244
255 245 232
255 245 232
255 245 232
255 245 232
255 245 232
255 245 232
255 245 232
255 245 232
255 245 232
255 245 232
255 245 232
255 245 232
255 245 232
255 245 232
255 245 232
255 245 232
255 245 232
255 245 232
255 245 232
255 245 232
255 245 232
255 245 232
255 245 232
255 245 232
255 245 232
255 245 232
255 245 232
255 245 232
255 245 232
255 245 232
255 245 232
255 245 232
255 245 232
255 245 232
255 245 232
255 245 232
255 255 244
255 245 232
255 245 232
255 245 232
255 245 232
255 245 232
255 245 232
255 245 232
255 245 232
255 245 232
255 245 232
255 245 232
255 245 232
255 245 232
255 245 232
255 245 232
255 245 232
255 245 232
255 245 232
255 245 232
255 245 232
255 245 232
255 245 232
255 245 232
255 245 232
255 245 232
255 245 232
255 245 232
255 245 232
255 245 232
255 245 232
255 245 232
255 245 232
255 245 232
255 245 232
255 245 232
255 245 232
255 255 244
255 245 232
255 245 232
255 245 232
255 245 232
255 245 232
255 245 232
255 245 232
255 245 232
255 245 232
255 245 232
255 245 232
255 245 232
255 245 232
255 245 232
255 245 232
255 245 232
255 245 232
255 245 232
255 245 232
255 245 232
255 245 232
255 245 232
255 245 232
255 245 232
255 245 232
255 245 232
255 245 232
255 245 232
255 245 232
255 245 232
255 245 232
255 245 232
255 245 232
255 245 232
255 245 232
255 245 232
255 255 244
255 245 232
255 245 232
255 245 232
255 245 232
255 245 232
255 245 232
255 245 232
255 245 232
255 245 232
255 245 232
255 245 232
255 245 232
255 245 232
255 245 232
255 245 232
255 245 232
255 245 232
255 245 232
255 245 232
255 245 232
255 245 232
255 245 232
255 255 244
255 245 232
255 245 232
255 245 232
255 245 232
255 245 232
255 245 232
255 245 232
255 245 232
255 245 232
255 245 232
255 245 232
255 245 232
255 245 232
255 245 232
255 245 232
255 245 232
255 245 232
255 245 232
255 245 232
255 245 232
255 245 232
255 245 232
255 245 232
255 245 232
255 245 232
255 245 232
255 245 232
255 245 232
255 245 232
255 245 232
255 245 232
255 245 232
255 245 232
255 245 232
255 245 232
255 245 232
255 255 244
255 245 232
255 245 232
255 245 232
255 245 232
255 245 232
255 245 232
255 245 232
255 245 232
255 245 232
255 245 232
255 245 232
255 245 232
255 245 232
255 245 232
255 245 232
255 245 232
255 245 232
255 245 232
255 245 232
255 245 232
255 245 232
255 245 232
255 245 232
255 245 232
255 245 232
255 245 232
255 245 232
255 245 232
255 245 232
255 245 232
255 245 232
255 245 232
255 245 232
255 245 232
255 245 232
255 245 232
255 255 244
255 245 232
255 245 232
255 245 232
255 245 232
255 245 232
255 245 232
255 245 232
255 245 232
255 245 232
255 245 232
255 245 232
255 245 232
255 245 232
255 245 232
255 245 232
255 245 232
255 245 232
255 245 232
255 245 232
255 245 232
255 245 232
255 245 232
255 245 232
255 245 232
255 245 232
255 245 232
255 245 232
255 245 232
255 245 232
255 245 232
255 245 232
255 245 232
255 245 232
255 245 232
255 245 232
255 245 232
255 255 244
255 245 232
255 245 232
255 245 232
255 245 232
255 245 232
255 245 232
255 245 232
255 245 232
255 245 232
255 245 232
255 245 232
255 245 232
255 245 232
255 245 232
255 245 232
255 245 232
255 245 232
255 245 232
255 245 232
255 245 232
255 245 232
255 245 232
255 245 232
255 245 232
255 245 232
255 245 232
255 245 232
255 245 232
255 245 232
255 245 232
255 245 232
255 245 232
255 245 232
255 245 232
255 245 232
255 245 232
255 255 244
255 245 232
255 245 232
255 245 232
255 245 232
255 245 232
255 245 232
255 245 232
255 245 232
255 245 232
255 245 232
255 245 232
255 245 232
255 245 232
255 245 232
255 245 232
255 245 232
255 245 232
255 245 232
255 245 232
255 245 232
255 245 232
255 245 232
255 245 232
255 245 232
255 245 232
255 245 232
255 245 232
255 245 232
255 245 232
255 245 232
255 245 232
255 245 232
255 245 232
255 245 232
255 245 232
255 245 232
255 255 244
255 245 232
255 245 232
255 245 232
255 245 232
255 245 232
255 245 232
255 245 232
255 245 232
255 245 232
255 245 232
255 245 232
255 245 232
255 245 232
255 245 232
255 245 232
255 245 232
255 245 232
255 245 232
255 245 232
255 245 232
255 245 232
255 245 232
255 245 232
255 245 232
255 245 232
255 245 232
255 245 232
255 245 232
255 245 232
255 245 232
255 245 232
255 245 232
255 245 232
255 245 232
255 245 232
255 245 232
255 255 244
255 245 232
255 245 232
255 245 232
255 245 232
255 245 232
255 245 232
255 245 232
255 245 232
255 245 232
255 245 232
255 245 232
255 245 232
255 245 232
255 245 232
255 245 232
255 245 232
255 245 232
255 245 232
255 245 232
255 245 232
255 245 232
255 245 232
255 245 232
255 245 232
255 245 232
255 245 232
255 245 232
255 245 232
255 245 232
255 245 232
255 245 232
255 245 232
255 245 232
255 245 232
255 245 232
255 245 232
255 255 244
255 245 232
255 245 232
255 245 232
255 245 232
255 245 232
255 245 232
255 245 232
255 245 232
255 245 232
255 245 232
255 245 232
255 245 232
255 245 232
255 245 232
255 245 232
255 245 232
255 245 232
255 245 232
255 245 232
255 245 232
255 245 232
255 245 232
255 245 232
255 245 232
255 245 232
255 245 232
255 245 232
255 245 232
255 245 232
255 245 232
255 245 232
255 245 232
255 245 232
255 245 232
255 245 232
255 245 232
255 255 244
255 245 232
255 245 232
255 245 232
255 245 232
255 245 232
255 245 232
255 245 232
255 245 232
255 245 232
255 245 232
255 245 232
255 245 232
255 245 232
255 245 232
255 245 232
255 245 232
255 245 232
255 245 232
255 245 232
255 245 232
255 245 232
255 245 232
255 255 244
255 245 232
255 245 232
255 245 232
255 245 232
255 245 232
255 245 232
255 245 232
255 245 232
255 245 232
255 245 232
255 245 232
255 245 232
255 245 232
255 245 232
255 245 232
255 245 232
255 245 232
255 245 232
255 245 232
255 245 232
255 245 232
255 245 232
255 245 232
255 245 232
255 245 232
255 245 232
255 245 232
255 245 232
255 245 232
255 245 232
255 245 232
255 245 232
255 245 232
255 245 232
255 245 232
255 245 232
255 255 244
255 245 232
255 245 232
255 245 232
255 245 232
255 245 232
255 245 232
255 245 232
255 245 232
255 245 232
255 245 232
255 245 232
255 245 232
255 245 232
255 245 232
255 245 232
255 245 232
255 245 232
255 245 232
255 245 232
255 245 232
255 245 232
255 245 232
255 245 232
255 245 232
255 245 232
255 245 232
255 245 232
255 245 232
255 245 232
255 245 232
255 245 232
255 245 232
255 245 232
255 245 232
255 245 232
255 245 232
255 255 244
255 245 232
255 245 232
255 245 232
255 245 232
255 245 232
255 245 232
255 245 232
255 245 232
255 245 232
255 245 232
255 245 232
255 245 232
255 245 232
255 245 232
255 245 232
255 245 232
255 245 232
255 245 232
255 245 232
255 245 232
255 245 232
255 245 232
255 245 232
255 245 232
255 245 232
255 245 232
255 245 232
255 245 232
255 245 232
255 245 232
255 245 232
255 245 232
255 245 232
255 245 232
255 245 232
255 245 232
255 255 244
255 245 232
255 245 232
255 245 232
255 245 232
255 245 232
255 245 232
255 245 232
255 245 232
255 245 232
255 245 232
255 245 232
255 245 232
255 245 232
255 245 232
255 245 232
255 245 232
255 245 232
255 245 232
255 245 232
255 245 232
255 245 232
255 245 232
255 245 232
255 245 232
255 245 232
255 245 232
255 245 232
255 245 232
255 245 232
255 245 232
255 245 232
255 245 232
255 245 232
255 245 232
255 245 232
255 245 232
255 255 244
255 245 232
255 245 232
255 245 232
255 245 232
255 245 232
255 245 232
255 245 232
255 245 232
255 245 232
255 245 232
255 245 232
255 245 232
255 245 232
255 245 232
255 245 232
255 245 232
255 245 232
255 245 232
255 245 232
255 245 232
255 245 232
255 245 232
255 245 232
255 245 232
255 245 232
255 245 232
255 245 232
255 245 232
255 245 232
255 245 232
255 245 232
255 245 232
255 245 232
255 245 232
255 245 232
255 245 232
255 255 244
255 245 232
255 245 232
255 245 232
255 245 232
255 245 232
255 245 232
255 245 232
255 245 232
255 245 232
255 245 232
255 245 232
255 245 232
255 245 232
255 245 232
255 245 232
255 245 232
255 245 232
255 245 232
255 245 232
255 245 232
255 245 232
255 245 232
255 245 232
255 245 232
255 245 232
255 245 232
255 245 232
255 245 232
255 245 232
255 245 232
255 245 232
255 245 232
255 245 232
255 245 232
255 245 232
255 245 232
255 255 244
255 245 232
255 245 232
255 245 232
255 245 232
255 245 232
255 245 232
255 245 232
255 245 232
255 245 232
255 245 232
255 245 232
255 245 232
255 245 232
255 245 232
255 245 232
255 245 232
255 245 232
255 245 232
255 245 232
255 245 232
255 245 232
255 245 232
255 245 232
255 245 232
255 245 232
255 245 232
255 245 232
255 245 232
255 245 232
255 245 232
255 245 232
255 245 232
255 245 232
255 245 232
255 245 232
255 245 232
255 255 244
255 245 232
255 245 232
255 245 232
255 245 232
255 245 232
255 245 232
255 245 232
255 245 232
255 245 232
255 245 232
255 245 232
255 245 232
255 245 232
255 245 232
255 245 232
255 245 232
255 245 232
255 245 232
255 245 232
255 245 232
255 245 232
255 245 232
255 245 232
255 245 232
255 245 232
255 245 232
255 245 232
255 245 232
255 245 232
255 245 232
255 245 232
255 245 232
255 245 232
255 245 232
255 245 232
255 245 232
255 255 244
255 245 232
255 245 232
255 245 232
255 245 232
255 245 232
255 245 232
255 245 232
255 245 232
255 245 232
255 245 232
255 245 232
255 245 232
255 245 232
255 245 232
255 245 232
255 245 232
255 245 232
255 245 232
255 245 232
255 245 232
255 245 232
255 245 232
255 255 244
255 245 232
255 245 232
255 245 232
255 245 232
255 245 232
255 245 232
255 245 232
255 245 232
255 245 232
255 245 232
255 245 232
255 245 232
255 245 232
255 245 232
255 245 232
255 245 232
255 245 232
255 245 232
255 245 232
255 245 232
255 245 232
255 245 232
255 245 232
255 245 232
255 245 232
255 245 232
255 245 232
255 245 232
255 245 232
255 245 232
255 245 232
255 245 232
255 245 232
255 245 232
255 245 232
255 245 232
255 255 244
255 245 232
255 245 232
255 245 232
255 245 232
255 245 232
255 245 232
255 245 232
255 245 232
255 245 232
255 245 232
255 245 232
255 245 232
255 245 232
255 245 232
255 245 232
255 245 232
255 245 232
255 245 232
255 245 232
255 245 232
255 245 232
255 245 232
255 245 232
255 245 232
255 245 232
255 245 232
255 245 232
255 245 232
255 245 232
255 245 232
255 245 232
255 245 232
255 245 232
255 245 232
255 245 232
255 245 232
255 255 244
255 245 232
255 245 232
255 245 232
255 245 232
255 245 232
255 245 232
255 245 232
255 245 232
255 245 232
255 245 232
255 245 232
255 245 232
255 245 232
255 245 232
255 245 232
255 245 232
255 245 232
255 245 232
255 245 232
255 245 232
255 245 232
255 245 232
255 245 232
255 245 232
255 245 232
255 245 232
255 245 232
255 245 232
255 245 232
255 245 232
255 245 232
255 245 232
255 245 232
255 245 232
255 245 232
255 245 232
255 255 244
255 245 232
255 245 232
255 245 232
255 245 232
255 245 232
255 245 232
255 245 232
255 245 232
255 245 232
255 245 232
255 245 232
255 245 232
255 245 232
255 245 232
255 245 232
255 245 232
255 245 232
255 245 232
255 245 232
255 245 232
255 245 232
255 245 232
255 245 232
255 245 232
255 245 232
255 245 232
255 245 232
255 245 232
255 245 232
255 245 232
255 245 232
255 245 232
255 245 232
255 245 232
255 245 232
255 245 232
255 255 244
255 245 232
255 245 232
255 245 232
255 245 232
255 245 232
255 245 232
255 245 232
255 245 232
255 245 232
255 245 232
255 245 232
255 245 232
255 245 232
255 245 232
255 245 232
255 245 232
255 245 232
255 245 232
255 245 232
255 245 232
255 245 232
255 245 232
255 245 232
255 245 232
255 245 232
255 245 232
255 245 232
255 245 232
255 245 232
255 245 232
255 245 232
255 245 232
255 245 232
255 245 232
255 245 232
255 245 232
255 255 244
255 245 232
255 245 232
255 245 232
255 245 232
255 245 232
255 245 232
255 245 232
255 245 232
255 245 232
255 245 232
255 245 232
255 245 232
255 245 232
255 245 232
255 245 232
255 245 232
255 245 232
255 245 232
255 245 232
255 245 232
255 245 232
255 245 232
255 245 232
255 245 232
255 245 232
255 245 232
255 245 232
255 245 232
255 245 232
255 245 232
255 245 232
255 245 232
255 245 232
255 245 232
255 245 232
255 245 232
255 255 244
255 245 232
255 245 232
255 245 232
255 245 232
255 245 232
255 245 232
255 245 232
255 245 232
255 245 232
255 245 232
255 245 232
255 245 232
255 245 232
255 245 232
255 245 232
255 245 232
255 245 232
255 245 232
255 245 232
255 245 232
255 245 232
255 245 232
255 245 232
255 245 232
255 245 232
255 245 232
255 245 232
255 245 232
255 245 232
255 245 232
255 245 232
255 245 232
255 245 232
255 245 232
255 245 232
255 245 232
255 255 244
255 245 232
255 245 232
255 245 232
255 245 232
255 245 232
255 245 232
255 245 232
255 245 232
255 245 232
255 245 232
255 245 232
255 245 232
255 245 232
255 245 232
255 245 232
255 245 232
255 245 232
255 245 232
255 245 232
255 245 232
255 245 232
255 245 232
255 245 232
255 245 232
255 245 232
255 245 232
255 245 232
255 245 232
255 245 232
255 245 232
255 245 232
255 245 232
255 245 232
255 245 232
255 245 232
255 245 232
255 255 244
255 245 232
255 245 232
255 245 232
255 245 232
255 245 232
255 245 232
255 245 232
255 245 232
255 245 232
255 245 232
255 245 232
255 245 232
255 245 232
255 245 232
255 245 232
255 245 232
255 245 232
255 245 232
255 245 232
255 245 232
255 245 232
255 245 232
255 255 244
255 245 232
255 245 232
255 245 232
255 245 232
255 245 232
255 245 232
255 245 232
255 245 232
255 245 232
255 245 232
255 245 232
255 245 232
255 245 232
255 245 232
255 245 232
255 245 232
255 245 232
255 245 232
255 245 232
255 245 232
255 245 232
255 245 232
255 245 232
255 245 232
255 245 232
255 245 232
255 245 232
255 245 232
255 245 232
255 245 232
255 245 232
255 245 232
255 245 232
255 245 232
255 245 232
255 245 232
255 255 244
255 245 232
255 245 232
255 245 232
255 245 232
255 245 232
255 245 232
255 245 232
255 245 232
255 245 232
255 245 232
255 245 232
255 245 232
255 245 232
255 245 232
255 245 232
255 245 232
255 245 232
255 245 232
255 245 232
255 245 232
255 245 232
255 245 232
255 245 232
255 245 232
255 245 232
255 245 232
255 245 232
255 245 232
255 245 232
255 245 232
255 245 232
255 245 232
255 245 232
255 245 232
255 245 232
255 245 232
255 255 244
255 245 232
255 245 232
255 245 232
255 245 232
255 245 232
255 245 232
255 245 232
255 245 232
255 245 232
255 245 232
255 245 232
255 245 232
255 245 232
255 245 232
255 245 232
255 245 232
255 245 232
255 245 232
255 245 232
255 245 232
255 245 232
255 245 232
255 245 232
255 245 232
255 245 232
255 245 232
255 245 232
255 245 232
255 245 232
255 245 232
255 245 232
255 245 232
255 245 232
255 245 232
255 245 232
255 245 232
255 255 244
255 245 232
255 245 232
255 245 232
255 245 232
255 245 232
255 245 232
255 245 232
255 245 232
255 245 232
255 245 232
255 245 232
255 245 232
255 245 232
255 245 232
255 245 232
255 245 232
255 245 232
255 245 232
255 245 232
255 245 232
255 245 232
255 245 232
255 245 232
255 245 232
255 245 232
255 245 232
255 245 232
255 245 232
255 245 232
255 245 232
255 245 232
255 245 232
255 245 232
255 245 232
255 245 232
255 245 232
255 255 244
255 245 232
255 245 232
255 245 232
255 245 232
255 245 232
255 245 232
255 245 232
255 245 232
255 245 232
255 245 232
255 245 232
255 245 232
255 245 232
255 245 232
255 245 232
255 245 232
255 245 232
255 245 232
255 245 232
255 245 232
255 245 232
255 245 232
255 245 232
255 245 232
255 245 232
255 245 232
255 245 232
255 245 232
255 245 232
255 245 232
255 245 232
255 245 232
255 245 232
255 245 232
255 245 232
255 245 232
255 255 244
255 245 232
255 245 232
255 245 232
255 245 232
255 245 232
255 245 232
255 245 232
255 245 232
255 245 232
255 245 232
255 245 232
255 245 232
255 245 232
255 245 232
255 245 232
255 245 232
255 245 232
255 245 232
255 245 232
255 245 232
255 245 232
255 245 232
255 245 232
255 245 232
255 245 232
255 245 232
255 245 232
255 245 232
255 245 232
255 245 232
255 245 232
255 245 232
255 245 232
255 245 232
255 245 232
255 245 232
255 255 244
255 245 232
255 245 232
255 245 232
255 245 232
255 245 232
255 245 232
255 245 232
255 245 232
255 245 232
255 245 232
255 245 232
255 245 232
255 245 232
255 245 232
255 245 232
255 245 232
255 245 232
255 245 232
255 245 232
255 245 232
255 245 232
255 245 232
255 245 232
255 245 232
255 245 232
255 245 232
255 245 232
255 245 232
255 245 232
255 245 232
255 245 232
255 245 232
255 245 232
255 245 232
255 245 232
255 245 232
255 255 244
255 245 232
255 245 232
255 245 232
255 245 232
255 245 232
255 245 232
255 245 232
255 245 232
255 245 232
255 245 232
255 245 232
255 245 232
255 245 232
255 245 232
255 245 232
255 245 232
255 245 232
255 245 232
255 245 232
255 245 232
255 245 232
255 245 232
255 245 232
255 245 232
255 245 232
255 245 232
255 245 232
255 245 232
255 245 232
255 245 232
255 245 232
255 245 232
255 245 232
255 245 232
255 245 232
255 245 232
255 255 244
255 245 232
255 245 232
255 245 232
255 245 232
255 245 232
255 245 232
255 245 232
255 245 232
255 245 232
255 245 232
255 245 232
255 245 232
255 245 232
255 245 232
255 245 232
255 245 232
255 245 232
255 245 232
255 245 232
255 245 232
255 245 232
255 245 232
255 255 244
255 245 232
255 245 232
255 245 232
255 245 232
255 245 232
255 245 232
255 245 232
255 245 232
255 245 232
255 245 232
255 245 232
255 245 232
255 245 232
255 245 232
255 245 232
255 245 232
255 245 232
255 245 232
255 245 232
255 245 232
255 245 232
255 245 232
255 245 232
255 245 232
255 245 232
255 245 232
255 245 232
255 245 232
255 245 232
255 245 232
255 245 232
255 245 232
255 245 232
255 245 232
255 245 232
255 245 232
255 255 244
255 245 232
255 245 232
255 245 232
255 245 232
255 245 232
255 245 232
255 245 232
255 245 232
255 245 232
255 245 232
255 245 232
255 245 232
255 245 232
255 245 232
255 245 232
255 245 232
255 245 232
255 245 232
255 245 232
255 245 232
255 245 232
255 245 232
255 245 232
255 245 232
255 245 232
255 245 232
255 245 232
255 245 232
255 245 232
255 245 232
255 245 232
255 245 232
255 245 232
255 245 232
255 245 232
255 245 232
255 255 244
255 245 232
255 245 232
255 245 232
255 245 232
255 245 232
255 245 232
255 245 232
255 245 232
255 245 232
255 245 232
255 245 232
255 245 232
255 245 232
255 245 232
255 245 232
255 245 232
255 245 232
255 245 232
255 245 232
255 245 232
255 245 232
255 245 232
255 245 232
255 245 232
255 245 232
255 245 232
255 245 232
255 245 232
255 245 232
255 245 232
255 245 232
255 245 232
255 245 232
255 245 232
255 245 232
255 245 232
255 255 244
255 245 232
255 245 232
255 245 232
255 245 232
255 245 232
255 245 232
255 245 232
255 245 232
255 245 232
255 245 232
255 245 232
255 245 232
255 245 232
255 245 232
255 245 232
255 245 232
255 245 232
255 245 232
255 245 232
255 245 232
255 245 232
255 245 232
255 245 232
255 245 232
255 245 232
255 245 232
255 245 232
255 245 232
255 245 232
255 245 232
255 245 232
255 245 232
255 245 232
255 245 232
255 245 232
255 245 232
255 255 244
255 245 232
255 245 232
255 245 232
255 245 232
255 245 232
255 245 232
255 245 232
255 245 232
255 245 232
255 245 232
255 245 232
255 245 232
255 245 232
255 245 232
255 245 232
255 245 232
255 245 232
255 245 232
255 245 232
255 245 232
255 245 232
255 245 232
255 245 232
255 245 232
255 245 232
255 245 232
255 245 232
255 245 232
255 245 232
255 245 232
255 245 232
255 245 232
255 245 232
255 245 232
255 245 232
255 245 232
255 255 244
255 245 232
255 245 232
255 245 232
255 245 232
255 245 232
255 245 232
255 245 232
255 245 232
255 245 232
255 245 232
255 245 232
255 245 232
255 245 232
255 245 232
255 245 232
255 245 232
255 245 232
255 245 232
255 245 232
255 245 232
255 245 232
255 245 232
255 245 232
255 245 232
255 245 232
255 245 232
255 245 232
255 245 232
255 245 232
255 245 232
255 245 232
255 245 232
255 245 232
255 245 232
255 245 232
255 245 232
255 255 244
255 245 232
255 245 232
255 245 232
255 245 232
255 245 232
255 245 232
255 245 232
255 245 232
255 245 232
255 245 232
255 245 232
255 245 232
255 245 232
255 245 232
255 245 232
255 245 232
255 245 232
255 245 232
255 245 232
255 245 232
255 245 232
255 245 232
255 245 232
255 245 232
255 245 232
255 245 232
255 245 232
255 245 232
255 245 232
255 245 232
255 245 232
255 245 232
255 245 232
255 245 232
255 245 232
255 245 232
255 255 244
255 245 232
255 245 232
255 245 232
255 245 232
255 245 232
255 245 232
255 245 232
255 245 232
255 245 232
255 245 232
255 245 232
255 245 232
255 245 232
255 245 232
255 245 232
255 245 232
255 245 232
255 245 232
255 245 232
255 245 232
255 245 232
255 245 232
255 245 232
255 245 232
255 245 232
255 245 232
255 245 232
255 245 232
255 245 232
255 245 232
255 245 232
255 245 232
255 245 232
255 245 232
255 245 232
255 245 232
255 255 244
255 245 232
255 245 232
255 245 232
255 245 232
255 245 232
255 245 232
255 245 232
255 245 232
255 245 232
255 245 232
255 245 232
255 245 232
255 245 232
255 245 232
255 245 232
255 245 232
255 245 232
255 245 232
255 245 232
255 245 232
255 245 232
255 245 232
255 255 244
255 245 232
255 245 232
255 245 232
255 245 232
255 245 232
255 245 232
255 245 232
255 245 232
255 245 232
255 245 232
255 245 232
255 245 232
255 245 232
255 245 232
255 245 232
255 245 232
255 245 232
255 245 232
255 245 232
255 245 232
255 245 232
255 245 232
255 245 232
255 245 232
255 245 232
255 245 232
255 245 232
255 245 232
255 245 232
255 245 232
255 245 232
255 245 232
255 245 232
255 245 232
255 245 232
255 245 232
255 255 244
255 245 232
255 245 232
255 245 232
255 245 232
255 245 232
255 245 232
255 245 232
255 245 232
255 245 232
255 245 232
255 245 232
255 245 232
255 245 232
255 245 232
255 245 232
255 245 232
255 245 232
255 245 232
255 245 232
255 245 232
255 245 232
255 245 232
255 245 232
255 245 232
255 245 232
255 245 232
255 245 232
255 245 232
255 245 232
255 245 232
255 245 232
255 245 232
255 245 232
255 245 232
255 245 232
255 245 232
255 255 244
255 245 232
255 245 232
255 245 232
255 245 232
255 245 232
255 245 232
255 245 232
255 245 232
255 245 232
255 245 232
255 245 232
255 245 232
255 245 232
255 245 232
255 245 232
255 245 232
255 245 232
255 245 232
255 245 232
255 245 232
255 245 232
255 245 232
255 245 232
255 245 232
255 245 232
255 245 232
255 245 232
255 245 232
255 245 232
255 245 232
255 245 232
255 245 232
255 245 232
255 245 232
255 245 232
255 245 232
255 255 244
255 245 232
255 245 232
255 245 232
255 245 232
255 245 232
255 245 232
255 245 232
255 245 232
255 245 232
255 245 232
255 245 232
255 245 232
255 245 232
255 245 232
255 245 232
255 245 232
255 245 232
255 245 232
255 245 232
255 245 232
255 245 232
255 245 232
255 245 232
255 245 232
255 245 232
255 245 232
255 245 232
255 245 232
255 245 232
255 245 232
255 245 232
255 245 232
255 245 232
255 245 232
255 245 232
255 245 232
255 255 244
255 245 232
255 245 232
255 245 232
255 245 232
255 245 232
255 245 232
255 245 232
255 245 232
255 245 232
255 245 232
255 245 232
255 245 232
255 245 232
255 245 232
255 245 232
255 245 232
255 245 232
255 245 232
255 245 232
255 245 232
255 245 232
255 245 232
255 245 232
255 245 232
255 245 232
255 245 232
255 245 232
255 245 232
255 245 232
255 245 232
255 245 232
255 245 232
255 245 232
255 245 232
255 245 232
255 245 232
255 255 244
255 245 232
255 245 232
255 245 232
255 245 232
255 245 232
255 245 232
255 245 232
255 245 232
255 245 232
255 245 232
255 245 232
255 245 232
255 245 232
255 245 232
255 245 232
255 245 232
255 245 232
255 245 232
255 245 232
255 245 232
255 245 232
255 245 232
255 245 232
255 245 232
255 245 232
255 245 232
255 245 232
255 245 232
255 245 232
255 245 232
255 245 232
255 245 232
255 245 232
255 245 232
255 245 232
255 245 232
255 255 244
255 245 232
255 245 232
255 245 232
255 245 232
255 245 232
255 245 232
255 245 232
255 245 232
255 245 232
255 245 232
255 245 232
255 245 232
255 245 232
255 245 232
255 245 232
255 245 232
255 245 232
255 245 232
255 245 232
255 245 232
255 245 232
255 245 232
255 245 232
255 245 232
255 245 232
255 245 232
255 245 232
255 245 232
255 245 232
255 245 232
255 245 232
255 245 232
255 245 232
255 245 232
255 245 232
255 245 232
255 255 244
255 245 232
255 245 232
255 245 232
255 245 232
255 245 232
255 245 232
255 245 232
255 245 232
255 245 232
255 245 232
255 245 232
255 245 232
255 245 232
255 245 232
255 245 232
255 245 232
255 245 232
255 245 232
255 245 232
255 245 232
255 245 232
255 245 232
255 245 232
255 245 232
255 245 232
255 245 232
255 245 232
255 245 232
255 245 232
255 245 232
255 245 232
255 245 232
255 245 232
255 245 232
255 245 232
255 245 232
255 255 244
255 245 232
255 245 232
255 245 232
255 245 232
255 245 232
255 245 232
255 245 232
255 245 232
255 245 232
255 245 232
255 245 232
255 245 232
255 245 232
255 245 232
255 245 232
255 245 232
255 245 232
255 245 232
255 245 232
255 245 232
255 245 232
255 245 232
255 245 232
255 245 232
255 245 232
255 245 232
255 245 232
255 245 232
255 245 232
255 245 232
255 245 232
255 245 232
255 245 232
255 245 232
255 245 232
255 245 232
255 245 232
255 245 232
255 245 232
255 245 232
255 245 232
255 245 232
255 245 232
255 245 232
255 245 232
255 245 232
255 245 232
255 245 232
255 245 232
255 245 232
255 245 232
255 245 232
255 245 232
255 245 232
255 245 232
255 245 232
255 245 232
255 245 232
255 245 232
255 255 244
255 245 232
255 245 232
255 245 232
255 245 232
255 245 232
255 245 232
255 245 232
255 245 232
255 245 232
255 245 232
255 245 232
255 245 232
255 245 232
255 245 232
255 245 232
255 245 232
255 245 232
255 245 232
255 245 232
255 245 232
255 245 232
255 245 232
255 245 232
255 245 232
255 245 232
255 245 232
255 245 232
255 245 232
255 245 232
255 245 232
255 245 232
255 245 232
255 245 232
255 245 232
255 245 232
255 245 232
255 255 244
255 245 232
255 245 232
255 245 232
255 245 232
255 245 232
255 245 232
255 245 232
255 245 232
255 245 232
255 245 232
255 245 232
255 245 232
255 245 232
255 245 232
255 245 232
255 245 232
255 245 232
255 245 232
255 245 232
255 245 232
255 245 232
255 245 232
255 245 232
255 245 232
255 245 232
255 245 232
255 245 232
255 245 232
255 245 232
255 245 232
255 245 232
255 245 232
255 245 232
255 245 232
255 245 232
255 245 232
255 255 244
255 245 232
255 245 232
255 245 232
255 245 232
255 245 232
255 245 232
255 245 232
255 245 232
255 245 232
255 245 232
255 245 232
255 245 232
255 245 232
255 245 232
255 245 232
255 245 232
255 245 232
255 245 232
255 245 232
255 245 232
255 245 232
255 245 232
255 245 232
255 245 232
255 245 232
255 245 232
255 245 232
255 245 232
255 245 232
255 245 232
255 245 232
255 245 232
255 245 232
255 245 232
255 245 232
255 245 232
255 255 244
255 245 232
255 245 232
255 245 232
255 245 232
255 245 232
255 245 232
255 245 232
255 245 232
255 245 232
255 245 232
255 245 232
255 245 232
255 245 232
255 245 232
255 245 232
255 245 232
255 245 232
255 245 232
255 245 232
255 245 232
255 245 232
255 245 232
255 245 232
255 245 232
255 245 232
255 245 232
255 245 232
255 245 232
255 245 232
255 245 232
255 245 232
255 245 232
255 245 232
255 245 232
255 245 232
255 245 232
255 255 244
255 245 232
255 245 232
255 245 232
255 245 232
255 245 232
255 245 232
255 245 232
255 245 232
255 245 232
255 245 232
255 245 232
255 245 232
255 245 232
255 245 232
255 245 232
255 245 232
255 245 232
255 245 232
255 245 232
255 245 232
255 245 232
255 245 232
255 245 232
255 245 232
255 245 232
255 245 232
255 245 232
255 245 232
255 245 232
255 245 232
255 245 232
255 245 232
255 245 232
255 245 232
255 245 232
255 245 232
255 255 244
255 245 232
255 245 232
255 245 232
255 245 232
255 245 232
255 245 232
255 245 232
255 245 232
255 245 232
255 245 232
255 245 232
255 245 232
255 245 232
255 245 232
255 245 232
255 245 232
255 245 232
255 245 232
255 245 232
255 245 232
255 245 232
255 245 232
255 245 232
255 245 232
255 245 232
255 245 232
255 245 232
255 245 232
255 245 232
255 245 232
255 245 232
255 245 232
255 245 232
255 245 232
255 245 232
255 245 232
255 255 244
255 245 232
255 245 232
255 245 232
255 245 232
255 245 232
255 245 232
255 245 232
255 245 232
255 245 232
255 245 232
255 245 232
255 245 232
255 245 232
255 245 232
255 245 232
255 245 232
255 245 232
255 245 232
255 245 232
255 245 232
255 245 232
255 245 232
255 245 232
255 245 232
255 245 232
255 245 232
255 245 232
255 245 232
255 245 232
255 245 232
255 245 232
255 245 232
255 245 232
255 245 232
255 245 232
255 245 232
255 255 244
255 245 232
255 245 232
255 245 232
255 245 232
255 245 232
255 245 232
255 245 232
255 245 232
255 245 232
255 245 232
255 245 232
255 245 232
255 245 232
255 245 232
255 245 232
255 245 232
255 245 232
255 245 232
255 245 232
255 245 232
255 245 232
255 245 232
255 245 232
255 245 232
255 245 232
255 245 232
255 245 232
255 245 232
255 245 232
255 245 232
255 245 232
255 245 232
255 245 232
255 245 232
255 245 232
255 245 232
255 245 232
255 245 232
255 245 232
255 245 232
255 245 232
255 245 232
255 245 232
255 245 232
255 245 232
255 245 232
255 245 232
255 245 232
255 245 232
255 245 232
255 245 232
255 245 232
255 245 232
255 245 232
255 245 232
255 245 232
255 245 232
255 245 232
255 245 232
255 255 244
255 245 232
255 245 232
255 245 232
255 245 232
255 245 232
255 245 232
255 245 232
255 245 232
255 245 232
255 245 232
255 245 232
255 245 232
255 245 232
255 245 232
255 245 232
255 245 232
255 245 232
255 245 232
255 245 232
255 245 232
255 245 232
255 245 232
255 245 232
255 245 232
255 245 232
255 245 232
255 245 232
255 245 232
255 245 232
255 245 232
255 245 232
255 245 232
255 245 232
255 245 232
255 245 232
255 245 232
255 255 244
255 245 232
255 245 232
255 245 232
255 245 232
255 245 232
255 245 232
255 245 232
255 245 232
255 245 232
255 245 232
255 245 232
255 245 232
255 245 232
255 245 232
255 245 232
255 245 232
255 245 232
255 245 232
255 245 232
255 245 232
255 245 232
255 245 232
255 245 232
255 245 232
255 245 232
255 245 232
255 245 232
255 245 232
255 245 232
255 245 232
255 245 232
255 245 232
255 245 232
255 245 232
255 245 232
255 245 232
255 255 244
255 245 232
255 245 232
255 245 232
255 245 232
255 245 232
255 245 232
255 245 232
255 245 232
255 245 232
255 245 232
255 245 232
255 245 232
255 245 232
255 245 232
255 245 232
255 245 232
255 245 232
255 245 232
255 245 232
255 245 232
255 245 232
255 245 232
255 245 232
255 245 232
255 245 232
255 245 232
255 245 232
255 245 232
255 245 232
255 245 232
255 245 232
255 245 232
255 245 232
255 245 232
255 245 232
255 245 232
255 255 244
255 245 232
255 245 232
255 245 232
255 245 232
255 245 232
255 245 232
255 245 232
255 245 232
255 245 232
255 245 232
255 245 232
255 245 232
255 245 232
255 245 232
255 245 232
255 245 232
255 245 232
255 245 232
255 245 232
255 245 232
255 245 232
255 245 232
255 245 232
255 245 232
255 245 232
255 245 232
255 245 232
255 245 232
255 245 232
255 245 232
255 245 232
255 245 232
255 245 232
255 245 232
255 245 232
255 245 232
255 255 244
255 245 232
255 245 232
255 245 232
255 245 232
255 245 232
255 245 232
255 245 232
255 245 232
255 245 232
255 245 232
255 245 232
255 245 232
255 245 232
255 245 232
255 245 232
255 245 232
255 245 232
255 245 232
255 245 232
255 245 232
255 245 232
255 245 232
255 245 232
255 245 232
255 245 232
255 245 232
255 245 232
255 245 232
255 245 232
255 245 232
255 245 232
255 245 232
255 245 232
255 245 232
255 245 232
255 245 232
255 255 244
255 245 232
255 245 232
255 245 232
255 245 232
255 245 232
255 245 232
255 245 232
255 245 232
255 245 232
255 245 232
255 245 232
255 245 232
255 245 232
255 245 232
255 245 232
255 245 232
255 245 232
255 245 232
255 245 232
255 245 232
255 245 232
255 245 232
255 245 232
255 245 232
255 245 232
255 245 232
255 245 232
255 245 232
255 245 232
255 245 232
255 245 232
255 245 232
255 245 232
255 245 232
255 245 232
255 245 232
255 255 244
255 245 232
255 245 232
255 245 232
255 245 232
255 245 232
255 245 232
255 245 232
255 245 232
255 245 232
255 245 232
255 245 232
255 245 232
255 245 232
255 245 232
255 245 232
255 245 232
255 245 232
255 245 232
255 245 232
255 245 232
255 245 232
255 245 232
255 245 232
255 245 232
255 245 232
255 245 232
255 245 232
255 245 232
255 245 232
255 245 232
255 245 232
255 245 232
255 245 232
255 245 232
255 245 232
255 245 232
255 255 244
255 245 232
255 245 232
255 245 232
255 245 232
255 245 232
255 245 232
255 245 232
255 245 232
255 245 232
255 245 232
255 245 232
255 245 232
255 245 232
255 245 232
255 245 232
255 245 232
255 245 232
255 245 232
255 245 232
255 245 232
255 245 232
255 245 232
255 245 232
255 245 232
255 245 232
255 245 232
255 245 232
255 245 232
255 245 232
255 245 232
255 245 232
255 245 232
255 245 232
255 245 232
255 245 232
255 245 232
255 245 232
255 245 232
255 245 232
255 245 232
255 245 232
255 245 232
255 245 232
255 245 232
255 245 232
255 245 232
255 245 232
255 245 232
255 245 232
255 245 232
255 245 232
255 245 232
255 245 232
255 245 232
255 245 232
255 245 232
255 245 232
255 245 232
255 245 232
255 255 244
255 245 232
255 245 232
255 245 232
255 245 232
255 245 232
255 245 232
255 245 232
255 245 232
255 245 232
255 245 232
255 245 232
255 245 232
255 245 232
255 245 232
255 245 232
255 245 232
255 245 232
255 245 232
255 245 232
255 245 232
255 245 232
255 245 232
255 245 232
255 245 232
255 245 232
255 245 232
255 245 232
255 245 232
255 245 232
255 245 232
255 245 232
255 245 232
255 245 232
255 245 232
255 245 232
255 245 232
255 255 244
255 245 232
255 245 232
255 245 232
255 245 232
255 245 232
255 245 232
255 245 232
255 245 232
255 245 232
255 245 232
255 245 232
255 245 232
255 245 232
255 245 232
255 245 232
255 245 232
255 245 232
255 245 232
255 245 232
255 245 232
255 245 232
255 245 232
255 245 232
255 245 232
255 245 232
255 245 232
255 245 232
255 245 232
255 245 232
255 245 232
255 245 232
255 245 232
255 245 232
255 245 232
255 245 232
255 245 232
255 255 244
255 245 232
255 245 232
255 245 232
255 245 232
255 245 232
255 245 232
255 245 232
255 245 232
255 245 232
255 245 232
255 245 232
255 245 232
255 245 232
255 245 232
255 245 232
255 245 232
255 245 232
255 245 232
255 245 232
255 245 232
255 245 232
255 245 232
255 245 232
255 245 232
255 245 232
255 245 232
255 245 232
255 245 232
255 245 232
255 245 232
255 245 232
255 245 232
255 245 232
255 245 232
255 245 232
255 245 232
255 255 244
255 245 232
255 245 232
255 245 232
255 245 232
255 245 232
255 245 232
255 245 232
255 245 232
255 245 232
255 245 232
255 245 232
255 245 232
255 245 232
255 245 232
255 245 232
255 245 232
255 245 232
255 245 232
255 245 232
255 245 232
255 245 232
255 245 232
255 245 232
255 245 232
255 245 232
255 245 232
255 245 232
255 245 232
255 245 232
255 245 232
255 245 232
255 245 232
255 245 232
255 245 232
255 245 232
255 245 232
255 255 244
255 245 232
255 245 232
255 245 232
255 245 232
255 245 232
255 245 232
255 245 232
255 245 232
255 245 232
255 245 232
255 245 232
255 245 232
255 245 232
255 245 232
255 245 232
255 245 232
255 245 232
255 245 232
255 245 232
255 245 232
255 245 232
255 245 232
255 245 232
255 245 232
255 245 232
255 245 232
255 245 232
255 245 232
255 245 232
255 245 232
255 245 232
255 245 232
255 245 232
255 245 232
255 245 232
255 245 232
255 255 244
255 245 232
255 245 232
255 245 232
255 245 232
255 245 232
255 245 232
255 245 232
255 245 232
255 245 232
255 245 232
255 245 232
255 245 232
255 245 232
255 245 232
255 245 232
255 245 232
255 245 232
255 245 232
255 245 232
255 245 232
255 245 232
255 245 232
255 245 232
255 245 232
255 245 232
255 245 232
255 245 232
255 245 232
255 245 232
255 245 232
255 245 232
255 245 232
255 245 232
255 245 232
255 245 232
255 245 232
255 255 244
255 245 232
255 245 232
255 245 232
255 245 232
255 245 232
255 245 232
255 245 232
255 245 232
255 245 232
255 245 232
255 245 232
255 245 232
255 245 232
255 245 232
255 245 232
255 245 232
255 245 232
255 245 232
255 245 232
255 245 232
255 245 232
255 245 232
255 245 232
255 245 232
255 245 232
255 245 232
255 245 232
255 245 232
255 245 232
255 245 232
255 245 232
255 245 232
255 245 232
255 245 232
255 245 232
255 245 232
255 255 244
255 245 232
255 245 232
255 245 232
255 245 232
255 245 232
255 245 232
255 245 232
255 245 232
255 245 232
255 245 232
255 245 232
255 245 232
255 245 232
255 245 232
255 245 232
255 245 232
255 245 232
255 245 232
255 245 232
255 245 232
255 245 232
255 245 232
255 245 232
255 245 232
255 245 232
255 245 232
255 245 232
255 245 232
255 245 232
255 245 232
255 245 232
255 245 232
255 245 232
255 245 232
255 245 232
255 245 232
255 245 232
255 245 232
255 245 232
255 245 232
255 245 232
255 245 232
255 245 232
255 245 232
255 245 232
255 245 232
255 245 232
255 245 232
255 245 232
255 245 232
255 245 232
255 245 232
255 245 232
255 245 232
255 245 232
255 245 232
255 245 232
255 245 232
255 245 232
255 255 244
255 245 232
255 245 232
255 245 232
255 245 232
255 245 232
255 245 232
255 245 232
255 245 232
255 245 232
255 245 232
255 245 232
255 245 232
255 245 232
255 245 232
255 245 232
255 245 232
255 245 232
255 245 232
255 245 232
255 245 232
255 245 232
255 245 232
255 245 232
255 245 232
255 245 232
255 245 232
255 245 232
255 245 232
255 245 232
255 245 232
255 245 232
255 245 232
255 245 232
255 245 232
255 245 232
255 245 232
255 255 244
255 245 232
255 245 232
255 245 232
255 245 232
255 245 232
255 245 232
255 245 232
255 245 232
255 245 232
255 245 232
255 245 232
255 245 232
255 245 232
255 245 232
255 245 232
255 245 232
255 245 232
255 245 232
255 245 232
255 245 232
255 245 232
255 245 232
255 245 232
255 245 232
255 245 232
255 245 232
255 245 232
255 245 232
255 245 232
255 245 232
255 245 232
255 245 232
255 245 232
255 245 232
255 245 232
255 245 232
255 255 244
255 245 232
255 245 232
255 245 232
255 245 232
255 245 232
255 245 232
255 245 232
255 245 232
255 245 232
255 245 232
255 245 232
255 245 232
255 245 232
255 245 232
255 245 232
255 245 232
255 245 232
255 245 232
255 245 232
255 245 232
255 245 232
255 245 232
255 245 232
255 245 232
255 245 232
255 245 232
255 245 232
255 245 232
255 245 232
255 245 232
255 245 232
255 245 232
255 245 232
255 245 232
255 245 232
255 245 232
255 255 244
255 245 232
255 245 232
255 245 232
255 245 232
255 245 232
255 245 232
255 245 232
255 245 232
255 245 232
255 245 232
255 245 232
255 245 232
255 245 232
255 245 232
255 245 232
255 245 232
255 245 232
255 245 232
255 245 232
255 245 232
255 245 232
255 245 232
255 245 232
255 245 232
255 245 232
255 245 232
255 245 232
255 245 232
255 245 232
255 245 232
255 245 232
255 245 232
255 245 232
255 245 232
255 245 232
255 245 232
255 255 244
255 245 232
255 245 232
255 245 232
255 245 232
255 245 232
255 245 232
255 245 232
255 245 232
255 245 232
255 245 232
255 245 232
255 245 232
255 245 232
255 245 232
255 245 232
255 245 232
255 245 232
255 245 232
255 245 232
255 245 232
255 245 232
255 245 232
255 245 232
255 245 232
255 245 232
255 245 232
255 245 232
255 245 232
255 245 232
255 245 232
255 245 232
255 245 232
255 245 232
255 245 232
255 245 232
255 245 232
255 255 244
255 245 232
255 245 232
255 245 232
255 245 232
255 245 232
255 245 232
255 245 232
255 245 232
255 245 232
255 245 232
255 245 232
255 245 232
255 245 232
255 245 232
255 245 232
255 245 232
255 245 232
255 245 232
255 245 232
255 245 232
255 245 232
255 245 232
255 245 232
255 245 232
255 245 232
255 245 232
255 245 232
255 245 232
255 245 232
255 245 232
255 245 232
255 245 232
255 245 232
255 245 232
255 245 232
255 245 232
255 255 244
255 245 232
255 245 232
255 245 232
255 245 232
255 245 232
255 245 232
255 245 232
255 245 232
255 245 232
255 245 232
255 245 232
255 245 232
255 245 232
255 245 232
255 245 232
255 245 232
255 245 232
255 245 232
255 245 232
255 245 232
255 245 232
255 245 232
255 245 232
255 245 232
255 245 232
255 245 232
255 245 232
255 245 232
255 245 232
255 245 232
255 245 232
255 245 232
255 245 232
255 245 232
255 245 232
255 245 232
255 255 244
255 245 232
255 245 232
255 245 232
255 245 232
255 245 232
255 245 232
255 245 232
255 245 232
255 245 232
255 245 232
255 245 232
255 245 232
255 245 232
255 245 232
255 245 232
255 245 232
255 245 232
255 245 232
255 245 232
255 245 232
255 245 232
255 245 232
255 245 232
255 245 232
255 245 232
255 245 232
255 245 232
255 245 232
255 245 232
255 245 232
255 245 232
255 245 232
255 245 232
255 245 232
255 245 232
255 245 232
255 245 232
255 245 232
255 245 232
255 245 232
255 245 232
255 245 232
255 245 232
255 245 232
255 245 232
255 245 232
255 245 232
255 245 232
255 245 232
255 245 232
255 245 232
255 245 232
255 245 232
255 245 232
255 245 232
255 245 232
255 245 232
255 245 232
255 245 232
255 255 244
255 245 232
255 245 232
255 245 232
255 245 232
255 245 232
255 245 232
255 245 232
255 245 232
255 245 232
255 245 232
255 245 232
255 245 232
255 245 232
255 245 232
255 245 232
255 245 232
255 245 232
255 245 232
255 245 232
255 245 232
255 245 232
255 245 232
255 245 232
255 245 232
255 245 232
255 245 232
255 245 232
255 245 232
255 245 232
255 245 232
255 245 232
255 245 232
255 245 232
255 245 232
255 245 232
255 245 232
255 255 244
255 245 232
255 245 232
255 245 232
255 245 232
255 245 232
255 245 232
255 245 232
255 245 232
255 245 232
255 245 232
255 245 232
255 245 232
255 245 232
255 245 232
255 245 232
255 245 232
255 245 232
255 245 232
255 245 232
255 245 232
255 245 232
255 245 232
255 245 232
255 245 232
255 245 232
255 245 232
255 245 232
255 245 232
255 245 232
255 245 232
255 245 232
255 245 232
255 245 232
255 245 232
255 245 232
255 245 232
255 255 244
255 245 232
255 245 232
255 245 232
255 245 232
255 245 232
255 245 232
255 245 232
255 245 232
255 245 232
255 245 232
255 245 232
255 245 232
255 245 232
255 245 232
255 245 232
255 245 232
255 245 232
255 245 232
255 245 232
255 245 232
255 245 232
255 245 232
255 245 232
255 245 232
255 245 232
255 245 232
255 245 232
255 245 232
255 245 232
255 245 232
255 245 232
255 245 232
255 245 232
255 245 232
255 245 232
255 245 232
255 255 244
255 245 232
255 245 232
255 245 232
255 245 232
255 245 232
255 245 232
255 245 232
255 245 232
255 245 232
255 245 232
255 245 232
255 245 232
255 245 232
255 245 232
255 245 232
255 245 232
255 245 232
255 245 232
255 245 232
255 245 232
255 245 232
255 245 232
255 245 232
255 245 232
255 245 232
255 245 232
255 245 232
255 245 232
255 245 232
255 245 232
255 245 232
255 245 232
255 245 232
255 245 232
255 245 232
255 245 232
255 255 244
255 245 232
255 245 232
255 245 232
255 245 232
255 245 232
255 245 232
255 245 232
255 245 232
255 245 232
255 245 232
255 245 232
255 245 232
255 245 232
255 245 232
255 245 232
255 245 232
255 245 232
255 245 232
255 245 232
255 245 232
255 245 232
255 245 232
255 245 232
255 245 232
255 245 232
255 245 232
255 245 232
255 245 232
255 245 232
255 245 232
255 245 232
255 245 232
255 245 232
255 245 232
255 245 232
255 245 232
255 255 244
255 245 232
255 245 232
255 245 232
255 245 232
255 245 232
255 245 232
255 245 232
255 245 232
255 245 232
255 245 232
255 245 232
255 245 232
255 245 232
255 245 232
255 245 232
255 245 232
255 245 232
255 245 232
255 245 232
255 245 232
255 245 232
255 245 232
255 245 232
255 245 232
255 245 232
255 245 232
255 245 232
255 245 232
255 245 232
255 245 232
255 245 232
255 245 232
255 245 232
255 245 232
255 245 232
255 245 232
255 255 244
255 245 232
255 245 232
255 245 232
255 245 232
255 245 232
255 245 232
255 245 232
255 245 232
255 245 232
255 245 232
255 245 232
255 245 232
255 245 232
255 245 232
255 245 232
255 245 232
255 245 232
255 245 232
255 245 232
255 245 232
255 245 232
255 245 232
255 245 232
255 245 232
255 245 232
255 245 232
255 245 232
255 245 232
255 245 232
255 245 232
255 245 232
255 245 232
255 245 232
255 245 232
255 245 232
255 245 232
255 255 244
255 245 232
255 245 232
255 245 232
255 245 232
255 245 232
255 245 232
255 245 232
255 245 232
255 245 232
255 245 232
255 245 232
255 245 232
255 245 232
255 245 232
255 245 232
255 245 232
255 245 232
255 245 232
255 245 232
255 245 232
255 245 232
255 245 232
255 245 232
255 245 232
255 245 232
255 245 232
255 245 232
255 245 232
255 229 212
255 229 212
255 229 212
255 229 212
255 229 212
255 229 212
255 229 212
255 229 212
255 229 212
255 229 212
255 229 212
255 229 212
255 229 212
255 229 212
255 229 212
255 229 212
255 229 212
255 229 212
255 229 212
255 229 212
255 229 212
255 229 212
255 229 212
255 229 212
255 229 212
255 229 212
255 229 212
255 229 212
255 229 212
255 229 212
255 229 212
255 241 224
255 229 212
255 229 212
255 229 212
255 229 212
255 229 212
255 229 212
255 229 212
255 229 212
255 229 212
255 229 212
255 229 212
255 229 212
255 229 212
255 229 212
255 229 212
255 229 212
255 229 212
255 229 212
255 229 212
255 229 212
255 229 212
255 229 212
255 229 212
255 229 212
255 229 212
255 229 212
255 229 212
255 229 212
255 229 212
255 229 212
255 229 212
255 229 212
255 229 212
255 229 212
255 229 212
255 229 212
255 241 224
255 229 212
255 229 212
255 229 212
255 229 212
255 229 212
255 229 212
255 229 212
255 229 212
255 229 212
255 229 212
255 229 212
255 229 212
255 229 212
255 229 212
255 229 212
255 229 212
255 229 212
255 229 212
255 229 212
255 229 212
255 229 212
255 229 212
255 229 212
255 229 212
255 229 212
255 229 212
255 229 212
255 229 212
255 229 212
255 229 212
255 229 212
255 229 212
255 229 212
255 229 212
255 229 212
255 229 212
255 241 224
255 229 212
255 229 212
255 229 212
255 229 212
255 229 212
255 229 212
255 229 212
255 229 212
255 229 212
255 229 212
255 229 212
255 229 212
255 229 212
255 229 212
255 229 212
255 229 212
255 229 212
255 229 212
255 229 212
255 229 212
255 229 212
255 229 212
255 229 212
255 229 212
255 229 212
255 229 212
255 229 212
255 229 212
255 229 212
255 229 212
255 229 212
255 229 212
255 229 212
255 229 212
255 229 212
255 229 212
255 241 224
255 229 212
255 229 212
255 229 212
255 229 212
255 229 212
255 229 212
255 229 212
255 229 212
255 229 212
255 229 212
255 229 212
255 229 212
255 229 212
255 229 212
255 229 212
255 229 212
255 229 212
255 229 212
255 229 212
255 229 212
255 229 212
255 229 212
255 229 212
255 229 212
255 229 212
255 229 212
255 229 212
255 229 212
255 229 212
255 229 212
255 229 212
255 229 212
255 229 212
255 229 212
255 229 212
255 229 212
255 241 224
255 229 212
255 229 212
255 229 212
255 229 212
255 229 212
255 229 212
255 229 212
255 229 212
255 229 212
255 229 212
255 229 212
255 229 212
255 229 212
255 229 212
255 229 212
255 229 212
255 229 212
255 229 212
255 229 212
255 229 212
255 229 212
255 229 212
255 229 212
255 229 212
255 229 212
255 229 212
255 229 212
255 229 212
255 229 212
255 229 212
255 229 212
255 229 212
255 229 212
255 229 212
255 229 212
255 229 212
255 241 224
255 229 212
255 229 212
255 229 212
255 229 212
255 229 212
255 229 212
255 229 212
255 229 212
255 229 212
255 229 212
255 229 212
255 229 212
255 229 212
255 229 212
255 229 212
255 229 212
255 229 212
255 229 212
255 229 212
255 229 212
255 229 212
255 229 212
255 229 212
255 229 212
255 229 212
255 229 212
255 229 212
255 229 212
255 229 212
255 229 212
255 229 212
255 229 212
255 229 212
255 229 212
255 229 212
255 229 212
255 241 224
255 229 212
255 229 212
255 229 212
255 229 212
255 229 212
255 229 212
255 229 212
255 229 212
255 229 212
255 229 212
255 229 212
255 229 212
255 229 212
255 229 212
255 229 212
255 229 212
255 229 212
255 229 212
255 229 212
255 229 212
255 229 212
255 229 212
255 229 212
255 229 212
255 229 212
255 229 212
255 229 212
255 229 212
255 229 212
255 229 212
255 229 212
255 229 212
255 229 212
255 229 212
255 229 212
255 229 212
255 241 224
255 229 212
255 229 212
255 229 212
255 229 212
255 229 212
255 229 212
255 229 212
255 229 212
255 229 212
255 229 212
255 229 212
255 229 212
255 229 212
255 229 212
255 229 212
255 229 212
255 229 212
255 229 212
255 229 212
255 229 212
255 229 212
255 229 212
255 229 212
255 229 212
255 229 212
255 229 212
255 229 212
255 229 212
255 229 212
255 229 212
255 229 212
255 229 212
255 229 212
255 229 212
255 229 212
255 229 212
255 229 212
255 229 212
255 229 212
255 229 212
255 229 212
255 229 212
255 229 212
255 229 212
255 229 212
255 229 212
255 229 212
255 229 212
255 229 212
255 229 212
255 229 212
255 229 212
255 229 212
255 229 212
255 229 212
255 229 212
255 229 212
255 229 212
255 229 212
255 241 224
255 229 212
255 229 212
255 229 212
255 229 212
255 229 212
255 229 212
255 229 212
255 229 212
255 229 212
255 229 212
255 229 212
255 229 212
255 229 212
255 229 212
255 229 212
255 229 212
255 229 212
255 229 212
255 229 212
255 229 212
255 229 212
255 229 212
255 229 212
255 229 212
255 229 212
255 229 212
255 229 212
255 229 212
255 229 212
255 229 212
255 229 212
255 229 212
255 229 212
255 229 212
255 229 212
255 229 212
255 241 224
255 229 212
255 229 212
255 229 212
255 229 212
255 229 212
255 229 212
255 229 212
255 229 212
255 229 212
255 229 212
255 229 212
255 229 212
255 229 212
255 229 212
255 229 212
255 229 212
255 229 212
255 229 212
255 229 212
255 229 212
255 229 212
255 229 212
255 229 212
255 229 212
255 229 212
255 229 212
255 229 212
255 229 212
255 229 212
255 229 212
255 229 212
255 229 212
255 229 212
255 229 212
255 229 212
255 229 212
255 241 224
255 229 212
255 229 212
255 229 212
255 229 212
255 229 212
255 229 212
255 229 212
255 229 212
255 229 212
255 229 212
255 229 212
255 229 212
255 229 212
255 229 212
255 229 212
255 229 212
255 229 212
255 229 212
255 229 212
255 229 212
255 229 212
255 229 212
255 229 212
255 229 212
255 229 212
255 229 212
255 229 212
255 229 212
255 229 212
255 229 212
255 229 212
255 229 212
255 229 212
255 229 212
255 229 212
255 229 212
255 241 224
255 229 212
255 229 212
255 229 212
255 229 212
255 229 212
255 229 212
255 229 212
255 229 212
255 229 212
255 229 212
255 229 212
255 229 212
255 229 212
255 229 212
255 229 212
255 229 212
255 229 212
255 229 212
255 229 212
255 229 212
255 229 212
255 229 212
255 229 212
255 229 212
255 229 212
255 229 212
255 229 212
255 229 212
255 229 212
255 229 212
255 229 212
255 229 212
255 229 212
255 229 212
255 229 212
255 229 212
255 241 224
255 229 212
255 229 212
255 229 212
255 229 212
255 229 212
255 229 212
255 229 212
255 229 212
255 229 212
255 229 212
255 229 212
255 229 212
255 229 212
255 229 212
255 229 212
255 229 212
255 229 212
255 229 212
255 229 212
255 229 212
255 229 212
255 229 212
255 229 212
255 229 212
255 229 212
255 229 212
255 229 212
255 229 212
255 229 212
255 229 212
255 229 212
255 229 212
255 229 212
255 229 212
255 229 212
255 229 212
255 241 224
255 229 212
255 229 212
255 229 212
255 229 212
255 229 212
255 229 212
255 229 212
255 229 212
255 229 212
255 229 212
255 229 212
255 229 212
255 229 212
255 229 212
255 229 212
255 229 212
255 229 212
255 229 212
255 229 212
255 229 212
255 229 212
255 229 212
255 229 212
255 229 212
255 229 212
255 229 212
255 229 212
255 229 212
255 229 212
255 229 212
255 229 212
255 229 212
255 229 212
255 229 212
255 229 212
255 229 212
255 241 224
255 229 212
255 229 212
255 229 212
255 229 212
255 229 212
255 229 212
255 229 212
255 229 212
255 229 212
255 229 212
255 229 212
255 229 212
255 229 212
255 229 212
255 229 212
255 229 212
255 229 212
255 229 212
255 229 212
255 229 212
255 229 212
255 229 212
255 229 212
255 229 212
255 229 212
255 229 212
255 229 212
255 229 212
255 229 212
255 229 212
255 229 212
255 229 212
255 229 212
255 229 212
255 229 212
255 229 212
255 241 224
255 229 212
255 229 212
255 229 212
255 229 212
255 229 212
255 229 212
255 229 212
255 229 212
255 229 212
255 229 212
255 229 212
255 229 212
255 229 212
255 229 212
255 229 212
255 229 212
255 229 212
255 229 212
255 229 212
255 229 212
255 229 212
255 229 212
255 229 212
255 229 212
255 229 212
255 229 212
255 229 212
255 229 212
255 229 212
255 229 212
255 229 212
255 229 212
255 229 212
255 229 212
255 229 212
255 229 212
255 229 212
255 229 212
255 229 212
255 229 212
255 229 212
255 229 212
255 229 212
255 229 212
255 229 212
255 229 212
255 229 212
255 229 212
255 229 212
255 229 212
255 229 212
255 229 212
255 229 212
255 229 212
255 229 212
255 229 212
255 229 212
255 229 212
255 229 212
255 241 224
255 229 212
255 229 212
255 229 212
255 229 212
255 229 212
255 229 212
255 229 212
255 229 212
255 229 212
255 229 212
255 229 212
255 229 212
255 229 212
255 229 212
255 229 212
255 229 212
255 229 212
255 229 212
255 229 212
255 229 212
255 229 212
255 229 212
255 229 212
255 229 212
255 229 212
255 229 212
255 229 212
255 229 212
255 229 212
255 229 212
255 229 212
255 229 212
255 229 212
255 229 212
255 229 212
255 229 212
255 241 224
255 229 212
255 229 212
255 229 212
255 229 212
255 229 212
255 229 212
255 229 212
255 229 212
255 229 212
255 229 212
255 229 212
255 229 212
255 229 212
255 229 212
255 229 212
255 229 212
255 229 212
255 229 212
255 229 212
255 229 212
255 229 212
255 229 212
255 229 212
255 229 212
255 229 212
255 229 212
255 229 212
255 229 212
255 229 212
255 229 212
255 229 212
255 229 212
255 229 212
255 229 212
255 229 212
255 229 212
255 241 224
255 229 212
255 229 212
255 229 212
255 229 212
255 229 212
255 229 212
255 229 212
255 229 212
255 229 212
255 229 212
255 229 212
255 229 212
255 229 212
255 229 212
255 229 212
255 229 212
255 229 212
255 229 212
255 229 212
255 229 212
255 229 212
255 229 212
255 229 212
255 229 212
255 229 212
255 229 212
255 229 212
255 229 212
255 229 212
255 229 212
255 229 212
255 229 212
255 229 212
255 229 212
255 229 212
255 229 212
255 241 224
255 229 212
255 229 212
255 229 212
255 229 212
255 229 212
255 229 212
255 229 212
255 229 212
255 229 212
255 229 212
255 229 212
255 229 212
255 229 212
255 229 212
255 229 212
255 229 212
255 229 212
255 229 212
255 229 212
255 229 212
255 229 212
255 229 212
255 229 212
255 229 212
255 229 212
255 229 212
255 229 212
255 229 212
255 229 212
255 229 212
255 229 212
255 229 212
255 229 212
255 229 212
255 229 212
255 229 212
255 241 224
255 229 212
255 229 212
255 229 212
255 229 212
255 229 212
255 229 212
255 229 212
255 229 212
255 229 212
255 229 212
255 229 212
255 229 212
255 229 212
255 229 212
255 229 212
255 229 212
255 229 212
255 229 212
255 229 212
255 229 212
255 229 212
255 229 212
255 229 212
255 229 212
255 229 212
255 229 212
255 229 212
255 229 212
255 229 212
255 229 212
255 229 212
255 229 212
255 229 212
255 229 212
255 229 212
255 229 212
255 241 224
255 229 212
255 229 212
255 229 212
255 229 212
255 229 212
255 229 212
255 229 212
255 229 212
255 229 212
255 229 212
255 229 212
255 229 212
255 229 212
255 229 212
255 229 212
255 229 212
255 229 212
255 229 212
255 229 212
255 229 212
255 229 212
255 229 212
255 229 212
255 229 212
255 229 212
255 229 212
255 229 212
255 229 212
255 229 212
255 229 212
255 229 212
255 229 212
255 229 212
255 229 212
255 229 212
255 229 212
255 241 224
255 229 212
255 229 212
255 229 212
255 229 212
255 229 212
255 229 212
255 229 212
255 229 212
255 229 212
255 229 212
255 229 212
255 229 212
255 229 212
255 229 212
255 229 212
255 229 212
255 229 212
255 229 212
255 229 212
255 229 212
255 229 212
255 229 212
255 229 212
255 229 212
255 229 212
255 229 212
255 229 212
255 229 212
255 229 212
255 229 212
255 229 212
255 229 212
255 229 212
255 229 212
255 229 212
255 229 212
255 241 224
255 229 212
255 229 212
255 229 212
255 229 212
255 229 212
255 229 212
255 229 212
255 229 212
255 229 212
255 229 212
255 229 212
255 229 212
255 229 212
255 229 212
255 229 212
255 229 212
255 229 212
255 229 212
255 229 212
255 229 212
255 229 212
255 229 212
255 229 212
255 229 212
255 229 212
255 229 212
255 229 212
255 229 212
255 229 212
255 229 212
255 229 212
255 229 212
255 229 212
255 229 212
255 229 212
255 229 212
255 229 212
255 229 212
255 229 212
255 229 212
255 229 212
255 229 212
255 229 212
255 229 212
255 229 212
255 229 212
255 229 212
255 229 212
255 229 212
255 229 212
255 229 212
255 229 212
255 229 212
255 229 212
255 229 212
255 229 212
255 229 212
255 229 212
255 229 212
255 241 224
255 229 212
255 229 212
255 229 212
255 229 212
255 229 212
255 229 212
255 229 212
255 229 212
255 229 212
255 229 212
255 229 212
255 229 212
255 229 212
255 229 212
255 229 212
255 229 212
255 229 212
255 229 212
255 229 212
255 229 212
255 229 212
255 229 212
255 229 212
255 229 212
255 229 212
255 229 212
255 229 212
255 229 212
255 229 212
255 229 212
255 229 212
255 229 212
255 229 212
255 229 212
255 229 212
255 229 212
255 241 224
255 229 212
255 229 212
255 229 212
255 229 212
255 229 212
255 229 212
255 229 212
255 229 212
255 229 212
255 229 212
255 229 212
255 229 212
255 229 212
255 229 212
255 229 212
255 229 212
255 229 212
255 229 212
255 229 212
255 229 212
255 229 212
255 229 212
255 229 212
255 229 212
255 229 212
255 229 212
255 229 212
255 229 212
255 229 212
255 229 212
255 229 212
255 229 212
255 229 212
255 229 212
255 229 212
255 229 212
255 241 224
255 229 212
255 229 212
255 229 212
255 229 212
255 229 212
255 229 212
255 229 212
255 229 212
255 229 212
255 229 212
255 229 212
255 229 212
255 229 212
255 229 212
255 229 212
255 229 212
255 229 212
255 229 212
255 229 212
255 229 212
255 229 212
255 229 212
255 229 212
255 229 212
255 229 212
255 229 212
255 229 212
255 229 212
255 229 212
255 229 212
255 229 212
255 229 212
255 229 212
255 229 212
255 229 212
255 229 212
255 241 224
255 229 212
255 229 212
255 229 212
255 229 212
255 229 212
255 229 212
255 229 212
255 229 212
255 229 212
255 229 212
255 229 212
255 229 212
255 229 212
255 229 212
255 229 212
255 229 212
255 229 212
255 229 212
255 229 212
255 229 212
255 229 212
255 229 212
255 229 212
255 229 212
255 229 212
255 229 212
255 229 212
255 229 212
255 229 212
255 229 212
255 229 212
255 229 212
255 229 212
255 229 212
255 229 212
255 229 212
255 241 224
255 229 212
255 229 212
255 229 212
255 229 212
255 229 212
255 229 212
255 229 212
255 229 212
255 229 212
255 229 212
255 229 212
255 229 212
255 229 212
255 229 212
255 229 212
255 229 212
255 229 212
255 229 212
255 229 212
255 229 212
255 229 212
255 229 212
255 229 212
255 229 212
255 229 212
255 229 212
255 229 212
255 229 212
255 229 212
255 229 212
255 229 212
255 229 212
255 229 212
255 229 212
255 229 212
255 229 212
255 241 224
255 229 212
255 229 212
255 229 212
255 229 212
255 229 212
255 229 212
255 229 212
255 229 212
255 229 212
255 229 212
255 229 212
255 229 212
255 229 212
255 229 212
255 229 212
255 229 212
255 229 212
255 229 212
255 229 212
255 229 212
255 229 212
255 229 212
255 229 212
255 229 212
255 229 212
255 229 212
255 229 212
255 229 212
255 229 212
255 229 212
255 229 212
255 229 212
255 229 212
255 229 212
255 229 212
255 229 212
255 241 224
255 229 212
255 229 212
255 229 212
255 229 212
255 229 212
255 229 212
255 229 212
255 229 212
255 229 212
255 229 212
255 229 212
255 229 212
255 229 212
255 229 212
255 229 212
255 229 212
255 229 212
255 229 212
255 229 212
255 229 212
255 229 212
255 229 212
255 229 212
255 229 212
255 229 212
255 229 212
255 229 212
255 229 212
255 229 212
255 229 212
255 229 212
255 229 212
255 229 212
255 229 212
255 229 212
255 229 212
255 241 224
255 229 212
255 229 212
255 229 212
255 229 212
255 229 212
255 229 212
255 229 212
255 229 212
255 229 212
255 229 212
255 229 212
255 229 212
255 229 212
255 229 212
255 229 212
255 229 212
255 229 212
255 229 212
255 229 212
255 229 212
255 229 212
255 229 212
255 229 212
255 229 212
255 229 212
255 229 212
255 229 212
255 229 212
255 229 212
255 229 212
255 229 212
255 229 212
255 229 212
255 229 212
255 229 212
255 229 212
255 229 212
255 229 212
255 229 212
255 229 212
255 229 212
255 229 212
255 229 212
255 229 212
255 229 212
255 229 212
255 229 212
255 229 212
255 229 212
255 229 212
255 229 212
255 229 212
255 229 212
255 229 212
255 229 212
255 229 212
255 229 212
255 229 212
255 229 212
255 241 224
255 229 212
255 229 212
255 229 212
255 229 212
255 229 212
255 229 212
255 229 212
255 229 212
255 229 212
255 229 212
255 229 212
255 229 212
255 229 212
255 229 212
255 229 212
255 229 212
255 229 212
255 229 212
255 229 212
255 229 212
255 229 212
255 229 212
255 229 212
255 229 212
255 229 212
255 229 212
255 229 212
255 229 212
255 229 212
255 229 212
255 229 212
255 229 212
255 229 212
255 229 212
255 229 212
255 229 212
255 241 224
255 229 212
255 229 212
255 229 212
255 229 212
255 229 212
255 229 212
255 229 212
255 229 212
255 229 212
255 229 212
255 229 212
255 229 212
255 229 212
255 229 212
255 229 212
255 229 212
255 229 212
255 229 212
255 229 212
255 229 212
255 229 212
255 229 212
255 229 212
255 229 212
255 229 212
255 229 212
255 229 212
255 229 212
255 229 212
255 229 212
255 229 212
255 229 212
255 229 212
255 229 212
255 229 212
255 229 212
255 241 224
255 229 212
255 229 212
255 229 212
255 229 212
255 229 212
255 229 212
255 229 212
255 229 212
255 229 212
255 229 212
255 229 212
255 229 212
255 229 212
255 229 212
255 229 212
255 229 212
255 229 212
255 229 212
255 229 212
255 229 212
255 229 212
255 229 212
255 229 212
255 229 212
255 229 212
255 229 212
255 229 212
255 229 212
255 229 212
255 229 212
255 229 212
255 229 212
255 229 212
255 229 212
255 229 212
255 229 212
255 241 224
255 229 212
255 229 212
255 229 212
255 229 212
255 229 212
255 229 212
255 229 212
255 229 212
255 229 212
255 229 212
255 229 212
255 229 212
255 229 212
255 229 212
255 229 212
255 229 212
255 229 212
255 229 212
255 229 212
255 229 212
255 229 212
255 229 212
255 229 212
255 229 212
255 229 212
255 229 212
255 229 212
255 229 212
255 229 212
255 229 212
255 229 212
255 229 212
255 229 212
255 229 212
255 229 212
255 229 212
255 241 224
255 229 212
255 229 212
255 229 212
255 229 212
255 229 212
255 229 212
255 229 212
255 229 212
255 229 212
255 229 212
255 229 212
255 229 212
255 229 212
255 229 212
255 229 212
255 229 212
255 229 212
255 229 212
255 229 212
255 229 212
255 229 212
255 229 212
255 229 212
255 229 212
255 229 212
255 229 212
255 229 212
255 229 212
255 229 212
255 229 212
255 229 212
255 229 212
255 229 212
255 229 212
255 229 212
255 229 212
255 241 224
255 229 212
255 229 212
255 229 212
255 229 212
255 229 212
255 229 212
255 229 212
255 229 212
255 229 212
255 229 212
255 229 212
255 229 212
255 229 212
255 229 212
255 229 212
255 229 212
255 229 212
255 229 212
255 229 212
255 229 212
255 229 212
255 229 212
255 229 212
255 229 212
255 229 212
255 229 212
255 229 212
255 229 212
255 229 212
255 229 212
255 229 212
255 229 212
255 229 212
255 229 212
255 229 212
255 229 212
255 241 224
255 229 212
255 229 212
255 229 212
255 229 212
255 229 212
255 229 212
255 229 212
255 229 212
255 229 212
255 229 212
255 229 212
255 229 212
255 229 212
255 229 212
255 229 212
255 229 212
255 229 212
255 229 212
255 229 212
255 229 212
255 229 212
255 229 212
255 229 212
255 229 212
255 229 212
255 229 212
255 229 212
255 229 212
255 229 212
255 229 212
255 229 212
255 229 212
255 229 212
255 229 212
255 229 212
255 229 212
255 241 224
255 229 212
255 229 212
255 229 212
255 229 212
255 229 212
255 229 212
255 229 212
255 229 212
255 229 212
255 229 212
255 229 212
255 229 212
255 229 212
255 229 212
255 229 212
255 229 212
255 229 212
255 229 212
255 229 212
255 229 212
255 229 212
255 229 212
255 229 212
255 229 212
255 229 212
255 229 212
255 229 212
255 229 212
255 229 212
255 229 212
255 229 212
255 229 212
255 229 212
255 229 212
255 229 212
255 229 212
255 229 212
255 229 212
255 229 212
255 229 212
255 229 212
255 229 212
255 229 212
255 229 212
255 229 212
255 229 212
255 229 212
255 229 212
255 229 212
255 229 212
255 229 212
255 229 212
255 229 212
255 229 212
255 229 212
255 229 212
255 229 212
255 229 212
255 229 212
255 241 224
255 229 212
255 229 212
255 229 212
255 229 212
255 229 212
255 229 212
255 229 212
255 229 212
255 229 212
255 229 212
255 229 212
255 229 212
255 229 212
255 229 212
255 229 212
255 229 212
255 229 212
255 229 212
255 229 212
255 229 212
255 229 212
255 229 212
255 229 212
255 229 212
255 229 212
255 229 212
255 229 212
255 229 212
255 229 212
255 229 212
255 229 212
255 229 212
255 229 212
255 229 212
255 229 212
255 229 212
255 241 224
255 229 212
255 229 212
255 229 212
255 229 212
255 229 212
255 229 212
255 229 212
255 229 212
255 229 212
255 229 212
255 229 212
255 229 212
255 229 212
255 229 212
255 229 212
255 229 212
255 229 212
255 229 212
255 229 212
255 229 212
255 229 212
255 229 212
255 229 212
255 229 212
255 229 212
255 229 212
255 229 212
255 229 212
255 229 212
255 229 212
255 229 212
255 229 212
255 229 212
255 229 212
255 229 212
255 229 212
255 241 224
255 229 212
255 229 212
255 229 212
255 229 212
255 229 212
255 229 212
255 229 212
255 229 212
255 229 212
255 229 212
255 229 212
255 229 212
255 229 212
255 229 212
255 229 212
255 229 212
255 229 212
255 229 212
255 229 212
255 229 212
255 229 212
255 229 212
255 229 212
255 229 212
255 229 212
255 229 212
255 229 212
255 229 212
255 229 212
255 229 212
255 229 212
255 229 212
255 229 212
255 229 212
255 229 212
255 229 212
255 241 224
255 229 212
255 229 212
255 229 212
255 229 212
255 229 212
255 229 212
255 229 212
255 229 212
255 229 212
255 229 212
255 229 212
255 229 212
255 229 212
255 229 212
255 229 212
255 229 212
255 229 212
255 229 212
255 229 212
255 229 212
255 229 212
255 229 212
255 229 212
255 229 212
255 229 212
255 229 212
255 229 212
255 229 212
255 229 212
255 229 212
255 229 212
255 229 212
255 229 212
255 229 212
255 229 212
255 229 212
255 241 224
255 229 212
255 229 212
255 229 212
255 229 212
255 229 212
255 229 212
255 229 212
255 229 212
255 229 212
255 229 212
255 229 212
255 229 212
255 229 212
255 229 212
255 229 212
255 229 212
255 229 212
255 229 212
255 229 212
255 229 212
255 229 212
255 229 212
255 229 212
255 229 212
255 229 212
255 229 212
255 229 212
255 229 212
255 229 212
255 229 212
255 229 212
255 229 212
255 229 212
255 229 212
255 229 212
255 229 212
255 241 224
255 229 212
255 229 212
255 229 212
255 229 212
255 229 212
255 229 212
255 229 212
255 229 212
255 229 212
255 229 212
255 229 212
255 229 212
255 229 212
255 229 212
255 229 212
255 229 212
255 229 212
255 229 212
255 229 212
255 229 212
255 229 212
255 229 212
255 229 212
255 229 212
255 229 212
255 229 212
255 229 212
255 229 212
255 229 212
255 229 212
255 229 212
255 229 212
255 229 212
255 229 212
255 229 212
255 229 212
255 241 224
255 229 212
255 229 212
255 229 212
255 229 212
255 229 212
255 229 212
255 229 212
255 229 212
255 229 212
255 229 212
255 229 212
255 229 212
255 229 212
255 229 212
255 229 212
255 229 212
255 229 212
255 229 212
255 229 212
255 229 212
255 229 212
255 229 212
255 229 212
255 229 212
255 229 212
255 229 212
255 229 212
255 229 212
255 229 212
255 229 212
255 229 212
255 229 212
255 229 212
255 229 212
255 229 212
255 229 212
255 241 224
255 229 212
255 229 212
255 229 212
255 229 212
255 229 212
255 229 212
255 229 212
255 229 212
255 229 212
255 229 212
255 229 212
255 229 212
255 229 212
255 229 212
255 229 212
255 229 212
255 229 212
255 229 212
255 229 212
255 229 212
255 229 212
255 229 212
255 229 212
255 229 212
255 229 212
255 229 212
255 229 212
255 229 212
255 229 212
255 229 212
255 229 212
255 229 212
255 229 212
255 229 212
255 229 212
255 229 212
255 229 212
255 229 212
255 229 212
255 229 212
255 229 212
255 229 212
255 229 212
255 229 212
255 229 212
255 229 212
255 229 212
255 229 212
255 229 212
255 229 212
255 229 212
255 229 212
255 229 212
255 229 212
255 229 212
255 229 212
255 229 212
255 229 212
255 229 212
255 241 224
255 229 212
255 229 212
255 229 212
255 229 212
255 229 212
255 229 212
255 229 212
255 229 212
255 229 212
255 229 212
255 229 212
255 229 212
255 229 212
255 229 212
255 229 212
255 229 212
255 229 212
255 229 212
255 229 212
255 229 212
255 229 212
255 229 212
255 229 212
255 229 212
255 229 212
255 229 212
255 229 212
255 229 212
255 229 212
255 229 212
255 229 212
255 229 212
255 229 212
255 229 212
255 229 212
255 229 212
255 241 224
255 229 212
255 229 212
255 229 212
255 229 212
255 229 212
255 229 212
255 229 212
255 229 212
255 229 212
255 229 212
255 229 212
255 229 212
255 229 212
255 229 212
255 229 212
255 229 212
255 229 212
255 229 212
255 229 212
255 229 212
255 229 212
255 229 212
255 229 212
255 229 212
255 229 212
255 229 212
255 229 212
255 229 212
255 229 212
255 229 212
255 229 212
255 229 212
255 229 212
255 229 212
255 229 212
255 229 212
255 241 224
255 229 212
255 229 212
255 229 212
255 229 212
255 229 212
255 229 212
255 229 212
255 229 212
255 229 212
255 229 212
255 229 212
255 229 212
255 229 212
255 229 212
255 229 212
255 229 212
255 229 212
255 229 212
255 229 212
255 229 212
255 229 212
255 229 212
255 229 212
255 229 212
255 229 212
255 229 212
255 229 212
255 229 212
255 229 212
255 229 212
255 229 212
255 229 212
255 229 212
255 229 212
255 229 212
255 229 212
255 241 224
255 229 212
255 229 212
255 229 212
255 229 212
255 229 212
255 229 212
255 229 212
255 229 212
255 229 212
255 229 212
255 229 212
255 229 212
255 229 212
255 229 212
255 229 212
255 229 212
255 229 212
255 229 212
255 229 212
255 229 212
255 229 212
255 229 212
255 229 212
255 229 212
255 229 212
255 229 212
255 229 212
255 229 212
255 229 212
255 229 212
255 229 212
255 229 212
255 229 212
255 229 212
255 229 212
255 229 212
255 241 224
255 229 212
255 229 212
255 229 212
255 229 212
255 229 212
255 229 212
255 229 212
255 229 212
255 229 212
255 229 212
255 229 212
255 229 212
255 229 212
255 229 212
255 229 212
255 229 212
255 229 212
255 229 212
255 229 212
255 229 212
255 229 212
255 229 212
255 229 212
255 229 212
255 229 212
255 229 212
255 229 212
255 229 212
255 229 212
255 229 212
255 229 212
255 229 212
255 229 212
255 229 212
255 229 212
255 229 212
255 241 224
255 229 212
255 229 212
255 229 212
255 229 212
255 229 212
255 229 212
255 229 212
255 229 212
255 229 212
255 229 212
255 229 212
255 229 212
255 229 212
255 229 212
255 229 212
255 229 212
255 229 212
255 229 212
255 229 212
255 229 212
255 229 212
255 229 212
255 229 212
255 229 212
255 229 212
255 229 212
255 229 212
255 229 212
255 229 212
255 229 212
255 229 212
255 229 212
255 229 212
255 229 212
255 229 212
255 229 212
255 241 224
255 229 212
255 229 212
255 229 212
255 229 212
255 229 212
255 229 212
255 229 212
255 229 212
255 229 212
255 229 212
255 229 212
255 229 212
255 229 212
255 229 212
255 229 212
255 229 212
255 229 212
255 229 212
255 229 212
255 229 212
255 229 212
255 229 212
255 229 212
255 229 212
255 229 212
255 229 212
255 229 212
255 229 212
255 229 212
255 229 212
255 229 212
255 229 212
255 229 212
255 229 212
255 229 212
255 229 212
255 241 224
255 229 212
255 229 212
255 229 212
255 229 212
255 229 212
255 229 212
255 229 212
255 229 212
255 229 212
255 229 212
255 229 212
255 229 212
255 229 212
255 229 212
255 229 212
255 229 212
255 229 212
255 229 212
255 229 212
255 229 212
255 229 212
255 229 212
255 229 212
255 229 212
255 229 212
255 229 212
255 229 212
255 229 212
255 229 212
255 229 212
255 229 212
255 229 212
255 229 212
255 229 212
255 229 212
255 229 212
255 229 212
255 229 212
255 229 212
255 229 212
255 229 212
255 229 212
255 229 212
255 229 212
255 229 212
255 229 212
255 229 212
255 229 212
255 229 212
255 229 212
255 229 212
255 229 212
255 229 212
255 229 212
255 229 212
255 229 212
255 229 212
255 229 212
255 229 212
255 241 224
255 229 212
255 229 212
255 229 212
255 229 212
255 229 212
255 229 212
255 229 212
255 229 212
255 229 212
255 229 212
255 229 212
255 229 212
255 229 212
255 229 212
255 229 212
255 229 212
255 229 212
255 229 212
255 229 212
255 229 212
255 229 212
255 229 212
255 229 212
255 229 212
255 229 212
255 229 212
255 229 212
255 229 212
255 229 212
255 229 212
255 229 212
255 229 212
255 229 212
255 229 212
255 229 212
255 229 212
255 241 224
255 229 212
255 229 212
255 229 212
255 229 212
255 229 212
255 229 212
255 229 212
255 229 212
255 229 212
255 229 212
255 229 212
255 229 212
255 229 212
255 229 212
255 229 212
255 229 212
255 229 212
255 229 212
255 229 212
255 229 212
255 229 212
255 229 212
255 229 212
255 229 212
255 229 212
255 229 212
255 229 212
255 229 212
255 229 212
255 229 212
255 229 212
255 229 212
255 229 212
255 229 212
255 229 212
255 229 212
255 241 224
255 229 212
255 229 212
255 229 212
255 229 212
255 229 212
255 229 212
255 229 212
255 229 212
255 229 212
255 229 212
255 229 212
255 229 212
255 229 212
255 229 212
255 229 212
255 229 212
255 229 212
255 229 212
255 229 212
255 229 212
255 229 212
255 229 212
255 229 212
255 229 212
255 229 212
255 229 212
255 229 212
255 229 212
255 229 212
255 229 212
255 229 212
255 229 212
255 229 212
255 229 212
255 229 212
255 229 212
255 241 224
255 229 212
255 229 212
255 229 212
255 229 212
255 229 212
255 229 212
255 229 212
255 229 212
255 229 212
255 229 212
255 229 212
255 229 212
255 229 212
255 229 212
255 229 212
255 229 212
255 229 212
255 229 212
255 229 212
255 229 212
255 229 212
255 229 212
255 229 212
255 229 212
255 229 212
255 229 212
255 229 212
255 229 212
255 229 212
255 229 212
255 229 212
255 229 212
255 229 212
255 229 212
255 229 212
255 229 212
255 241 224
255 229 212
255 229 212
255 229 212
255 229 212
255 229 212
255 229 212
255 229 212
255 229 212
255 229 212
255 229 212
255 229 212
255 229 212
255 229 212
255 229 212
255 229 212
255 229 212
255 229 212
255 229 212
255 229 212
255 229 212
255 229 212
255 229 212
255 229 212
255 229 212
255 229 212
255 229 212
255 229 212
255 229 212
255 229 212
255 229 212
255 229 212
255 229 212
255 229 212
255 229 212
255 229 212
255 229 212
255 241 224
255 229 212
255 229 212
255 229 212
255 229 212
255 229 212
255 229 212
255 229 212
255 229 212
255 229 212
255 229 212
255 229 212
255 229 212
255 229 212
255 229 212
255 229 212
255 229 212
255 229 212
255 229 212
255 229 212
255 229 212
255 229 212
255 229 212
255 229 212
255 229 212
255 229 212
255 229 212
255 229 212
255 229 212
255 229 212
255 229 212
255 229 212
255 229 212
255 229 212
255 229 212
255 229 212
255 229 212
255 241 224
255 229 212
255 229 212
255 229 212
255 229 212
255 229 212
255 229 212
255 229 212
255 229 212
255 229 212
255 229 212
255 229 212
255 229 212
255 229 212
255 229 212
255 229 212
255 229 212
255 229 212
255 229 212
255 229 212
255 229 212
255 229 212
255 229 212
255 229 212
255 229 212
255 229 212
255 229 212
255 229 212
255 229 212
255 229 212
255 229 212
255 229 212
255 229 212
255 229 212
255 229 212
255 229 212
255 229 212
255 241 224
255 229 212
255 229 212
255 229 212
255 229 212
255 229 212
255 229 212
255 229 212
255 229 212
255 229 212
255 229 212
255 229 212
255 229 212
255 229 212
255 229 212
255 229 212
255 229 212
255 229 212
255 229 212
255 229 212
255 229 212
255 229 212
255 229 212
255 229 212
255 229 212
255 229 212
255 229 212
255 229 212
255 229 212
255 229 212
255 229 212
255 229 212
255 229 212
255 229 212
255 229 212
255 229 212
255 229 212
255 229 212
255 229 212
255 229 212
255 229 212
255 229 212
255 229 212
255 229 212
255 229 212
255 229 212
255 229 212
255 229 212
255 229 212
255 229 212
255 229 212
255 229 212
255 229 212
255 229 212
255 229 212
255 229 212
255 229 212
255 229 212
255 229 212
255 229 212
255 241 224
255 229 212
255 229 212
255 229 212
255 229 212
255 229 212
255 229 212
255 229 212
255 229 212
255 229 212
255 229 212
255 229 212
255 229 212
255 229 212
255 229 212
255 229 212
255 229 212
255 229 212
255 229 212
255 229 212
255 229 212
255 229 212
255 229 212
255 229 212
255 229 212
255 229 212
255 229 212
255 229 212
255 229 212
255 229 212
255 229 212
255 229 212
255 229 212
255 229 212
255 229 212
255 229 212
255 229 212
255 241 224
255 229 212
255 229 212
255 229 212
255 229 212
255 229 212
255 229 212
255 229 212
255 229 212
255 229 212
255 229 212
255 229 212
255 229 212
255 229 212
255 229 212
255 229 212
255 229 212
255 229 212
255 229 212
255 229 212
255 229 212
255 229 212
255 229 212
255 229 212
255 229 212
255 229 212
255 229 212
255 229 212
255 229 212
255 229 212
255 229 212
255 229 212
255 229 212
255 229 212
255 229 212
255 229 212
255 229 212
255 241 224
255 229 212
255 229 212
255 229 212
255 229 212
255 229 212
255 229 212
255 229 212
255 229 212
255 229 212
255 229 212
255 229 212
255 229 212
255 229 212
255 229 212
255 229 212
255 229 212
255 229 212
255 229 212
255 229 212
255 229 212
255 229 212
255 229 212
255 229 212
255 229 212
255 229 212
255 229 212
255 229 212
255 229 212
255 229 212
255 229 212
255 229 212
255 229 212
255 229 212
255 229 212
255 229 212
255 229 212
255 241 224
255 229 212
255 229 212
255 229 212
255 229 212
255 229 212
255 229 212
255 229 212
255 229 212
255 229 212
255 229 212
255 229 212
255 229 212
255 229 212
255 229 212
255 229 212
255 229 212
255 229 212
255 229 212
255 229 212
255 229 212
255 229 212
255 229 212
255 229 212
255 229 212
255 229 212
255 229 212
255 229 212
255 229 212
255 229 212
255 229 212
255 229 212
255 229 212
255 229 212
255 229 212
255 229 212
255 229 212
255 241 224
255 229 212
255 229 212
255 229 212
255 229 212
255 229 212
255 229 212
255 229 212
255 229 212
255 229 212
255 229 212
255 229 212
255 229 212
255 229 212
255 229 212
255 229 212
255 229 212
255 229 212
255 229 212
255 229 212
255 229 212
255 229 212
255 229 212
255 229 212
255 229 212
255 229 212
255 229 212
255 229 212
255 229 212
255 229 212
255 229 212
255 229 212
255 229 212
255 229 212
255 229 212
255 229 212
255 229 212
255 241 224
255 229 212
255 229 212
255 229 212
255 229 212
255 229 212
255 229 212
255 229 212
255 229 212
255 229 212
255 229 212
255 229 212
255 229 212
255 229 212
255 229 212
255 229 212
255 229 212
255 229 212
255 229 212
255 229 212
255 229 212
255 229 212
255 229 212
255 229 212
255 229 212
255 229 212
255 229 212
255 229 212
255 229 212
255 229 212
255 229 212
255 229 212
255 229 212
255 229 212
255 229 212
255 229 212
255 229 212
255 241 224
255 229 212
255 229 212
255 229 212
255 229 212
255 229 212
255 229 212
255 229 212
255 229 212
255 229 212
255 229 212
255 229 212
255 229 212
255 229 212
255 229 212
255 229 212
255 229 212
255 229 212
255 229 212
255 229 212
255 229 212
255 229 212
255 229 212
255 229 212
255 229 212
255 229 212
255 229 212
255 229 212
255 229 212
255 229 212
255 229 212
255 229 212
255 229 212
255 229 212
255 229 212
255 229 212
255 229 212
255 241 224
255 229 212
255 229 212
255 229 212
255 229 212
255 229 212
255 229 212
255 229 212
255 229 212
255 229 212
255 229 212
255 229 212
255 229 212
255 229 212
255 229 212
255 229 212
255 229 212
255 229 212
255 229 212
255 229 212
255 229 212
255 229 212
255 229 212
255 229 212
255 229 212
255 229 212
255 229 212
255 229 212
255 229 212
255 229 212
255 229 212
255 229 212
255 229 212
255 229 212
255 229 212
255 229 212
255 229 212
255 241 224
255 229 212
255 229 212
255 229 212
255 229 212
255 229 212
255 229 212
255 229 212
255 229 212
255 229 212
255 229 212
255 229 212
255 229 212
255 229 212
255 229 212
255 229 212
255 229 212
255 229 212
255 229 212
255 229 212
255 229 212
255 229 212
255 229 212
255 241 224
255 229 212
255 229 212
255 229 212
255 229 212
255 229 212
255 229 212
255 229 212
255 229 212
255 229 212
255 229 212
255 229 212
255 229 212
255 229 212
255 229 212
255 229 212
255 229 212
255 229 212
255 229 212
255 229 212
255 229 212
255 229 212
255 229 212
255 229 212
255 229 212
255 229 212
255 229 212
255 229 212
255 229 212
255 229 212
255 229 212
255 229 212
255 229 212
255 229 212
255 229 212
255 229 212
255 229 212
255 241 224
255 229 212
255 229 212
255 229 212
255 229 212
255 229 212
255 229 212
255 229 212
255 229 212
255 229 212
255 229 212
255 229 212
255 229 212
255 229 212
255 229 212
255 229 212
255 229 212
255 229 212
255 229 212
255 229 212
255 229 212
255 229 212
255 229 212
255 229 212
255 229 212
255 229 212
255 229 212
255 229 212
255 229 212
255 229 212
255 229 212
255 229 212
255 229 212
255 229 212
255 229 212
255 229 212
255 229 212
255 241 224
255 229 212
255 229 212
255 229 212
255 229 212
255 229 212
255 229 212
255 229 212
255 229 212
255 229 212
255 229 212
255 229 212
255 229 212
255 229 212
255 229 212
255 229 212
255 229 212
255 229 212
255 229 212
255 229 212
255 229 212
255 229 212
255 229 212
255 229 212
255 229 212
255 229 212
255 229 212
255 229 212
255 229 212
255 229 212
255 229 212
255 229 212
255 229 212
255 229 212
255 229 212
255 229 212
255 229 212
255 241 224
255 229 212
255 229 212
255 229 212
255 229 212
255 229 212
255 229 212
255 229 212
255 229 212
255 229 212
255 229 212
255 229 212
255 229 212
255 229 212
255 229 212
255 229 212
255 229 212
255 229 212
255 229 212
255 229 212
255 229 212
255 229 212
255 229 212
255 229 212
255 229 212
255 229 212
255 229 212
255 229 212
255 229 212
255 229 212
255 229 212
255 229 212
255 229 212
255 229 212
255 229 212
255 229 212
255 229 212
255 241 224
255 229 212
255 229 212
255 229 212
255 229 212
255 229 212
255 229 212
255 229 212
255 229 212
255 229 212
255 229 212
255 229 212
255 229 212
255 229 212
255 229 212
255 229 212
255 229 212
255 229 212
255 229 212
255 229 212
255 229 212
255 229 212
255 229 212
255 229 212
255 229 212
255 229 212
255 229 212
255 229 212
255 229 212
255 229 212
255 229 212
255 229 212
255 229 212
255 229 212
255 229 212
255 229 212
255 229 212
255 241 224
255 229 212
255 229 212
255 229 212
255 229 212
255 229 212
255 229 212
255 229 212
255 229 212
255 229 212
255 229 212
255 229 212
255 229 212
255 229 212
255 229 212
255 229 212
255 229 212
255 229 212
255 229 212
255 229 212
255 229 212
255 229 212
255 229 212
255 229 212
255 229 212
255 229 212
255 229 212
255 229 212
255 229 212
255 229 212
255 229 212
255 229 212
255 229 212
255 229 212
255 229 212
255 229 212
255 229 212
255 241 224
255 229 212
255 229 212
255 229 212
255 229 212
255 229 212
255 229 212
255 229 212
255 229 212
255 229 212
255 229 212
255 229 212
255 229 212
255 229 212
255 229 212
255 229 212
255 229 212
255 229 212
255 229 212
255 229 212
255 229 212
255 229 212
255 229 212
255 229 212
255 229 212
255 229 212
255 229 212
255 229 212
255 229 212
255 229 212
255 229 212
255 229 212
255 229 212
255 229 212
255 229 212
255 229 212
255 229 212
255 241 224
255 229 212
255 229 212
255 229 212
255 229 212
255 229 212
255 229 212
255 229 212
255 229 212
255 229 212
255 229 212
255 229 212
255 229 212
255 229 212
255 229 212
255 229 212
255 229 212
255 229 212
255 229 212
255 229 212
255 229 212
255 229 212
255 229 212
255 229 212
255 229 212
255 229 212
255 229 212
255 229 212
255 229 212
255 229 212
255 229 212
255 229 212
255 229 212
255 229 212
255 229 212
255 229 212
255 229 212
255 241 224
255 229 212
255 229 212
255 229 212
255 229 212
255 229 212
255 229 212
255 229 212
255 229 212
255 229 212
255 229 212
255 229 212
255 229 212
255 229 212
255 229 212
255 229 212
255 229 212
255 229 212
255 229 212
255 229 212
255 229 212
255 229 212
255 229 212
255 241 224
255 229 212
255 229 212
255 229 212
255 229 212
255 229 212
255 229 212
255 229 212
255 229 212
255 229 212
255 229 212
255 229 212
255 229 212
255 229 212
255 229 212
255 229 212
255 229 212
255 229 212
255 229 212
255 229 212
255 229 212
255 229 212
255 229 212
255 229 212
255 229 212
255 229 212
255 229 212
255 229 212
255 229 212
255 229 212
255 229 212
255 229 212
255 229 212
255 229 212
255 229 212
255 229 212
255 229 212
255 241 224
255 229 212
255 229 212
255 229 212
255 229 212
255 229 212
255 229 212
255 229 212
255 229 212
255 229 212
255 229 212
255 229 212
255 229 212
255 229 212
255 229 212
255 229 212
255 229 212
255 229 212
255 229 212
255 229 212
255 229 212
255 229 212
255 229 212
255 229 212
255 229 212
255 229 212
255 229 212
255 229 212
255 229 212
255 229 212
255 229 212
255 229 212
255 229 212
255 229 212
255 229 212
255 229 212
255 229 212
255 241 224
255 229 212
255 229 212
255 229 212
255 229 212
255 229 212
255 229 212
255 229 212
255 229 212
255 229 212
255 229 212
255 229 212
255 229 212
255 229 212
255 229 212
255 229 212
255 229 212
255 229 212
255 229 212
255 229 212
255 229 212
255 229 212
255 229 212
255 229 212
255 229 212
255 229 212
255 229 212
255 229 212
255 229 212
255 229 212
255 229 212
255 229 212
255 229 212
255 229 212
255 229 212
255 229 212
255 229 212
255 241 224
255 229 212
255 229 212
255 229 212
255 229 212
255 229 212
255 229 212
255 229 212
255 229 212
255 229 212
255 229 212
255 229 212
255 229 212
255 229 212
255 229 212
255 229 212
255 229 212
255 229 212
255 229 212
255 229 212
255 229 212
255 229 212
255 229 212
255 229 212
255 229 212
255 229 212
255 229 212
255 229 212
255 229 212
255 229 212
255 229 212
255 229 212
255 229 212
255 229 212
255 229 212
255 229 212
255 229 212
255 241 224
255 229 212
255 229 212
255 229 212
255 229 212
255 229 212
255 229 212
255 229 212
255 229 212
255 229 212
255 229 212
255 229 212
255 229 212
255 229 212
255 229 212
255 229 212
255 229 212
255 229 212
255 229 212
255 229 212
255 229 212
255 229 212
255 229 212
255 229 212
255 229 212
255 229 212
255 229 212
255 229 212
255 229 212
255 229 212
255 229 212
255 229 212
255 229 212
255 229 212
255 229 212
255 229 212
255 229 212
255 241 224
255 229 212
255 229 212
255 229 212
255 229 212
255 229 212
255 229 212
255 229 212
255 229 212
255 229 212
255 229 212
255 229 212
255 229 212
255 229 212
255 229 212
255 229 212
255 229 212
255 229 212
255 229 212
255 229 212
255 229 212
255 229 212
255 229 212
255 229 212
255 229 212
255 229 212
255 229 212
255 229 212
255 229 212
255 229 212
255 229 212
255 229 212
255 229 212
255 229 212
255 229 212
255 229 212
255 229 212
255 241 224
255 229 212
255 229 212
255 229 212
255 229 212
255 229 212
255 229 212
255 229 212
255 229 212
255 229 212
255 229 212
255 229 212
255 229 212
255 229 212
255 229 212
255 229 212
255 229 212
255 229 212
255 229 212
255 229 212
255 229 212
255 229 212
255 229 212
255 229 212
255 229 212
255 229 212
255 229 212
255 229 212
255 229 212
255 229 212
255 229 212
255 229 212
255 229 212
255 229 212
255 229 212
255 229 212
255 229 212
255 241 224
255 229 212
255 229 212
255 229 212
255 229 212
255 229 212
255 229 212
255 229 212
255 229 212
255 229 212
255 229 212
255 229 212
255 229 212
255 229 212
255 229 212
255 229 212
255 229 212
255 229 212
255 229 212
255 229 212
255 229 212
255 229 212
255 229 212
255 229 212
255 229 212
255 229 212
255 229 212
255 229 212
255 229 212
255 229 212
255 229 212
255 229 212
255 229 212
255 229 212
255 229 212
255 229 212
255 229 212
255 241 224
255 229 212
255 229 212
255 229 212
255 229 212
255 229 212
255 229 212
255 229 212
255 229 212
255 229 212
255 229 212
255 229 212
255 229 212
255 229 212
255 229 212
255 229 212
255 229 212
255 229 212
255 229 212
255 229 212
255 229 212
255 229 212
255 229 212
255 241 224
255 229 212
255 229 212
255 229 212
255 229 212
255 229 212
255 229 212
255 229 212
255 229 212
255 229 212
255 229 212
255 229 212
255 229 212
255 229 212
255 229 212
255 229 212
255 229 212
255 229 212
255 229 212
255 229 212
255 229 212
255 229 212
255 229 212
255 229 212
255 229 212
255 229 212
255 229 212
255 229 212
255 229 212
255 229 212
255 229 212
255 229 212
255 229 212
255 229 212
255 229 212
255 229 212
255 229 212
255 241 224
255 229 212
255 229 212
255 229 212
255 229 212
255 229 212
255 229 212
255 229 212
255 229 212
255 229 212
255 229 212
255 229 212
255 229 212
255 229 212
255 229 212
255 229 212
255 229 212
255 229 212
255 229 212
255 229 212
255 229 212
255 229 212
255 229 212
255 229 212
255 229 212
255 229 212
255 229 212
255 229 212
255 229 212
255 229 212
255 229 212
255 229 212
255 229 212
255 229 212
255 229 212
255 229 212
255 229 212
255 241 224
255 229 212
255 229 212
255 229 212
255 229 212
255 229 212
255 229 212
255 229 212
255 229 212
255 229 212
255 229 212
255 229 212
255 229 212
255 229 212
255 229 212
255 229 212
255 229 212
255 229 212
255 229 212
255 229 212
255 229 212
255 229 212
255 229 212
255 229 212
255 229 212
255 229 212
255 229 212
255 229 212
255 229 212
255 229 212
255 229 212
255 229 212
255 229 212
255 229 212
255 229 212
255 229 212
255 229 212
255 241 224
255 229 212
255 229 212
255 229 212
255 229 212
255 229 212
255 229 212
255 229 212
255 229 212
255 229 212
255 229 212
255 229 212
255 229 212
255 229 212
255 229 212
255 229 212
255 229 212
255 229 212
255 229 212
255 229 212
255 229 212
255 229 212
255 229 212
255 229 212
255 229 212
255 229 212
255 229 212
255 229 212
255 229 212
255 229 212
255 229 212
255 229 212
255 229 212
255 229 212
255 229 212
255 229 212
255 229 212
255 241 224
255 229 212
255 229 212
255 229 212
255 229 212
255 229 212
255 229 212
255 229 212
255 229 212
255 229 212
255 229 212
255 229 212
255 229 212
255 229 212
255 229 212
255 229 212
255 229 212
255 229 212
255 229 212
255 229 212
255 229 212
255 229 212
255 229 212
255 229 212
255 229 212
255 229 212
255 229 212
255 229 212
255 229 212
255 229 212
255 229 212
255 229 212
255 229 212
255 229 212
255 229 212
255 229 212
255 229 212
255 241 224
255 229 212
255 229 212
255 229 212
255 229 212
255 229 212
255 229 212
255 229 212
255 229 212
255 229 212
255 229 212
255 229 212
255 229 212
255 229 212
255 229 212
255 229 212
255 229 212
255 229 212
255 229 212
255 229 212
255 229 212
255 229 212
255 229 212
255 229 212
255 229 212
255 229 212
255 229 212
255 229 212
255 229 212
255 229 212
255 229 212
255 229 212
255 229 212
255 229 212
255 229 212
255 229 212
255 229 212
255 241 224
255 229 212
255 229 212
255 229 212
255 229 212
255 229 212
255 229 212
255 229 212
255 229 212
255 229 212
255 229 212
255 229 212
255 229 212
255 229 212
255 229 212
255 229 212
255 229 212
255 229 212
255 229 212
255 229 212
255 229 212
255 229 212
255 229 212
255 229 212
255 229 212
255 229 212
255 229 212
255 229 212
255 229 212
255 229 212
255 229 212
255 229 212
255 229 212
255 229 212
255 229 212
255 229 212
255 229 212
255 241 224
255 229 212
255 229 212
255 229 212
255 229 212
255 229 212
255 229 212
255 229 212
255 229 212
255 229 212
255 229 212
255 229 212
255 229 212
255 229 212
255 229 212
255 229 212
255 229 212
255 229 212
255 229 212
255 229 212
255 229 212
255 229 212
255 229 212
255 229 212
255 229 212
255 229 212
255 229 212
255 229 212
255 229 212
255 229 212
255 229 212
255 229 212
255 229 212
255 229 212
255 229 212
255 229 212
255 229 212
255 241 224
255 229 212
255 229 212
255 229 212
255 229 212
255 229 212
255 229 212
255 229 212
255 229 212
255 229 212
255 229 212
255 229 212
255 229 212
255 229 212
255 229 212
255 229 212
255 229 212
255 229 212
255 229 212
255 229 212
255 229 212
255 229 212
255 229 212
255 241 224
255 229 212
255 229 212
255 229 212
255 229 212
255 229 212
255 229 212
255 229 212
255 229 212
255 229 212
255 229 212
255 229 212
255 229 212
255 229 212
255 229 212
255 229 212
255 229 212
255 229 212
255 229 212
255 229 212
255 229 212
255 229 212
255 229 212
255 229 212
255 229 212
255 229 212
255 229 212
255 229 212
255 229 212
255 229 212
255 229 212
255 229 212
255 229 212
255 229 212
255 229 212
255 229 212
255 229 212
255 241 224
255 229 212
255 229 212
255 229 212
255 229 212
255 229 212
255 229 212
255 229 212
255 229 212
255 229 212
255 229 212
255 229 212
255 229 212
255 229 212
255 229 212
255 229 212
255 229 212
255 229 212
255 229 212
255 229 212
255 229 212
255 229 212
255 229 212
255 229 212
255 229 212
255 229 212
255 229 212
255 229 212
255 229 212
255 229 212
255 229 212
255 229 212
255 229 212
255 229 212
255 229 212
255 229 212
255 229 212
255 241 224
255 229 212
255 229 212
255 229 212
255 229 212
255 229 212
255 229 212
255 229 212
255 229 212
255 229 212
255 229 212
255 229 212
255 229 212
255 229 212
255 229 212
255 229 212
255 229 212
255 229 212
255 229 212
255 229 212
255 229 212
255 229 212
255 229 212
255 229 212
255 229 212
255 229 212
255 229 212
255 229 212
255 229 212
255 229 212
255 229 212
255 229 212
255 229 212
255 229 212
255 229 212
255 229 212
255 229 212
255 241 224
255 229 212
255 229 212
255 229 212
255 229 212
255 229 212
255 229 212
255 229 212
255 229 212
255 229 212
255 229 212
255 229 212
255 229 212
255 229 212
255 229 212
255 229 212
255 229 212
255 229 212
255 229 212
255 229 212
255 229 212
255 229 212
255 229 212
255 229 212
255 229 212
255 229 212
255 229 212
255 229 212
255 229 212
255 229 212
255 229 212
255 229 212
255 229 212
255 229 212
255 229 212
255 229 212
255 229 212
255 241 224
255 229 212
255 229 212
255 229 212
255 229 212
255 229 212
255 229 212
255 229 212
255 229 212
255 229 212
255 229 212
255 229 212
255 229 212
255 229 212
255 229 212
255 229 212
255 229 212
255 229 212
255 229 212
255 229 212
255 229 212
255 229 212
255 229 212
255 229 212
255 229 212
255 229 212
255 229 212
255 229 212
255 229 212
255 229 212
255 229 212
255 229 212
255 229 212
255 229 212
255 229 212
255 229 212
255 229 212
255 241 224
255 229 212
255 229 212
255 229 212
255 229 212
255 229 212
255 229 212
255 229 212
255 229 212
255 229 212
255 229 212
255 229 212
255 229 212
255 229 212
255 229 212
255 229 212
255 229 212
255 229 212
255 229 212
255 229 212
255 229 212
255 229 212
255 229 212
255 229 212
255 229 212
255 229 212
255 229 212
255 229 212
255 229 212
255 229 212
255 229 212
255 229 212
255 229 212
255 229 212
255 229 212
255 229 212
255 229 212
255 241 224
255 229 212
255 229 212
255 229 212
255 229 212
255 229 212
255 229 212
255 229 212
255 229 212
255 229 212
255 229 212
255 229 212
255 229 212
255 229 212
255 229 212
255 229 212
255 229 212
255 229 212
255 229 212
255 229 212
255 229 212
255 229 212
255 229 212
255 229 212
255 229 212
255 229 212
255 229 212
255 229 212
255 229 212
255 229 212
255 229 212
255 229 212
255 229 212
255 229 212
255 229 212
255 229 212
255 229 212
255 241 224
255 229 212
255 229 212
255 229 212
255 229 212
255 229 212
255 229 212
255 229 212
255 229 212
255 229 212
255 229 212
255 229 212
255 229 212
255 229 212
255 229 212
255 229 212
255 229 212
255 229 212
255 229 212
255 229 212
255 229 212
255 229 212
255 229 212
255 229 212
255 229 212
255 229 212
255 229 212
255 229 212
255 229 212
255 229 212
255 229 212
255 229 212
255 229 212
255 229 212
255 229 212
255 229 212
255 229 212
255 241 224
255 229 212
255 229 212
255 229 212
255 229 212
255 229 212
255 229 212
255 229 212
255 229 212
255 229 212
255 229 212
255 229 212
255 229 212
255 229 212
255 229 212
255 229 212
255 229 212
255 229 212
255 229 212
255 229 212
255 229 212
255 229 212
255 229 212
255 241 224
255 229 212
255 229 212
255 229 212
255 229 212
255 229 212
255 229 212
255 229 212
255 229 212
255 229 212
255 229 212
255 229 212
255 229 212
255 229 212
255 229 212
255 229 212
255 229 212
255 229 212
255 229 212
255 229 212
255 229 212
255 229 212
255 229 212
255 229 212
255 229 212
255 229 212
255 229 212
255 229 212
255 229 212
255 229 212
255 229 212
255 229 212
255 229 212
255 229 212
255 229 212
255 229 212
255 229 212
255 241 224
255 229 212
255 229 212
255 229 212
255 229 212
255 229 212
255 229 212
255 229 212
255 229 212
255 229 212
255 229 212
255 229 212
255 229 212
255 229 212
255 229 212
255 229 212
255 229 212
255 229 212
255 229 212
255 229 212
255 229 212
255 229 212
255 229 212
255 229 212
255 229 212
255 229 212
255 229 212
255 229 212
255 229 212
255 229 212
255 229 212
255 229 212
255 229 212
255 229 212
255 229 212
255 229 212
255 229 212
255 241 224
255 229 212
255 229 212
255 229 212
255 229 212
255 229 212
255 229 212
255 229 212
255 229 212
255 229 212
255 229 212
255 229 212
255 229 212
255 229 212
255 229 212
255 229 212
255 229 212
255 229 212
255 229 212
255 229 212
255 229 212
255 229 212
255 229 212
255 229 212
255 229 212
255 229 212
255 229 212
255 229 212
255 229 212
255 229 212
255 229 212
255 229 212
255 229 212
255 229 212
255 229 212
255 229 212
255 229 212
255 241 224
255 229 212
255 229 212
255 229 212
255 229 212
255 229 212
255 229 212
255 229 212
255 229 212
255 229 212
255 229 212
255 229 212
255 229 212
255 229 212
255 229 212
255 229 212
255 229 212
255 229 212
255 229 212
255 229 212
255 229 212
255 229 212
255 229 212
255 229 212
255 229 212
255 229 212
255 229 212
255 229 212
255 229 212
255 229 212
255 229 212
255 229 212
255 229 212
255 229 212
255 229 212
255 229 212
255 229 212
255 241 224
255 229 212
255 229 212
255 229 212
255 229 212
255 229 212
255 229 212
255 229 212
255 229 212
255 229 212
255 229 212
255 229 212
255 229 212
255 229 212
255 229 212
255 229 212
255 229 212
255 229 212
255 229 212
255 229 212
255 229 212
255 229 212
255 229 212
255 229 212
255 229 212
255 229 212
255 229 212
255 229 212
255 229 212
255 229 212
255 229 212
255 229 212
255 229 212
255 229 212
255 229 212
255 229 212
255 229 212
255 241 224
255 229 212
255 229 212
255 229 212
255 229 212
255 229 212
255 229 212
255 229 212
255 229 212
255 229 212
255 229 212
255 229 212
255 229 212
255 229 212
255 229 212
255 229 212
255 229 212
255 229 212
255 229 212
255 229 212
255 229 212
255 229 212
255 229 212
255 229 212
255 229 212
255 229 212
255 229 212
255 229 212
255 229 212
255 229 212
255 229 212
255 229 212
255 229 212
255 229 212
255 229 212
255 229 212
255 229 212
255 241 224
255 229 212
255 229 212
255 229 212
255 229 212
255 229 212
255 229 212
255 229 212
255 229 212
255 229 212
255 229 212
255 229 212
255 229 212
255 229 212
255 229 212
255 229 212
255 229 212
255 229 212
255 229 212
255 229 212
255 229 212
255 229 212
255 229 212
255 229 212
255 229 212
255 229 212
255 229 212
255 229 212
255 229 212
255 229 212
255 229 212
255 229 212
255 229 212
255 229 212
255 229 212
255 229 212
255 229 212
255 241 224
255 229 212
255 229 212
255 229 212
255 229 212
255 229 212
255 229 212
255 229 212
255 229 212
255 229 212
255 229 212
255 229 212
255 229 212
255 229 212
255 229 212
255 229 212
255 229 212
255 229 212
255 229 212
255 229 212
255 229 212
255 229 212
255 229 212
255 229 212
255 229 212
255 229 212
255 229 212
255 229 212
255 229 212
255 229 212
255 229 212
255 229 212
255 229 212
255 229 212
255 229 212
255 229 212
255 229 212
255 241 224
255 229 212
255 229 212
255 229 212
255 229 212
255 229 212
255 229 212
255 229 212
255 229 212
255 229 212
255 229 212
255 229 212
255 229 212
255 229 212
255 229 212
255 229 212
255 229 212
255 229 212
255 229 212
255 229 212
255 229 212
255 229 212
255 229 212
255 241 224
255 229 212
255 229 212
255 229 212
255 229 212
255 229 212
255 229 212
255 229 212
255 229 212
255 229 212
255 229 212
255 229 212
255 229 212
255 229 212
255 229 212
255 229 212
255 229 212
255 229 212
255 229 212
255 229 212
255 229 212
255 229 212
255 229 212
255 229 212
255 229 212
255 229 212
255 229 212
255 229 212
255 229 212
255 229 212
255 229 212
255 229 212
255 229 212
255 229 212
255 229 212
255 229 212
255 229 212
255 241 224
255 229 212
255 229 212
255 229 212
255 229 212
255 229 212
255 229 212
255 229 212
255 229 212
255 229 212
255 229 212
255 229 212
255 229 212
255 229 212
255 229 212
255 229 212
255 229 212
255 229 212
255 229 212
255 229 212
255 229 212
255 229 212
255 229 212
255 229 212
255 229 212
255 229 212
255 229 212
255 229 212
255 229 212
255 229 212
255 229 212
255 229 212
255 229 212
255 229 212
255 229 212
255 229 212
255 229 212
255 241 224
255 229 212
255 229 212
255 229 212
255 229 212
255 229 212
255 229 212
255 229 212
255 229 212
255 229 212
255 229 212
255 229 212
255 229 212
255 229 212
255 229 212
255 229 212
255 229 212
255 229 212
255 229 212
255 229 212
255 229 212
255 229 212
255 229 212
255 229 212
255 229 212
255 229 212
255 229 212
255 229 212
255 229 212
255 229 212
255 229 212
255 229 212
255 229 212
255 229 212
255 229 212
255 229 212
255 229 212
255 241 224
255 229 212
255 229 212
255 229 212
255 229 212
255 229 212
255 229 212
255 229 212
255 229 212
255 229 212
255 229 212
255 229 212
255 229 212
255 229 212
255 229 212
255 229 212
255 229 212
255 229 212
255 229 212
255 229 212
255 229 212
255 229 212
255 229 212
255 229 212
255 229 212
255 229 212
255 229 212
255 229 212
255 229 212
255 229 212
255 229 212
255 229 212
255 229 212
255 229 212
255 229 212
255 229 212
255 229 212
255 241 224
255 229 212
255 229 212
255 229 212
255 229 212
255 229 212
255 229 212
255 229 212
255 229 212
255 229 212
255 229 212
255 229 212
255 229 212
255 229 212
255 229 212
255 229 212
255 229 212
255 229 212
255 229 212
255 229 212
255 229 212
255 229 212
255 229 212
255 229 212
255 229 212
255 229 212
255 229 212
255 229 212
255 229 212
255 229 212
255 229 212
255 229 212
255 229 212
255 229 212
255 229 212
255 229 212
255 229 212
255 241 224
255 229 212
255 229 212
255 229 212
255 229 212
255 229 212
255 229 212
255 229 212
255 229 212
255 229 212
255 229 212
255 229 212
255 229 212
255 229 212
255 229 212
255 229 212
255 229 212
255 229 212
255 229 212
255 229 212
255 229 212
255 229 212
255 229 212
255 229 212
255 229 212
255 229 212
255 229 212
255 229 212
255 229 212
255 229 212
255 229 212
255 229 212
255 229 212
255 229 212
255 229 212
255 229 212
255 229 212
255 241 224
255 229 212
255 229 212
255 229 212
255 229 212
255 229 212
255 229 212
255 229 212
255 229 212
255 229 212
255 229 212
255 229 212
255 229 212
255 229 212
255 229 212
255 229 212
255 229 212
255 229 212
255 229 212
255 229 212
255 229 212
255 229 212
255 229 212
255 229 212
255 229 212
255 229 212
255 229 212
255 229 212
255 229 212
255 229 212
255 229 212
255 229 212
255 229 212
255 229 212
255 229 212
255 229 212
255 229 212
255 241 224
255 229 212
255 229 212
255 229 212
255 229 212
255 229 212
255 229 212
255 229 212
255 229 212
255 229 212
255 229 212
255 229 212
255 229 212
255 229 212
255 229 212
255 229 212
255 229 212
255 229 212
255 229 212
255 229 212
255 229 212
255 229 212
255 229 212
255 229 212
255 229 212
255 229 212
255 229 212
255 229 212
255 229 212
255 229 212
255 229 212
255 229 212
255 229 212
255 229 212
255 229 212
255 229 212
255 229 212
255 241 224
255 229 212
255 229 212
255 229 212
255 229 212
255 229 212
255 229 212
255 229 212
255 229 212
255 229 212
255 229 212
255 229 212
255 229 212
255 229 212
255 229 212
255 229 212
255 229 212
255 229 212
255 229 212
255 229 212
255 229 212
255 229 212
255 229 212
255 241 224
255 229 212
255 229 212
255 229 212
255 229 212
255 229 212
255 229 212
255 229 212
255 229 212
255 229 212
255 229 212
255 229 212
255 229 212
255 229 212
255 229 212
255 229 212
255 229 212
255 229 212
255 229 212
255 229 212
255 229 212
255 229 212
255 229 212
255 229 212
255 229 212
255 229 212
255 229 212
255 229 212
255 229 212
255 229 212
255 229 212
255 229 212
255 229 212
255 229 212
255 229 212
255 229 212
255 229 212
255 241 224
255 229 212
255 229 212
255 229 212
255 229 212
255 229 212
255 229 212
255 229 212
255 229 212
255 229 212
255 229 212
255 229 212
255 229 212
255 229 212
255 229 212
255 229 212
255 229 212
255 229 212
255 229 212
255 229 212
255 229 212
255 229 212
255 229 212
255 229 212
255 229 212
255 229 212
255 229 212
255 229 212
255 229 212
255 229 212
255 229 212
255 229 212
255 229 212
255 229 212
255 229 212
255 229 212
255 229 212
255 241 224
255 229 212
255 229 212
255 229 212
255 229 212
255 229 212
255 229 212
255 229 212
255 229 212
255 229 212
255 229 212
255 229 212
255 229 212
255 229 212
255 229 212
255 229 212
255 229 212
255 229 212
255 229 212
255 229 212
255 229 212
255 229 212
255 229 212
255 229 212
255 229 212
255 229 212
255 229 212
255 229 212
255 229 212
255 229 212
255 229 212
255 229 212
255 229 212
255 229 212
255 229 212
255 229 212
255 229 212
255 241 224
255 229 212
255 229 212
255 229 212
255 229 212
255 229 212
255 229 212
255 229 212
255 229 212
255 229 212
255 229 212
255 229 212
255 229 212
255 229 212
255 229 212
255 229 212
255 229 212
255 229 212
255 229 212
255 229 212
255 229 212
255 229 212
255 229 212
255 229 212
255 229 212
255 229 212
255 229 212
255 229 212
255 229 212
255 229 212
255 229 212
255 229 212
255 229 212
255 229 212
255 229 212
255 229 212
255 229 212
255 241 224
255 229 212
255 229 212
255 229 212
255 229 212
255 229 212
255 229 212
255 229 212
255 229 212
255 229 212
255 229 212
255 229 212
255 229 212
255 229 212
255 229 212
255 229 212
255 229 212
255 229 212
255 229 212
255 229 212
255 229 212
255 229 212
255 229 212
255 229 212
255 229 212
255 229 212
255 229 212
255 229 212
255 229 212
255 229 212
255 229 212
255 229 212
255 229 212
255 229 212
255 229 212
255 229 212
255 229 212
255 241 224
255 229 212
255 229 212
255 229 212
255 229 212
255 229 212
255 229 212
255 229 212
255 229 212
255 229 212
255 229 212
255 229 212
255 229 212
255 229 212
255 229 212
255 229 212
255 229 212
255 229 212
255 229 212
255 229 212
255 229 212
255 229 212
255 229 212
255 229 212
255 229 212
255 229 212
255 229 212
255 229 212
255 229 212
255 229 212
255 229 212
255 229 212
255 229 212
255 229 212
255 229 212
255 229 212
255 229 212
255 241 224
255 229 212
255 229 212
255 229 212
255 229 212
255 229 212
255 229 212
255 229 212
255 229 212
255 229 212
255 229 212
255 229 212
255 229 212
255 229 212
255 229 212
255 229 212
255 229 212
255 229 212
255 229 212
255 229 212
255 229 212
255 229 212
255 229 212
255 229 212
255 229 212
255 229 212
255 229 212
255 229 212
255 229 212
255 229 212
255 229 212
255 229 212
255 229 212
255 229 212
255 229 212
255 229 212
255 229 212
255 241 224
255 229 212
255 229 212
255 229 212
255 229 212
255 229 212
255 229 212
255 229 212
255 229 212
255 229 212
255 229 212
255 229 212
255 229 212
255 229 212
255 229 212
255 229 212
255 229 212
255 229 212
255 229 212
255 229 212
255 229 212
255 229 212
255 229 212
255 229 212
255 229 212
255 229 212
255 229 212
255 229 212
255 229 212
255 229 212
255 229 212
255 229 212
255 229 212
255 229 212
255 229 212
255 229 212
255 229 212
255 241 224
255 229 212
255 229 212
255 229 212
255 229 212
255 229 212
255 229 212
255 229 212
255 229 212
255 229 212
255 229 212
255 229 212
255 229 212
255 229 212
255 229 212
255 229 212
255 229 212
255 229 212
255 229 212
255 229 212
255 229 212
255 229 212
255 229 212
255 241 224
255 229 212
255 229 212
255 229 212
255 229 212
255 229 212
255 229 212
255 229 212
255 229 212
255 229 212
255 229 212
255 229 212
255 229 212
255 229 212
255 229 212
255 229 212
255 229 212
255 229 212
255 229 212
255 229 212
255 229 212
255 229 212
255 229 212
255 229 212
255 229 212
255 229 212
255 229 212
255 229 212
255 229 212
255 229 212
255 229 212
255 229 212
255 229 212
255 229 212
255 229 212
255 229 212
255 229 212
255 241 224
255 229 212
255 229 212
255 229 212
255 229 212
255 229 212
255 229 212
255 229 212
255 229 212
255 229 212
255 229 212
255 229 212
255 229 212
255 229 212
255 229 212
255 229 212
255 229 212
255 229 212
255 229 212
255 229 212
255 229 212
255 229 212
255 229 212
255 229 212
255 229 212
255 229 212
255 229 212
255 229 212
255 229 212
255 229 212
255 229 212
255 229 212
255 229 212
255 229 212
255 229 212
255 229 212
255 229 212
255 241 224
255 229 212
255 229 212
255 229 212
255 229 212
255 229 212
255 229 212
255 229 212
255 229 212
255 229 212
255 229 212
255 229 212
255 229 212
255 229 212
255 229 212
255 229 212
255 229 212
255 229 212
255 229 212
255 229 212
255 229 212
255 229 212
255 229 212
255 229 212
255 229 212
255 229 212
255 229 212
255 229 212
255 229 212
255 229 212
255 229 212
255 229 212
255 229 212
255 229 212
255 229 212
255 229 212
255 229 212
255 241 224
255 229 212
255 229 212
255 229 212
255 229 212
255 229 212
255 229 212
255 229 212
255 229 212
255 229 212
255 229 212
255 229 212
255 229 212
255 229 212
255 229 212
255 229 212
255 229 212
255 229 212
255 229 212
255 229 212
255 229 212
255 229 212
255 229 212
255 229 212
255 229 212
255 229 212
255 229 212
255 229 212
255 229 212
255 229 212
255 229 212
255 229 212
255 229 212
255 229 212
255 229 212
255 229 212
255 229 212
255 241 224
255 229 212
255 229 212
255 229 212
255 229 212
255 229 212
255 229 212
255 229 212
255 229 212
255 229 212
255 229 212
255 229 212
255 229 212
255 229 212
255 229 212
255 229 212
255 229 212
255 229 212
255 229 212
255 229 212
255 229 212
255 229 212
255 229 212
255 229 212
255 229 212
255 229 212
255 229 212
255 229 212
255 229 212
255 229 212
255 229 212
255 229 212
255 229 212
255 229 212
255 229 212
255 229 212
255 229 212
255 241 224
255 229 212
255 229 212
255 229 212
255 229 212
255 229 212
255 229 212
255 229 212
255 229 212
255 229 212
255 229 212
255 229 212
255 229 212
255 229 212
255 229 212
255 229 212
255 229 212
255 229 212
255 229 212
255 229 212
255 229 212
255 229 212
255 229 212
255 229 212
255 229 212
255 229 212
255 229 212
255 229 212
255 229 212
255 229 212
255 229 212
255 229 212
255 229 212
255 229 212
255 229 212
255 229 212
255 229 212
255 241 224
255 229 212
255 229 212
255 229 212
255 229 212
255 229 212
255 229 212
255 229 212
255 229 212
255 229 212
255 229 212
255 229 212
255 229 212
255 229 212
255 229 212
255 229 212
255 229 212
255 229 212
255 229 212
255 229 212
255 229 212
255 229 212
255 229 212
255 229 212
255 229 212
255 229 212
255 229 212
255 229 212
255 229 212
255 229 212
255 229 212
255 229 212
255 229 212
255 229 212
255 229 212
255 229 212
255 229 212
255 241 224
255 229 212
255 229 212
255 229 212
255 229 212
255 229 212
255 229 212
255 229 212
255 229 212
255 229 212
255 229 212
255 229 212
255 229 212
255 229 212
255 229 212
255 229 212
255 229 212
255 229 212
255 229 212
255 229 212
255 229 212
255 229 212
255 229 212
255 229 212
255 229 212
255 229 212
255 229 212
255 229 212
255 229 212
255 229 212
255 229 212
255 229 212
255 229 212
255 229 212
255 229 212
255 229 212
255 229 212
255 241 224
255 229 212
255 229 212
255 229 212
255 229 212
255 229 212
255 229 212
255 229 212
255 229 212
255 229 212
255 229 212
255 229 212
255 229 212
255 229 212
255 229 212
255 229 212
255 229 212
255 229 212
255 229 212
255 229 212
255 229 212
255 229 212
255 229 212
255 241 224
255 229 212
255 229 212
255 229 212
255 229 212
255 229 212
255 229 212
255 229 212
255 229 212
255 229 212
255 229 212
255 229 212
255 229 212
255 229 212
255 229 212
255 229 212
255 229 212
255 229 212
255 229 212
255 229 212
255 229 212
255 229 212
255 229 212
255 229 212
255 229 212
255 229 212
255 229 212
255 229 212
255 229 212
255 229 212
255 229 212
255 229 212
255 229 212
255 229 212
255 229 212
255 229 212
255 229 212
255 241 224
255 229 212
255 229 212
255 229 212
255 229 212
255 229 212
255 229 212
255 229 212
255 229 212
255 229 212
255 229 212
255 229 212
255 229 212
255 229 212
255 229 212
255 229 212
255 229 212
255 229 212
255 229 212
255 229 212
255 229 212
255 229 212
255 229 212
255 229 212
255 229 212
255 229 212
255 229 212
255 229 212
255 229 212
255 229 212
255 229 212
255 229 212
255 229 212
255 229 212
255 229 212
255 229 212
255 229 212
255 241 224
255 229 212
255 229 212
255 229 212
255 229 212
255 229 212
255 229 212
255 229 212
255 229 212
255 229 212
255 229 212
255 229 212
255 229 212
255 229 212
255 229 212
255 229 212
255 229 212
255 229 212
255 229 212
255 229 212
255 229 212
255 229 212
255 229 212
255 229 212
255 229 212
255 229 212
255 229 212
255 229 212
255 229 212
255 229 212
255 229 212
255 229 212
255 229 212
255 229 212
255 229 212
255 229 212
255 229 212
255 241 224
255 229 212
255 229 212
255 229 212
255 229 212
255 229 212
255 229 212
255 229 212
255 229 212
255 229 212
255 229 212
255 229 212
255 229 212
255 229 212
255 229 212
255 229 212
255 229 212
255 229 212
255 229 212
255 229 212
255 229 212
255 229 212
255 229 212
255 229 212
255 229 212
255 229 212
255 229 212
255 229 212
255 229 212
255 229 212
255 229 212
255 229 212
255 229 212
255 229 212
255 229 212
255 229 212
255 229 212
255 241 224
255 229 212
255 229 212
255 229 212
255 229 212
255 229 212
255 229 212
255 229 212
255 229 212
255 229 212
255 229 212
255 229 212
255 229 212
255 229 212
255 229 212
255 229 212
255 229 212
255 229 212
255 229 212
255 229 212
255 229 212
255 229 212
255 229 212
255 229 212
255 229 212
255 229 212
255 229 212
255 229 212
255 229 212
255 229 212
255 229 212
255 229 212
255 229 212
255 229 212
255 229 212
255 229 212
255 229 212
255 241 224
255 229 212
255 229 212
255 229 212
255 229 212
255 229 212
255 229 212
255 229 212
255 229 212
255 229 212
255 229 212
255 229 212
255 229 212
255 229 212
255 229 212
255 229 212
255 229 212
255 229 212
255 229 212
255 229 212
255 229 212
255 229 212
255 229 212
255 229 212
255 229 212
255 229 212
255 229 212
255 229 212
255 229 212
255 229 212
255 229 212
255 229 212
255 229 212
255 229 212
255 229 212
255 229 212
255 229 212
255 241 224
255 229 212
255 229 212
255 229 212
255 229 212
255 229 212
255 229 212
255 229 212
255 229 212
255 229 212
255 229 212
255 229 212
255 229 212
255 229 212
255 229 212
255 229 212
255 229 212
255 229 212
255 229 212
255 229 212
255 229 212
255 229 212
255 229 212
255 229 212
255 229 212
255 229 212
255 229 212
255 229 212
255 229 212
255 229 212
255 229 212
255 229 212
255 229 212
255 229 212
255 229 212
255 229 212
255 229 212
255 241 224
255 229 212
255 229 212
255 229 212
255 229 212
255 229 212
255 229 212
255 229 212
255 229 212
255 229 212
255 229 212
255 229 212
255 229 212
255 229 212
255 229 212
255 229 212
255 229 212
255 229 212
255 229 212
255 229 212
255 229 212
255 229 212
255 229 212
255 229 212
255 229 212
255 229 212
255 229 212
255 229 212
255 229 212
255 229 212
255 229 212
255 229 212
255 229 212
255 229 212
255 229 212
255 229 212
255 229 212
255 241 224
255 229 212
255 229 212
255 229 212
255 229 212
255 229 212
255 229 212
255 229 212
255 229 212
255 229 212
255 229 212
255 229 212
255 229 212
255 229 212
255 229 212
255 229 212
255 229 212
255 229 212
255 229 212
255 229 212
255 229 212
255 229 212
255 229 212
255 241 224
255 229 212
255 229 212
255 229 212
255 229 212
255 229 212
255 229 212
255 229 212
255 229 212
255 229 212
255 229 212
255 229 212
255 229 212
255 229 212
255 229 212
255 229 212
255 229 212
255 229 212
255 229 212
255 229 212
255 229 212
255 229 212
255 229 212
255 229 212
255 229 212
255 229 212
255 229 212
255 229 212
255 229 212
255 229 212
255 229 212
255 229 212
255 229 212
255 229 212
255 229 212
255 229 212
255 229 212
255 241 224
255 229 212
255 229 212
255 229 212
255 229 212
255 229 212
255 229 212
255 229 212
255 229 212
255 229 212
255 229 212
255 229 212
255 229 212
255 229 212
255 229 212
255 229 212
255 229 212
255 229 212
255 229 212
255 229 212
255 229 212
255 229 212
255 229 212
255 229 212
255 229 212
255 229 212
255 229 212
255 229 212
255 229 212
255 229 212
255 229 212
255 229 212
255 229 212
255 229 212
255 229 212
255 229 212
255 229 212
255 241 224
255 229 212
255 229 212
255 229 212
255 229 212
255 229 212
255 229 212
255 229 212
255 229 212
255 229 212
255 229 212
255 229 212
255 229 212
255 229 212
255 229 212
255 229 212
255 229 212
255 229 212
255 229 212
255 229 212
255 229 212
255 229 212
255 229 212
255 229 212
255 229 212
255 229 212
255 229 212
255 229 212
255 229 212
255 229 212
255 229 212
255 229 212
255 229 212
255 229 212
255 229 212
255 229 212
255 229 212
255 241 224
255 229 212
255 229 212
255 229 212
255 229 212
255 229 212
255 229 212
255 229 212
255 229 212
255 229 212
255 229 212
255 229 212
255 229 212
255 229 212
255 229 212
255 229 212
255 229 212
255 229 212
255 229 212
255 229 212
255 229 212
255 229 212
255 229 212
255 229 212
255 229 212
255 229 212
255 229 212
255 229 212
255 229 212
255 229 212
255 229 212
255 229 212
255 229 212
255 229 212
255 229 212
255 229 212
255 229 212
255 241 224
255 229 212
255 229 212
255 229 212
255 229 212
255 229 212
255 229 212
255 229 212
255 229 212
255 229 212
255 229 212
255 229 212
255 229 212
255 229 212
255 229 212
255 229 212
255 229 212
255 229 212
255 229 212
255 229 212
255 229 212
255 229 212
255 229 212
255 229 212
255 229 212
255 229 212
255 229 212
255 229 212
255 229 212
255 229 212
255 229 212
255 229 212
255 229 212
255 229 212
255 229 212
255 229 212
255 229 212
255 241 224
255 229 212
255 229 212
255 229 212
255 229 212
255 229 212
255 229 212
255 229 212
255 229 212
255 229 212
255 229 212
255 229 212
255 229 212
255 229 212
255 229 212
255 229 212
255 229 212
255 229 212
255 229 212
255 229 212
255 229 212
255 229 212
255 229 212
255 229 212
255 229 212
255 229 212
255 229 212
255 229 212
255 229 212
255 229 212
255 229 212
255 229 212
255 229 212
255 229 212
255 229 212
255 229 212
255 229 212
255 241 224
255 229 212
255 229 212
255 229 212
255 229 212
255 229 212
255 229 212
255 229 212
255 229 212
255 229 212
255 229 212
255 229 212
255 229 212
255 229 212
255 229 212
255 229 212
255 229 212
255 229 212
255 229 212
255 229 212
255 229 212
255 229 212
255 229 212
255 229 212
255 229 212
255 229 212
255 229 212
255 229 212
255 229 212
255 229 212
255 229 212
255 229 212
255 229 212
255 229 212
255 229 212
255 229 212
255 229 212
255 241 224
255 229 212
255 229 212
255 229 212
255 229 212
255 229 212
255 229 212
255 229 212
255 229 212
255 229 212
255 229 212
255 229 212
255 229 212
255 229 212
255 229 212
255 229 212
255 229 212
255 229 212
255 229 212
255 229 212
255 229 212
255 229 212
255 229 212
255 229 212
255 229 212
255 229 212
255 229 212
255 229 212
255 229 212
255 229 212
255 229 212
255 229 212
255 229 212
255 229 212
255 229 212
255 229 212
255 229 212
255 241 224
255 229 212
255 229 212
255 229 212
255 229 212
255 229 212
255 229 212
255 229 212
255 229 212
255 229 212
255 229 212
255 229 212
255 229 212
255 229 212
255 229 212
255 229 212
255 229 212
255 229 212
255 229 212
255 229 212
255 229 212
255 229 212
255 229 212
255 241 224
255 229 212
255 229 212
255 229 212
255 229 212
255 229 212
255 229 212
255 229 212
255 229 212
255 229 212
255 229 212
255 229 212
255 229 212
255 229 212
255 229 212
255 229 212
255 229 212
255 229 212
255 229 212
255 229 212
255 229 212
255 229 212
255 229 212
255 229 212
255 229 212
255 229 212
255 229 212
255 229 212
255 229 212
255 229 212
255 229 212
255 229 212
255 229 212
255 229 212
255 229 212
255 229 212
255 229 212
255 241 224
255 229 212
255 229 212
255 229 212
255 229 212
255 229 212
255 229 212
255 229 212
255 229 212
255 229 212
255 229 212
255 229 212
255 229 212
255 229 212
255 229 212
255 229 212
255 229 212
255 229 212
255 229 212
255 229 212
255 229 212
255 229 212
255 229 212
255 229 212
255 229 212
255 229 212
255 229 212
255 229 212
255 229 212
255 229 212
255 229 212
255 229 212
255 229 212
255 229 212
255 229 212
255 229 212
255 229 212
255 241 224
255 229 212
255 229 212
255 229 212
255 229 212
255 229 212
255 229 212
255 229 212
255 229 212
255 229 212
255 229 212
255 229 212
255 229 212
255 229 212
255 229 212
255 229 212
255 229 212
255 229 212
255 229 212
255 229 212
255 229 212
255 229 212
255 229 212
255 229 212
255 229 212
255 229 212
255 229 212
255 229 212
255 229 212
255 229 212
255 229 212
255 229 212
255 229 212
255 229 212
255 229 212
255 229 212
255 229 212
255 241 224
255 229 212
255 229 212
255 229 212
255 229 212
255 229 212
255 229 212
255 229 212
255 229 212
255 229 212
255 229 212
255 229 212
255 229 212
255 229 212
255 229 212
255 229 212
255 229 212
255 229 212
255 229 212
255 229 212
255 229 212
255 229 212
255 229 212
255 229 212
255 229 212
255 229 212
255 229 212
255 229 212
255 229 212
255 229 212
255 229 212
255 229 212
255 229 212
255 229 212
255 229 212
255 229 212
255 229 212
255 241 224
255 229 212
255 229 212
255 229 212
255 229 212
255 229 212
255 229 212
255 229 212
255 229 212
255 229 212
255 229 212
255 229 212
255 229 212
255 229 212
255 229 212
255 229 212
255 229 212
255 229 212
255 229 212
255 229 212
255 229 212
255 229 212
255 229 212
255 229 212
255 229 212
255 229 212
255 229 212
255 229 212
255 229 212
255 229 212
255 229 212
255 229 212
255 229 212
255 229 212
255 229 212
255 229 212
255 229 212
255 241 224
255 229 212
255 229 212
255 229 212
255 229 212
255 229 212
255 229 212
255 229 212
255 229 212
255 229 212
255 229 212
255 229 212
255 229 212
255 229 212
255 229 212
255 229 212
255 229 212
255 229 212
255 229 212
255 229 212
255 229 212
255 229 212
255 229 212
255 229 212
255 229 212
255 229 212
255 229 212
255 229 212
255 229 212
255 229 212
255 229 212
255 229 212
255 229 212
255 229 212
255 229 212
255 229 212
255 229 212
255 241 224
255 229 212
255 229 212
255 229 212
255 229 212
255 229 212
255 229 212
255 229 212
255 229 212
255 229 212
255 229 212
255 229 212
255 229 212
255 229 212
255 229 212
255 229 212
255 229 212
255 229 212
255 229 212
255 229 212
255 229 212
255 229 212
255 229 212
255 229 212
255 229 212
255 229 212
255 229 212
255 229 212
255 229 212
255 229 212
255 229 212
255 229 212
255 229 212
255 229 212
255 229 212
255 229 212
255 229 212
255 241 224
255 229 212
255 229 212
255 229 212
255 229 212
255 229 212
255 229 212
255 229 212
255 229 212
255 229 212
255 229 212
255 229 212
255 229 212
255 229 212
255 229 212
255 229 212
255 229 212
255 229 212
255 229 212
255 229 212
255 229 212
255 229 212
255 229 212
255 229 212
255 229 212
255 229 212
255 229 212
255 229 212
255 229 212
255 229 212
255 229 212
255 229 212
255 229 212
255 229 212
255 229 212
255 229 212
255 229 212
255 241 224
255 229 212
255 229 212
255 229 212
255 229 212
255 229 212
255 229 212
255 229 212
255 229 212
255 229 212
255 229 212
255 229 212
255 229 212
255 229 212
255 229 212
255 229 212
255 229 212
255 229 212
255 229 212
255 229 212
255 229 212
255 229 212
255 229 212
255 241 224
255 229 212
255 229 212
255 229 212
255 229 212
255 229 212
255 229 212
255 229 212
255 229 212
255 229 212
255 229 212
255 229 212
255 229 212
255 229 212
255 229 212
255 229 212
255 229 212
255 229 212
255 229 212
255 229 212
255 229 212
255 229 212
255 229 212
255 229 212
255 229 212
255 229 212
255 229 212
255 229 212
255 229 212
255 229 212
255 229 212
255 229 212
255 229 212
255 229 212
255 229 212
255 229 212
255 229 212
255 241 224
255 229 212
255 229 212
255 229 212
255 229 212
255 229 212
255 229 212
255 229 212
255 229 212
255 229 212
255 229 212
255 229 212
255 229 212
255 229 212
255 229 212
255 229 212
255 229 212
255 229 212
255 229 212
255 229 212
255 229 212
255 229 212
255 229 212
255 229 212
255 229 212
255 229 212
255 229 212
255 229 212
255 229 212
255 229 212
255 229 212
255 229 212
255 229 212
255 229 212
255 229 212
255 229 212
255 229 212
255 241 224
255 229 212
255 229 212
255 229 212
255 229 212
255 229 212
255 229 212
255 229 212
255 229 212
255 229 212
255 229 212
255 229 212
255 229 212
255 229 212
255 229 212
255 229 212
255 229 212
255 229 212
255 229 212
255 229 212
255 229 212
255 229 212
255 229 212
255 229 212
255 229 212
255 229 212
255 229 212
255 229 212
255 229 212
255 229 212
255 229 212
255 229 212
255 229 212
255 229 212
255 229 212
255 229 212
255 229 212
255 241 224
255 229 212
255 229 212
255 229 212
255 229 212
255 229 212
255 229 212
255 229 212
255 229 212
255 229 212
255 229 212
255 229 212
255 229 212
255 229 212
255 229 212
255 229 212
255 229 212
255 229 212
255 229 212
255 229 212
255 229 212
255 229 212
255 229 212
255 229 212
255 229 212
255 229 212
255 229 212
255 229 212
255 229 212
255 229 212
255 229 212
255 229 212
255 229 212
255 229 212
255 229 212
255 229 212
255 229 212
255 241 224
255 229 212
255 229 212
255 229 212
255 229 212
255 229 212
255 229 212
255 229 212
255 229 212
255 229 212
255 229 212
255 229 212
255 229 212
255 229 212
255 229 212
255 229 212
255 229 212
255 229 212
255 229 212
255 229 212
255 229 212
255 229 212
255 229 212
255 229 212
255 229 212
255 229 212
255 229 212
255 229 212
255 229 212
255 229 212
255 229 212
255 229 212
255 229 212
255 229 212
255 229 212
255 229 212
255 229 212
255 241 224
255 229 212
255 229 212
255 229 212
255 229 212
255 229 212
255 229 212
255 229 212
255 229 212
255 229 212
255 229 212
255 229 212
255 229 212
255 229 212
255 229 212
255 229 212
255 229 212
255 229 212
255 229 212
255 229 212
255 229 212
255 229 212
255 229 212
255 229 212
255 229 212
255 229 212
255 229 212
255 229 212
255 229 212
255 229 212
255 229 212
255 229 212
255 229 212
255 229 212
255 229 212
255 229 212
255 229 212
255 241 224
255 229 212
255 229 212
255 229 212
255 229 212
255 229 212
255 229 212
255 229 212
255 229 212
255 229 212
255 229 212
255 229 212
255 229 212
255 229 212
255 229 212
255 229 212
255 229 212
255 229 212
255 229 212
255 229 212
255 229 212
255 229 212
255 229 212
255 229 212
255 229 212
255 229 212
255 229 212
255 229 212
255 229 212
255 229 212
255 229 212
255 229 212
255 229 212
255 229 212
255 229 212
255 229 212
255 229 212
255 241 224
255 229 212
255 229 212
255 229 212
255 229 212
255 229 212
255 229 212
255 229 212
255 229 212
255 229 212
255 229 212
255 229 212
255 229 212
255 229 212
255 229 212
255 229 212
255 229 212
255 229 212
255 229 212
255 229 212
255 229 212
255 229 212
255 229 212
255 229 212
255 229 212
255 229 212
255 229 212
255 229 212
255 229 212
255 229 212
255 229 212
255 229 212
255 229 212
255 229 212
255 229 212
255 229 212
255 229 212
255 241 224
255 229 212
255 229 212
255 229 212
255 229 212
255 229 212
255 229 212
255 229 212
255 229 212
255 229 212
255 229 212
255 229 212
255 229 212
255 229 212
255 229 212
255 229 212
255 229 212
255 229 212
255 229 212
255 229 212
255 229 212
255 229 212
255 229 212
255 241 224
255 229 212
255 229 212
255 229 212
255 229 212
255 229 212
255 229 212
255 229 212
255 229 212
255 229 212
255 229 212
255 229 212
255 229 212
255 229 212
255 229 212
255 229 212
255 229 212
255 229 212
255 229 212
255 229 212
255 229 212
255 229 212
255 229 212
255 229 212
255 229 212
255 229 212
255 229 212
255 229 212
255 229 212
255 229 212
255 229 212
255 229 212
255 229 212
255 229 212
255 229 212
255 229 212
255 229 212
255 241 224
255 229 212
255 229 212
255 229 212
255 229 212
255 229 212
255 229 212
255 229 212
255 229 212
255 229 212
255 229 212
255 229 212
255 229 212
255 229 212
255 229 212
255 229 212
255 229 212
255 229 212
255 229 212
255 229 212
255 229 212
255 229 212
255 229 212
255 229 212
255 229 212
255 229 212
255 229 212
255 229 212
255 229 212
255 229 212
255 229 212
255 229 212
255 229 212
255 229 212
255 229 212
255 229 212
255 229 212
255 241 224
255 229 212
255 229 212
255 229 212
255 229 212
255 229 212
255 229 212
255 229 212
255 229 212
255 229 212
255 229 212
255 229 212
255 229 212
255 229 212
255 229 212
255 229 212
255 229 212
255 229 212
255 229 212
255 229 212
255 229 212
255 229 212
255 229 212
255 229 212
255 229 212
255 229 212
255 229 212
255 229 212
255 229 212
255 229 212
255 229 212
255 229 212
255 229 212
255 229 212
255 229 212
255 229 212
255 229 212
255 241 224
255 229 212
255 229 212
255 229 212
255 229 212
255 229 212
255 229 212
255 229 212
255 229 212
255 229 212
255 229 212
255 229 212
255 229 212
255 229 212
255 229 212
255 229 212
255 229 212
255 229 212
255 229 212
255 229 212
255 229 212
255 229 212
255 229 212
255 229 212
255 229 212
255 229 212
255 229 212
255 229 212
255 229 212
255 229 212
255 229 212
255 229 212
255 229 212
255 229 212
255 229 212
255 229 212
255 229 212
255 241 224
255 229 212
255 229 212
255 229 212
255 229 212
255 229 212
255 229 212
255 229 212
255 229 212
255 229 212
255 229 212
255 229 212
255 229 212
255 229 212
255 229 212
255 229 212
255 229 212
255 229 212
255 229 212
255 229 212
255 229 212
255 229 212
255 229 212
255 229 212
255 229 212
255 229 212
255 229 212
255 229 212
255 229 212
255 229 212
255 229 212
255 229 212
255 229 212
255 229 212
255 229 212
255 229 212
255 229 212
255 241 224
255 229 212
255 229 212
255 229 212
255 229 212
255 229 212
255 229 212
255 229 212
255 229 212
255 229 212
255 229 212
255 229 212
255 229 212
255 229 212
255 229 212
255 229 212
255 229 212
255 229 212
255 229 212
255 229 212
255 229 212
255 229 212
255 229 212
255 229 212
255 229 212
255 229 212
255 229 212
255 229 212
255 229 212
255 229 212
255 229 212
255 229 212
255 229 212
255 229 212
255 229 212
255 229 212
255 229 212
255 241 224
255 229 212
255 229 212
255 229 212
255 229 212
255 229 212
255 229 212
255 229 212
255 229 212
255 229 212
255 229 212
255 229 212
255 229 212
255 229 212
255 229 212
255 229 212
255 229 212
255 229 212
255 229 212
255 229 212
255 229 212
255 229 212
255 229 212
255 229 212
255 229 212
255 229 212
255 229 212
255 229 212
255 229 212
255 229 212
255 229 212
255 229 212
255 229 212
255 229 212
255 229 212
255 229 212
255 229 212
255 241 224
255 229 212
255 229 212
255 229 212
255 229 212
255 229 212
255 229 212
255 229 212
255 229 212
255 229 212
255 229 212
255 229 212
255 229 212
255 229 212
255 229 212
255 229 212
255 229 212
255 229 212
255 229 212
255 229 212
255 229 212
255 229 212
255 229 212
255 229 212
255 229 212
255 229 212
255 229 212
255 229 212
255 229 212
255 229 212
255 229 212
255 229 212
255 229 212
255 229 212
255 229 212
255 229 212
255 229 212
255 241 224
255 229 212
255 229 212
255 229 212
255 229 212
255 229 212
255 229 212
255 229 212
255 229 212
255 229 212
255 229 212
255 229 212
255 229 212
255 229 212
255 229 212
255 229 212
255 229 212
255 229 212
255 229 212
255 229 212
255 229 212
255 229 212
255 229 212
255 241 224
255 229 212
255 229 212
255 229 212
255 229 212
255 229 212
255 229 212
255 229 212
255 229 212
255 229 212
255 229 212
255 229 212
255 229 212
255 229 212
255 229 212
255 229 212
255 229 212
255 229 212
255 229 212
255 229 212
255 229 212
255 229 212
255 229 212
255 229 212
255 229 212
255 229 212
255 229 212
255 229 212
255 229 212
255 229 212
255 229 212
255 229 212
255 229 212
255 229 212
255 229 212
255 229 212
255 229 212
255 241 224
255 229 212
255 229 212
255 229 212
255 229 212
255 229 212
255 229 212
255 229 212
255 229 212
255 229 212
255 229 212
255 229 212
255 229 212
255 229 212
255 229 212
255 229 212
255 229 212
255 229 212
255 229 212
255 229 212
255 229 212
255 229 212
255 229 212
255 229 212
255 229 212
255 229 212
255 229 212
255 229 212
255 229 212
255 229 212
255 229 212
255 229 212
255 229 212
255 229 212
255 229 212
255 229 212
255 229 212
255 241 224
255 229 212
255 229 212
255 229 212
255 229 212
255 229 212
255 229 212
255 229 212
255 229 212
255 229 212
255 229 212
255 229 212
255 229 212
255 229 212
255 229 212
255 229 212
255 229 212
255 229 212
255 229 212
255 229 212
255 229 212
255 229 212
255 229 212
255 229 212
255 229 212
255 229 212
255 229 212
255 229 212
255 229 212
255 229 212
255 229 212
255 229 212
255 229 212
255 229 212
255 229 212
255 229 212
255 229 212
255 241 224
255 229 212
255 229 212
255 229 212
255 229 212
255 229 212
255 229 212
255 229 212
255 229 212
255 229 212
255 229 212
255 229 212
255 229 212
255 229 212
255 229 212
255 229 212
255 229 212
255 229 212
255 229 212
255 229 212
255 229 212
255 229 212
255 229 212
255 229 212
255 229 212
255 229 212
255 229 212
255 229 212
255 229 212
255 229 212
255 229 212
255 229 212
255 229 212
255 229 212
255 229 212
255 229 212
255 229 212
255 241 224
255 229 212
255 229 212
255 229 212
255 229 212
255 229 212
255 229 212
255 229 212
255 229 212
255 229 212
255 229 212
255 229 212
255 229 212
255 229 212
255 229 212
255 229 212
255 229 212
255 229 212
255 229 212
255 229 212
255 229 212
255 229 212
255 229 212
255 229 212
255 229 212
255 229 212
255 229 212
255 229 212
255 229 212
255 229 212
255 229 212
255 229 212
255 229 212
255 229 212
255 229 212
255 229 212
255 229 212
255 241 224
255 229 212
255 229 212
255 229 212
255 229 212
255 229 212
255 229 212
255 229 212
255 229 212
255 229 212
255 229 212
255 229 212
255 229 212
255 229 212
255 229 212
255 229 212
255 229 212
255 229 212
255 229 212
255 229 212
255 229 212
255 229 212
255 229 212
255 229 212
255 229 212
255 229 212
255 229 212
255 229 212
255 229 212
255 229 212
255 229 212
255 229 212
255 229 212
255 229 212
255 229 212
255 229 212
255 229 212
255 241 224
255 229 212
255 229 212
255 229 212
255 229 212
255 229 212
255 229 212
255 229 212
255 229 212
255 229 212
255 229 212
255 229 212
255 229 212
255 229 212
255 229 212
255 229 212
255 229 212
255 229 212
255 229 212
255 229 212
255 229 212
255 229 212
255 229 212
255 229 212
255 229 212
255 229 212
255 229 212
255 229 212
255 229 212
255 229 212
255 229 212
255 229 212
255 229 212
255 229 212
255 229 212
255 229 212
255 229 212
255 241 224
255 229 212
255 229 212
255 229 212
255 229 212
255 229 212
255 229 212
255 229 212
255 229 212
255 229 212
255 229 212
255 229 212
255 229 212
255 229 212
255 229 212
255 229 212
255 229 212
255 229 212
255 229 212
255 229 212
255 229 212
255 229 212
255 229 212
255 229 212
255 229 212
255 229 212
255 229 212
255 229 212
255 229 212
255 229 212
255 229 212
255 229 212
255 229 212
255 229 212
255 229 212
255 229 212
255 229 212
255 241 224
255 229 212
255 229 212
255 229 212
255 229 212
255 229 212
255 229 212
255 229 212
255 229 212
255 229 212
255 229 212
255 229 212
255 229 212
255 229 212
255 229 212
255 229 212
255 229 212
255 229 212
255 229 212
255 229 212
255 229 212
255 229 212
255 229 212
255 241 224
255 229 212
255 229 212
255 229 212
255 229 212
255 229 212
255 229 212
255 229 212
255 229 212
255 229 212
255 229 212
255 229 212
255 229 212
255 229 212
255 229 212
255 229 212
255 229 212
255 229 212
255 229 212
255 229 212
255 229 212
255 229 212
255 229 212
255 229 212
255 229 212
255 229 212
255 229 212
255 229 212
255 229 212
255 229 212
255 229 212
255 229 212
255 229 212
255 229 212
255 229 212
255 229 212
255 229 212
255 241 224
255 229 212
255 229 212
255 229 212
255 229 212
255 229 212
255 229 212
255 229 212
255 229 212
255 229 212
255 229 212
255 229 212
255 229 212
255 229 212
255 229 212
255 229 212
255 229 212
255 229 212
255 229 212
255 229 212
255 229 212
255 229 212
255 229 212
255 229 212
255 229 212
255 229 212
255 229 212
255 229 212
255 229 212
255 229 212
255 229 212
255 229 212
255 229 212
255 229 212
255 229 212
255 229 212
255 229 212
255 241 224
255 229 212
255 229 212
255 229 212
255 229 212
255 229 212
255 229 212
255 229 212
255 229 212
255 229 212
255 229 212
255 229 212
255 229 212
255 229 212
255 229 212
255 229 212
255 229 212
255 229 212
255 229 212
255 229 212
255 229 212
255 229 212
255 229 212
255 229 212
255 229 212
255 229 212
255 229 212
255 229 212
255 229 212
255 229 212
255 229 212
255 229 212
255 229 212
255 229 212
255 229 212
255 229 212
255 229 212
255 241 224
255 229 212
255 229 212
255 229 212
255 229 212
255 229 212
255 229 212
255 229 212
255 229 212
255 229 212
255 229 212
255 229 212
255 229 212
255 229 212
255 229 212
255 229 212
255 229 212
255 229 212
255 229 212
255 229 212
255 229 212
255 229 212
255 229 212
255 229 212
255 229 212
255 229 212
255 229 212
255 229 212
255 229 212
255 229 212
255 229 212
255 229 212
255 229 212
255 229 212
255 229 212
255 229 212
255 229 212
255 241 224
255 229 212
255 229 212
255 229 212
255 229 212
255 229 212
255 229 212
255 229 212
255 229 212
255 229 212
255 229 212
255 229 212
255 229 212
255 229 212
255 229 212
255 229 212
255 229 212
255 229 212
255 229 212
255 229 212
255 229 212
255 229 212
255 229 212
255 229 212
255 229 212
255 229 212
255 229 212
255 229 212
255 229 212
255 229 212
255 229 212
255 229 212
255 229 212
255 229 212
255 229 212
255 229 212
255 229 212
255 241 224
255 229 212
255 229 212
255 229 212
255 229 212
255 229 212
255 229 212
255 229 212
255 229 212
255 229 212
255 229 212
255 229 212
255 229 212
255 229 212
255 229 212
255 229 212
255 229 212
255 229 212
255 229 212
255 229 212
255 229 212
255 229 212
255 229 212
255 229 212
255 229 212
255 229 212
255 229 212
255 229 212
255 229 212
255 229 212
255 229 212
255 229 212
255 229 212
255 229 212
255 229 212
255 229 212
255 229 212
255 241 224
255 229 212
255 229 212
255 229 212
255 229 212
255 229 212
255 229 212
255 229 212
255 229 212
255 229 212
255 229 212
255 229 212
255 229 212
255 229 212
255 229 212
255 229 212
255 229 212
255 229 212
255 229 212
255 229 212
255 229 212
255 229 212
255 229 212
255 229 212
255 229 212
255 229 212
255 229 212
255 229 212
255 229 212
255 229 212
255 229 212
255 229 212
255 229 212
255 229 212
255 229 212
255 229 212
255 229 212
255 241 224
255 229 212
255 229 212
255 229 212
255 229 212
255 229 212
255 229 212
255 229 212
255 229 212
255 229 212
255 229 212
255 229 212
255 229 212
255 229 212
255 229 212
255 229 212
255 229 212
255 229 212
255 229 212
255 229 212
255 229 212
255 229 212
255 229 212
255 229 212
255 229 212
255 229 212
255 229 212
255 229 212
255 229 212
255 229 212
255 229 212
255 229 212
255 229 212
255 229 212
255 229 212
255 229 212
255 229 212
255 241 224
255 229 212
255 229 212
255 229 212
255 229 212
255 229 212
255 229 212
255 229 212
255 229 212
255 229 212
255 229 212
255 229 212
255 229 212
255 229 212
255 229 212
255 229 212
255 229 212
255 229 212
255 229 212
255 229 212
255 229 212
255 229 212
255 229 212
255 241 224
255 229 212
255 229 212
255 229 212
255 229 212
255 229 212
255 229 212
255 229 212
255 229 212
255 229 212
255 229 212
255 229 212
255 229 212
255 229 212
255 229 212
255 229 212
255 229 212
255 229 212
255 229 212
255 229 212
255 229 212
255 229 212
255 229 212
255 229 212
255 229 212
255 229 212
255 229 212
255 229 212
255 229 212
255 229 212
255 229 212
255 229 212
255 229 212
255 229 212
255 229 212
255 229 212
255 229 212
255 241 224
255 229 212
255 229 212
255 229 212
255 229 212
255 229 212
255 229 212
255 229 212
255 229 212
255 229 212
255 229 212
255 229 212
255 229 212
255 229 212
255 229 212
255 229 212
255 229 212
255 229 212
255 229 212
255 229 212
255 229 212
255 229 212
255 229 212
255 229 212
255 229 212
255 229 212
255 229 212
255 229 212
255 229 212
255 229 212
255 229 212
255 229 212
255 229 212
255 229 212
255 229 212
255 229 212
255 229 212
255 241 224
255 229 212
255 229 212
255 229 212
255 229 212
255 229 212
255 229 212
255 229 212
255 229 212
255 229 212
255 229 212
255 229 212
255 229 212
255 229 212
255 229 212
255 229 212
255 229 212
255 229 212
255 229 212
255 229 212
255 229 212
255 229 212
255 229 212
255 229 212
255 229 212
255 229 212
255 229 212
255 229 212
255 229 212
255 229 212
255 229 212
255 229 212
255 229 212
255 229 212
255 229 212
255 229 212
255 229 212
255 241 224
255 229 212
255 229 212
255 229 212
255 229 212
255 229 212
255 229 212
255 229 212
255 229 212
255 229 212
255 229 212
255 229 212
255 229 212
255 229 212
255 229 212
255 229 212
255 229 212
255 229 212
255 229 212
255 229 212
255 229 212
255 229 212
255 229 212
255 229 212
255 229 212
255 229 212
255 229 212
255 229 212
255 229 212
255 229 212
255 229 212
255 229 212
255 229 212
255 229 212
255 229 212
255 229 212
255 229 212
255 241 224
255 229 212
255 229 212
255 229 212
255 229 212
255 229 212
255 229 212
255 229 212
255 229 212
255 229 212
255 229 212
255 229 212
255 229 212
255 229 212
255 229 212
255 229 212
255 229 212
255 229 212
255 229 212
255 229 212
255 229 212
255 229 212
255 229 212
255 229 212
255 229 212
255 229 212
255 229 212
255 229 212
255 229 212
255 229 212
255 229 212
255 229 212
255 229 212
255 229 212
255 229 212
255 229 212
255 229 212
255 241 224
255 229 212
255 229 212
255 229 212
255 229 212
255 229 212
255 229 212
255 229 212
255 229 212
255 229 212
255 229 212
255 229 212
255 229 212
255 229 212
255 229 212
255 229 212
255 229 212
255 229 212
255 229 212
255 229 212
255 229 212
255 229 212
255 229 212
255 229 212
255 229 212
255 229 212
255 229 212
255 229 212
255 229 212
255 229 212
255 229 212
255 229 212
255 229 212
255 229 212
255 229 212
255 229 212
255 229 212
255 241 224
255 229 212
255 229 212
255 229 212
255 229 212
255 229 212
255 229 212
255 229 212
255 229 212
255 229 212
255 229 212
255 229 212
255 229 212
255 229 212
255 229 212
255 229 212
255 229 212
255 229 212
255 229 212
255 229 212
255 229 212
255 229 212
255 229 212
255 229 212
255 229 212
255 229 212
255 229 212
255 229 212
255 229 212
255 229 212
255 229 212
255 229 212
255 229 212
255 229 212
255 229 212
255 229 212
255 229 212
255 241 224
255 229 212
255 229 212
255 229 212
255 229 212
255 229 212
255 229 212
255 229 212
255 229 212
255 229 212
255 229 212
255 229 212
255 229 212
255 229 212
255 229 212
255 229 212
255 229 212
255 229 212
255 229 212
255 229 212
255 229 212
255 229 212
255 229 212
255 229 212
255 229 212
255 229 212
255 229 212
255 229 212
255 229 212
255 229 212
255 229 212
255 229 212
255 229 212
255 229 212
255 229 212
255 229 212
255 229 212
255 241 224
255 229 212
255 229 212
255 229 212
255 229 212
255 229 212
255 229 212
255 229 212
255 229 212
255 229 212
255 229 212
255 229 212
255 229 212
255 229 212
255 229 212
255 229 212
255 229 212
255 229 212
255 229 212
255 229 212
255 229 212
255 229 212
255 229 212
255 241 224
255 229 212
255 229 212
255 229 212
255 229 212
255 229 212
255 229 212
255 229 212
255 229 212
255 229 212
255 229 212
255 229 212
255 229 212
255 229 212
255 229 212
255 229 212
255 229 212
255 229 212
255 229 212
255 229 212
255 229 212
255 229 212
255 229 212
255 229 212
255 229 212
255 229 212
255 229 212
255 229 212
255 229 212
255 229 212
255 229 212
255 229 212
255 229 212
255 229 212
255 229 212
255 229 212
255 229 212
255 241 224
255 229 212
255 229 212
255 229 212
255 229 212
255 229 212
255 229 212
255 229 212
255 229 212
255 229 212
255 229 212
255 229 212
255 229 212
255 229 212
255 229 212
255 229 212
255 229 212
255 229 212
255 229 212
255 229 212
255 229 212
255 229 212
255 229 212
255 229 212
255 229 212
255 229 212
255 229 212
255 229 212
255 229 212
255 229 212
255 229 212
255 229 212
255 229 212
255 229 212
255 229 212
255 229 212
255 229 212
255 241 224
255 229 212
255 229 212
255 229 212
255 229 212
255 229 212
255 229 212
255 229 212
255 229 212
255 229 212
255 229 212
255 229 212
255 229 212
255 229 212
255 229 212
255 229 212
255 229 212
255 229 212
255 229 212
255 229 212
255 229 212
255 229 212
255 229 212
255 229 212
255 229 212
255 229 212
255 229 212
255 229 212
255 229 212
255 229 212
255 229 212
255 229 212
255 229 212
255 229 212
255 229 212
255 229 212
255 229 212
255 241 224
255 229 212
255 229 212
255 229 212
255 229 212
255 229 212
255 229 212
255 229 212
255 229 212
255 229 212
255 229 212
255 229 212
255 229 212
255 229 212
255 229 212
255 229 212
255 229 212
255 229 212
255 229 212
255 229 212
255 229 212
255 229 212
255 229 212
255 229 212
255 229 212
255 229 212
255 229 212
255 229 212
255 229 212
255 229 212
255 229 212
255 229 212
255 229 212
255 229 212
255 229 212
255 229 212
255 229 212
255 241 224
255 229 212
255 229 212
255 229 212
255 229 212
255 229 212
255 229 212
255 229 212
255 229 212
255 229 212
255 229 212
255 229 212
255 229 212
255 229 212
255 229 212
255 229 212
255 229 212
255 229 212
255 229 212
255 229 212
255 229 212
255 229 212
255 229 212
255 229 212
255 229 212
255 229 212
255 229 212
255 229 212
255 229 212
255 229 212
255 229 212
255 229 212
255 229 212
255 229 212
255 229 212
255 229 212
255 229 212
255 241 224
255 229 212
255 229 212
255 229 212
255 229 212
255 229 212
255 229 212
255 229 212
255 229 212
255 229 212
255 229 212
255 229 212
255 229 212
255 229 212
255 229 212
255 229 212
255 229 212
255 229 212
255 229 212
255 229 212
255 229 212
255 229 212
255 229 212
255 229 212
255 229 212
255 229 212
255 229 212
255 229 212
255 229 212
255 229 212
255 229 212
255 229 212
255 229 212
255 229 212
255 229 212
255 229 212
255 229 212
255 241 224
255 229 212
255 229 212
255 229 212
255 229 212
255 229 212
255 229 212
255 229 212
255 229 212
255 229 212
255 229 212
255 229 212
255 229 212
255 229 212
255 229 212
255 229 212
255 229 212
255 229 212
255 229 212
255 229 212
255 229 212
255 229 212
255 229 212
255 229 212
255 229 212
255 229 212
255 229 212
255 229 212
255 229 212
255 229 212
255 229 212
255 229 212
255 229 212
255 229 212
255 229 212
255 229 212
255 229 212
255 241 224
255 229 212
255 229 212
255 229 212
255 229 212
255 229 212
255 229 212
255 229 212
255 229 212
255 229 212
255 229 212
255 229 212
255 229 212
255 229 212
255 229 212
255 229 212
255 229 212
255 229 212
255 229 212
255 229 212
255 229 212
255 229 212
255 229 212
255 229 212
255 229 212
255 229 212
255 229 212
255 229 212
255 229 212
255 229 212
255 229 212
255 229 212
255 229 212
255 229 212
255 229 212
255 229 212
255 229 212
255 241 224
255 229 212
255 229 212
255 229 212
255 229 212
255 229 212
255 229 212
255 229 212
255 229 212
255 229 212
255 229 212
255 229 212
255 229 212
255 229 212
255 229 212
255 229 212
255 229 212
255 229 212
255 229 212
255 229 212
255 229 212
255 229 212
255 229 212
255 241 224
255 229 212
255 229 212
255 229 212
255 229 212
255 229 212
255 229 212
255 229 212
255 229 212
255 229 212
255 229 212
255 229 212
255 229 212
255 229 212
255 229 212
255 229 212
255 229 212
255 229 212
255 229 212
255 229 212
255 229 212
255 229 212
255 229 212
255 229 212
255 229 212
255 229 212
255 229 212
255 229 212
255 229 212
255 229 212
255 229 212
255 229 212
255 229 212
255 229 212
255 229 212
255 229 212
255 229 212
255 241 224
255 229 212
255 229 212
255 229 212
255 229 212
255 229 212
255 229 212
255 229 212
255 229 212
255 229 212
255 229 212
255 229 212
255 229 212
255 229 212
255 229 212
255 229 212
255 229 212
255 229 212
255 229 212
255 229 212
255 229 212
255 229 212
255 229 212
255 229 212
255 229 212
255 229 212
255 229 212
255 229 212
255 229 212
255 229 212
255 229 212
255 229 212
255 229 212
255 229 212
255 229 212
255 229 212
255 229 212
255 241 224
255 229 212
255 229 212
255 229 212
255 229 212
255 229 212
255 229 212
255 229 212
255 229 212
255 229 212
255 229 212
255 229 212
255 229 212
255 229 212
255 229 212
255 229 212
255 229 212
255 229 212
255 229 212
255 229 212
255 229 212
255 229 212
255 229 212
255 229 212
255 229 212
255 229 212
255 229 212
255 229 212
255 229 212
255 229 212
255 229 212
255 229 212
255 229 212
255 229 212
255 229 212
255 229 212
255 229 212
255 241 224
255 229 212
255 229 212
255 229 212
255 229 212
255 229 212
255 229 212
255 229 212
255 229 212
255 229 212
255 229 212
255 229 212
255 229 212
255 229 212
255 229 212
255 229 212
255 229 212
255 229 212
255 229 212
255 229 212
255 229 212
255 229 212
255 229 212
255 229 212
255 229 212
255 229 212
255 229 212
255 229 212
255 229 212
255 229 212
255 229 212
255 229 212
255 229 212
255 229 212
255 229 212
255 229 212
255 229 212
255 241 224
255 229 212
255 229 212
255 229 212
255 229 212
255 229 212
255 229 212
255 229 212
255 229 212
255 229 212
255 229 212
255 229 212
255 229 212
255 229 212
255 229 212
255 229 212
255 229 212
255 229 212
255 229 212
255 229 212
255 229 212
255 229 212
255 229 212
255 229 212
255 229 212
255 229 212
255 229 212
255 229 212
255 229 212
255 229 212
255 229 212
255 229 212
255 229 212
255 229 212
255 229 212
255 229 212
255 229 212
255 241 224
255 229 212
255 229 212
255 229 212
255 229 212
255 229 212
255 229 212
255 229 212
255 229 212
255 229 212
255 229 212
255 229 212
255 229 212
255 229 212
255 229 212
255 229 212
255 229 212
255 229 212
255 229 212
255 229 212
255 229 212
255 229 212
255 229 212
255 229 212
255 229 212
255 229 212
255 229 212
255 229 212
255 229 212
255 229 212
255 229 212
255 229 212
255 229 212
255 229 212
255 229 212
255 229 212
255 229 212
255 241 224
255 229 212
255 229 212
255 229 212
255 229 212
255 229 212
255 229 212
255 229 212
255 229 212
255 229 212
255 229 212
255 229 212
255 229 212
255 229 212
255 229 212
255 229 212
255 229 212
255 229 212
255 229 212
255 229 212
255 229 212
255 229 212
255 229 212
255 229 212
255 229 212
255 229 212
255 229 212
255 229 212
255 229 212
255 229 212
255 229 212
255 229 212
255 229 212
255 229 212
255 229 212
255 229 212
255 229 212
255 241 224
255 229 212
255 229 212
255 229 212
255 229 212
255 229 212
255 229 212
255 229 212
255 229 212
255 229 212
255 229 212
255 229 212
255 229 212
255 229 212
255 229 212
255 229 212
255 229 212
255 229 212
255 229 212
255 229 212
255 229 212
255 229 212
255 229 212
255 229 212
255 229 212
255 229 212
255 229 212
255 229 212
255 229 212
255 229 212
255 229 212
255 229 212
255 229 212
255 229 212
255 229 212
255 229 212
255 229 212
255 241 224
255 229 212
255 229 212
255 229 212
255 229 212
255 229 212
255 229 212
255 229 212
255 229 212
255 229 212
255 229 212
255 229 212
255 229 212
255 229 212
255 229 212
255 229 212
255 229 212
255 229 212
255 229 212
255 229 212
255 229 212
255 229 212
255 229 212
255 241 224
255 229 212
255 229 212
255 229 212
255 229 212
255 229 212
255 229 212
255 229 212
255 229 212
255 229 212
255 229 212
255 229 212
255 229 212
255 229 212
255 229 212
255 229 212
255 229 212
255 229 212
255 229 212
255 229 212
255 229 212
255 229 212
255 229 212
255 229 212
255 229 212
255 229 212
255 229 212
255 229 212
255 229 212
255 229 212
255 229 212
255 229 212
255 229 212
255 229 212
255 229 212
255 229 212
255 229 212
255 241 224
255 229 212
255 229 212
255 229 212
255 229 212
255 229 212
255 229 212
255 229 212
255 229 212
255 229 212
255 229 212
255 229 212
255 229 212
255 229 212
255 229 212
255 229 212
255 229 212
255 229 212
255 229 212
255 229 212
255 229 212
255 229 212
255 229 212
255 229 212
255 229 212
255 229 212
255 229 212
255 229 212
255 229 212
255 229 212
255 229 212
255 229 212
255 229 212
255 229 212
255 229 212
255 229 212
255 229 212
255 241 224
255 229 212
255 229 212
255 229 212
255 229 212
255 229 212
255 229 212
255 229 212
255 229 212
255 229 212
255 229 212
255 229 212
255 229 212
255 229 212
255 229 212
255 229 212
255 229 212
255 229 212
255 229 212
255 229 212
255 229 212
255 229 212
255 229 212
255 229 212
255 229 212
255 229 212
255 229 212
255 229 212
255 229 212
255 229 212
255 229 212
255 229 212
255 229 212
255 229 212
255 229 212
255 229 212
255 229 212
255 241 224
255 229 212
255 229 212
255 229 212
255 229 212
255 229 212
255 229 212
255 229 212
255 229 212
255 229 212
255 229 212
255 229 212
255 229 212
255 229 212
255 229 212
255 229 212
255 229 212
255 229 212
255 229 212
255 229 212
255 229 212
255 229 212
255 229 212
255 229 212
255 229 212
255 229 212
255 229 212
255 229 212
255 229 212
255 229 212
255 229 212
255 229 212
255 229 212
255 229 212
255 229 212
255 229 212
255 229 212
255 241 224
255 229 212
255 229 212
255 229 212
255 229 212
255 229 212
255 229 212
255 229 212
255 229 212
255 229 212
255 229 212
255 229 212
255 229 212
255 229 212
255 229 212
255 229 212
255 229 212
255 229 212
255 229 212
255 229 212
255 229 212
255 229 212
255 229 212
255 229 212
255 229 212
255 229 212
255 229 212
255 229 212
255 229 212
255 229 212
255 229 212
255 229 212
255 229 212
255 229 212
255 229 212
255 229 212
255 229 212
255 241 224
255 229 212
255 229 212
255 229 212
255 229 212
255 229 212
255 229 212
255 229 212
255 229 212
255 229 212
255 229 212
255 229 212
255 229 212
255 229 212
255 229 212
255 229 212
255 229 212
255 229 212
255 229 212
255 229 212
255 229 212
255 229 212
255 229 212
255 229 212
255 229 212
255 229 212
255 229 212
255 229 212
255 229 212
255 229 212
255 229 212
255 229 212
255 229 212
255 229 212
255 229 212
255 229 212
255 229 212
255 241 224
255 229 212
255 229 212
255 229 212
255 229 212
255 229 212
255 229 212
255 229 212
255 229 212
255 229 212
255 229 212
255 229 212
255 229 212
255 229 212
255 229 212
255 229 212
255 229 212
255 229 212
255 229 212
255 229 212
255 229 212
255 229 212
255 229 212
255 229 212
255 229 212
255 229 212
255 229 212
255 229 212
255 229 212
255 229 212
255 229 212
255 229 212
255 229 212
255 229 212
255 229 212
255 229 212
255 229 212
255 241 224
255 229 212
255 229 212
255 229 212
255 229 212
255 229 212
255 229 212
255 229 212
255 229 212
255 229 212
255 229 212
255 229 212
255 229 212
255 229 212
255 229 212
255 229 212
255 229 212
255 229 212
255 229 212
255 229 212
255 229 212
255 229 212
255 229 212
255 229 212
255 229 212
255 229 212
255 229 212
255 229 212
255 229 212
255 229 212
255 229 212
255 229 212
255 229 212
255 229 212
255 229 212
255 229 212
255 229 212
255 241 224
255 229 212
255 229 212
255 229 212
255 229 212
255 229 212
255 229 212
255 229 212
255 229 212
255 229 212
255 229 212
255 229 212
255 229 212
255 229 212
255 229 212
255 229 212
255 229 212
255 229 212
255 229 212
255 229 212
255 229 212
255 229 212
255 229 212
255 241 224
255 229 212
255 229 212
255 229 212
255 229 212
255 229 212
255 229 212
255 229 212
255 229 212
255 229 212
255 229 212
255 229 212
255 229 212
255 229 212
255 229 212
255 229 212
255 229 212
255 229 212
255 229 212
255 229 212
255 229 212
255 229 212
255 229 212
255 229 212
255 229 212
255 229 212
255 229 212
255 229 212
255 229 212
255 229 212
255 229 212
255 229 212
255 229 212
255 229 212
255 229 212
255 229 212
255 229 212
255 241 224
255 229 212
255 229 212
255 229 212
255 229 212
255 229 212
255 229 212
255 229 212
255 229 212
255 229 212
255 229 212
255 229 212
255 229 212
255 229 212
255 229 212
255 229 212
255 229 212
255 229 212
255 229 212
255 229 212
255 229 212
255 229 212
255 229 212
255 229 212
255 229 212
255 229 212
255 229 212
255 229 212
255 229 212
255 229 212
255 229 212
255 229 212
255 229 212
255 229 212
255 229 212
255 229 212
255 229 212
255 241 224
255 229 212
255 229 212
255 229 212
255 229 212
255 229 212
255 229 212
255 229 212
255 229 212
255 229 212
255 229 212
255 229 212
255 229 212
255 229 212
255 229 212
255 229 212
255 229 212
255 229 212
255 229 212
255 229 212
255 229 212
255 229 212
255 229 212
255 229 212
255 229 212
255 229 212
255 229 212
255 229 212
255 229 212
255 229 212
255 229 212
255 229 212
255 229 212
255 229 212
255 229 212
255 229 212
255 229 212
255 241 224
255 229 212
255 229 212
255 229 212
255 229 212
255 229 212
255 229 212
255 229 212
255 229 212
255 229 212
255 229 212
255 229 212
255 229 212
255 229 212
255 229 212
255 229 212
255 229 212
255 229 212
255 229 212
255 229 212
255 229 212
255 229 212
255 229 212
255 229 212
255 229 212
255 229 212
255 229 212
255 229 212
255 229 212
255 229 212
255 229 212
255 229 212
255 229 212
255 229 212
255 229 212
255 229 212
255 229 212
255 241 224
255 229 212
255 229 212
255 229 212
255 229 212
255 229 212
255 229 212
255 229 212
255 229 212
255 229 212
255 229 212
255 229 212
255 229 212
255 229 212
255 229 212
255 229 212
255 229 212
255 229 212
255 229 212
255 229 212
255 229 212
255 229 212
255 229 212
255 229 212
255 229 212
255 229 212
255 229 212
255 229 212
255 229 212
255 229 212
255 229 212
255 229 212
255 229 212
255 229 212
255 229 212
255 229 212
255 229 212
255 241 224
255 229 212
255 229 212
255 229 212
255 229 212
255 229 212
255 229 212
255 229 212
255 229 212
255 229 212
255 229 212
255 229 212
255 229 212
255 229 212
255 229 212
255 229 212
255 229 212
255 229 212
255 229 212
255 229 212
255 229 212
255 229 212
255 229 212
255 229 212
255 229 212
255 229 212
255 229 212
255 229 212
255 229 212
255 229 212
255 229 212
255 229 212
255 229 212
255 229 212
255 229 212
255 229 212
255 229 212
255 241 224
255 229 212
255 229 212
255 229 212
255 229 212
255 229 212
255 229 212
255 229 212
255 229 212
255 229 212
255 229 212
255 229 212
255 229 212
255 229 212
255 229 212
255 229 212
255 229 212
255 229 212
255 229 212
255 229 212
255 229 212
255 229 212
255 229 212
255 229 212
255 229 212
255 229 212
255 229 212
255 229 212
255 229 212
255 229 212
255 229 212
255 229 212
255 229 212
255 229 212
255 229 212
255 229 212
255 229 212
255 241 224
255 229 212
255 229 212
255 229 212
255 229 212
255 229 212
255 229 212
255 229 212
255 229 212
255 229 212
255 229 212
255 229 212
255 229 212
255 229 212
255 229 212
255 229 212
255 229 212
255 229 212
255 229 212
255 229 212
255 229 212
255 229 212
255 229 212
255 229 212
255 229 212
255 229 212
255 229 212
255 229 212
255 229 212
255 229 212
255 229 212
255 229 212
255 229 212
255 229 212
255 229 212
255 229 212
255 229 212
255 241 224
255 229 212
255 229 212
255 229 212
255 229 212
255 229 212
255 229 212
255 229 212
255 229 212
255 229 212
255 229 212
255 229 212
255 229 212
255 229 212
255 229 212
255 229 212
255 229 212
255 229 212
255 229 212
255 229 212
255 229 212
255 229 212
255 229 212
255 241 224
255 229 212
255 229 212
255 229 212
255 229 212
255 229 212
255 229 212
255 229 212
255 229 212
255 229 212
255 229 212
255 229 212
255 229 212
255 229 212
255 229 212
255 229 212
255 229 212
255 229 212
255 229 212
255 229 212
255 229 212
255 229 212
255 229 212
255 229 212
255 229 212
255 229 212
255 229 212
255 229 212
255 229 212
255 229 212
255 229 212
255 229 212
255 229 212
255 229 212
255 229 212
255 229 212
255 229 212
255 241 224
255 229 212
255 229 212
255 229 212
255 229 212
255 229 212
255 229 212
255 229 212
255 229 212
255 229 212
255 229 212
255 229 212
255 229 212
255 229 212
255 229 212
255 229 212
255 229 212
255 229 212
255 229 212
255 229 212
255 229 212
255 229 212
255 229 212
255 229 212
255 229 212
255 229 212
255 229 212
255 229 212
255 229 212
255 229 212
255 229 212
255 229 212
255 229 212
255 229 212
255 229 212
255 229 212
255 229 212
255 241 224
255 229 212
255 229 212
255 229 212
255 229 212
255 229 212
255 229 212
255 229 212
255 229 212
255 229 212
255 229 212
255 229 212
255 229 212
255 229 212
255 229 212
255 229 212
255 229 212
255 229 212
255 229 212
255 229 212
255 229 212
255 229 212
255 229 212
255 229 212
255 229 212
255 229 212
255 229 212
255 229 212
255 229 212
255 229 212
255 229 212
255 229 212
255 229 212
255 229 212
255 229 212
255 229 212
255 229 212
255 241 224
255 229 212
255 229 212
255 229 212
255 229 212
255 229 212
255 229 212
255 229 212
255 229 212
255 229 212
255 229 212
255 229 212
255 229 212
255 229 212
255 229 212
255 229 212
255 229 212
255 229 212
255 229 212
255 229 212
255 229 212
255 229 212
255 229 212
255 229 212
255 229 212
255 229 212
255 229 212
255 229 212
255 229 212
255 229 212
255 229 212
255 229 212
255 229 212
255 229 212
255 229 212
255 229 212
255 229 212
255 241 224
255 229 212
255 229 212
255 229 212
255 229 212
255 229 212
255 229 212
255 229 212
255 229 212
255 229 212
255 229 212
255 229 212
255 229 212
255 229 212
255 229 212
255 229 212
255 229 212
255 229 212
255 229 212
255 229 212
255 229 212
255 229 212
255 229 212
255 229 212
255 229 212
255 229 212
255 229 212
255 229 212
255 229 212
255 229 212
255 229 212
255 229 212
255 229 212
255 229 212
255 229 212
255 229 212
255 229 212
255 241 224
255 229 212
255 229 212
255 229 212
255 229 212
255 229 212
255 229 212
255 229 212
255 229 212
255 229 212
255 229 212
255 229 212
255 229 212
255 229 212
255 229 212
255 229 212
255 229 212
255 229 212
255 229 212
255 229 212
255 229 212
255 229 212
255 229 212
255 229 212
255 229 212
255 229 212
255 229 212
255 229 212
255 229 212
255 229 212
255 229 212
255 229 212
255 229 212
255 229 212
255 229 212
255 229 212
255 229 212
255 241 224
255 229 212
255 229 212
255 229 212
255 229 212
255 229 212
255 229 212
255 229 212
255 229 212
255 229 212
255 229 212
255 229 212
255 229 212
255 229 212
255 229 212
255 229 212
255 229 212
255 229 212
255 229 212
255 229 212
255 229 212
255 229 212
255 229 212
255 229 212
255 229 212
255 229 212
255 229 212
255 229 212
255 229 212
255 229 212
255 229 212
255 229 212
255 229 212
255 229 212
255 229 212
255 229 212
255 229 212
255 241 224
255 229 212
255 229 212
255 229 212
255 229 212
255 229 212
255 229 212
255 229 212
255 229 212
255 229 212
255 229 212
255 229 212
255 229 212
255 229 212
255 229 212
255 229 212
255 229 212
255 229 212
255 229 212
255 229 212
255 229 212
255 229 212
255 229 212
255 229 212
255 229 212
255 229 212
255 229 212
255 229 212
255 229 212
255 229 212
255 229 212
255 229 212
255 229 212
255 229 212
255 229 212
255 229 212
255 229 212
255 241 224
255 229 212
255 229 212
255 229 212
255 229 212
255 229 212
255 229 212
255 229 212
255 229 212
255 229 212
255 229 212
255 229 212
255 229 212
255 229 212
255 229 212
255 229 212
255 229 212
255 229 212
255 229 212
255 229 212
255 229 212
255 229 212
255 229 212
255 241 224
255 229 212
255 229 212
255 229 212
255 229 212
255 229 212
255 229 212
255 229 212
255 229 212
255 229 212
255 229 212
255 229 212
255 229 212
255 229 212
255 229 212
255 229 212
255 229 212
255 229 212
255 229 212
255 229 212
255 229 212
255 229 212
255 229 212
255 229 212
255 229 212
255 229 212
255 229 212
255 229 212
255 229 212
255 229 212
255 229 212
255 229 212
255 229 212
255 229 212
255 229 212
255 229 212
255 229 212
255 241 224
255 229 212
255 229 212
255 229 212
255 229 212
255 229 212
255 229 212
255 229 212
255 229 212
255 229 212
255 229 212
255 229 212
255 229 212
255 229 212
255 229 212
255 229 212
255 229 212
255 229 212
255 229 212
255 229 212
255 229 212
255 229 212
255 229 212
255 229 212
255 229 212
255 229 212
255 229 212
255 229 212
255 229 212
255 229 212
255 229 212
255 229 212
255 229 212
255 229 212
255 229 212
255 229 212
255 229 212
255 241 224
255 229 212
255 229 212
255 229 212
255 229 212
255 229 212
255 229 212
255 229 212
255 229 212
255 229 212
255 229 212
255 229 212
255 229 212
255 229 212
255 229 212
255 229 212
255 229 212
255 229 212
255 229 212
255 229 212
255 229 212
255 229 212
255 229 212
255 229 212
255 229 212
255 229 212
255 229 212
255 229 212
255 229 212
255 229 212
255 229 212
255 229 212
255 229 212
255 229 212
255 229 212
255 229 212
255 229 212
255 241 224
255 229 212
255 229 212
255 229 212
255 229 212
255 229 212
255 229 212
255 229 212
255 229 212
255 229 212
255 229 212
255 229 212
255 229 212
255 229 212
255 229 212
255 229 212
255 229 212
255 229 212
255 229 212
255 229 212
255 229 212
255 229 212
255 229 212
255 229 212
255 229 212
255 229 212
255 229 212
255 229 212
255 229 212
255 229 212
255 229 212
255 229 212
255 229 212
255 229 212
255 229 212
255 229 212
255 229 212
255 241 224
255 229 212
255 229 212
255 229 212
255 229 212
255 229 212
255 229 212
255 229 212
255 229 212
255 229 212
255 229 212
255 229 212
255 229 212
255 229 212
255 229 212
255 229 212
255 229 212
255 229 212
255 229 212
255 229 212
255 229 212
255 229 212
255 229 212
255 229 212
255 229 212
255 229 212
255 229 212
255 229 212
255 229 212
255 229 212
255 229 212
255 229 212
255 229 212
255 229 212
255 229 212
255 229 212
255 229 212
255 241 224
255 229 212
255 229 212
255 229 212
255 229 212
255 229 212
255 229 212
255 229 212
255 229 212
255 229 212
255 229 212
255 229 212
255 229 212
255 229 212
255 229 212
255 229 212
255 229 212
255 229 212
255 229 212
255 229 212
255 229 212
255 229 212
255 229 212
255 229 212
255 229 212
255 229 212
255 229 212
255 229 212
255 229 212
255 229 212
255 229 212
255 229 212
255 229 212
255 229 212
255 229 212
255 229 212
255 229 212
255 241 224
255 229 212
255 229 212
255 229 212
255 229 212
255 229 212
255 229 212
255 229 212
255 229 212
255 229 212
255 229 212
255 229 212
255 229 212
255 229 212
255 229 212
255 229 212
255 229 212
255 229 212
255 229 212
255 229 212
255 229 212
255 229 212
255 229 212
255 229 212
255 229 212
255 229 212
255 229 212
255 229 212
255 229 212
255 229 212
255 229 212
255 229 212
255 229 212
255 229 212
255 229 212
255 229 212
255 229 212
255 241 224
255 229 212
255 229 212
255 229 212
255 229 212
255 229 212
255 229 212
255 229 212
255 229 212
255 229 212
255 229 212
255 229 212
255 229 212
255 229 212
255 229 212
255 229 212
255 229 212
255 229 212
255 229 212
255 229 212
255 229 212
255 229 212
255 229 212
255 229 212
255 229 212
255 229 212
255 229 212
255 229 212
255 229 212
255 229 212
255 229 212
255 229 212
255 229 212
255 229 212
255 229 212
255 229 212
255 229 212
255 241 224
255 229 212
255 229 212
255 229 212
255 229 212
255 229 212
255 229 212
255 229 212
255 229 212
255 229 212
255 229 212
255 229 212
255 229 212
255 229 212
255 229 212
255 229 212
255 229 212
255 229 212
255 229 212
255 229 212
255 229 212
255 229 212
255 229 212
255 241 224
255 229 212
255 229 212
255 229 212
255 229 212
255 229 212
255 229 212
255 229 212
255 229 212
255 229 212
255 229 212
255 229 212
255 229 212
255 229 212
255 229 212
255 229 212
255 229 212
255 229 212
255 229 212
255 229 212
255 229 212
255 229 212
255 229 212
255 229 212
255 229 212
255 229 212
255 229 212
255 229 212
255 229 212
255 229 212
255 229 212
255 229 212
255 229 212
255 229 212
255 229 212
255 229 212
255 229 212
255 241 224
255 229 212
255 229 212
255 229 212
255 229 212
255 229 212
255 229 212
255 229 212
255 229 212
255 229 212
255 229 212
255 229 212
255 229 212
255 229 212
255 229 212
255 229 212
255 229 212
255 229 212
255 229 212
255 229 212
255 229 212
255 229 212
255 229 212
255 229 212
255 229 212
255 229 212
255 229 212
255 229 212
255 229 212
255 229 212
255 229 212
255 229 212
255 229 212
255 229 212
255 229 212
255 229 212
255 229 212
255 241 224
255 229 212
255 229 212
255 229 212
255 229 212
255 229 212
255 229 212
255 229 212
255 229 212
255 229 212
255 229 212
255 229 212
255 229 212
255 229 212
255 229 212
255 229 212
255 229 212
255 229 212
255 229 212
255 229 212
255 229 212
255 229 212
255 229 212
255 229 212
255 229 212
255 229 212
255 229 212
255 229 212
255 229 212
255 229 212
255 229 212
255 229 212
255 229 212
255 229 212
255 229 212
255 229 212
255 229 212
255 241 224
255 229 212
255 229 212
255 229 212
255 229 212
255 229 212
255 229 212
255 229 212
255 229 212
255 229 212
255 229 212
255 229 212
255 229 212
255 229 212
255 229 212
255 229 212
255 229 212
255 229 212
255 229 212
255 229 212
255 229 212
255 229 212
255 229 212
255 229 212
255 229 212
255 229 212
255 229 212
255 229 212
255 229 212
255 229 212
255 229 212
255 229 212
255 229 212
255 229 212
255 229 212
255 229 212
255 229 212
255 241 224
255 229 212
255 229 212
255 229 212
255 229 212
255 229 212
255 229 212
255 229 212
255 229 212
255 229 212
255 229 212
255 229 212
255 229 212
255 229 212
255 229 212
255 229 212
255 229 212
255 229 212
255 229 212
255 229 212
255 229 212
255 229 212
255 229 212
255 229 212
255 229 212
255 229 212
255 229 212
255 229 212
255 229 212
255 229 212
255 229 212
255 229 212
255 229 212
255 229 212
255 229 212
255 229 212
255 229 212
255 241 224
255 229 212
255 229 212
255 229 212
255 229 212
255 229 212
255 229 212
255 229 212
255 229 212
255 229 212
255 229 212
255 229 212
255 229 212
255 229 212
255 229 212
255 229 212
255 229 212
255 229 212
255 229 212
255 229 212
255 229 212
255 229 212
255 229 212
255 229 212
255 229 212
255 229 212
255 229 212
255 229 212
255 229 212
255 229 212
255 229 212
255 229 212
255 229 212
255 229 212
255 229 212
255 229 212
255 229 212
255 241 224
255 229 212
255 229 212
255 229 212
255 229 212
255 229 212
255 229 212
255 229 212
255 229 212
255 229 212
255 229 212
255 229 212
255 229 212
255 229 212
255 229 212
255 229 212
255 229 212
255 229 212
255 229 212
255 229 212
255 229 212
255 229 212
255 229 212
255 229 212
255 229 212
255 229 212
255 229 212
255 229 212
255 229 212
255 229 212
255 229 212
255 229 212
255 229 212
255 229 212
255 229 212
255 229 212
255 229 212
255 241 224
255 229 212
255 229 212
255 229 212
255 229 212
255 229 212
255 229 212
255 229 212
255 229 212
255 229 212
255 229 212
255 229 212
255 229 212
255 229 212
255 229 212
255 229 212
255 229 212
255 229 212
255 229 212
255 229 212
255 229 212
255 229 212
255 229 212
255 229 212
255 229 212
255 229 212
255 229 212
255 229 212
255 229 212
255 229 212
255 229 212
255 229 212
255 229 212
255 229 212
255 229 212
255 229 212
255 229 212
255 241 224
255 229 212
255 229 212
255 229 212
255 229 212
255 229 212
255 229 212
255 229 212
255 229 212
255 229 212
255 229 212
255 229 212
255 229 212
255 229 212
255 229 212
255 229 212
255 229 212
255 229 212
255 229 212
255 229 212
255 229 212
255 229 212
255 229 212
255 229 212
255 229 212
255 229 212
255 229 212
255 229 212
255 229 212
255 229 212
255 229 212
255 229 212
255 229 212
255 229 212
255 229 212
255 229 212
255 229 212
255 229 212
255 229 212
255 229 212
255 229 212
255 229 212
255 229 212
255 229 212
255 229 212
255 229 212
255 229 212
255 229 212
255 229 212
255 229 212
255 229 212
255 229 212
255 229 212
255 229 212
255 229 212
255 229 212
255 229 212
255 229 212
255 229 212
255 229 212
255 241 224
255 229 212
255 229 212
255 229 212
255 229 212
255 229 212
255 229 212
255 229 212
255 229 212
255 229 212
255 229 212
255 229 212
255 229 212
255 229 212
255 229 212
255 229 212
255 229 212
255 229 212
255 229 212
255 229 212
255 229 212
255 229 212
255 229 212
255 229 212
255 229 212
255 229 212
255 229 212
255 229 212
255 229 212
255 229 212
255 229 212
255 229 212
255 229 212
255 229 212
255 229 212
255 229 212
255 229 212
255 241 224
255 229 212
255 229 212
255 229 212
255 229 212
255 229 212
255 229 212
255 229 212
255 229 212
255 229 212
255 229 212
255 229 212
255 229 212
255 229 212
255 229 212
255 229 212
255 229 212
255 229 212
255 229 212
255 229 212
255 229 212
255 229 212
255 229 212
255 229 212
255 229 212
255 229 212
255 229 212
255 229 212
255 229 212
255 229 212
255 229 212
255 229 212
255 229 212
255 229 212
255 229 212
255 229 212
255 229 212
255 241 224
255 229 212
255 229 212
255 229 212
255 229 212
255 229 212
255 229 212
255 229 212
255 229 212
255 229 212
255 229 212
255 229 212
255 229 212
255 229 212
255 229 212
255 229 212
255 229 212
255 229 212
255 229 212
255 229 212
255 229 212
255 229 212
255 229 212
255 229 212
255 229 212
255 229 212
255 229 212
255 229 212
255 229 212
255 229 212
255 229 212
255 229 212
255 229 212
255 229 212
255 229 212
255 229 212
255 229 212
255 241 224
255 229 212
255 229 212
255 229 212
255 229 212
255 229 212
255 229 212
255 229 212
255 229 212
255 229 212
255 229 212
255 229 212
255 229 212
255 229 212
255 229 212
255 229 212
255 229 212
255 229 212
255 229 212
255 229 212
255 229 212
255 229 212
255 229 212
255 229 212
255 229 212
255 229 212
255 229 212
255 229 212
255 229 212
255 229 212
255 229 212
255 229 212
255 229 212
255 229 212
255 229 212
255 229 212
255 229 212
255 241 224
255 229 212
255 229 212
255 229 212
255 229 212
255 229 212
255 229 212
255 229 212
255 229 212
255 229 212
255 229 212
255 229 212
255 229 212
255 229 212
255 229 212
255 229 212
255 229 212
255 229 212
255 229 212
255 229 212
255 229 212
255 229 212
255 229 212
255 229 212
255 229 212
255 229 212
255 229 212
255 229 212
255 229 212
255 229 212
255 229 212
255 229 212
255 229 212
255 229 212
255 229 212
255 229 212
255 229 212
255 241 224
255 229 212
255 229 212
255 229 212
255 229 212
255 229 212
255 229 212
255 229 212
255 229 212
255 229 212
255 229 212
255 229 212
255 229 212
255 229 212
255 229 212
255 229 212
255 229 212
255 229 212
255 229 212
255 229 212
255 229 212
255 229 212
255 229 212
255 229 212
255 229 212
255 229 212
255 229 212
255 229 212
255 229 212
255 229 212
255 229 212
255 229 212
255 229 212
255 229 212
255 229 212
255 229 212
255 229 212
255 241 224
255 229 212
255 229 212
255 229 212
255 229 212
255 229 212
255 229 212
255 229 212
255 229 212
255 229 212
255 229 212
255 229 212
255 229 212
255 229 212
255 229 212
255 229 212
255 229 212
255 229 212
255 229 212
255 229 212
255 229 212
255 229 212
255 229 212
255 229 212
255 229 212
255 229 212
255 229 212
255 229 212
255 229 212
255 229 212
255 229 212
255 229 212
255 229 212
255 229 212
255 229 212
255 229 212
255 229 212
255 241 224
255 229 212
255 229 212
255 229 212
255 229 212
255 229 212
255 229 212
255 229 212
255 229 212
255 229 212
255 229 212
255 229 212
255 229 212
255 229 212
255 229 212
255 229 212
255 229 212
255 229 212
255 229 212
255 229 212
255 229 212
255 229 212
255 229 212
255 229 212
255 229 212
255 229 212
255 229 212
255 229 212
255 229 212
255 229 212
255 229 212
255 229 212
255 229 212
255 229 212
255 229 212
255 229 212
255 229 212
255 229 212
255 229 212
255 229 212
255 229 212
255 229 212
255 229 212
255 229 212
255 229 212
255 229 212
255 229 212
255 229 212
255 229 212
255 229 212
255 229 212
255 229 212
255 229 212
255 229 212
255 229 212
255 229 212
255 229 212
255 229 212
255 229 212
255 229 212
255 241 224
255 229 212
255 229 212
255 229 212
255 229 212
255 229 212
255 229 212
255 229 212
255 229 212
255 229 212
255 229 212
255 229 212
255 229 212
255 229 212
255 229 212
255 229 212
255 229 212
255 229 212
255 229 212
255 229 212
255 229 212
255 229 212
255 229 212
255 229 212
255 229 212
255 229 212
255 229 212
255 229 212
255 229 212
255 229 212
255 229 212
255 229 212
255 229 212
255 229 212
255 229 212
255 229 212
255 229 212
255 241 224
255 229 212
255 229 212
255 229 212
255 229 212
255 229 212
255 229 212
255 229 212
255 229 212
255 229 212
255 229 212
255 229 212
255 229 212
255 229 212
255 229 212
255 229 212
255 229 212
255 229 212
255 229 212
255 229 212
255 229 212
255 229 212
255 229 212
255 229 212
255 229 212
255 229 212
255 229 212
255 229 212
255 229 212
255 229 212
255 229 212
255 229 212
255 229 212
255 229 212
255 229 212
255 229 212
255 229 212
255 241 224
255 229 212
255 229 212
255 229 212
255 229 212
255 229 212
255 229 212
255 229 212
255 229 212
255 229 212
255 229 212
255 229 212
255 229 212
255 229 212
255 229 212
255 229 212
255 229 212
255 229 212
255 229 212
255 229 212
255 229 212
255 229 212
255 229 212
255 229 212
255 229 212
255 229 212
255 229 212
255 229 212
255 229 212
255 229 212
255 229 212
255 229 212
255 229 212
255 229 212
255 229 212
255 229 212
255 229 212
255 241 224
255 229 212
255 229 212
255 229 212
255 229 212
255 229 212
255 229 212
255 229 212
255 229 212
255 229 212
255 229 212
255 229 212
255 229 212
255 229 212
255 229 212
255 229 212
255 229 212
255 229 212
255 229 212
255 229 212
255 229 212
255 229 212
255 229 212
255 229 212
255 229 212
255 229 212
255 229 212
255 229 212
255 229 212
255 229 212
255 229 212
255 229 212
255 229 212
255 229 212
255 229 212
255 229 212
255 229 212
255 241 224
255 229 212
255 229 212
255 229 212
255 229 212
255 229 212
255 229 212
255 229 212
255 229 212
255 229 212
255 229 212
255 229 212
255 229 212
255 229 212
255 229 212
255 229 212
255 229 212
255 229 212
255 229 212
255 229 212
255 229 212
255 229 212
255 229 212
255 229 212
255 229 212
255 229 212
255 229 212
255 229 212
255 229 212
255 229 212
255 229 212
255 229 212
255 229 212
255 229 212
255 229 212
255 229 212
255 229 212
255 241 224
255 229 212
255 229 212
255 229 212
255 229 212
255 229 212
255 229 212
255 229 212
255 229 212
255 229 212
255 229 212
255 229 212
255 229 212
255 229 212
255 229 212
255 229 212
255 229 212
255 229 212
255 229 212
255 229 212
255 229 212
255 229 212
255 229 212
255 229 212
255 229 212
255 229 212
255 229 212
255 229 212
255 229 212
255 229 212
255 229 212
255 229 212
255 229 212
255 229 212
255 229 212
255 229 212
255 229 212
255 241 224
255 229 212
255 229 212
255 229 212
255 229 212
255 229 212
255 229 212
255 229 212
255 229 212
255 229 212
255 229 212
255 229 212
255 229 212
255 229 212
255 229 212
255 229 212
255 229 212
255 229 212
255 229 212
255 229 212
255 229 212
255 229 212
255 229 212
255 229 212
255 229 212
255 229 212
255 229 212
255 229 212
255 229 212
255 229 212
255 229 212
255 229 212
255 229 212
255 229 212
255 229 212
255 229 212
255 229 212
255 241 224
255 229 212
255 229 212
255 229 212
255 229 212
255 229 212
255 229 212
255 229 212
255 229 212
255 229 212
255 229 212
255 229 212
255 229 212
255 229 212
255 229 212
255 229 212
255 229 212
255 229 212
255 229 212
255 229 212
255 229 212
255 229 212
255 229 212
255 229 212
255 229 212
255 229 212
255 229 212
255 229 212
255 229 212
255 229 212
255 229 212
255 229 212
255 229 212
255 229 212
255 229 212
255 229 212
255 229 212
255 229 212
255 229 212
255 229 212
255 229 212
255 229 212
255 229 212
255 229 212
255 229 212
255 229 212
255 229 212
255 229 212
255 229 212
255 229 212
255 229 212
255 229 212
255 229 212
255 229 212
255 229 212
255 229 212
255 229 212
255 229 212
255 229 212
255 229 212
255 241 224
255 229 212
255 229 212
255 229 212
255 229 212
255 229 212
255 229 212
255 229 212
255 229 212
255 229 212
255 229 212
255 229 212
255 229 212
255 229 212
255 229 212
255 229 212
255 229 212
255 229 212
255 229 212
255 229 212
255 229 212
255 229 212
255 229 212
255 229 212
255 229 212
255 229 212
255 229 212
255 229 212
255 229 212
255 229 212
255 229 212
255 229 212
255 229 212
255 229 212
255 229 212
255 229 212
255 229 212
255 241 224
255 229 212
255 229 212
255 229 212
255 229 212
255 229 212
255 229 212
255 229 212
255 229 212
255 229 212
255 229 212
255 229 212
255 229 212
255 229 212
255 229 212
255 229 212
255 229 212
255 229 212
255 229 212
255 229 212
255 229 212
255 229 212
255 229 212
255 229 212
255 229 212
255 229 212
255 229 212
255 229 212
255 229 212
255 229 212
255 229 212
255 229 212
255 229 212
255 229 212
255 229 212
255 229 212
255 229 212
255 241 224
255 229 212
255 229 212
255 229 212
255 229 212
255 229 212
255 229 212
255 229 212
255 229 212
255 229 212
255 229 212
255 229 212
255 229 212
255 229 212
255 229 212
255 229 212
255 229 212
255 229 212
255 229 212
255 229 212
255 229 212
255 229 212
255 229 212
255 229 212
255 229 212
255 229 212
255 229 212
255 229 212
255 229 212
255 229 212
255 229 212
255 229 212
255 229 212
255 229 212
255 229 212
255 229 212
255 229 212
255 241 224
255 229 212
255 229 212
255 229 212
255 229 212
255 229 212
255 229 212
255 229 212
255 229 212
255 229 212
255 229 212
255 229 212
255 229 212
255 229 212
255 229 212
255 229 212
255 229 212
255 229 212
255 229 212
255 229 212
255 229 212
255 229 212
255 229 212
255 229 212
255 229 212
255 229 212
255 229 212
255 229 212
255 229 212
255 229 212
255 229 212
255 229 212
255 229 212
255 229 212
255 229 212
255 229 212
255 229 212
255 241 224
255 229 212
255 229 212
255 229 212
255 229 212
255 229 212
255 229 212
255 229 212
255 229 212
255 229 212
255 229 212
255 229 212
255 229 212
255 229 212
255 229 212
255 229 212
255 229 212
255 229 212
255 229 212
255 229 212
255 229 212
255 229 212
255 229 212
255 229 212
255 229 212
255 229 212
255 229 212
255 229 212
255 229 212
255 229 212
255 229 212
255 229 212
255 229 212
255 229 212
255 229 212
255 229 212
255 229 212
255 241 224
255 229 212
255 229 212
255 229 212
255 229 212
255 229 212
255 229 212
255 229 212
255 229 212
255 229 212
255 229 212
255 229 212
255 229 212
255 229 212
255 229 212
255 229 212
255 229 212
255 229 212
255 229 212
255 229 212
255 229 212
255 229 212
255 229 212
255 229 212
255 229 212
255 229 212
255 229 212
255 229 212
255 229 212
255 229 212
255 229 212
255 229 212
255 229 212
255 229 212
255 229 212
255 229 212
255 229 212
255 241 224
255 229 212
255 229 212
255 229 212
255 229 212
255 229 212
255 229 212
255 229 212
255 229 212
255 229 212
255 229 212
255 229 212
255 229 212
255 229 212
255 229 212
255 229 212
255 229 212
255 229 212
255 229 212
255 229 212
255 229 212
255 229 212
255 229 212
255 229 212
255 229 212
255 229 212
255 229 212
255 229 212
255 229 212
255 229 212
255 229 212
255 229 212
255 229 212
255 229 212
255 229 212
255 229 212
255 229 212
255 241 224
255 229 212
255 229 212
255 229 212
255 229 212
255 229 212
255 229 212
255 229 212
255 229 212
255 229 212
255 229 212
255 229 212
255 229 212
255 229 212
255 229 212
255 229 212
255 229 212
255 229 212
255 229 212
255 229 212
255 229 212
255 229 212
255 229 212
255 229 212
255 229 212
255 229 212
255 229 212
255 229 212
255 229 212
255 229 212
255 229 212
255 229 212
255 229 212
255 229 212
255 229 212
255 229 212
255 229 212
255 229 212
255 229 212
255 229 212
255 229 212
255 229 212
255 229 212
255 229 212
255 229 212
255 229 212
255 229 212
255 229 212
255 229 212
255 229 212
255 229 212
255 229 212
255 229 212
255 229 212
255 229 212
255 229 212
255 229 212
255 229 212
255 229 212
255 229 212
255 241 224
255 229 212
255 229 212
255 229 212
255 229 212
255 229 212
255 229 212
255 229 212
255 229 212
255 229 212
255 229 212
255 229 212
255 229 212
255 229 212
255 229 212
255 229 212
255 229 212
255 229 212
255 229 212
255 229 212
255 229 212
255 229 212
255 229 212
255 229 212
255 229 212
255 229 212
255 229 212
255 229 212
255 229 212
255 229 212
255 229 212
255 229 212
255 229 212
255 229 212
255 229 212
255 229 212
255 229 212
255 241 224
255 229 212
255 229 212
255 229 212
255 229 212
255 229 212
255 229 212
255 229 212
255 229 212
255 229 212
255 229 212
255 229 212
255 229 212
255 229 212
255 229 212
255 229 212
255 229 212
255 229 212
255 229 212
255 229 212
255 229 212
255 229 212
255 229 212
255 229 212
255 229 212
255 229 212
255 229 212
255 229 212
255 229 212
255 229 212
255 229 212
255 229 212
255 229 212
255 229 212
255 229 212
255 229 212
255 229 212
255 241 224
255 229 212
255 229 212
255 229 212
255 229 212
255 229 212
255 229 212
255 229 212
255 229 212
255 229 212
255 229 212
255 229 212
255 229 212
255 229 212
255 229 212
255 229 212
255 229 212
255 229 212
255 229 212
255 229 212
255 229 212
255 229 212
255 229 212
255 229 212
255 229 212
255 229 212
255 229 212
255 229 212
255 229 212
255 229 212
255 229 212
255 229 212
255 229 212
255 229 212
255 229 212
255 229 212
255 229 212
255 241 224
255 229 212
255 229 212
255 229 212
255 229 212
255 229 212
255 229 212
255 229 212
255 229 212
255 229 212
255 229 212
255 229 212
255 229 212
255 229 212
255 229 212
255 229 212
255 229 212
255 229 212
255 229 212
255 229 212
255 229 212
255 229 212
255 229 212
255 229 212
255 229 212
255 229 212
255 229 212
255 229 212
255 229 212
255 229 212
255 229 212
255 229 212
255 229 212
255 229 212
255 229 212
255 229 212
255 229 212
255 241 224
255 229 212
255 229 212
255 229 212
255 229 212
255 229 212
255 229 212
255 229 212
255 229 212
255 229 212
255 229 212
255 229 212
255 229 212
255 229 212
255 229 212
255 229 212
255 229 212
255 229 212
255 229 212
255 229 212
255 229 212
255 229 212
255 229 212
255 229 212
255 229 212
255 229 212
255 229 212
255 229 212
255 229 212
255 229 212
255 229 212
255 229 212
255 229 212
255 229 212
255 229 212
255 229 212
255 229 212
255 241 224
255 229 212
255 229 212
255 229 212
255 229 212
255 229 212
255 229 212
255 229 212
255 229 212
255 229 212
255 229 212
255 229 212
255 229 212
255 229 212
255 229 212
255 229 212
255 229 212
255 229 212
255 229 212
255 229 212
255 229 212
255 229 212
255 229 212
255 229 212
255 229 212
255 229 212
255 229 212
255 229 212
255 229 212
255 229 212
255 229 212
255 229 212
255 229 212
255 229 212
255 229 212
255 229 212
255 229 212
255 241 224
255 229 212
255 229 212
255 229 212
255 229 212
255 229 212
255 229 212
255 229 212
255 229 212
255 229 212
255 229 212
255 229 212
255 229 212
255 229 212
255 229 212
255 229 212
255 229 212
255 229 212
255 229 212
255 229 212
255 229 212
255 229 212
255 229 212
255 229 212
255 229 212
255 229 212
255 229 212
255 229 212
255 229 212
255 229 212
255 229 212
255 229 212
255 229 212
255 229 212
255 229 212
255 229 212
255 229 212
255 241 224
255 229 212
255 229 212
255 229 212
255 229 212
255 229 212
255 229 212
255 229 212
255 229 212
255 229 212
255 229 212
255 229 212
255 229 212
255 229 212
255 229 212
255 229 212
255 229 212
255 229 212
255 229 212
255 229 212
255 229 212
255 229 212
255 229 212
255 229 212
255 229 212
255 229 212
255 229 212
255 229 212
255 229 212
255 229 212
255 229 212
255 229 212
255 229 212
255 229 212
255 229 212
255 229 212
255 229 212
255 229 212
255 229 212
255 229 212
255 229 212
255 229 212
255 229 212
255 229 212
255 229 212
255 229 212
255 229 212
255 229 212
255 229 212
255 229 212
255 229 212
255 229 212
255 229 212
255 229 212
255 229 212
255 229 212
255 229 212
255 229 212
255 229 212
255 229 212
255 241 224
255 229 212
255 229 212
255 229 212
255 229 212
255 229 212
255 229 212
255 229 212
255 229 212
255 229 212
255 229 212
255 229 212
255 229 212
255 229 212
255 229 212
255 229 212
255 229 212
255 229 212
255 229 212
255 229 212
255 229 212
255 229 212
255 229 212
255 229 212
255 229 212
255 229 212
255 229 212
255 229 212
255 229 212
255 229 212
255 229 212
255 229 212
255 229 212
255 229 212
255 229 212
255 229 212
255 229 212
255 241 224
255 229 212
255 229 212
255 229 212
255 229 212
255 229 212
255 229 212
255 229 212
255 229 212
255 229 212
255 229 212
255 229 212
255 229 212
255 229 212
255 229 212
255 229 212
255 229 212
255 229 212
255 229 212
255 229 212
255 229 212
255 229 212
255 229 212
255 229 212
255 229 212
255 229 212
255 229 212
255 229 212
255 229 212
255 229 212
255 229 212
255 229 212
255 229 212
255 229 212
255 229 212
255 229 212
255 229 212
255 241 224
255 229 212
255 229 212
255 229 212
255 229 212
255 229 212
255 229 212
255 229 212
255 229 212
255 229 212
255 229 212
255 229 212
255 229 212
255 229 212
255 229 212
255 229 212
255 229 212
255 229 212
255 229 212
255 229 212
255 229 212
255 229 212
255 229 212
255 229 212
255 229 212
255 229 212
255 229 212
255 229 212
255 229 212
255 229 212
255 229 212
255 229 212
255 229 212
255 229 212
255 229 212
255 229 212
255 229 212
255 241 224
255 229 212
255 229 212
255 229 212
255 229 212
255 229 212
255 229 212
255 229 212
255 229 212
255 229 212
255 229 212
255 229 212
255 229 212
255 229 212
255 229 212
255 229 212
255 229 212
255 229 212
255 229 212
255 229 212
255 229 212
255 229 212
255 229 212
255 229 212
255 229 212
255 229 212
255 229 212
255 229 212
255 229 212
255 229 212
255 229 212
255 229 212
255 229 212
255 229 212
255 229 212
255 229 212
255 229 212
255 241 224
255 229 212
255 229 212
255 229 212
255 229 212
255 229 212
255 229 212
255 229 212
255 229 212
255 229 212
255 229 212
255 229 212
255 229 212
255 229 212
255 229 212
255 229 212
255 229 212
255 229 212
255 229 212
255 229 212
255 229 212
255 229 212
255 229 212
255 229 212
255 229 212
255 229 212
255 229 212
255 229 212
255 229 212
255 229 212
255 229 212
255 229 212
255 229 212
255 229 212
255 229 212
255 229 212
255 229 212
255 241 224
255 229 212
255 229 212
255 229 212
255 229 212
255 229 212
255 229 212
255 229 212
255 229 212
255 229 212
255 229 212
255 229 212
255 229 212
255 229 212
255 229 212
255 229 212
255 229 212
255 229 212
255 229 212
255 229 212
255 229 212
255 229 212
255 229 212
255 229 212
255 229 212
255 229 212
255 229 212
255 229 212
255 229 212
255 229 212
255 229 212
255 229 212
255 229 212
255 229 212
255 229 212
255 229 212
255 229 212
255 241 224
255 229 212
255 229 212
255 229 212
255 229 212
255 229 212
255 229 212
255 229 212
255 229 212
255 229 212
255 229 212
255 229 212
255 229 212
255 229 212
255 229 212
255 229 212
255 229 212
255 229 212
255 229 212
255 229 212
255 229 212
255 229 212
255 229 212
255 229 212
255 229 212
255 229 212
255 229 212
255 229 212
255 229 212
255 229 212
255 229 212
255 229 212
255 229 212
255 229 212
255 229 212
255 229 212
255 229 212
255 241 224
255 229 212
255 229 212
255 229 212
255 229 212
255 229 212
255 229 212
255 229 212
255 229 212
255 229 212
255 229 212
255 229 212
255 229 212
255 229 212
255 229 212
255 229 212
255 229 212
255 229 212
255 229 212
255 229 212
255 229 212
255 229 212
255 229 212
255 229 212
255 229 212
255 229 212
255 229 212
255 229 212
255 229 212
255 229 212
255 229 212
255 229 212
255 229 212
255 229 212
255 229 212
255 229 212
255 229 212
255 229 212
255 229 212
255 229 212
255 229 212
255 229 212
255 229 212
255 229 212
255 229 212
255 229 212
255 229 212
255 229 212
255 229 212
255 229 212
255 229 212
255 229 212
255 229 212
255 229 212
255 229 212
255 229 212
255 229 212
255 229 212
255 229 212
255 229 212
255 241 224
255 229 212
255 229 212
255 229 212
255 229 212
255 229 212
255 229 212
255 229 212
255 229 212
255 229 212
255 229 212
255 229 212
255 229 212
255 229 212
255 229 212
255 229 212
255 229 212
255 229 212
255 229 212
255 229 212
255 229 212
255 229 212
255 229 212
255 229 212
255 229 212
255 229 212
255 229 212
255 229 212
255 229 212
255 229 212
255 229 212
255 229 212
255 229 212
255 229 212
255 229 212
255 229 212
255 229 212
255 241 224
255 229 212
255 229 212
255 229 212
255 229 212
255 229 212
255 229 212
255 229 212
255 229 212
255 229 212
255 229 212
255 229 212
255 229 212
255 229 212
255 229 212
255 229 212
255 229 212
255 229 212
255 229 212
255 229 212
255 229 212
255 229 212
255 229 212
255 229 212
255 229 212
255 229 212
255 229 212
255 229 212
255 229 212
255 229 212
255 229 212
255 229 212
255 229 212
255 229 212
255 229 212
255 229 212
255 229 212
255 241 224
255 229 212
255 229 212
255 229 212
255 229 212
255 229 212
255 229 212
255 229 212
255 229 212
255 229 212
255 229 212
255 229 212
255 229 212
255 229 212
255 229 212
255 229 212
255 229 212
255 229 212
255 229 212
255 229 212
255 229 212
255 229 212
255 229 212
255 229 212
255 229 212
255 229 212
255 229 212
255 229 212
255 229 212
255 229 212
255 229 212
255 229 212
255 229 212
255 229 212
255 229 212
255 229 212
255 229 212
255 241 224
255 229 212
255 229 212
255 229 212
255 229 212
255 229 212
255 229 212
255 229 212
255 229 212
255 229 212
255 229 212
255 229 212
255 229 212
255 229 212
255 229 212
255 229 212
255 229 212
255 229 212
255 229 212
255 229 212
255 229 212
255 229 212
255 229 212
255 229 212
255 229 212
255 229 212
255 229 212
255 229 212
255 229 212
255 229 212
255 229 212
255 229 212
255 229 212
255 229 212
255 229 212
255 229 212
255 229 212
255 241 224
255 229 212
255 229 212
255 229 212
255 229 212
255 229 212
255 229 212
255 229 212
255 229 212
255 229 212
255 229 212
255 229 212
255 229 212
255 229 212
255 229 212
255 229 212
255 229 212
255 229 212
255 229 212
255 229 212
255 229 212
255 229 212
255 229 212
255 229 212
255 229 212
255 229 212
255 229 212
255 229 212
255 229 212
255 229 212
255 229 212
255 229 212
255 229 212
255 229 212
255 229 212
255 229 212
255 229 212
255 241 224
255 229 212
255 229 212
255 229 212
255 229 212
255 229 212
255 229 212
255 229 212
255 229 212
255 229 212
255 229 212
255 229 212
255 229 212
255 229 212
255 229 212
255 229 212
255 229 212
255 229 212
255 229 212
255 229 212
255 229 212
255 229 212
255 229 212
255 229 212
255 229 212
255 229 212
255 229 212
255 229 212
255 229 212
255 229 212
255 229 212
255 229 212
255 229 212
255 229 212
255 229 212
255 229 212
255 229 212
255 241 224
255 229 212
255 229 212
255 229 212
255 229 212
255 229 212
255 229 212
255 229 212
255 229 212
255 229 212
255 229 212
255 229 212
255 229 212
255 229 212
255 229 212
255 229 212
255 229 212
255 229 212
255 229 212
255 229 212
255 229 212
255 229 212
255 229 212
255 229 212
255 229 212
255 229 212
255 229 212
255 229 212
255 229 212
255 229 212
255 229 212
255 229 212
255 229 212
255 229 212
255 229 212
255 229 212
255 229 212
255 241 224
255 229 212
255 229 212
255 229 212
255 229 212
255 229 212
255 229 212
255 229 212
255 229 212
255 229 212
255 229 212
255 229 212
255 229 212
255 229 212
255 229 212
255 229 212
255 229 212
255 229 212
255 229 212
255 229 212
255 229 212
255 229 212
255 229 212
255 229 212
255 229 212
255 229 212
255 229 212
255 229 212
255 229 212
255 229 212
255 229 212
255 229 212
255 229 212
255 229 212
255 229 212
255 229 212
255 229 212
255 229 212
255 229 212
255 229 212
255 229 212
255 229 212
255 229 212
255 229 212
255 229 212
255 229 212
255 229 212
255 229 212
255 229 212
255 229 212
255 229 212
255 229 212
255 229 212
255 229 212
255 229 212
255 229 212
255 229 212
255 229 212
255 229 212
255 229 212
255 241 224
255 229 212
255 229 212
255 229 212
255 229 212
255 229 212
255 229 212
255 229 212
255 229 212
255 229 212
255 229 212
255 229 212
255 229 212
255 229 212
255 229 212
255 229 212
255 229 212
255 229 212
255 229 212
255 229 212
255 229 212
255 229 212
255 229 212
255 229 212
255 229 212
255 229 212
255 229 212
255 229 212
255 229 212
255 229 212
255 229 212
255 229 212
255 229 212
255 229 212
255 229 212
255 229 212
255 229 212
255 241 224
255 229 212
255 229 212
255 229 212
255 229 212
255 229 212
255 229 212
255 229 212
255 229 212
255 229 212
255 229 212
255 229 212
255 229 212
255 229 212
255 229 212
255 229 212
255 229 212
255 229 212
255 229 212
255 229 212
255 229 212
255 229 212
255 229 212
255 229 212
255 229 212
255 229 212
255 229 212
255 229 212
255 229 212
255 229 212
255 229 212
255 229 212
255 229 212
255 229 212
255 229 212
255 229 212
255 229 212
255 241 224
255 229 212
255 229 212
255 229 212
255 229 212
255 229 212
255 229 212
255 229 212
255 229 212
255 229 212
255 229 212
255 229 212
255 229 212
255 229 212
255 229 212
255 229 212
255 229 212
255 229 212
255 229 212
255 229 212
255 229 212
255 229 212
255 229 212
255 229 212
255 229 212
255 229 212
255 229 212
255 229 212
255 229 212
255 229 212
255 229 212
255 229 212
255 229 212
255 229 212
255 229 212
255 229 212
255 229 212
255 241 224
255 229 212
255 229 212
255 229 212
255 229 212
255 229 212
255 229 212
255 229 212
255 229 212
255 229 212
255 229 212
255 229 212
255 229 212
255 229 212
255 229 212
255 229 212
255 229 212
255 229 212
255 229 212
255 229 212
255 229 212
255 229 212
255 229 212
255 229 212
255 229 212
255 229 212
255 229 212
255 229 212
255 229 212
255 229 212
255 229 212
255 229 212
255 229 212
255 229 212
255 229 212
255 229 212
255 229 212
255 241 224
255 229 212
255 229 212
255 229 212
255 229 212
255 229 212
255 229 212
255 229 212
255 229 212
255 229 212
255 229 212
255 229 212
255 229 212
255 229 212
255 229 212
255 229 212
255 229 212
255 229 212
255 229 212
255 229 212
255 229 212
255 229 212
255 229 212
255 229 212
255 229 212
255 229 212
255 229 212
255 229 212
255 229 212
255 229 212
255 229 212
255 229 212
255 229 212
255 229 212
255 229 212
255 229 212
255 229 212
255 241 224
255 229 212
255 229 212
255 229 212
255 229 212
255 229 212
255 229 212
255 229 212
255 229 212
255 229 212
255 229 212
255 229 212
255 229 212
255 229 212
255 229 212
255 229 212
255 229 212
255 229 212
255 229 212
255 229 212
255 229 212
255 229 212
255 229 212
255 229 212
255 229 212
255 229 212
255 229 212
255 229 212
255 229 212
255 229 212
255 229 212
255 229 212
255 229 212
255 229 212
255 229 212
255 229 212
255 229 212
255 241 224
255 229 212
255 229 212
255 229 212
255 229 212
255 229 212
255 229 212
255 229 212
255 229 212
255 229 212
255 229 212
255 229 212
255 229 212
255 229 212
255 229 212
255 229 212
255 229 212
255 229 212
255 229 212
255 229 212
255 229 212
255 229 212
255 229 212
255 229 212
255 229 212
255 229 212
255 229 212
255 229 212
255 229 212
255 229 212
255 229 212
255 229 212
255 229 212
255 229 212
255 229 212
255 229 212
255 229 212
255 241 224
255 229 212
255 229 212
255 229 212
255 229 212
255 229 212
255 229 212
255 229 212
255 229 212
255 229 212
255 229 212
255 229 212
255 229 212
255 229 212
255 229 212
255 229 212
255 229 212
255 229 212
255 229 212
255 229 212
255 229 212
255 229 212
255 229 212
255 229 212
255 229 212
255 229 212
255 229 212
255 229 212
255 229 212
255 229 212
255 229 212
255 229 212
255 229 212
255 229 212
255 229 212
255 229 212
255 229 212
255 229 212
255 229 212
255 229 212
255 229 212
255 229 212
255 229 212
255 229 212
255 229 212
255 229 212
255 229 212
255 229 212
255 229 212
255 229 212
255 229 212
255 229 212
255 229 212
255 229 212
255 229 212
255 229 212
255 229 212
255 229 212
255 229 212
255 229 212
255 241 224
255 229 212
255 229 212
255 229 212
255 229 212
255 229 212
255 229 212
255 229 212
255 229 212
255 229 212
255 229 212
255 229 212
255 229 212
255 229 212
255 229 212
255 229 212
255 229 212
255 229 212
255 229 212
255 229 212
255 229 212
255 229 212
255 229 212
255 229 212
255 229 212
255 229 212
255 229 212
255 229 212
255 229 212
255 229 212
255 229 212
255 229 212
255 229 212
255 229 212
255 229 212
255 229 212
255 229 212
255 241 224
255 229 212
255 229 212
255 229 212
255 229 212
255 229 212
255 229 212
255 229 212
255 229 212
255 229 212
255 229 212
255 229 212
255 229 212
255 229 212
255 229 212
255 229 212
255 229 212
255 229 212
255 229 212
255 229 212
255 229 212
255 229 212
255 229 212
255 229 212
255 229 212
255 229 212
255 229 212
255 229 212
255 229 212
255 229 212
255 229 212
255 229 212
255 229 212
255 229 212
255 229 212
255 229 212
255 229 212
255 241 224
255 229 212
255 229 212
255 229 212
255 229 212
255 229 212
255 229 212
255 229 212
255 229 212
255 229 212
255 229 212
255 229 212
255 229 212
255 229 212
255 229 212
255 229 212
255 229 212
255 229 212
255 229 212
255 229 212
255 229 212
255 229 212
255 229 212
255 229 212
255 229 212
255 229 212
255 229 212
255 229 212
255 229 212
255 229 212
255 229 212
255 229 212
255 229 212
255 229 212
255 229 212
255 229 212
255 229 212
255 241 224
255 229 212
255 229 212
255 229 212
255 229 212
255 229 212
255 229 212
255 229 212
255 229 212
255 229 212
255 229 212
255 229 212
255 229 212
255 229 212
255 229 212
255 229 212
255 229 212
255 229 212
255 229 212
255 229 212
255 229 212
255 229 212
255 229 212
255 229 212
255 229 212
255 229 212
255 229 212
255 229 212
255 229 212
255 229 212
255 229 212
255 229 212
255 229 212
255 229 212
255 229 212
255 229 212
255 229 212
255 241 224
255 229 212
255 229 212
255 229 212
255 229 212
255 229 212
255 229 212
255 229 212
255 229 212
255 229 212
255 229 212
255 229 212
255 229 212
255 229 212
255 229 212
255 229 212
255 229 212
255 229 212
255 229 212
255 229 212
255 229 212
255 229 212
255 229 212
255 229 212
255 229 212
255 229 212
255 229 212
255 229 212
255 229 212
255 229 212
255 229 212
255 229 212
255 229 212
255 229 212
255 229 212
255 229 212
255 229 212
255 241 224
255 229 212
255 229 212
255 229 212
255 229 212
255 229 212
255 229 212
255 229 212
255 229 212
255 229 212
255 229 212
255 229 212
255 229 212
255 229 212
255 229 212
255 229 212
255 229 212
255 229 212
255 229 212
255 229 212
255 229 212
255 229 212
255 229 212
255 229 212
255 229 212
255 229 212
255 229 212
255 229 212
255 229 212
255 229 212
255 229 212
255 229 212
255 229 212
255 229 212
255 229 212
255 229 212
255 229 212
255 241 224
255 229 212
255 229 212
255 229 212
255 229 212
255 229 212
255 229 212
255 229 212
255 229 212
255 229 212
255 229 212
255 229 212
255 229 212
255 229 212
255 229 212
255 229 212
255 229 212
255 229 212
255 229 212
255 229 212
255 229 212
255 229 212
255 229 212
255 229 212
255 229 212
255 229 212
255 229 212
255 229 212
255 229 212
255 229 212
255 229 212
255 229 212
255 229 212
255 229 212
255 229 212
255 229 212
255 229 212
255 241 224
255 229 212
255 229 212
255 229 212
255 229 212
255 229 212
255 229 212
255 229 212
255 229 212
255 229 212
255 229 212
255 229 212
255 229 212
255 229 212
255 229 212
255 229 212
255 229 212
255 229 212
255 229 212
255 229 212
255 229 212
255 229 212
255 229 212
255 229 212
255 229 212
255 229 212
255 229 212
255 229 212
255 229 212
255 229 212
255 229 212
255 229 212
255 229 212
255 229 212
255 229 212
255 229 212
255 229 212
255 229 212
255 229 212
255 229 212
255 229 212
255 229 212
255 229 212
255 229 212
255 229 212
255 229 212
255 229 212
255 229 212
255 229 212
255 229 212
255 229 212
255 229 212
255 229 212
255 229 212
255 229 212
255 229 212
255 229 212
255 229 212
255 229 212
255 229 212
255 241 224
255 229 212
255 229 212
255 229 212
255 229 212
255 229 212
255 229 212
255 229 212
255 229 212
255 229 212
255 229 212
255 229 212
255 229 212
255 229 212
255 229 212
255 229 212
255 229 212
255 229 212
255 229 212
255 229 212
255 229 212
255 229 212
255 229 212
255 229 212
255 229 212
255 229 212
255 229 212
255 229 212
255 229 212
255 229 212
255 229 212
255 229 212
255 229 212
255 229 212
255 229 212
255 229 212
255 229 212
255 241 224
255 229 212
255 229 212
255 229 212
255 229 212
255 229 212
255 229 212
255 229 212
255 229 212
255 229 212
255 229 212
255 229 212
255 229 212
255 229 212
255 229 212
255 229 212
255 229 212
255 229 212
255 229 212
255 229 212
255 229 212
255 229 212
255 229 212
255 229 212
255 229 212
255 229 212
255 229 212
255 229 212
255 229 212
255 229 212
255 229 212
255 229 212
255 229 212
255 229 212
255 229 212
255 229 212
255 229 212
255 241 224
255 229 212
255 229 212
255 229 212
255 229 212
255 229 212
255 229 212
255 229 212
255 229 212
255 229 212
255 229 212
255 229 212
255 229 212
255 229 212
255 229 212
255 229 212
255 229 212
255 229 212
255 229 212
255 229 212
255 229 212
255 229 212
255 229 212
255 229 212
255 229 212
255 229 212
255 229 212
255 229 212
255 229 212
255 229 212
255 229 212
255 229 212
255 229 212
255 229 212
255 229 212
255 229 212
255 229 212
255 241 224
255 229 212
255 229 212
255 229 212
255 229 212
255 229 212
255 229 212
255 229 212
255 229 212
255 229 212
255 229 212
255 229 212
255 229 212
255 229 212
255 229 212
255 229 212
255 229 212
255 229 212
255 229 212
255 229 212
255 229 212
255 229 212
255 229 212
255 229 212
255 229 212
255 229 212
255 229 212
255 229 212
255 229 212
255 229 212
255 229 212
255 229 212
255 229 212
255 229 212
255 229 212
255 229 212
255 229 212
255 241 224
255 229 212
255 229 212
255 229 212
255 229 212
255 229 212
255 229 212
255 229 212
255 229 212
255 229 212
255 229 212
255 229 212
255 229 212
255 229 212
255 229 212
255 229 212
255 229 212
255 229 212
255 229 212
255 229 212
255 229 212
255 229 212
255 229 212
255 229 212
255 229 212
255 229 212
255 229 212
255 229 212
255 229 212
255 229 212
255 229 212
255 229 212
255 229 212
255 229 212
255 229 212
255 229 212
255 229 212
255 241 224
255 229 212
255 229 212
255 229 212
255 229 212
255 229 212
255 229 212
255 229 212
255 229 212
255 229 212
255 229 212
255 229 212
255 229 212
255 229 212
255 229 212
255 229 212
255 229 212
255 229 212
255 229 212
255 229 212
255 229 212
255 229 212
255 229 212
255 229 212
255 229 212
255 229 212
255 229 212
255 229 212
255 229 212
255 229 212
255 229 212
255 229 212
255 229 212
255 229 212
255 229 212
255 229 212
255 229 212
255 241 224
255 229 212
255 229 212
255 229 212
255 229 212
255 229 212
255 229 212
255 229 212
255 229 212
255 229 212
255 229 212
255 229 212
255 229 212
255 229 212
255 229 212
255 229 212
255 229 212
255 229 212
255 229 212
255 229 212
255 229 212
255 229 212
255 229 212
255 229 212
255 229 212
255 229 212
255 229 212
255 229 212
255 229 212
255 229 212
255 229 212
255 229 212
255 229 212
255 229 212
255 229 212
255 229 212
255 229 212
255 241 224
255 229 212
255 229 212
255 229 212
255 229 212
255 229 212
255 229 212
255 229 212
255 229 212
255 229 212
255 229 212
255 229 212
255 229 212
255 229 212
255 229 212
255 229 212
255 229 212
255 229 212
255 229 212
255 229 212
255 229 212
255 229 212
255 229 212
255 229 212
255 229 212
255 229 212
255 229 212
255 229 212
255 229 212
255 229 212
255 229 212
255 229 212
255 229 212
255 229 212
255 229 212
255 229 212
255 229 212
255 229 212
255 229 212
255 229 212
255 229 212
255 229 212
255 229 212
255 229 212
255 229 212
255 229 212
255 229 212
255 229 212
255 229 212
255 229 212
255 229 212
255 229 212
255 229 212
255 229 212
255 229 212
255 229 212
255 229 212
255 229 212
255 229 212
255 229 212
255 241 224
255 229 212
255 229 212
255 229 212
255 229 212
255 229 212
255 229 212
255 229 212
255 229 212
255 229 212
255 229 212
255 229 212
255 229 212
255 229 212
255 229 212
255 229 212
255 229 212
255 229 212
255 229 212
255 229 212
255 229 212
255 229 212
255 229 212
255 229 212
255 229 212
255 229 212
255 229 212
255 229 212
255 229 212
255 229 212
255 229 212
255 229 212
255 229 212
255 229 212
255 229 212
255 229 212
255 229 212
255 241 224
255 229 212
255 229 212
255 229 212
255 229 212
255 229 212
255 229 212
255 229 212
255 229 212
255 229 212
255 229 212
255 229 212
255 229 212
255 229 212
255 229 212
255 229 212
255 229 212
255 229 212
255 229 212
255 229 212
255 229 212
255 229 212
255 229 212
255 229 212
255 229 212
255 229 212
255 229 212
255 229 212
255 229 212
255 229 212
255 229 212
255 229 212
255 229 212
255 229 212
255 229 212
255 229 212
255 229 212
255 241 224
255 229 212
255 229 212
255 229 212
255 229 212
255 229 212
255 229 212
255 229 212
255 229 212
255 229 212
255 229 212
255 229 212
255 229 212
255 229 212
255 229 212
255 229 212
255 229 212
255 229 212
255 229 212
255 229 212
255 229 212
255 229 212
255 229 212
255 229 212
255 229 212
255 229 212
255 229 212
255 229 212
255 229 212
255 229 212
255 229 212
255 229 212
255 229 212
255 229 212
255 229 212
255 229 212
255 229 212
255 241 224
255 229 212
255 229 212
255 229 212
255 229 212
255 229 212
255 229 212
255 229 212
255 229 212
255 229 212
255 229 212
255 229 212
255 229 212
255 229 212
255 229 212
255 229 212
255 229 212
255 229 212
255 229 212
255 229 212
255 229 212
255 229 212
255 229 212
255 229 212
255 229 212
255 229 212
255 229 212
255 229 212
255 229 212
255 229 212
255 229 212
255 229 212
255 229 212
255 229 212
255 229 212
255 229 212
255 229 212
255 241 224
255 229 212
255 229 212
255 229 212
255 229 212
255 229 212
255 229 212
255 229 212
255 229 212
255 229 212
255 229 212
255 229 212
255 229 212
255 229 212
255 229 212
255 229 212
255 229 212
255 229 212
255 229 212
255 229 212
255 229 212
255 229 212
255 229 212
255 229 212
255 229 212
255 229 212
255 229 212
255 229 212
255 229 212
255 229 212
255 229 212
255 229 212
255 229 212
255 229 212
255 229 212
255 229 212
255 229 212
255 241 224
255 229 212
255 229 212
255 229 212
255 229 212
255 229 212
255 229 212
255 229 212
255 229 212
255 229 212
255 229 212
255 229 212
255 229 212
255 229 212
255 229 212
255 229 212
255 229 212
255 229 212
255 229 212
255 229 212
255 229 212
255 229 212
255 229 212
255 229 212
255 229 212
255 229 212
255 229 212
255 229 212
255 229 212
255 229 212
255 229 212
255 229 212
255 229 212
255 229 212
255 229 212
255 229 212
255 229 212
255 241 224
255 229 212
255 229 212
255 229 212
255 229 212
255 229 212
255 229 212
255 229 212
255 229 212
255 229 212
255 229 212
255 229 212
255 229 212
255 229 212
255 229 212
255 229 212
255 229 212
255 229 212
255 229 212
255 229 212
255 229 212
255 229 212
255 229 212
255 229 212
255 229 212
255 229 212
255 229 212
255 229 212
255 229 212
255 229 212
255 229 212
255 229 212
255 229 212
255 229 212
255 229 212
255 229 212
255 229 212
255 241 224
255 229 212
255 229 212
255 229 212
255 229 212
255 229 212
255 229 212
255 229 212
255 229 212
255 229 212
255 229 212
255 229 212
255 229 212
255 229 212
255 229 212
255 229 212
255 229 212
255 229 212
255 229 212
255 229 212
255 229 212
255 229 212
255 229 212
255 229 212
255 229 212
255 229 212
255 229 212
255 229 212
255 229 212
255 229 212
255 229 212
255 229 212
255 229 212
255 229 212
255 229 212
255 229 212
255 229 212
255 229 212
255 229 212
255 229 212
255 229 212
255 229 212
255 229 212
255 229 212
255 229 212
255 229 212
255 229 212
255 229 212
255 229 212
255 229 212
255 229 212
255 229 212
255 229 212
255 229 212
255 229 212
255 229 212
255 229 212
255 229 212
255 229 212
255 229 212
255 241 224
255 229 212
255 229 212
255 229 212
255 229 212
255 229 212
255 229 212
255 229 212
255 229 212
255 229 212
255 229 212
255 229 212
255 229 212
255 229 212
255 229 212
255 229 212
255 229 212
255 229 212
255 229 212
255 229 212
255 229 212
255 229 212
255 229 212
255 229 212
255 229 212
255 229 212
255 229 212
255 229 212
255 229 212
255 229 212
255 229 212
255 229 212
255 229 212
255 229 212
255 229 212
255 229 212
255 229 212
255 241 224
255 229 212
255 229 212
255 229 212
255 229 212
255 229 212
255 229 212
255 229 212
255 229 212
255 229 212
255 229 212
255 229 212
255 229 212
255 229 212
255 229 212
255 229 212
255 229 212
255 229 212
255 229 212
255 229 212
255 229 212
255 229 212
255 229 212
255 229 212
255 229 212
255 229 212
255 229 212
255 229 212
255 229 212
255 229 212
255 229 212
255 229 212
255 229 212
255 229 212
255 229 212
255 229 212
255 229 212
255 241 224
255 229 212
255 229 212
255 229 212
255 229 212
255 229 212
255 229 212
255 229 212
255 229 212
255 229 212
255 229 212
255 229 212
255 229 212
255 229 212
255 229 212
255 229 212
255 229 212
255 229 212
255 229 212
255 229 212
255 229 212
255 229 212
255 229 212
255 229 212
255 229 212
255 229 212
255 229 212
255 229 212
255 229 212
255 229 212
255 229 212
255 229 212
255 229 212
255 229 212
255 229 212
255 229 212
255 229 212
255 241 224
255 229 212
255 229 212
255 229 212
255 229 212
255 229 212
255 229 212
255 229 212
255 229 212
255 229 212
255 229 212
255 229 212
255 229 212
255 229 212
255 229 212
255 229 212
255 229 212
255 229 212
255 229 212
255 229 212
255 229 212
255 229 212
255 229 212
255 229 212
255 229 212
255 229 212
255 229 212
255 229 212
255 229 212
255 229 212
255 229 212
255 229 212
255 229 212
255 229 212
255 229 212
255 229 212
255 229 212
255 241 224
255 229 212
255 229 212
255 229 212
255 229 212
255 229 212
255 229 212
255 229 212
255 229 212
255 229 212
255 229 212
255 229 212
255 229 212
255 229 212
255 229 212
255 229 212
255 229 212
255 229 212
255 229 212
255 229 212
255 229 212
255 229 212
255 229 212
255 229 212
255 229 212
255 229 212
255 229 212
255 229 212
255 229 212
255 229 212
255 229 212
255 229 212
255 229 212
255 229 212
255 229 212
255 229 212
255 229 212
255 241 224
255 229 212
255 229 212
255 229 212
255 229 212
255 229 212
255 229 212
255 229 212
255 229 212
255 229 212
255 229 212
255 229 212
255 229 212
255 229 212
255 229 212
255 229 212
255 229 212
255 229 212
255 229 212
255 229 212
255 229 212
255 229 212
255 229 212
255 229 212
255 229 212
255 229 212
255 229 212
255 229 212
255 229 212
255 229 212
255 229 212
255 229 212
255 229 212
255 229 212
255 229 212
255 229 212
255 229 212
255 241 224
255 229 212
255 229 212
255 229 212
255 229 212
255 229 212
255 229 212
255 229 212
255 229 212
255 229 212
255 229 212
255 229 212
255 229 212
255 229 212
255 229 212
255 229 212
255 229 212
255 229 212
255 229 212
255 229 212
255 229 212
255 229 212
255 229 212
255 229 212
255 229 212
255 229 212
255 229 212
255 229 212
255 229 212
255 229 212
255 229 212
255 229 212
255 229 212
255 229 212
255 229 212
255 229 212
255 229 212
255 241 224
255 229 212
255 229 212
255 229 212
255 229 212
255 229 212
255 229 212
255 229 212
255 229 212
255 229 212
255 229 212
255 229 212
255 229 212
255 229 212
255 229 212
255 229 212
255 229 212
255 229 212
255 229 212
255 229 212
255 229 212
255 229 212
255 229 212
255 229 212
255 229 212
255 229 212
255 229 212
255 229 212
255 229 212
255 229 212
255 229 212
255 229 212
255 229 212
255 229 212
255 229 212
255 229 212
255 229 212
255 229 212
255 229 212
255 229 212
255 229 212
255 229 212
255 229 212
255 229 212
255 229 212
255 229 212
255 229 212
255 229 212
255 229 212
255 229 212
255 229 212
255 229 212
255 229 212
255 229 212
255 229 212
255 229 212
255 229 212
255 229 212
255 229 212
255 229 212
255 241 224
255 229 212
255 229 212
255 229 212
255 229 212
255 229 212
255 229 212
255 229 212
255 229 212
255 229 212
255 229 212
255 229 212
255 229 212
255 229 212
255 229 212
255 229 212
255 229 212
255 229 212
255 229 212
255 229 212
255 229 212
255 229 212
255 229 212
255 229 212
255 229 212
255 229 212
255 229 212
255 229 212
255 229 212
255 229 212
255 229 212
255 229 212
255 229 212
255 229 212
255 229 212
255 229 212
255 229 212
255 241 224
255 229 212
255 229 212
255 229 212
255 229 212
255 229 212
255 229 212
255 229 212
255 229 212
255 229 212
255 229 212
255 229 212
255 229 212
255 229 212
255 229 212
255 229 212
255 229 212
255 229 212
255 229 212
255 229 212
255 229 212
255 229 212
255 229 212
255 229 212
255 229 212
255 229 212
255 229 212
255 229 212
255 229 212
255 229 212
255 229 212
255 229 212
255 229 212
255 229 212
255 229 212
255 229 212
255 229 212
255 241 224
255 229 212
255 229 212
255 229 212
255 229 212
255 229 212
255 229 212
255 229 212
255 229 212
255 229 212
255 229 212
255 229 212
255 229 212
255 229 212
255 229 212
255 229 212
255 229 212
255 229 212
255 229 212
255 229 212
255 229 212
255 229 212
255 229 212
255 229 212
255 229 212
255 229 212
255 229 212
255 229 212
255 229 212
255 229 212
255 229 212
255 229 212
255 229 212
255 229 212
255 229 212
255 229 212
255 229 212
255 241 224
255 229 212
255 229 212
255 229 212
255 229 212
255 229 212
255 229 212
255 229 212
255 229 212
255 229 212
255 229 212
255 229 212
255 229 212
255 229 212
255 229 212
255 229 212
255 229 212
255 229 212
255 229 212
255 229 212
255 229 212
255 229 212
255 229 212
255 229 212
255 229 212
255 229 212
255 229 212
255 229 212
255 229 212
255 229 212
255 229 212
255 229 212
255 229 212
255 229 212
255 229 212
255 229 212
255 229 212
255 241 224
255 229 212
255 229 212
255 229 212
255 229 212
255 229 212
255 229 212
255 229 212
255 229 212
255 229 212
255 229 212
255 229 212
255 229 212
255 229 212
255 229 212
255 229 212
255 229 212
255 229 212
255 229 212
255 229 212
255 229 212
255 229 212
255 229 212
255 229 212
255 229 212
255 229 212
255 229 212
255 229 212
255 229 212
255 229 212
255 229 212
255 229 212
255 229 212
255 229 212
255 229 212
255 229 212
255 229 212
255 241 224
255 229 212
255 229 212
255 229 212
255 229 212
255 229 212
255 229 212
255 229 212
255 229 212
255 229 212
255 229 212
255 229 212
255 229 212
255 229 212
255 229 212
255 229 212
255 229 212
255 229 212
255 229 212
255 229 212
255 229 212
255 229 212
255 229 212
255 229 212
255 229 212
255 229 212
255 229 212
255 229 212
255 229 212
255 229 212
255 229 212
255 229 212
255 229 212
255 229 212
255 229 212
255 229 212
255 229 212
255 241 224
255 229 212
255 229 212
255 229 212
255 229 212
255 229 212
255 229 212
255 229 212
255 229 212
255 229 212
255 229 212
255 229 212
255 229 212
255 229 212
255 229 212
255 229 212
255 229 212
255 229 212
255 229 212
255 229 212
255 229 212
255 229 212
255 229 212
255 229 212
255 229 212
255 229 212
255 229 212
255 229 212
255 229 212
255 229 212
255 229 212
255 229 212
255 229 212
255 229 212
255 229 212
255 229 212
255 229 212
255 241 224
255 229 212
255 229 212
255 229 212
255 229 212
255 229 212
255 229 212
255 229 212
255 229 212
255 229 212
255 229 212
255 229 212
255 229 212
255 229 212
255 229 212
255 229 212
255 229 212
255 229 212
255 229 212
255 229 212
255 229 212
255 229 212
255 229 212
255 229 212
255 229 212
255 229 212
255 229 212
255 229 212
255 229 212
255 229 212
255 229 212
255 229 212
255 229 212
255 229 212
255 229 212
255 229 212
255 229 212
255 229 212
255 229 212
255 229 212
255 229 212
255 229 212
255 229 212
255 229 212
255 229 212
255 229 212
255 229 212
255 229 212
255 229 212
255 229 212
255 229 212
255 229 212
255 229 212
255 229 212
255 229 212
255 229 212
255 229 212
255 229 212
255 229 212
255 229 212
255 241 224
255 229 212
255 229 212
255 229 212
255 229 212
255 229 212
255 229 212
255 229 212
255 229 212
255 229 212
255 229 212
255 229 212
255 229 212
255 229 212
255 229 212
255 229 212
255 229 212
255 229 212
255 229 212
255 229 212
255 229 212
255 229 212
255 229 212
255 229 212
255 229 212
255 229 212
255 229 212
255 229 212
255 229 212
255 229 212
255 229 212
255 229 212
255 229 212
255 229 212
255 229 212
255 229 212
255 229 212
255 241 224
255 229 212
255 229 212
255 229 212
255 229 212
255 229 212
255 229 212
255 229 212
255 229 212
255 229 212
255 229 212
255 229 212
255 229 212
255 229 212
255 229 212
255 229 212
255 229 212
255 229 212
255 229 212
255 229 212
255 229 212
255 229 212
255 229 212
255 229 212
255 229 212
255 229 212
255 229 212
255 229 212
255 229 212
255 229 212
255 229 212
255 229 212
255 229 212
255 229 212
255 229 212
255 229 212
255 229 212
255 241 224
255 229 212
255 229 212
255 229 212
255 229 212
255 229 212
255 229 212
255 229 212
255 229 212
255 229 212
255 229 212
255 229 212
255 229 212
255 229 212
255 229 212
255 229 212
255 229 212
255 229 212
255 229 212
255 229 212
255 229 212
255 229 212
255 229 212
255 229 212
255 229 212
255 229 212
255 229 212
255 229 212
255 229 212
255 229 212
255 229 212
255 229 212
255 229 212
255 229 212
255 229 212
255 229 212
255 229 212
255 241 224
255 229 212
255 229 212
255 229 212
255 229 212
255 229 212
255 229 212
255 229 212
255 229 212
255 229 212
255 229 212
255 229 212
255 229 212
255 229 212
255 229 212
255 229 212
255 229 212
255 229 212
255 229 212
255 229 212
255 229 212
255 229 212
255 229 212
255 229 212
255 229 212
255 229 212
255 229 212
255 229 212
255 229 212
255 229 212
255 229 212
255 229 212
255 229 212
255 229 212
255 229 212
255 229 212
255 229 212
255 241 224
255 229 212
255 229 212
255 229 212
255 229 212
255 229 212
255 229 212
255 229 212
255 229 212
255 229 212
255 229 212
255 229 212
255 229 212
255 229 212
255 229 212
255 229 212
255 229 212
255 229 212
255 229 212
255 229 212
255 229 212
255 229 212
255 229 212
255 229 212
255 229 212
255 229 212
255 229 212
255 229 212
255 229 212
255 229 212
255 229 212
255 229 212
255 229 212
255 229 212
255 229 212
255 229 212
255 229 212
255 241 224
255 229 212
255 229 212
255 229 212
255 229 212
255 229 212
255 229 212
255 229 212
255 229 212
255 229 212
255 229 212
255 229 212
255 229 212
255 229 212
255 229 212
255 229 212
255 229 212
255 229 212
255 229 212
255 229 212
255 229 212
255 229 212
255 229 212
255 229 212
255 229 212
255 229 212
255 229 212
255 229 212
255 229 212
255 229 212
255 229 212
255 229 212
255 229 212
255 229 212
255 229 212
255 229 212
255 229 212
255 241 224
255 229 212
255 229 212
255 229 212
255 229 212
255 229 212
255 229 212
255 229 212
255 229 212
255 229 212
255 229 212
255 229 212
255 229 212
255 229 212
255 229 212
255 229 212
255 229 212
255 229 212
255 229 212
255 229 212
255 229 212
255 229 212
255 229 212
255 229 212
255 229 212
255 229 212
255 229 212
255 229 212
255 229 212
255 229 212
255 229 212
255 229 212
255 229 212
255 229 212
255 229 212
255 229 212
255 229 212
255 241 224
255 229 212
255 229 212
255 229 212
255 229 212
255 229 212
255 229 212
255 229 212
255 229 212
255 229 212
255 229 212
255 229 212
255 229 212
255 229 212
255 229 212
255 229 212
255 229 212
255 229 212
255 229 212
255 229 212
255 229 212
255 229 212
255 229 212
255 229 212
255 229 212
255 229 212
255 229 212
255 229 212
255 229 212
255 229 212
255 229 212
255 229 212
255 229 212
255 229 212
255 229 212
255 229 212
255 229 212
255 229 212
255 229 212
255 229 212
255 229 212
255 229 212
255 229 212
255 229 212
255 229 212
255 229 212
255 229 212
255 229 212
255 229 212
255 229 212
255 229 212
255 229 212
255 229 212
255 229 212
255 229 212
255 229 212
255 229 212
255 229 212
255 229 212
255 229 212
255 241 224
255 229 212
255 229 212
255 229 212
255 229 212
255 229 212
255 229 212
255 229 212
255 229 212
255 229 212
255 229 212
255 229 212
255 229 212
255 229 212
255 229 212
255 229 212
255 229 212
255 229 212
255 229 212
255 229 212
255 229 212
255 229 212
255 229 212
255 229 212
255 229 212
255 229 212
255 229 212
255 229 212
255 229 212
255 229 212
255 229 212
255 229 212
255 229 212
255 229 212
255 229 212
255 229 212
255 229 212
255 241 224
255 229 212
255 229 212
255 229 212
255 229 212
255 229 212
255 229 212
255 229 212
255 229 212
255 229 212
255 229 212
255 229 212
255 229 212
255 229 212
255 229 212
255 229 212
255 229 212
255 229 212
255 229 212
255 229 212
255 229 212
255 229 212
255 229 212
255 229 212
255 229 212
255 229 212
255 229 212
255 229 212
255 229 212
255 229 212
255 229 212
255 229 212
255 229 212
255 229 212
255 229 212
255 229 212
255 229 212
255 241 224
255 229 212
255 229 212
255 229 212
255 229 212
255 229 212
255 229 212
255 229 212
255 229 212
255 229 212
255 229 212
255 229 212
255 229 212
255 229 212
255 229 212
255 229 212
255 229 212
255 229 212
255 229 212
255 229 212
255 229 212
255 229 212
255 229 212
255 229 212
255 229 212
255 229 212
255 229 212
255 229 212
255 229 212
255 229 212
255 229 212
255 229 212
255 229 212
255 229 212
255 229 212
255 229 212
255 229 212
255 241 224
255 229 212
255 229 212
255 229 212
255 229 212
255 229 212
255 229 212
255 229 212
255 229 212
255 229 212
255 229 212
255 229 212
255 229 212
255 229 212
255 229 212
255 229 212
255 229 212
255 229 212
255 229 212
255 229 212
255 229 212
255 229 212
255 229 212
255 229 212
255 229 212
255 229 212
255 229 212
255 229 212
255 229 212
255 229 212
255 229 212
255 229 212
255 229 212
255 229 212
255 229 212
255 229 212
255 229 212
255 241 224
255 229 212
255 229 212
255 229 212
255 229 212
255 229 212
255 229 212
255 229 212
255 229 212
255 229 212
255 229 212
255 229 212
255 229 212
255 229 212
255 229 212
255 229 212
255 229 212
255 229 212
255 229 212
255 229 212
255 229 212
255 229 212
255 229 212
255 229 212
255 229 212
255 229 212
255 229 212
255 229 212
255 229 212
255 229 212
255 229 212
255 229 212
255 229 212
255 229 212
255 229 212
255 229 212
255 229 212
255 241 224
255 229 212
255 229 212
255 229 212
255 229 212
255 229 212
255 229 212
255 229 212
255 229 212
255 229 212
255 229 212
255 229 212
255 229 212
255 229 212
255 229 212
255 229 212
255 229 212
255 229 212
255 229 212
255 229 212
255 229 212
255 229 212
255 229 212
255 229 212
255 229 212
255 229 212
255 229 212
255 229 212
255 229 212
255 229 212
255 229 212
255 229 212
255 229 212
255 229 212
255 229 212
255 229 212
255 229 212
255 241 224
255 229 212
255 229 212
255 229 212
255 229 212
255 229 212
255 229 212
255 229 212
255 229 212
255 229 212
255 229 212
255 229 212
255 229 212
255 229 212
255 229 212
255 229 212
255 229 212
255 229 212
255 229 212
255 229 212
255 229 212
255 229 212
255 229 212
255 229 212
255 229 212
255 229 212
255 229 212
255 229 212
255 229 212
255 229 212
255 229 212
255 229 212
255 229 212
255 229 212
255 229 212
255 229 212
255 229 212
255 241 224
255 229 212
255 229 212
255 229 212
255 229 212
255 229 212
255 229 212
255 229 212
255 229 212
255 229 212
255 229 212
255 229 212
255 229 212
255 229 212
255 229 212
255 229 212
255 229 212
255 229 212
255 229 212
255 229 212
255 229 212
255 229 212
255 229 212
255 229 212
255 229 212
255 229 212
255 229 212
255 229 212
255 229 212
255 229 212
255 229 212
255 229 212
255 229 212
255 229 212
255 229 212
255 229 212
255 229 212
255 241 224
255 229 212
255 229 212
255 229 212
255 229 212
255 229 212
255 229 212
255 229 212
255 229 212
255 229 212
255 229 212
255 229 212
255 229 212
255 229 212
255 229 212
255 229 212
255 229 212
255 229 212
255 229 212
255 229 212
255 229 212
255 229 212
255 229 212
255 241 224
255 229 212
255 229 212
255 229 212
255 229 212
255 229 212
255 229 212
255 229 212
255 229 212
255 229 212
255 229 212
255 229 212
255 229 212
255 229 212
255 229 212
255 229 212
255 229 212
255 229 212
255 229 212
255 229 212
255 229 212
255 229 212
255 229 212
255 229 212
255 229 212
255 229 212
255 229 212
255 229 212
255 229 212
255 229 212
255 229 212
255 229 212
255 229 212
255 229 212
255 229 212
255 229 212
255 229 212
255 241 224
255 229 212
255 229 212
255 229 212
255 229 212
255 229 212
255 229 212
255 229 212
255 229 212
255 229 212
255 229 212
255 229 212
255 229 212
255 229 212
255 229 212
255 229 212
255 229 212
255 229 212
255 229 212
255 229 212
255 229 212
255 229 212
255 229 212
255 229 212
255 229 212
255 229 212
255 229 212
255 229 212
255 229 212
255 229 212
255 229 212
255 229 212
255 229 212
255 229 212
255 229 212
255 229 212
255 229 212
255 241 224
255 229 212
255 229 212
255 229 212
255 229 212
255 229 212
255 229 212
255 229 212
255 229 212
255 229 212
255 229 212
255 229 212
255 229 212
255 229 212
255 229 212
255 229 212
255 229 212
255 229 212
255 229 212
255 229 212
255 229 212
255 229 212
255 229 212
255 229 212
255 229 212
255 229 212
255 229 212
255 229 212
255 229 212
255 229 212
255 229 212
255 229 212
255 229 212
255 229 212
255 229 212
255 229 212
255 229 212
255 241 224
255 229 212
255 229 212
255 229 212
255 229 212
255 229 212
255 229 212
255 229 212
255 229 212
255 229 212
255 229 212
255 229 212
255 229 212
255 229 212
255 229 212
255 229 212
255 229 212
255 229 212
255 229 212
255 229 212
255 229 212
255 229 212
255 229 212
255 229 212
255 229 212
255 229 212
255 229 212
255 229 212
255 229 212
255 229 212
255 229 212
255 229 212
255 229 212
255 229 212
255 229 212
255 229 212
255 229 212
255 241 224
255 229 212
255 229 212
255 229 212
255 229 212
255 229 212
255 229 212
255 229 212
255 229 212
255 229 212
255 229 212
255 229 212
255 229 212
255 229 212
255 229 212
255 229 212
255 229 212
255 229 212
255 229 212
255 229 212
255 229 212
255 229 212
255 229 212
255 229 212
255 229 212
255 229 212
255 229 212
255 229 212
255 229 212
255 229 212
255 229 212
255 229 212
255 229 212
255 229 212
255 229 212
255 229 212
255 229 212
255 241 224
255 229 212
255 229 212
255 229 212
255 229 212
255 229 212
255 229 212
255 229 212
255 229 212
255 229 212
255 229 212
255 229 212
255 229 212
255 229 212
255 229 212
255 229 212
255 229 212
255 229 212
255 229 212
255 229 212
255 229 212
255 229 212
255 229 212
255 229 212
255 229 212
255 229 212
255 229 212
255 229 212
255 229 212
255 229 212
255 229 212
255 229 212
255 229 212
255 229 212
255 229 212
255 229 212
255 229 212
255 241 224
255 229 212
255 229 212
255 229 212
255 229 212
255 229 212
255 229 212
255 229 212
255 229 212
255 229 212
255 229 212
255 229 212
255 229 212
255 229 212
255 229 212
255 229 212
255 229 212
255 229 212
255 229 212
255 229 212
255 229 212
255 229 212
255 229 212
255 229 212
255 229 212
255 229 212
255 229 212
255 229 212
255 229 212
255 229 212
255 229 212
255 229 212
255 229 212
255 229 212
255 229 212
255 229 212
255 229 212
255 241 224
255 229 212
255 229 212
255 229 212
255 229 212
255 229 212
255 229 212
255 229 212
255 229 212
255 229 212
255 229 212
255 229 212
255 229 212
255 229 212
255 229 212
255 229 212
255 229 212
255 229 212
255 229 212
255 229 212
255 229 212
255 229 212
255 229 212
255 229 212
255 229 212
255 229 212
255 229 212
255 229 212
255 229 212
255 229 212
255 229 212
255 229 212
255 229 212
255 229 212
255 229 212
255 229 212
255 229 212
255 241 224
255 229 212
255 229 212
255 229 212
255 229 212
255 229 212
255 229 212
255 229 212
255 229 212
255 229 212
255 229 212
255 229 212
255 229 212
255 229 212
255 229 212
255 229 212
255 229 212
255 229 212
255 229 212
255 229 212
255 229 212
255 229 212
255 229 212
255 241 224
255 229 212
255 229 212
255 229 212
255 229 212
255 229 212
255 229 212
255 229 212
255 229 212
255 229 212
255 229 212
255 229 212
255 229 212
255 229 212
255 229 212
255 229 212
255 229 212
255 229 212
255 229 212
255 229 212
255 229 212
255 229 212
255 229 212
255 229 212
255 229 212
255 229 212
255 229 212
255 229 212
255 229 212
255 229 212
255 229 212
255 229 212
255 229 212
255 229 212
255 229 212
255 229 212
255 229 212
255 241 224
255 229 212
255 229 212
255 229 212
255 229 212
255 229 212
255 229 212
255 229 212
255 229 212
255 229 212
255 229 212
255 229 212
255 229 212
255 229 212
255 229 212
255 229 212
255 229 212
255 229 212
255 229 212
255 229 212
255 229 212
255 229 212
255 229 212
255 229 212
255 229 212
255 229 212
255 229 212
255 229 212
255 229 212
255 229 212
255 229 212
255 229 212
255 229 212
255 229 212
255 229 212
255 229 212
255 229 212
255 241 224
255 229 212
255 229 212
255 229 212
255 229 212
255 229 212
255 229 212
255 229 212
255 229 212
255 229 212
255 229 212
255 229 212
255 229 212
255 229 212
255 229 212
255 229 212
255 229 212
255 229 212
255 229 212
255 229 212
255 229 212
255 229 212
255 229 212
255 229 212
255 229 212
255 229 212
255 229 212
255 229 212
255 229 212
255 229 212
255 229 212
255 229 212
255 229 212
255 229 212
255 229 212
255 229 212
255 229 212
255 241 224
255 229 212
255 229 212
255 229 212
255 229 212
255 229 212
255 229 212
255 229 212
255 229 212
255 229 212
255 229 212
255 229 212
255 229 212
255 229 212
255 229 212
255 229 212
255 229 212
255 229 212
255 229 212
255 229 212
255 229 212
255 229 212
255 229 212
255 229 212
255 229 212
255 229 212
255 229 212
255 229 212
255 229 212
255 229 212
255 229 212
255 229 212
255 229 212
255 229 212
255 229 212
255 229 212
255 229 212
255 241 224
255 229 212
255 229 212
255 229 212
255 229 212
255 229 212
255 229 212
255 229 212
255 229 212
255 229 212
255 229 212
255 229 212
255 229 212
255 229 212
255 229 212
255 229 212
255 229 212
255 229 212
255 229 212
255 229 212
255 229 212
255 229 212
255 229 212
255 229 212
255 229 212
255 229 212
255 229 212
255 229 212
255 229 212
255 229 212
255 229 212
255 229 212
255 229 212
255 229 212
255 229 212
255 229 212
255 229 212
255 241 224
255 229 212
255 229 212
255 229 212
255 229 212
255 229 212
255 229 212
255 229 212
255 229 212
255 229 212
255 229 212
255 229 212
255 229 212
255 229 212
255 229 212
255 229 212
255 229 212
255 229 212
255 229 212
255 229 212
255 229 212
255 229 212
255 229 212
255 229 212
255 229 212
255 229 212
255 229 212
255 229 212
255 229 212
255 229 212
255 229 212
255 229 212
255 229 212
255 229 212
255 229 212
255 229 212
255 229 212
255 241 224
255 229 212
255 229 212
255 229 212
255 229 212
255 229 212
255 229 212
255 229 212
255 229 212
255 229 212
255 229 212
255 229 212
255 229 212
255 229 212
255 229 212
255 229 212
255 229 212
255 229 212
255 229 212
255 229 212
255 229 212
255 229 212
255 229 212
255 229 212
255 229 212
255 229 212
255 229 212
255 229 212
255 229 212
255 229 212
255 229 212
255 229 212
255 229 212
255 229 212
255 229 212
255 229 212
255 229 212
255 241 224
255 229 212
255 229 212
255 229 212
255 229 212
255 229 212
255 229 212
255 229 212
255 229 212
255 229 212
255 229 212
255 229 212
255 229 212
255 229 212
255 229 212
255 229 212
255 229 212
255 229 212
255 229 212
255 229 212
255 229 212
255 229 212
255 229 212
255 229 212
255 229 212
255 229 212
255 229 212
255 229 212
255 229 212
255 229 212
255 229 212
255 229 212
255 229 212
255 229 212
255 229 212
255 229 212
255 229 212
255 241 224
255 229 212
255 229 212
255 229 212
255 229 212
255 229 212
255 229 212
255 229 212
255 229 212
255 229 212
255 229 212
255 229 212
255 229 212
255 229 212
255 229 212
255 229 212
255 229 212
255 229 212
255 229 212
255 229 212
255 229 212
255 229 212
255 229 212
255 241 224
255 229 212
255 229 212
255 229 212
255 229 212
255 229 212
255 229 212
255 229 212
255 229 212
255 229 212
255 229 212
255 229 212
255 229 212
255 229 212
255 229 212
255 229 212
255 229 212
255 229 212
255 229 212
255 229 212
255 229 212
255 229 212
255 229 212
255 229 212
255 229 212
255 229 212
255 229 212
255 229 212
255 229 212
255 229 212
255 229 212
255 229 212
255 229 212
255 229 212
255 229 212
255 229 212
255 229 212
255 241 224
255 229 212
255 229 212
255 229 212
255 229 212
255 229 212
255 229 212
255 229 212
255 229 212
255 229 212
255 229 212
255 229 212
255 229 212
255 229 212
255 229 212
255 229 212
255 229 212
255 229 212
255 229 212
255 229 212
255 229 212
255 229 212
255 229 212
255 229 212
255 229 212
255 229 212
255 229 212
255 229 212
255 229 212
255 229 212
255 229 212
255 229 212
255 229 212
255 229 212
255 229 212
255 229 212
255 229 212
255 241 224
255 229 212
255 229 212
255 229 212
255 229 212
255 229 212
255 229 212
255 229 212
255 229 212
255 229 212
255 229 212
255 229 212
255 229 212
255 229 212
255 229 212
255 229 212
255 229 212
255 229 212
255 229 212
255 229 212
255 229 212
255 229 212
255 229 212
255 229 212
255 229 212
255 229 212
255 229 212
255 229 212
255 229 212
255 229 212
255 229 212
255 229 212
255 229 212
255 229 212
255 229 212
255 229 212
255 229 212
255 241 224
255 229 212
255 229 212
255 229 212
255 229 212
255 229 212
255 229 212
255 229 212
255 229 212
255 229 212
255 229 212
255 229 212
255 229 212
255 229 212
255 229 212
255 229 212
255 229 212
255 229 212
255 229 212
255 229 212
255 229 212
255 229 212
255 229 212
255 229 212
255 229 212
255 229 212
255 229 212
255 229 212
255 229 212
255 229 212
255 229 212
255 229 212
255 229 212
255 229 212
255 229 212
255 229 212
255 229 212
255 241 224
255 229 212
255 229 212
255 229 212
255 229 212
255 229 212
255 229 212
255 229 212
255 229 212
255 229 212
255 229 212
255 229 212
255 229 212
255 229 212
255 229 212
255 229 212
255 229 212
255 229 212
255 229 212
255 229 212
255 229 212
255 229 212
255 229 212
255 229 212
255 229 212
255 229 212
255 229 212
255 229 212
255 229 212
255 229 212
255 229 212
255 229 212
255 229 212
255 229 212
255 229 212
255 229 212
255 229 212
255 241 224
255 229 212
255 229 212
255 229 212
255 229 212
255 229 212
255 229 212
255 229 212
255 229 212
255 229 212
255 229 212
255 229 212
255 229 212
255 229 212
255 229 212
255 229 212
255 229 212
255 229 212
255 229 212
255 229 212
255 229 212
255 229 212
255 229 212
255 229 212
255 229 212
255 229 212
255 229 212
255 229 212
255 229 212
255 229 212
255 229 212
255 229 212
255 229 212
255 229 212
255 229 212
255 229 212
255 229 212
255 241 224
255 229 212
255 229 212
255 229 212
255 229 212
255 229 212
255 229 212
255 229 212
255 229 212
255 229 212
255 229 212
255 229 212
255 229 212
255 229 212
255 229 212
255 229 212
255 229 212
255 229 212
255 229 212
255 229 212
255 229 212
255 229 212
255 229 212
255 229 212
255 229 212
255 229 212
255 229 212
255 229 212
255 229 212
255 229 212
255 229 212
255 229 212
255 229 212
255 229 212
255 229 212
255 229 212
255 229 212
255 241 224
255 229 212
255 229 212
255 229 212
255 229 212
255 229 212
255 229 212
255 229 212
255 229 212
255 229 212
255 229 212
255 229 212
255 229 212
255 229 212
255 229 212
255 229 212
255 229 212
255 229 212
255 229 212
255 229 212
255 229 212
255 229 212
255 229 212
255 229 212
255 229 212
255 229 212
255 229 212
255 229 212
255 229 212
255 229 212
255 229 212
255 229 212
255 229 212
255 229 212
255 229 212
255 229 212
255 229 212
255 241 224
255 229 212
255 229 212
255 229 212
255 229 212
255 229 212
255 229 212
255 229 212
255 229 212
255 229 212
255 229 212
255 229 212
255 229 212
255 229 212
255 229 212
255 229 212
255 229 212
255 229 212
255 229 212
255 229 212
255 229 212
255 229 212
255 229 212
255 241 224
255 229 212
255 229 212
255 229 212
255 229 212
255 229 212
255 229 212
255 229 212
255 229 212
255 229 212
255 229 212
255 229 212
255 229 212
255 229 212
255 229 212
255 229 212
255 229 212
255 229 212
255 229 212
255 229 212
255 229 212
255 229 212
255 229 212
255 229 212
255 229 212
255 229 212
255 229 212
255 229 212
255 229 212
255 229 212
255 229 212
255 229 212
255 229 212
255 229 212
255 229 212
255 229 212
255 229 212
255 241 224
255 229 212
255 229 212
255 229 212
255 229 212
255 229 212
255 229 212
255 229 212
255 229 212
255 229 212
255 229 212
255 229 212
255 229 212
255 229 212
255 229 212
255 229 212
255 229 212
255 229 212
255 229 212
255 229 212
255 229 212
255 229 212
255 229 212
255 229 212
255 229 212
255 229 212
255 229 212
255 229 212
255 229 212
255 229 212
255 229 212
255 229 212
255 229 212
255 229 212
255 229 212
255 229 212
255 229 212
255 241 224
255 229 212
255 229 212
255 229 212
255 229 212
255 229 212
255 229 212
255 229 212
255 229 212
255 229 212
255 229 212
255 229 212
255 229 212
255 229 212
255 229 212
255 229 212
255 229 212
255 229 212
255 229 212
255 229 212
255 229 212
255 229 212
255 229 212
255 229 212
255 229 212
255 229 212
255 229 212
255 229 212
255 229 212
255 229 212
255 229 212
255 229 212
255 229 212
255 229 212
255 229 212
255 229 212
255 229 212
255 241 224
255 229 212
255 229 212
255 229 212
255 229 212
255 229 212
255 229 212
255 229 212
255 229 212
255 229 212
255 229 212
255 229 212
255 229 212
255 229 212
255 229 212
255 229 212
255 229 212
255 229 212
255 229 212
255 229 212
255 229 212
255 229 212
255 229 212
255 229 212
255 229 212
255 229 212
255 229 212
255 229 212
255 229 212
255 229 212
255 229 212
255 229 212
255 229 212
255 229 212
255 229 212
255 229 212
255 229 212
255 241 224
255 229 212
255 229 212
255 229 212
255 229 212
255 229 212
255 229 212
255 229 212
255 229 212
255 229 212
255 229 212
255 229 212
255 229 212
255 229 212
255 229 212
255 229 212
255 229 212
255 229 212
255 229 212
255 229 212
255 229 212
255 229 212
255 229 212
255 229 212
255 229 212
255 229 212
255 229 212
255 229 212
255 229 212
255 229 212
255 229 212
255 229 212
255 229 212
255 229 212
255 229 212
255 229 212
255 229 212
255 241 224
255 229 212
255 229 212
255 229 212
255 229 212
255 229 212
255 229 212
255 229 212
255 229 212
255 229 212
255 229 212
255 229 212
255 229 212
255 229 212
255 229 212
255 229 212
255 229 212
255 229 212
255 229 212
255 229 212
255 229 212
255 229 212
255 229 212
255 229 212
255 229 212
255 229 212
255 229 212
255 229 212
255 229 212
255 229 212
255 229 212
255 229 212
255 229 212
255 229 212
255 229 212
255 229 212
255 229 212
255 241 224
255 229 212
255 229 212
255 229 212
255 229 212
255 229 212
255 229 212
255 229 212
255 229 212
255 229 212
255 229 212
255 229 212
255 229 212
255 229 212
255 229 212
255 229 212
255 229 212
255 229 212
255 229 212
255 229 212
255 229 212
255 229 212
255 229 212
255 229 212
255 229 212
255 229 212
255 229 212
255 229 212
255 229 212
255 229 212
255 229 212
255 229 212
255 229 212
255 229 212
255 229 212
255 229 212
255 229 212
255 241 224
255 229 212
255 229 212
255 229 212
255 229 212
255 229 212
255 229 212
255 229 212
255 229 212
255 229 212
255 229 212
255 229 212
255 229 212
255 229 212
255 229 212
255 229 212
255 229 212
255 229 212
255 229 212
255 229 212
255 229 212
255 229 212
255 229 212
255 229 212
255 229 212
255 229 212
255 229 212
255 229 212
255 229 212
255 229 212
255 229 212
255 229 212
255 229 212
255 229 212
255 229 212
255 229 212
255 229 212
255 241 224
255 229 212
255 229 212
255 229 212
255 229 212
255 229 212
255 229 212
255 229 212
255 229 212
255 229 212
255 229 212
255 229 212
255 229 212
255 229 212
255 229 212
255 229 212
255 229 212
255 229 212
255 229 212
255 229 212
255 229 212
255 229 212
255 229 212
255 241 224
255 229 212
255 229 212
255 229 212
255 229 212
255 229 212
255 229 212
255 229 212
255 229 212
255 229 212
255 229 212
255 229 212
255 229 212
255 229 212
255 229 212
255 229 212
255 229 212
255 229 212
255 229 212
255 229 212
255 229 212
255 229 212
255 229 212
255 229 212
255 229 212
255 229 212
255 229 212
255 229 212
255 229 212
255 229 212
255 229 212
255 229 212
255 229 212
255 229 212
255 229 212
255 229 212
255 229 212
255 241 224
255 229 212
255 229 212
255 229 212
255 229 212
255 229 212
255 229 212
255 229 212
255 229 212
255 229 212
255 229 212
255 229 212
255 229 212
255 229 212
255 229 212
255 229 212
255 229 212
255 229 212
255 229 212
255 229 212
255 229 212
255 229 212
255 229 212
255 229 212
255 229 212
255 229 212
255 229 212
255 229 212
255 229 212
255 229 212
255 229 212
255 229 212
255 229 212
255 229 212
255 229 212
255 229 212
255 229 212
255 241 224
255 229 212
255 229 212
255 229 212
255 229 212
255 229 212
255 229 212
255 229 212
255 229 212
255 229 212
255 229 212
255 229 212
255 229 212
255 229 212
255 229 212
255 229 212
255 229 212
255 229 212
255 229 212
255 229 212
255 229 212
255 229 212
255 229 212
255 229 212
255 229 212
255 229 212
255 229 212
255 229 212
255 229 212
255 229 212
255 229 212
255 229 212
255 229 212
255 229 212
255 229 212
255 229 212
255 229 212
255 241 224
255 229 212
255 229 212
255 229 212
255 229 212
255 229 212
255 229 212
255 229 212
255 229 212
255 229 212
255 229 212
255 229 212
255 229 212
255 229 212
255 229 212
255 229 212
255 229 212
255 229 212
255 229 212
255 229 212
255 229 212
255 229 212
255 229 212
255 229 212
255 229 212
255 229 212
255 229 212
255 229 212
255 229 212
255 229 212
255 229 212
255 229 212
255 229 212
255 229 212
255 229 212
255 229 212
255 229 212
255 241 224
255 229 212
255 229 212
255 229 212
255 229 212
255 229 212
255 229 212
255 229 212
255 229 212
255 229 212
255 229 212
255 229 212
255 229 212
255 229 212
255 229 212
255 229 212
255 229 212
255 229 212
255 229 212
255 229 212
255 229 212
255 229 212
255 229 212
255 229 212
255 229 212
255 229 212
255 229 212
255 229 212
255 229 212
255 229 212
255 229 212
255 229 212
255 229 212
255 229 212
255 229 212
255 229 212
255 229 212
255 241 224
255 229 212
255 229 212
255 229 212
255 229 212
255 229 212
255 229 212
255 229 212
255 229 212
255 229 212
255 229 212
255 229 212
255 229 212
255 229 212
255 229 212
255 229 212
255 229 212
255 229 212
255 229 212
255 229 212
255 229 212
255 229 212
255 229 212
255 229 212
255 229 212
255 229 212
255 229 212
255 229 212
255 229 212
255 229 212
255 229 212
255 229 212
255 229 212
255 229 212
255 229 212
255 229 212
255 229 212
255 241 224
255 229 212
255 229 212
255 229 212
255 229 212
255 229 212
255 229 212
255 229 212
255 229 212
255 229 212
255 229 212
255 229 212
255 229 212
255 229 212
255 229 212
255 229 212
255 229 212
255 229 212
255 229 212
255 229 212
255 229 212
255 229 212
255 229 212
255 229 212
255 229 212
255 229 212
255 229 212
255 229 212
255 229 212
255 229 212
255 229 212
255 229 212
255 229 212
255 229 212
255 229 212
255 229 212
255 229 212
255 241 224
255 229 212
255 229 212
255 229 212
255 229 212
255 229 212
255 229 212
255 229 212
255 229 212
255 229 212
255 229 212
255 229 212
255 229 212
255 229 212
255 229 212
255 229 212
255 229 212
255 229 212
255 229 212
255 229 212
255 229 212
255 229 212
255 229 212
255 229 212
255 229 212
255 229 212
255 229 212
255 229 212
255 229 212
255 229 212
255 229 212
255 229 212
255 229 212
255 229 212
255 229 212
255 229 212
255 229 212
255 241 224
255 229 212
255 229 212
255 229 212
255 229 212
255 229 212
255 229 212
255 229 212
255 229 212
255 229 212
255 229 212
255 229 212
255 229 212
255 229 212
255 229 212
255 229 212
255 229 212
255 229 212
255 229 212
255 229 212
255 229 212
255 229 212
255 229 212
255 241 224
255 229 212
255 229 212
255 229 212
255 229 212
255 229 212
255 229 212
255 229 212
255 229 212
255 229 212
255 229 212
255 229 212
255 229 212
255 229 212
255 229 212
255 229 212
255 229 212
255 229 212
255 229 212
255 229 212
255 229 212
255 229 212
255 229 212
255 229 212
255 229 212
255 229 212
255 229 212
255 229 212
255 229 212
255 229 212
255 229 212
255 229 212
255 229 212
255 229 212
255 229 212
255 229 212
255 229 212
255 241 224
255 229 212
255 229 212
255 229 212
255 229 212
255 229 212
255 229 212
255 229 212
255 229 212
255 229 212
255 229 212
255 229 212
255 229 212
255 229 212
255 229 212
255 229 212
255 229 212
255 229 212
255 229 212
255 229 212
255 229 212
255 229 212
255 229 212
255 229 212
255 229 212
255 229 212
255 229 212
255 229 212
255 229 212
255 229 212
255 229 212
255 229 212
255 229 212
255 229 212
255 229 212
255 229 212
255 229 212
255 241 224
255 229 212
255 229 212
255 229 212
255 229 212
255 229 212
255 229 212
255 229 212
255 229 212
255 229 212
255 229 212
255 229 212
255 229 212
255 229 212
255 229 212
255 229 212
255 229 212
255 229 212
255 229 212
255 229 212
255 229 212
255 229 212
255 229 212
255 229 212
255 229 212
255 229 212
255 229 212
255 229 212
255 229 212
255 229 212
255 229 212
255 229 212
255 229 212
255 229 212
255 229 212
255 229 212
255 229 212
255 241 224
255 229 212
255 229 212
255 229 212
255 229 212
255 229 212
255 229 212
255 229 212
255 229 212
255 229 212
255 229 212
255 229 212
255 229 212
255 229 212
255 229 212
255 229 212
255 229 212
255 229 212
255 229 212
255 229 212
255 229 212
255 229 212
255 229 212
255 229 212
255 229 212
255 229 212
255 229 212
255 229 212
255 229 212
255 229 212
255 229 212
255 229 212
255 229 212
255 229 212
255 229 212
255 229 212
255 229 212
255 241 224
255 229 212
255 229 212
255 229 212
255 229 212
255 229 212
255 229 212
255 229 212
255 229 212
255 229 212
255 229 212
255 229 212
255 229 212
255 229 212
255 229 212
255 229 212
255 229 212
255 229 212
255 229 212
255 229 212
255 229 212
255 229 212
255 229 212
255 229 212
255 229 212
255 229 212
255 229 212
255 229 212
255 229 212
255 229 212
255 229 212
255 229 212
255 229 212
255 229 212
255 229 212
255 229 212
255 229 212
255 241 224
255 229 212
255 229 212
255 229 212
255 229 212
255 229 212
255 229 212
255 229 212
255 229 212
255 229 212
255 229 212
255 229 212
255 229 212
255 229 212
255 229 212
255 229 212
255 229 212
255 229 212
255 229 212
255 229 212
255 229 212
255 229 212
255 229 212
255 229 212
255 229 212
255 229 212
255 229 212
255 229 212
255 229 212
255 229 212
255 229 212
255 229 212
255 229 212
255 229 212
255 229 212
255 229 212
255 229 212
255 241 224
255 229 212
255 229 212
255 229 212
255 229 212
255 229 212
255 229 212
255 229 212
255 229 212
255 229 212
255 229 212
255 229 212
255 229 212
255 229 212
255 229 212
255 229 212
255 229 212
255 229 212
255 229 212
255 229 212
255 229 212
255 229 212
255 229 212
255 229 212
255 229 212
255 229 212
255 229 212
255 229 212
255 229 212
255 229 212
255 229 212
255 229 212
255 229 212
255 229 212
255 229 212
255 229 212
255 229 212
255 241 224
255 229 212
255 229 212
255 229 212
255 229 212
255 229 212
255 229 212
255 229 212
255 229 212
255 229 212
255 229 212
255 229 212
255 229 212
255 229 212
255 229 212
255 229 212
255 229 212
255 229 212
255 229 212
255 229 212
255 229 212
255 229 212
255 229 212
255 229 212
255 229 212
255 229 212
255 229 212
255 229 212
255 229 212
255 229 212
255 229 212
255 229 212
255 229 212
255 229 212
255 229 212
255 229 212
255 229 212
255 241 224
255 229 212
255 229 212
255 229 212
255 229 212
255 229 212
255 229 212
255 229 212
255 229 212
255 229 212
255 229 212
255 229 212
255 229 212
255 229 212
255 229 212
255 229 212
255 229 212
255 229 212
255 229 212
255 229 212
255 229 212
255 229 212
255 229 212
255 241 224
255 229 212
255 229 212
255 229 212
255 229 212
255 229 212
255 229 212
255 229 212
255 229 212
255 229 212
255 229 212
255 229 212
255 229 212
255 229 212
255 229 212
255 229 212
255 229 212
255 229 212
255 229 212
255 229 212
255 229 212
255 229 212
255 229 212
255 229 212
255 229 212
255 229 212
255 229 212
255 229 212
255 229 212
255 229 212
255 229 212
255 229 212
255 229 212
255 229 212
255 229 212
255 229 212
255 229 212
255 241 224
255 229 212
255 229 212
255 229 212
255 229 212
255 229 212
255 229 212
255 229 212
255 229 212
255 229 212
255 229 212
255 229 212
255 229 212
255 229 212
255 229 212
255 229 212
255 229 212
255 229 212
255 229 212
255 229 212
255 229 212
255 229 212
255 229 212
255 229 212
255 229 212
255 229 212
255 229 212
255 229 212
255 229 212
255 229 212
255 229 212
255 229 212
255 229 212
255 229 212
255 229 212
255 229 212
255 229 212
255 241 224
255 229 212
255 229 212
255 229 212
255 229 212
255 229 212
255 229 212
255 229 212
255 229 212
255 229 212
255 229 212
255 229 212
255 229 212
255 229 212
255 229 212
255 229 212
255 229 212
255 229 212
255 229 212
255 229 212
255 229 212
255 229 212
255 229 212
255 229 212
255 229 212
255 229 212
255 229 212
255 229 212
255 229 212
255 229 212
255 229 212
255 229 212
255 229 212
255 229 212
255 229 212
255 229 212
255 229 212
255 241 224
255 229 212
255 229 212
255 229 212
255 229 212
255 229 212
255 229 212
255 229 212
255 229 212
255 229 212
255 229 212
255 229 212
255 229 212
255 229 212
255 229 212
255 229 212
255 229 212
255 229 212
255 229 212
255 229 212
255 229 212
255 229 212
255 229 212
255 229 212
255 229 212
255 229 212
255 229 212
255 229 212
255 229 212
255 229 212
255 229 212
255 229 212
255 229 212
255 229 212
255 229 212
255 229 212
255 229 212
255 241 224
255 229 212
255 229 212
255 229 212
255 229 212
255 229 212
255 229 212
255 229 212
255 229 212
255 229 212
255 229 212
255 229 212
255 229 212
255 229 212
255 229 212
255 229 212
255 229 212
255 229 212
255 229 212
255 229 212
255 229 212
255 229 212
255 229 212
255 229 212
255 229 212
255 229 212
255 229 212
255 229 212
255 229 212
255 229 212
255 229 212
255 229 212
255 229 212
255 229 212
255 229 212
255 229 212
255 229 212
255 241 224
255 229 212
255 229 212
255 229 212
255 229 212
255 229 212
255 229 212
255 229 212
255 229 212
255 229 212
255 229 212
255 229 212
255 229 212
255 229 212
255 229 212
255 229 212
255 229 212
255 229 212
255 229 212
255 229 212
255 229 212
255 229 212
255 229 212
255 229 212
255 229 212
255 229 212
255 229 212
255 229 212
255 229 212
255 229 212
255 229 212
255 229 212
255 229 212
255 229 212
255 229 212
255 229 212
255 229 212
255 241 224
255 229 212
255 229 212
255 229 212
255 229 212
255 229 212
255 229 212
255 229 212
255 229 212
255 229 212
255 229 212
255 229 212
255 229 212
255 229 212
255 229 212
255 229 212
255 229 212
255 229 212
255 229 212
255 229 212
255 229 212
255 229 212
255 229 212
255 229 212
255 229 212
255 229 212
255 229 212
255 229 212
255 229 212
255 229 212
255 229 212
255 229 212
255 229 212
255 229 212
255 229 212
255 229 212
255 229 212
255 241 224
255 229 212
255 229 212
255 229 212
255 229 212
255 229 212
255 229 212
255 229 212
255 229 212
255 229 212
255 229 212
255 229 212
255 229 212
255 229 212
255 229 212
255 229 212
255 229 212
255 229 212
255 229 212
255 229 212
255 229 212
255 229 212
255 229 212
255 229 212
255 229 212
255 229 212
255 229 212
255 229 212
255 229 212
255 229 212
255 229 212
255 229 212
255 229 212
255 229 212
255 229 212
255 229 212
255 229 212
255 241 224
255 229 212
255 229 212
255 229 212
255 229 212
255 229 212
255 229 212
255 229 212
255 229 212
255 229 212
255 229 212
255 229 212
255 229 212
255 229 212
255 229 212
255 229 212
255 229 212
255 229 212
255 229 212
255 229 212
255 229 212
255 229 212
255 229 212
255 241 224
255 229 212
255 229 212
255 229 212
255 229 212
255 229 212
255 229 212
255 229 212
255 229 212
255 229 212
255 229 212
255 229 212
255 229 212
255 229 212
255 229 212
255 229 212
255 229 212
255 229 212
255 229 212
255 229 212
255 229 212
255 229 212
255 229 212
255 229 212
255 229 212
255 229 212
255 229 212
255 229 212
255 229 212
255 229 212
255 229 212
255 229 212
255 229 212
255 229 212
255 229 212
255 229 212
255 229 212
255 241 224
255 229 212
255 229 212
255 229 212
255 229 212
255 229 212
255 229 212
255 229 212
255 229 212
255 229 212
255 229 212
255 229 212
255 229 212
255 229 212
255 229 212
255 229 212
255 229 212
255 229 212
255 229 212
255 229 212
255 229 212
255 229 212
255 229 212
255 229 212
255 229 212
255 229 212
255 229 212
255 229 212
255 229 212
255 229 212
255 229 212
255 229 212
255 229 212
255 229 212
255 229 212
255 229 212
255 229 212
255 241 224
255 229 212
255 229 212
255 229 212
255 229 212
255 229 212
255 229 212
255 229 212
255 229 212
255 229 212
255 229 212
255 229 212
255 229 212
255 229 212
255 229 212
255 229 212
255 229 212
255 229 212
255 229 212
255 229 212
255 229 212
255 229 212
255 229 212
255 229 212
255 229 212
255 229 212
255 229 212
255 229 212
255 229 212
255 229 212
255 229 212
255 229 212
255 229 212
255 229 212
255 229 212
255 229 212
255 229 212
255 241 224
255 229 212
255 229 212
255 229 212
255 229 212
255 229 212
255 229 212
255 229 212
255 229 212
255 229 212
255 229 212
255 229 212
255 229 212
255 229 212
255 229 212
255 229 212
255 229 212
255 229 212
255 229 212
255 229 212
255 229 212
255 229 212
255 229 212
255 229 212
255 229 212
255 229 212
255 229 212
255 229 212
255 229 212
255 229 212
255 229 212
255 229 212
255 229 212
255 229 212
255 229 212
255 229 212
255 229 212
255 241 224
255 229 212
255 229 212
255 229 212
255 229 212
255 229 212
255 229 212
255 229 212
255 229 212
255 229 212
255 229 212
255 229 212
255 229 212
255 229 212
255 229 212
255 229 212
255 229 212
255 229 212
255 229 212
255 229 212
255 229 212
255 229 212
255 229 212
255 229 212
255 229 212
255 229 212
255 229 212
255 229 212
255 229 212
255 229 212
255 229 212
255 229 212
255 229 212
255 229 212
255 229 212
255 229 212
255 229 212
255 241 224
255 229 212
255 229 212
255 229 212
255 229 212
255 229 212
255 229 212
255 229 212
255 229 212
255 229 212
255 229 212
255 229 212
255 229 212
255 229 212
255 229 212
255 229 212
255 229 212
255 229 212
255 229 212
255 229 212
255 229 212
255 229 212
255 229 212
255 229 212
255 229 212
255 229 212
255 229 212
255 229 212
255 229 212
255 229 212
255 229 212
255 229 212
255 229 212
255 229 212
255 229 212
255 229 212
255 229 212
255 241 224
255 229 212
255 229 212
255 229 212
255 229 212
255 229 212
255 229 212
255 229 212
255 229 212
255 229 212
255 229 212
255 229 212
255 229 212
255 229 212
255 229 212
255 229 212
255 229 212
255 229 212
255 229 212
255 229 212
255 229 212
255 229 212
255 229 212
255 229 212
255 229 212
255 229 212
255 229 212
255 229 212
255 229 212
255 229 212
255 229 212
255 229 212
255 229 212
255 229 212
255 229 212
255 229 212
255 229 212
255 241 224
255 229 212
255 229 212
255 229 212
255 229 212
255 229 212
255 229 212
255 229 212
255 229 212
255 229 212
255 229 212
255 229 212
255 229 212
255 229 212
255 229 212
255 229 212
255 229 212
255 229 212
255 229 212
255 229 212
255 229 212
255 229 212
255 229 212
255 229 212
255 229 212
255 229 212
255 229 212
255 229 212
255 229 212
255 229 212
255 229 212
255 229 212
255 229 212
255 229 212
255 229 212
255 229 212
255 229 212
255 241 224
255 229 212
255 229 212
255 229 212
255 229 212
255 229 212
255 229 212
255 229 212
255 229 212
255 229 212
255 229 212
255 229 212
255 229 212
255 229 212
255 229 212
255 229 212
255 229 212
255 229 212
255 229 212
255 229 212
255 229 212
255 229 212
255 229 212
255 241 224
255 229 212
255 229 212
255 229 212
255 229 212
255 229 212
255 229 212
255 229 212
255 229 212
255 229 212
255 229 212
255 229 212
255 229 212
255 229 212
255 229 212
255 229 212
255 229 212
255 229 212
255 229 212
255 229 212
255 229 212
255 229 212
255 229 212
255 229 212
255 229 212
255 229 212
255 229 212
255 229 212
255 229 212
255 229 212
255 229 212
255 229 212
255 229 212
255 229 212
255 229 212
255 229 212
255 229 212
255 241 224
255 229 212
255 229 212
255 229 212
255 229 212
255 229 212
255 229 212
255 229 212
255 229 212
255 229 212
255 229 212
255 229 212
255 229 212
255 229 212
255 229 212
255 229 212
255 229 212
255 229 212
255 229 212
255 229 212
255 229 212
255 229 212
255 229 212
255 229 212
255 229 212
255 229 212
255 229 212
255 229 212
255 229 212
255 229 212
255 229 212
255 229 212
255 229 212
255 229 212
255 229 212
255 229 212
255 229 212
255 241 224
255 229 212
255 229 212
255 229 212
255 229 212
255 229 212
255 229 212
255 229 212
255 229 212
255 229 212
255 229 212
255 229 212
255 229 212
255 229 212
255 229 212
255 229 212
255 229 212
255 229 212
255 229 212
255 229 212
255 229 212
255 229 212
255 229 212
255 229 212
255 229 212
255 229 212
255 229 212
255 229 212
255 229 212
255 229 212
255 229 212
255 229 212
255 229 212
255 229 212
255 229 212
255 229 212
255 229 212
255 241 224
255 229 212
255 229 212
255 229 212
255 229 212
255 229 212
255 229 212
255 229 212
255 229 212
255 229 212
255 229 212
255 229 212
255 229 212
255 229 212
255 229 212
255 229 212
255 229 212
255 229 212
255 229 212
255 229 212
255 229 212
255 229 212
255 229 212
255 229 212
255 229 212
255 229 212
255 229 212
255 229 212
255 229 212
255 229 212
255 229 212
255 229 212
255 229 212
255 229 212
255 229 212
255 229 212
255 229 212
255 241 224
255 229 212
255 229 212
255 229 212
255 229 212
255 229 212
255 229 212
255 229 212
255 229 212
255 229 212
255 229 212
255 229 212
255 229 212
255 229 212
255 229 212
255 229 212
255 229 212
255 229 212
255 229 212
255 229 212
255 229 212
255 229 212
255 229 212
255 229 212
255 229 212
255 229 212
255 229 212
255 229 212
255 229 212
255 229 212
255 229 212
255 229 212
255 229 212
255 229 212
255 229 212
255 229 212
255 229 212
255 241 224
255 229 212
255 229 212
255 229 212
255 229 212
255 229 212
255 229 212
255 229 212
255 229 212
255 229 212
255 229 212
255 229 212
255 229 212
255 229 212
255 229 212
255 229 212
255 229 212
255 229 212
255 229 212
255 229 212
255 229 212
255 229 212
255 229 212
255 229 212
255 229 212
255 229 212
255 229 212
255 229 212
255 229 212
255 229 212
255 229 212
255 229 212
255 229 212
255 229 212
255 229 212
255 229 212
255 229 212
255 241 224
255 229 212
255 229 212
255 229 212
255 229 212
255 229 212
255 229 212
255 229 212
255 229 212
255 229 212
255 229 212
255 229 212
255 229 212
255 229 212
255 229 212
255 229 212
255 229 212
255 229 212
255 229 212
255 229 212
255 229 212
255 229 212
255 229 212
255 229 212
255 229 212
255 229 212
255 229 212
255 229 212
255 229 212
255 229 212
255 229 212
255 229 212
255 229 212
255 229 212
255 229 212
255 229 212
255 229 212
255 241 224
255 229 212
255 229 212
255 229 212
255 229 212
255 229 212
255 229 212
255 229 212
255 229 212
255 229 212
255 229 212
255 229 212
255 229 212
255 229 212
255 229 212
255 229 212
255 229 212
255 229 212
255 229 212
255 229 212
255 229 212
255 229 212
255 229 212
255 229 212
255 229 212
255 229 212
255 229 212
255 229 212
255 229 212
255 229 212
255 229 212
255 229 212
255 229 212
255 229 212
255 229 212
255 229 212
255 229 212
255 241 224
255 229 212
255 229 212
255 229 212
255 229 212
255 229 212
255 229 212
255 229 212
255 229 212
255 229 212
255 229 212
255 229 212
255 229 212
255 229 212
255 229 212
255 229 212
255 229 212
255 229 212
255 229 212
255 229 212
255 229 212
255 229 212
255 229 212
255 241 224
255 229 212
255 229 212
255 229 212
255 229 212
255 229 212
255 229 212
255 229 212
255 229 212
255 229 212
255 229 212
255 229 212
255 229 212
255 229 212
255 229 212
255 229 212
255 229 212
255 229 212
255 229 212
255 229 212
255 229 212
255 229 212
255 229 212
255 229 212
255 229 212
255 229 212
255 229 212
255 229 212
255 229 212
255 229 212
255 229 212
255 229 212
255 229 212
255 229 212
255 229 212
255 229 212
255 229 212
255 241 224
255 229 212
255 229 212
255 229 212
255 229 212
255 229 212
255 229 212
255 229 212
255 229 212
255 229 212
255 229 212
255 229 212
255 229 212
255 229 212
255 229 212
255 229 212
255 229 212
255 229 212
255 229 212
255 229 212
255 229 212
255 229 212
255 229 212
255 229 212
255 229 212
255 229 212
255 229 212
255 229 212
255 229 212
255 229 212
255 229 212
255 229 212
255 229 212
255 229 212
255 229 212
255 229 212
255 229 212
255 241 224
255 229 212
255 229 212
255 229 212
255 229 212
255 229 212
255 229 212
255 229 212
255 229 212
255 229 212
255 229 212
255 229 212
255 229 212
255 229 212
255 229 212
255 229 212
255 229 212
255 229 212
255 229 212
255 229 212
255 229 212
255 229 212
255 229 212
255 229 212
255 229 212
255 229 212
255 229 212
255 229 212
255 229 212
255 229 212
255 229 212
255 229 212
255 229 212
255 229 212
255 229 212
255 229 212
255 229 212
255 241 224
255 229 212
255 229 212
255 229 212
255 229 212
255 229 212
255 229 212
255 229 212
255 229 212
255 229 212
255 229 212
255 229 212
255 229 212
255 229 212
255 229 212
255 229 212
255 229 212
255 229 212
255 229 212
255 229 212
255 229 212
255 229 212
255 229 212
255 229 212
255 229 212
255 229 212
255 229 212
255 229 212
255 229 212
255 229 212
255 229 212
255 229 212
255 229 212
255 229 212
255 229 212
255 229 212
255 229 212
255 241 224
255 229 212
255 229 212
255 229 212
255 229 212
255 229 212
255 229 212
255 229 212
255 229 212
255 229 212
255 229 212
255 229 212
255 229 212
255 229 212
255 229 212
255 229 212
255 229 212
255 229 212
255 229 212
255 229 212
255 229 212
255 229 212
255 229 212
255 229 212
255 229 212
255 229 212
255 229 212
255 229 212
255 229 212
255 229 212
255 229 212
255 229 212
255 229 212
255 229 212
255 229 212
255 229 212
255 229 212
255 241 224
255 229 212
255 229 212
255 229 212
255 229 212
255 229 212
255 229 212
255 229 212
255 229 212
255 229 212
255 229 212
255 229 212
255 229 212
255 229 212
255 229 212
255 229 212
255 229 212
255 229 212
255 229 212
255 229 212
255 229 212
255 229 212
255 229 212
255 229 212
255 229 212
255 229 212
255 229 212
255 229 212
255 229 212
255 229 212
255 229 212
255 229 212
255 229 212
255 229 212
255 229 212
255 229 212
255 229 212
255 241 224
255 229 212
255 229 212
255 229 212
255 229 212
255 229 212
255 229 212
255 229 212
255 229 212
255 229 212
255 229 212
255 229 212
255 229 212
255 229 212
255 229 212
255 229 212
255 229 212
255 229 212
255 229 212
255 229 212
255 229 212
255 229 212
255 229 212
255 229 212
255 229 212
255 229 212
255 229 212
255 229 212
255 229 212
255 229 212
255 229 212
255 229 212
255 229 212
255 229 212
255 229 212
255 229 212
255 229 212
255 241 224
255 229 212
255 229 212
255 229 212
255 229 212
255 229 212
255 229 212
255 229 212
255 229 212
255 229 212
255 229 212
255 229 212
255 229 212
255 229 212
255 229 212
255 229 212
255 229 212
255 229 212
255 229 212
255 229 212
255 229 212
255 229 212
255 229 212
255 229 212
255 229 212
255 229 212
255 229 212
255 229 212
255 229 212
255 229 212
255 229 212
255 229 212
255 229 212
255 229 212
255 229 212
255 229 212
255 229 212
255 241 224
255 229 212
255 229 212
255 229 212
255 229 212
255 229 212
255 229 212
255 229 212
255 229 212
255 229 212
255 229 212
255 229 212
255 229 212
255 229 212
255 229 212
255 229 212
255 229 212
255 229 212
255 229 212
255 229 212
255 229 212
255 229 212
255 229 212
255 241 224
255 229 212
255 229 212
255 229 212
255 229 212
255 229 212
255 229 212
255 229 212
255 229 212
255 229 212
255 229 212
255 229 212
255 229 212
255 229 212
255 229 212
255 229 212
255 229 212
255 229 212
255 229 212
255 229 212
255 229 212
255 229 212
255 229 212
255 229 212
255 229 212
255 229 212
255 229 212
255 229 212
255 229 212
255 229 212
255 229 212
255 229 212
255 229 212
255 229 212
255 229 212
255 229 212
255 229 212
255 241 224
255 229 212
255 229 212
255 229 212
255 229 212
255 229 212
255 229 212
255 229 212
255 229 212
255 229 212
255 229 212
255 229 212
255 229 212
255 229 212
255 229 212
255 229 212
255 229 212
255 229 212
255 229 212
255 229 212
255 229 212
255 229 212
255 229 212
255 229 212
255 229 212
255 229 212
255 229 212
255 229 212
255 229 212
255 229 212
255 229 212
255 229 212
255 229 212
255 229 212
255 229 212
255 229 212
255 229 212
255 241 224
255 229 212
255 229 212
255 229 212
255 229 212
255 229 212
255 229 212
255 229 212
255 229 212
255 229 212
255 229 212
255 229 212
255 229 212
255 229 212
255 229 212
255 229 212
255 229 212
255 229 212
255 229 212
255 229 212
255 229 212
255 229 212
255 229 212
255 229 212
255 229 212
255 229 212
255 229 212
255 229 212
255 229 212
255 229 212
255 229 212
255 229 212
255 229 212
255 229 212
255 229 212
255 229 212
255 229 212
255 241 224
255 229 212
255 229 212
255 229 212
255 229 212
255 229 212
255 229 212
255 229 212
255 229 212
255 229 212
255 229 212
255 229 212
255 229 212
255 229 212
255 229 212
255 229 212
255 229 212
255 229 212
255 229 212
255 229 212
255 229 212
255 229 212
255 229 212
255 229 212
255 229 212
255 229 212
255 229 212
255 229 212
255 229 212
255 229 212
255 229 212
255 229 212
255 229 212
255 229 212
255 229 212
255 229 212
255 229 212
255 241 224
255 229 212
255 229 212
255 229 212
255 229 212
255 229 212
255 229 212
255 229 212
255 229 212
255 229 212
255 229 212
255 229 212
255 229 212
255 229 212
255 229 212
255 229 212
255 229 212
255 229 212
255 229 212
255 229 212
255 229 212
255 229 212
255 229 212
255 229 212
255 229 212
255 229 212
255 229 212
255 229 212
255 229 212
255 229 212
255 229 212
255 229 212
255 229 212
255 229 212
255 229 212
255 229 212
255 229 212
255 241 224
255 229 212
255 229 212
255 229 212
255 229 212
255 229 212
255 229 212
255 229 212
255 229 212
255 229 212
255 229 212
255 229 212
255 229 212
255 229 212
255 229 212
255 229 212
255 229 212
255 229 212
255 229 212
255 229 212
255 229 212
255 229 212
255 229 212
255 229 212
255 229 212
255 229 212
255 229 212
255 229 212
255 229 212
255 229 212
255 229 212
255 229 212
255 229 212
255 229 212
255 229 212
255 229 212
255 229 212
255 241 224
255 229 212
255 229 212
255 229 212
255 229 212
255 229 212
255 229 212
255 229 212
255 229 212
255 229 212
255 229 212
255 229 212
255 229 212
255 229 212
255 229 212
255 229 212
255 229 212
255 229 212
255 229 212
255 229 212
255 229 212
255 229 212
255 229 212
255 229 212
255 229 212
255 229 212
255 229 212
255 229 212
255 229 212
255 229 212
255 229 212
255 229 212
255 229 212
255 229 212
255 229 212
255 229 212
255 229 212
255 241 224
255 229 212
255 229 212
255 229 212
255 229 212
255 229 212
255 229 212
255 229 212
255 229 212
255 229 212
255 229 212
255 229 212
255 229 212
255 229 212
255 229 212
255 229 212
255 229 212
255 229 212
255 229 212
255 229 212
255 229 212
255 229 212
255 229 212
255 229 212
255 229 212
255 229 212
255 229 212
255 229 212
255 229 212
255 229 212
255 229 212
255 229 212
255 229 212
255 229 212
255 229 212
255 229 212
255 229 212
255 241 224
255 229 212
255 229 212
255 229 212
255 229 212
255 229 212
255 229 212
255 229 212
255 229 212
255 229 212
255 229 212
255 229 212
255 229 212
255 229 212
255 229 212
255 229 212
255 229 212
255 229 212
255 229 212
255 229 212
255 229 212
255 229 212
255 229 212
255 241 224
255 229 212
255 229 212
255 229 212
255 229 212
255 229 212
255 229 212
255 229 212
255 229 212
255 229 212
255 229 212
255 229 212
255 229 212
255 229 212
255 229 212
255 229 212
255 229 212
255 229 212
255 229 212
255 229 212
255 229 212
255 229 212
255 229 212
255 229 212
255 229 212
255 229 212
255 229 212
255 229 212
255 229 212
255 229 212
255 229 212
255 229 212
255 229 212
255 229 212
255 229 212
255 229 212
255 229 212
255 241 224
255 229 212
255 229 212
255 229 212
255 229 212
255 229 212
255 229 212
255 229 212
255 229 212
255 229 212
255 229 212
255 229 212
255 229 212
255 229 212
255 229 212
255 229 212
255 229 212
255 229 212
255 229 212
255 229 212
255 229 212
255 229 212
255 229 212
255 229 212
255 229 212
255 229 212
255 229 212
255 229 212
255 229 212
255 229 212
255 229 212
255 229 212
255 229 212
255 229 212
255 229 212
255 229 212
255 229 212
255 241 224
255 229 212
255 229 212
255 229 212
255 229 212
255 229 212
255 229 212
255 229 212
255 229 212
255 229 212
255 229 212
255 229 212
255 229 212
255 229 212
255 229 212
255 229 212
255 229 212
255 229 212
255 229 212
255 229 212
255 229 212
255 229 212
255 229 212
255 229 212
255 229 212
255 229 212
255 229 212
255 229 212
255 229 212
255 229 212
255 229 212
255 229 212
255 229 212
255 229 212
255 229 212
255 229 212
255 229 212
255 241 224
255 229 212
255 229 212
255 229 212
255 229 212
255 229 212
255 229 212
255 229 212
255 229 212
255 229 212
255 229 212
255 229 212
255 229 212
255 229 212
255 229 212
255 229 212
255 229 212
255 229 212
255 229 212
255 229 212
255 229 212
255 229 212
255 229 212
255 229 212
255 229 212
255 229 212
255 229 212
255 229 212
255 229 212
255 229 212
255 229 212
255 229 212
255 229 212
255 229 212
255 229 212
255 229 212
255 229 212
255 241 224
255 229 212
255 229 212
255 229 212
255 229 212
255 229 212
255 229 212
255 229 212
255 229 212
255 229 212
255 229 212
255 229 212
255 229 212
255 229 212
255 229 212
255 229 212
255 229 212
255 229 212
255 229 212
255 229 212
255 229 212
255 229 212
255 229 212
255 229 212
255 229 212
255 229 212
255 229 212
255 229 212
255 229 212
255 229 212
255 229 212
255 229 212
255 229 212
255 229 212
255 229 212
255 229 212
255 229 212
255 241 224
255 229 212
255 229 212
255 229 212
255 229 212
255 229 212
255 229 212
255 229 212
255 229 212
255 229 212
255 229 212
255 229 212
255 229 212
255 229 212
255 229 212
255 229 212
255 229 212
255 229 212
255 229 212
255 229 212
255 229 212
255 229 212
255 229 212
255 229 212
255 229 212
255 229 212
255 229 212
255 229 212
255 229 212
255 229 212
255 229 212
255 229 212
255 229 212
255 229 212
255 229 212
255 229 212
255 229 212
255 241 224
255 229 212
255 229 212
255 229 212
255 229 212
255 229 212
255 229 212
255 229 212
255 229 212
255 229 212
255 229 212
255 229 212
255 229 212
255 229 212
255 229 212
255 229 212
255 229 212
255 229 212
255 229 212
255 229 212
255 229 212
255 229 212
255 229 212
255 229 212
255 229 212
255 229 212
255 229 212
255 229 212
255 229 212
255 229 212
255 229 212
255 229 212
255 229 212
255 229 212
255 229 212
255 229 212
255 229 212
255 241 224
255 229 212
255 229 212
255 229 212
255 229 212
255 229 212
255 229 212
255 229 212
255 229 212
255 229 212
255 229 212
255 229 212
255 229 212
255 229 212
255 229 212
255 229 212
255 229 212
255 229 212
255 229 212
255 229 212
255 229 212
255 229 212
255 229 212
255 229 212
255 229 212
255 229 212
255 229 212
255 229 212
255 229 212
255 229 212
255 229 212
255 229 212
255 229 212
255 229 212
255 229 212
255 229 212
255 229 212
255 241 224
255 229 212
255 229 212
255 229 212
255 229 212
255 229 212
255 229 212
255 229 212
255 229 212
255 229 212
255 229 212
255 229 212
255 229 212
255 229 212
255 229 212
255 229 212
255 229 212
255 229 212
255 229 212
255 229 212
255 229 212
255 229 212
255 229 212
255 241 224
255 229 212
255 229 212
255 229 212
255 229 212
255 229 212
255 229 212
255 229 212
255 229 212
255 229 212
255 229 212
255 229 212
255 229 212
255 229 212
255 229 212
255 229 212
255 229 212
255 229 212
255 229 212
255 229 212
255 229 212
255 229 212
255 229 212
255 229 212
255 229 212
255 229 212
255 229 212
255 229 212
255 229 212
255 229 212
255 229 212
255 229 212
255 229 212
255 229 212
255 229 212
255 229 212
255 229 212
255 241 224
255 229 212
255 229 212
255 229 212
255 229 212
255 229 212
255 229 212
255 229 212
255 229 212
255 229 212
255 229 212
255 229 212
255 229 212
255 229 212
255 229 212
255 229 212
255 229 212
255 229 212
255 229 212
255 229 212
255 229 212
255 229 212
255 229 212
255 229 212
255 229 212
255 229 212
255 229 212
255 229 212
255 229 212
255 229 212
255 229 212
255 229 212
255 229 212
255 229 212
255 229 212
255 229 212
255 229 212
255 241 224
255 229 212
255 229 212
255 229 212
255 229 212
255 229 212
255 229 212
255 229 212
255 229 212
255 229 212
255 229 212
255 229 212
255 229 212
255 229 212
255 229 212
255 229 212
255 229 212
255 229 212
255 229 212
255 229 212
255 229 212
255 229 212
255 229 212
255 229 212
255 229 212
255 229 212
255 229 212
255 229 212
255 229 212
255 229 212
255 229 212
255 229 212
255 229 212
255 229 212
255 229 212
255 229 212
255 229 212
255 241 224
255 229 212
255 229 212
255 229 212
255 229 212
255 229 212
255 229 212
255 229 212
255 229 212
255 229 212
255 229 212
255 229 212
255 229 212
255 229 212
255 229 212
255 229 212
255 229 212
255 229 212
255 229 212
255 229 212
255 229 212
255 229 212
255 229 212
255 229 212
255 229 212
255 229 212
255 229 212
255 229 212
255 229 212
255 229 212
255 229 212
255 229 212
255 229 212
255 229 212
255 229 212
255 229 212
255 229 212
255 241 224
255 229 212
255 229 212
255 229 212
255 229 212
255 229 212
255 229 212
255 229 212
255 229 212
255 229 212
255 229 212
255 229 212
255 229 212
255 229 212
255 229 212
255 229 212
255 229 212
255 229 212
255 229 212
255 229 212
255 229 212
255 229 212
255 229 212
255 229 212
255 229 212
255 229 212
255 229 212
255 229 212
255 229 212
255 229 212
255 229 212
255 229 212
255 229 212
255 229 212
255 229 212
255 229 212
255 229 212
255 241 224
255 229 212
255 229 212
255 229 212
255 229 212
255 229 212
255 229 212
255 229 212
255 229 212
255 229 212
255 229 212
255 229 212
255 229 212
255 229 212
255 229 212
255 229 212
255 229 212
255 229 212
255 229 212
255 229 212
255 229 212
255 229 212
255 229 212
255 229 212
255 229 212
255 229 212
255 229 212
255 229 212
255 229 212
255 229 212
255 229 212
255 229 212
255 229 212
255 229 212
255 229 212
255 229 212
255 229 212
255 241 224
255 229 212
255 229 212
255 229 212
255 229 212
255 229 212
255 229 212
255 229 212
255 229 212
255 229 212
255 229 212
255 229 212
255 229 212
255 229 212
255 229 212
255 229 212
255 229 212
255 229 212
255 229 212
255 229 212
255 229 212
255 229 212
255 229 212
255 229 212
255 229 212
255 229 212
255 229 212
255 229 212
255 229 212
255 229 212
255 229 212
255 229 212
255 229 212
255 229 212
255 229 212
255 229 212
255 229 212
255 241 224
255 229 212
255 229 212
255 229 212
255 229 212
255 229 212
255 229 212
255 229 212
255 229 212
255 229 212
255 229 212
255 229 212
255 229 212
255 229 212
255 229 212
255 229 212
255 229 212
255 229 212
255 229 212
255 229 212
255 229 212
255 229 212
255 229 212
255 229 212
255 229 212
255 229 212
255 229 212
255 229 212
255 229 212
255 229 212
255 229 212
255 229 212
255 229 212
255 229 212
255 229 212
255 229 212
255 229 212
255 241 224
255 229 212
255 229 212
255 229 212
255 229 212
255 229 212
255 229 212
255 229 212
255 229 212
255 229 212
255 229 212
255 229 212
255 229 212
255 229 212
255 229 212
255 229 212
255 229 212
255 229 212
255 229 212
255 229 212
255 229 212
255 229 212
255 229 212
255 241 224
255 229 212
255 229 212
255 229 212
255 229 212
255 229 212
255 229 212
255 229 212
255 229 212
255 229 212
255 229 212
255 229 212
255 229 212
255 229 212
255 229 212
255 229 212
255 229 212
255 229 212
255 229 212
255 229 212
255 229 212
255 229 212
255 229 212
255 229 212
255 229 212
255 229 212
255 229 212
255 229 212
255 229 212
255 229 212
255 229 212
255 229 212
255 229 212
255 229 212
255 229 212
255 229 212
255 229 212
255 241 224
255 229 212
255 229 212
255 229 212
255 229 212
255 229 212
255 229 212
255 229 212
255 229 212
255 229 212
255 229 212
255 229 212
255 229 212
255 229 212
255 229 212
255 229 212
255 229 212
255 229 212
255 229 212
255 229 212
255 229 212
255 229 212
255 229 212
255 229 212
255 229 212
255 229 212
255 229 212
255 229 212
255 229 212
255 229 212
255 229 212
255 229 212
255 229 212
255 229 212
255 229 212
255 229 212
255 229 212
255 241 224
255 229 212
255 229 212
255 229 212
255 229 212
255 229 212
255 229 212
255 229 212
255 229 212
255 229 212
255 229 212
255 229 212
255 229 212
255 229 212
255 229 212
255 229 212
255 229 212
255 229 212
255 229 212
255 229 212
255 229 212
255 229 212
255 229 212
255 229 212
255 229 212
255 229 212
255 229 212
255 229 212
255 229 212
255 229 212
255 229 212
255 229 212
255 229 212
255 229 212
255 229 212
255 229 212
255 229 212
255 241 224
255 229 212
255 229 212
255 229 212
255 229 212
255 229 212
255 229 212
255 229 212
255 229 212
255 229 212
255 229 212
255 229 212
255 229 212
255 229 212
255 229 212
255 229 212
255 229 212
255 229 212
255 229 212
255 229 212
255 229 212
255 229 212
255 229 212
255 229 212
255 229 212
255 229 212
255 229 212
255 229 212
255 229 212
255 229 212
255 229 212
255 229 212
255 229 212
255 229 212
255 229 212
255 229 212
255 229 212
255 241 224
255 229 212
255 229 212
255 229 212
255 229 212
255 229 212
255 229 212
255 229 212
255 229 212
255 229 212
255 229 212
255 229 212
255 229 212
255 229 212
255 229 212
255 229 212
255 229 212
255 229 212
255 229 212
255 229 212
255 229 212
255 229 212
255 229 212
255 229 212
255 229 212
255 229 212
255 229 212
255 229 212
255 229 212
255 229 212
255 229 212
255 229 212
255 229 212
255 229 212
255 229 212
255 229 212
255 229 212
255 241 224
255 229 212
255 229 212
255 229 212
255 229 212
255 229 212
255 229 212
255 229 212
255 229 212
255 229 212
255 229 212
255 229 212
255 229 212
255 229 212
255 229 212
255 229 212
255 229 212
255 229 212
255 229 212
255 229 212
255 229 212
255 229 212
255 229 212
255 229 212
255 229 212
255 229 212
255 229 212
255 229 212
255 229 212
255 229 212
255 229 212
255 229 212
255 229 212
255 229 212
255 229 212
255 229 212
255 229 212
255 241 224
255 229 212
255 229 212
255 229 212
255 229 212
255 229 212
255 229 212
255 229 212
255 229 212
255 229 212
255 229 212
255 229 212
255 229 212
255 229 212
255 229 212
255 229 212
255 229 212
255 229 212
255 229 212
255 229 212
255 229 212
255 229 212
255 229 212
255 229 212
255 229 212
255 229 212
255 229 212
255 229 212
255 229 212
255 229 212
255 229 212
255 229 212
255 229 212
255 229 212
255 229 212
255 229 212
255 229 212
255 241 224
255 229 212
255 229 212
255 229 212
255 229 212
255 229 212
255 229 212
255 229 212
255 229 212
255 229 212
255 229 212
255 229 212
255 229 212
255 229 212
255 229 212
255 229 212
255 229 212
255 229 212
255 229 212
255 229 212
255 229 212
255 229 212
255 229 212
255 229 212
255 229 212
255 229 212
255 229 212
255 229 212
255 229 212
255 229 212
255 229 212
255 229 212
255 229 212
255 229 212
255 229 212
255 229 212
255 229 212
255 241 224
255 229 212
255 229 212
255 229 212
255 229 212
255 229 212
255 229 212
255 229 212
255 229 212
255 229 212
255 229 212
255 229 212
255 229 212
255 229 212
255 229 212
255 229 212
255 229 212
255 229 212
255 229 212
255 229 212
255 229 212
255 229 212
255 229 212
255 241 224
255 229 212
255 229 212
255 229 212
255 229 212
255 229 212
255 229 212
255 229 212
255 229 212
255 229 212
255 229 212
255 229 212
255 229 212
255 229 212
255 229 212
255 229 212
255 229 212
255 229 212
255 229 212
255 229 212
255 229 212
255 229 212
255 229 212
255 229 212
255 229 212
255 229 212
255 229 212
255 229 212
255 229 212
255 229 212
255 229 212
255 229 212
255 229 212
255 229 212
255 229 212
255 229 212
255 229 212
255 241 224
255 229 212
255 229 212
255 229 212
255 229 212
255 229 212
255 229 212
255 229 212
255 229 212
255 229 212
255 229 212
255 229 212
255 229 212
255 229 212
255 229 212
255 229 212
255 229 212
255 229 212
255 229 212
255 229 212
255 229 212
255 229 212
255 229 212
255 229 212
255 229 212
255 229 212
255 229 212
255 229 212
255 229 212
255 229 212
255 229 212
255 229 212
255 229 212
255 229 212
255 229 212
255 229 212
255 229 212
255 241 224
255 229 212
255 229 212
255 229 212
255 229 212
255 229 212
255 229 212
255 229 212
255 229 212
255 229 212
255 229 212
255 229 212
255 229 212
255 229 212
255 229 212
255 229 212
255 229 212
255 229 212
255 229 212
255 229 212
255 229 212
255 229 212
255 229 212
255 229 212
255 229 212
255 229 212
255 229 212
255 229 212
255 229 212
255 229 212
255 229 212
255 229 212
255 229 212
255 229 212
255 229 212
255 229 212
255 229 212
255 241 224
255 229 212
255 229 212
255 229 212
255 229 212
255 229 212
255 229 212
255 229 212
255 229 212
255 229 212
255 229 212
255 229 212
255 229 212
255 229 212
255 229 212
255 229 212
255 229 212
255 229 212
255 229 212
255 229 212
255 229 212
255 229 212
255 229 212
255 229 212
255 229 212
255 229 212
255 229 212
255 229 212
255 229 212
255 229 212
255 229 212
255 229 212
255 229 212
255 229 212
255 229 212
255 229 212
255 229 212
255 241 224
255 229 212
255 229 212
255 229 212
255 229 212
255 229 212
255 229 212
255 229 212
255 229 212
255 229 212
255 229 212
255 229 212
255 229 212
255 229 212
255 229 212
255 229 212
255 229 212
255 229 212
255 229 212
255 229 212
255 229 212
255 229 212
255 229 212
255 229 212
255 229 212
255 229 212
255 229 212
255 229 212
255 229 212
255 229 212
255 229 212
255 229 212
255 229 212
255 229 212
255 229 212
255 229 212
255 229 212
255 241 224
255 229 212
255 229 212
255 229 212
255 229 212
255 229 212
255 229 212
255 229 212
255 229 212
255 229 212
255 229 212
255 229 212
255 229 212
255 229 212
255 229 212
255 229 212
255 229 212
255 229 212
255 229 212
255 229 212
255 229 212
255 229 212
255 229 212
255 229 212
255 229 212
255 229 212
255 229 212
255 229 212
255 229 212
255 229 212
255 229 212
255 229 212
255 229 212
255 229 212
255 229 212
255 229 212
255 229 212
255 241 224
255 229 212
255 229 212
255 229 212
255 229 212
255 229 212
255 229 212
255 229 212
255 229 212
255 229 212
255 229 212
255 229 212
255 229 212
255 229 212
255 229 212
255 229 212
255 229 212
255 229 212
255 229 212
255 229 212
255 229 212
255 229 212
255 229 212
255 229 212
255 229 212
255 229 212
255 229 212
255 229 212
255 229 212
255 229 212
255 229 212
255 229 212
255 229 212
255 229 212
255 229 212
255 229 212
255 229 212
255 241 224
255 229 212
255 229 212
255 229 212
255 229 212
255 229 212
255 229 212
255 229 212
255 229 212
255 229 212
255 229 212
255 229 212
255 229 212
255 229 212
255 229 212
255 229 212
255 229 212
255 229 212
255 229 212
255 229 212
255 229 212
255 229 212
255 229 212
255 229 212
255 229 212
255 229 212
255 229 212
255 229 212
255 229 212
255 229 212
255 229 212
255 229 212
255 229 212
255 229 212
255 229 212
255 229 212
255 229 212
255 241 224
255 229 212
255 229 212
255 229 212
255 229 212
255 229 212
255 229 212
255 229 212
255 229 212
255 229 212
255 229 212
255 229 212
255 229 212
255 229 212
255 229 212
255 229 212
255 229 212
255 229 212
255 229 212
255 229 212
255 229 212
255 229 212
255 229 212
255 241 224
255 229 212
255 229 212
255 229 212
255 229 212
255 229 212
255 229 212
255 229 212
255 229 212
255 229 212
255 229 212
255 229 212
255 229 212
255 229 212
255 229 212
255 229 212
255 229 212
255 229 212
255 229 212
255 229 212
255 229 212
255 229 212
255 229 212
255 229 212
255 229 212
255 229 212
255 229 212
255 229 212
255 229 212
255 229 212
255 229 212
255 229 212
255 229 212
255 229 212
255 229 212
255 229 212
255 229 212
255 241 224
255 229 212
255 229 212
255 229 212
255 229 212
255 229 212
255 229 212
255 229 212
255 229 212
255 229 212
255 229 212
255 229 212
255 229 212
255 229 212
255 229 212
255 229 212
255 229 212
255 229 212
255 229 212
255 229 212
255 229 212
255 229 212
255 229 212
255 229 212
255 229 212
255 229 212
255 229 212
255 229 212
255 229 212
255 229 212
255 229 212
255 229 212
255 229 212
255 229 212
255 229 212
255 229 212
255 229 212
255 241 224
255 229 212
255 229 212
255 229 212
255 229 212
255 229 212
255 229 212
255 229 212
255 229 212
255 229 212
255 229 212
255 229 212
255 229 212
255 229 212
255 229 212
255 229 212
255 229 212
255 229 212
255 229 212
255 229 212
255 229 212
255 229 212
255 229 212
255 229 212
255 229 212
255 229 212
255 229 212
255 229 212
255 229 212
255 229 212
255 229 212
255 229 212
255 229 212
255 229 212
255 229 212
255 229 212
255 229 212
255 241 224
255 229 212
255 229 212
255 229 212
255 229 212
255 229 212
255 229 212
255 229 212
255 229 212
255 229 212
255 229 212
255 229 212
255 229 212
255 229 212
255 229 212
255 229 212
255 229 212
255 229 212
255 229 212
255 229 212
255 229 212
255 229 212
255 229 212
255 229 212
255 229 212
255 229 212
255 229 212
255 229 212
255 229 212
255 229 212
255 229 212
255 229 212
255 229 212
255 229 212
255 229 212
255 229 212
255 229 212
255 241 224
255 229 212
255 229 212
255 229 212
255 229 212
255 229 212
255 229 212
255 229 212
255 229 212
255 229 212
255 229 212
255 229 212
255 229 212
255 229 212
255 229 212
255 229 212
255 229 212
255 229 212
255 229 212
255 229 212
255 229 212
255 229 212
255 229 212
255 229 212
255 229 212
255 229 212
255 229 212
255 229 212
255 229 212
255 229 212
255 229 212
255 229 212
255 229 212
255 229 212
255 229 212
255 229 212
255 229 212
255 241 224
255 229 212
255 229 212
255 229 212
255 229 212
255 229 212
255 229 212
255 229 212
255 229 212
255 229 212
255 229 212
255 229 212
255 229 212
255 229 212
255 229 212
255 229 212
255 229 212
255 229 212
255 229 212
255 229 212
255 229 212
255 229 212
255 229 212
255 229 212
255 229 212
255 229 212
255 229 212
255 229 212
255 229 212
255 229 212
255 229 212
255 229 212
255 229 212
255 229 212
255 229 212
255 229 212
255 229 212
255 241 224
255 229 212
255 229 212
255 229 212
255 229 212
255 229 212
255 229 212
255 229 212
255 229 212
255 229 212
255 229 212
255 229 212
255 229 212
255 229 212
255 229 212
255 229 212
255 229 212
255 229 212
255 229 212
255 229 212
255 229 212
255 229 212
255 229 212
255 229 212
255 229 212
255 229 212
255 229 212
255 229 212
255 229 212
255 229 212
255 229 212
255 229 212
255 229 212
255 229 212
255 229 212
255 229 212
255 229 212
255 241 224
255 229 212
255 229 212
255 229 212
255 229 212
255 229 212
255 229 212
255 229 212
255 229 212
255 229 212
255 229 212
255 229 212
255 229 212
255 229 212
255 229 212
255 229 212
255 229 212
255 229 212
255 229 212
255 229 212
255 229 212
255 229 212
255 229 212
255 229 212
255 229 212
255 229 212
255 229 212
255 229 212
255 229 212
255 229 212
255 229 212
255 229 212
255 229 212
255 229 212
255 229 212
255 229 212
255 229 212
255 241 224
255 229 212
255 229 212
255 229 212
255 229 212
255 229 212
255 229 212
255 229 212
255 229 212
255 229 212
255 229 212
255 229 212
255 229 212
255 229 212
255 229 212
255 229 212
255 229 212
255 229 212
255 229 212
255 229 212
255 229 212
255 229 212
255 229 212
255 241 224
255 229 212
255 229 212
255 229 212
255 229 212
255 229 212
255 229 212
255 229 212
255 229 212
255 229 212
255 229 212
255 229 212
255 229 212
255 229 212
255 229 212
255 229 212
255 229 212
255 229 212
255 229 212
255 229 212
255 229 212
255 229 212
255 229 212
255 229 212
255 229 212
255 229 212
255 229 212
255 229 212
255 229 212
255 229 212
255 229 212
255 229 212
255 229 212
255 229 212
255 229 212
255 229 212
255 229 212
255 241 224
255 229 212
255 229 212
255 229 212
255 229 212
255 229 212
255 229 212
255 229 212
255 229 212
255 229 212
255 229 212
255 229 212
255 229 212
255 229 212
255 229 212
255 229 212
255 229 212
255 229 212
255 229 212
255 229 212
255 229 212
255 229 212
255 229 212
255 229 212
255 229 212
255 229 212
255 229 212
255 229 212
255 229 212
255 229 212
255 229 212
255 229 212
255 229 212
255 229 212
255 229 212
255 229 212
255 229 212
255 241 224
255 229 212
255 229 212
255 229 212
255 229 212
255 229 212
255 229 212
255 229 212
255 229 212
255 229 212
255 229 212
255 229 212
255 229 212
255 229 212
255 229 212
255 229 212
255 229 212
255 229 212
255 229 212
255 229 212
255 229 212
255 229 212
255 229 212
255 229 212
255 229 212
255 229 212
255 229 212
255 229 212
255 229 212
255 229 212
255 229 212
255 229 212
255 229 212
255 229 212
255 229 212
255 229 212
255 229 212
255 241 224
255 229 212
255 229 212
255 229 212
255 229 212
255 229 212
255 229 212
255 229 212
255 229 212
255 229 212
255 229 212
255 229 212
255 229 212
255 229 212
255 229 212
255 229 212
255 229 212
255 229 212
255 229 212
255 229 212
255 229 212
255 229 212
255 229 212
255 229 212
255 229 212
255 229 212
255 229 212
255 229 212
255 229 212
255 229 212
255 229 212
255 229 212
255 229 212
255 229 212
255 229 212
255 229 212
255 229 212
255 241 224
255 229 212
255 229 212
255 229 212
255 229 212
255 229 212
255 229 212
255 229 212
255 229 212
255 229 212
255 229 212
255 229 212
255 229 212
255 229 212
255 229 212
255 229 212
255 229 212
255 229 212
255 229 212
255 229 212
255 229 212
255 229 212
255 229 212
255 229 212
255 229 212
255 229 212
255 229 212
255 229 212
255 229 212
255 229 212
255 229 212
255 229 212
255 229 212
255 229 212
255 229 212
255 229 212
255 229 212
255 241 224
255 229 212
255 229 212
255 229 212
255 229 212
255 229 212
255 229 212
255 229 212
255 229 212
255 229 212
255 229 212
255 229 212
255 229 212
255 229 212
255 229 212
255 229 212
255 229 212
255 229 212
255 229 212
255 229 212
255 229 212
255 229 212
255 229 212
255 229 212
255 229 212
255 229 212
255 229 212
255 229 212
255 229 212
255 229 212
255 229 212
255 229 212
255 229 212
255 229 212
255 229 212
255 229 212
255 229 212
255 241 224
255 229 212
255 229 212
255 229 212
255 229 212
255 229 212
255 229 212
255 229 212
255 229 212
255 229 212
255 229 212
255 229 212
255 229 212
255 229 212
255 229 212
255 229 212
255 229 212
255 229 212
255 229 212
255 229 212
255 229 212
255 229 212
255 229 212
255 229 212
255 229 212
255 229 212
255 229 212
255 229 212
255 229 212
255 229 212
255 229 212
255 229 212
255 229 212
255 229 212
255 229 212
255 229 212
255 229 212
255 241 224
255 229 212
255 229 212
255 229 212
255 229 212
255 229 212
255 229 212
255 229 212
255 229 212
255 229 212
255 229 212
255 229 212
255 229 212
255 229 212
255 229 212
255 229 212
255 229 212
255 229 212
255 229 212
255 229 212
255 229 212
255 229 212
255 229 212
255 229 212
255 229 212
255 229 212
255 229 212
255 229 212
255 229 212
255 229 212
255 229 212
255 229 212
255 229 212
255 229 212
255 229 212
255 229 212
255 229 212
255 241 224
255 229 212
255 229 212
255 229 212
255 229 212
255 229 212
255 229 212
255 229 212
255 229 212
255 229 212
255 229 212
255 229 212
255 229 212
255 229 212
255 229 212
255 229 212
255 229 212
255 229 212
255 229 212
255 229 212
255 229 212
255 229 212
255 229 212
255 241 224
255 229 212
255 229 212
255 229 212
255 229 212
255 229 212
255 229 212
255 229 212
255 229 212
255 229 212
255 229 212
255 229 212
255 229 212
255 229 212
255 229 212
255 229 212
255 229 212
255 229 212
255 229 212
255 229 212
255 229 212
255 229 212
255 229 212
255 229 212
255 229 212
255 229 212
255 229 212
255 229 212
255 229 212
255 229 212
255 229 212
255 229 212
255 229 212
255 229 212
255 229 212
255 229 212
255 229 212
255 241 224
255 229 212
255 229 212
255 229 212
255 229 212
255 229 212
255 229 212
255 229 212
255 229 212
255 229 212
255 229 212
255 229 212
255 229 212
255 229 212
255 229 212
255 229 212
255 229 212
255 229 212
255 229 212
255 229 212
255 229 212
255 229 212
255 229 212
255 229 212
255 229 212
255 229 212
255 229 212
255 229 212
255 229 212
255 229 212
255 229 212
255 229 212
255 229 212
255 229 212
255 229 212
255 229 212
255 229 212
255 241 224
255 229 212
255 229 212
255 229 212
255 229 212
255 229 212
255 229 212
255 229 212
255 229 212
255 229 212
255 229 212
255 229 212
255 229 212
255 229 212
255 229 212
255 229 212
255 229 212
255 229 212
255 229 212
255 229 212
255 229 212
255 229 212
255 229 212
255 229 212
255 229 212
255 229 212
255 229 212
255 229 212
255 229 212
255 229 212
255 229 212
255 229 212
255 229 212
255 229 212
255 229 212
255 229 212
255 229 212
255 241 224
255 229 212
255 229 212
255 229 212
255 229 212
255 229 212
255 229 212
255 229 212
255 229 212
255 229 212
255 229 212
255 229 212
255 229 212
255 229 212
255 229 212
255 229 212
255 229 212
255 229 212
255 229 212
255 229 212
255 229 212
255 229 212
255 229 212
255 229 212
255 229 212
255 229 212
255 229 212
255 229 212
255 229 212
255 229 212
255 229 212
255 229 212
255 229 212
255 229 212
255 229 212
255 229 212
255 229 212
255 241 224
255 229 212
255 229 212
255 229 212
255 229 212
255 229 212
255 229 212
255 229 212
255 229 212
255 229 212
255 229 212
255 229 212
255 229 212
255 229 212
255 229 212
255 229 212
255 229 212
255 229 212
255 229 212
255 229 212
255 229 212
255 229 212
255 229 212
255 229 212
255 229 212
255 229 212
255 229 212
255 229 212
255 229 212
255 229 212
255 229 212
255 229 212
255 229 212
255 229 212
255 229 212
255 229 212
255 229 212
255 241 224
255 229 212
255 229 212
255 229 212
255 229 212
255 229 212
255 229 212
255 229 212
255 229 212
255 229 212
255 229 212
255 229 212
255 229 212
255 229 212
255 229 212
255 229 212
255 229 212
255 229 212
255 229 212
255 229 212
255 229 212
255 229 212
255 229 212
255 229 212
255 229 212
255 229 212
255 229 212
255 229 212
255 229 212
255 229 212
255 229 212
255 229 212
255 229 212
255 229 212
255 229 212
255 229 212
255 229 212
255 241 224
255 229 212
255 229 212
255 229 212
255 229 212
255 229 212
255 229 212
255 229 212
255 229 212
255 229 212
255 229 212
255 229 212
255 229 212
255 229 212
255 229 212
255 229 212
255 229 212
255 229 212
255 229 212
255 229 212
255 229 212
255 229 212
255 229 212
255 229 212
255 229 212
255 229 212
255 229 212
255 229 212
255 229 212
255 229 212
255 229 212
255 229 212
255 229 212
255 229 212
255 229 212
255 229 212
255 229 212
255 241 224
255 229 212
255 229 212
255 229 212
255 229 212
255 229 212
255 229 212
255 229 212
255 229 212
255 229 212
255 229 212
255 229 212
255 229 212
255 229 212
255 229 212
255 229 212
255 229 212
255 229 212
255 229 212
255 229 212
255 229 212
255 229 212
255 229 212
255 229 212
255 229 212
255 229 212
255 229 212
255 229 212
255 229 212
255 229 212
255 229 212
255 229 212
255 229 212
255 229 212
255 229 212
255 229 212
255 229 212
255 241 224
255 229 212
255 229 212
255 229 212
255 229 212
255 229 212
255 229 212
255 229 212
255 229 212
255 229 212
255 229 212
255 229 212
255 229 212
255 229 212
255 229 212
255 229 212
255 229 212
255 229 212
255 229 212
255 229 212
255 229 212
255 229 212
255 229 212
255 241 224
255 229 212
255 229 212
255 229 212
255 229 212
255 229 212
255 229 212
255 229 212
255 229 212
255 229 212
255 229 212
255 229 212
255 229 212
255 229 212
255 229 212
255 229 212
255 229 212
255 229 212
255 229 212
255 229 212
255 229 212
255 229 212
255 229 212
255 229 212
255 229 212
255 229 212
255 229 212
255 229 212
255 229 212
255 229 212
255 229 212
255 229 212
255 229 212
255 229 212
255 229 212
255 229 212
255 229 212
255 241 224
255 229 212
255 229 212
255 229 212
255 229 212
255 229 212
255 229 212
255 229 212
255 229 212
255 229 212
255 229 212
255 229 212
255 229 212
255 229 212
255 229 212
255 229 212
255 229 212
255 229 212
255 229 212
255 229 212
255 229 212
255 229 212
255 229 212
255 229 212
255 229 212
255 229 212
255 229 212
255 229 212
255 229 212
255 229 212
255 229 212
255 229 212
255 229 212
255 229 212
255 229 212
255 229 212
255 229 212
255 241 224
255 229 212
255 229 212
255 229 212
255 229 212
255 229 212
255 229 212
255 229 212
255 229 212
255 229 212
255 229 212
255 229 212
255 229 212
255 229 212
255 229 212
255 229 212
255 229 212
255 229 212
255 229 212
255 229 212
255 229 212
255 229 212
255 229 212
255 229 212
255 229 212
255 229 212
255 229 212
255 229 212
255 229 212
255 229 212
255 229 212
255 229 212
255 229 212
255 229 212
255 229 212
255 229 212
255 229 212
255 241 224
255 229 212
255 229 212
255 229 212
255 229 212
255 229 212
255 229 212
255 229 212
255 229 212
255 229 212
255 229 212
255 229 212
255 229 212
255 229 212
255 229 212
255 229 212
255 229 212
255 229 212
255 229 212
255 229 212
255 229 212
255 229 212
255 229 212
255 229 212
255 229 212
255 229 212
255 229 212
255 229 212
255 229 212
255 229 212
255 229 212
255 229 212
255 229 212
255 229 212
255 229 212
255 229 212
255 229 212
255 241 224
255 229 212
255 229 212
255 229 212
255 229 212
255 229 212
255 229 212
255 229 212
255 229 212
255 229 212
255 229 212
255 229 212
255 229 212
255 229 212
255 229 212
255 229 212
255 229 212
255 229 212
255 229 212
255 229 212
255 229 212
255 229 212
255 229 212
255 229 212
255 229 212
255 229 212
255 229 212
255 229 212
255 229 212
255 229 212
255 229 212
255 229 212
255 229 212
255 229 212
255 229 212
255 229 212
255 229 212
255 241 224
255 229 212
255 229 212
255 229 212
255 229 212
255 229 212
255 229 212
255 229 212
255 229 212
255 229 212
255 229 212
255 229 212
255 229 212
255 229 212
255 229 212
255 229 212
255 229 212
255 229 212
255 229 212
255 229 212
255 229 212
255 229 212
255 229 212
255 229 212
255 229 212
255 229 212
255 229 212
255 229 212
255 229 212
255 229 212
255 229 212
255 229 212
255 229 212
255 229 212
255 229 212
255 229 212
255 229 212
255 241 224
255 229 212
255 229 212
255 229 212
255 229 212
255 229 212
255 229 212
255 229 212
255 229 212
255 229 212
255 229 212
255 229 212
255 229 212
255 229 212
255 229 212
255 229 212
255 229 212
255 229 212
255 229 212
255 229 212
255 229 212
255 229 212
255 229 212
255 229 212
255 229 212
255 229 212
255 229 212
255 229 212
255 229 212
255 229 212
255 229 212
255 229 212
255 229 212
255 229 212
255 229 212
255 229 212
255 229 212
255 241 224
255 229 212
255 229 212
255 229 212
255 229 212
255 229 212
255 229 212
255 229 212
255 229 212
255 229 212
255 229 212
255 229 212
255 229 212
255 229 212
255 229 212
255 229 212
255 229 212
255 229 212
255 229 212
255 229 212
255 229 212
255 229 212
255 229 212
255 229 212
255 229 212
255 229 212
255 229 212
255 229 212
255 229 212
255 229 212
255 229 212
255 229 212
255 229 212
255 229 212
255 229 212
255 229 212
255 229 212
255 241 224
255 229 212
255 229 212
255 229 212
255 229 212
255 229 212
255 229 212
255 229 212
255 229 212
255 229 212
255 229 212
255 229 212
255 229 212
255 229 212
255 229 212
255 229 212
255 229 212
255 229 212
255 229 212
255 229 212
255 229 212
255 229 212
255 229 212
255 241 224
255 229 212
255 229 212
255 229 212
255 229 212
255 229 212
255 229 212
255 229 212
255 229 212
255 229 212
255 229 212
255 229 212
255 229 212
255 229 212
255 229 212
255 229 212
255 229 212
255 229 212
255 229 212
255 229 212
255 229 212
255 229 212
255 229 212
255 229 212
255 229 212
255 229 212
255 229 212
255 229 212
255 229 212
255 229 212
255 229 212
255 229 212
255 229 212
255 229 212
255 229 212
255 229 212
255 229 212
255 241 224
255 229 212
255 229 212
255 229 212
255 229 212
255 229 212
255 229 212
255 229 212
255 229 212
255 229 212
255 229 212
255 229 212
255 229 212
255 229 212
255 229 212
255 229 212
255 229 212
255 229 212
255 229 212
255 229 212
255 229 212
255 229 212
255 229 212
255 229 212
255 229 212
255 229 212
255 229 212
255 229 212
255 229 212
255 229 212
255 229 212
255 229 212
255 229 212
255 229 212
255 229 212
255 229 212
255 229 212
255 241 224
255 229 212
255 229 212
255 229 212
255 229 212
255 229 212
255 229 212
255 229 212
255 229 212
255 229 212
255 229 212
255 229 212
255 229 212
255 229 212
255 229 212
255 229 212
255 229 212
255 229 212
255 229 212
255 229 212
255 229 212
255 229 212
255 229 212
255 229 212
255 229 212
255 229 212
255 229 212
255 229 212
255 229 212
255 229 212
255 229 212
255 229 212
255 229 212
255 229 212
255 229 212
255 229 212
255 229 212
255 241 224
255 229 212
255 229 212
255 229 212
255 229 212
255 229 212
255 229 212
255 229 212
255 229 212
255 229 212
255 229 212
255 229 212
255 229 212
255 229 212
255 229 212
255 229 212
255 229 212
255 229 212
255 229 212
255 229 212
255 229 212
255 229 212
255 229 212
255 229 212
255 229 212
255 229 212
255 229 212
255 229 212
255 229 212
255 229 212
255 229 212
255 229 212
255 229 212
255 229 212
255 229 212
255 229 212
255 229 212
255 241 224
255 229 212
255 229 212
255 229 212
255 229 212
255 229 212
255 229 212
255 229 212
255 229 212
255 229 212
255 229 212
255 229 212
255 229 212
255 229 212
255 229 212
255 229 212
255 229 212
255 229 212
255 229 212
255 229 212
255 229 212
255 229 212
255 229 212
255 229 212
255 229 212
255 229 212
255 229 212
255 229 212
255 229 212
255 229 212
255 229 212
255 229 212
255 229 212
255 229 212
255 229 212
255 229 212
255 229 212
255 241 224
255 229 212
255 229 212
255 229 212
255 229 212
255 229 212
255 229 212
255 229 212
255 229 212
255 229 212
255 229 212
255 229 212
255 229 212
255 229 212
255 229 212
255 229 212
255 229 212
255 229 212
255 229 212
255 229 212
255 229 212
255 229 212
255 229 212
255 229 212
255 229 212
255 229 212
255 229 212
255 229 212
255 229 212
255 229 212
255 229 212
255 229 212
255 229 212
255 229 212
255 229 212
255 229 212
255 229 212
255 241 224
255 229 212
255 229 212
255 229 212
255 229 212
255 229 212
255 229 212
255 229 212
255 229 212
255 229 212
255 229 212
255 229 212
255 229 212
255 229 212
255 229 212
255 229 212
255 229 212
255 229 212
255 229 212
255 229 212
255 229 212
255 229 212
255 229 212
255 229 212
255 229 212
255 229 212
255 229 212
255 229 212
255 229 212
255 229 212
255 229 212
255 229 212
255 229 212
255 229 212
255 229 212
255 229 212
255 229 212
255 241 224
255 229 212
255 229 212
255 229 212
255 229 212
255 229 212
255 229 212
255 229 212
255 229 212
255 229 212
255 229 212
255 229 212
255 229 212
255 229 212
255 229 212
255 229 212
255 229 212
255 229 212
255 229 212
255 229 212
255 229 212
255 229 212
255 229 212
255 229 212
255 229 212
255 229 212
255 229 212
255 229 212
255 229 212
255 229 212
255 229 212
255 229 212
255 229 212
255 229 212
255 229 212
255 229 212
255 229 212
255 241 224
255 229 212
255 229 212
255 229 212
255 229 212
255 229 212
255 229 212
255 229 212
255 229 212
255 229 212
255 229 212
255 229 212
255 229 212
255 229 212
255 229 212
255 229 212
255 229 212
255 229 212
255 229 212
255 229 212
255 229 212
255 229 212
255 229 212
255 241 224
255 229 212
255 229 212
255 229 212
255 229 212
255 229 212
255 229 212
255 229 212
255 229 212
255 229 212
255 229 212
255 229 212
255 229 212
255 229 212
255 229 212
255 229 212
255 229 212
255 229 212
255 229 212
255 229 212
255 229 212
255 229 212
255 229 212
255 229 212
255 229 212
255 229 212
255 229 212
255 229 212
255 229 212
255 229 212
255 229 212
255 229 212
255 229 212
255 229 212
255 229 212
255 229 212
255 229 212
255 241 224
255 229 212
255 229 212
255 229 212
255 229 212
255 229 212
255 229 212
255 229 212
255 229 212
255 229 212
255 229 212
255 229 212
255 229 212
255 229 212
255 229 212
255 229 212
255 229 212
255 229 212
255 229 212
255 229 212
255 229 212
255 229 212
255 229 212
255 229 212
255 229 212
255 229 212
255 229 212
255 229 212
255 229 212
255 229 212
255 229 212
255 229 212
255 229 212
255 229 212
255 229 212
255 229 212
255 229 212
255 241 224
255 229 212
255 229 212
255 229 212
255 229 212
255 229 212
255 229 212
255 229 212
255 229 212
255 229 212
255 229 212
255 229 212
255 229 212
255 229 212
255 229 212
255 229 212
255 229 212
255 229 212
255 229 212
255 229 212
255 229 212
255 229 212
255 229 212
255 229 212
255 229 212
255 229 212
255 229 212
255 229 212
255 229 212
255 229 212
255 229 212
255 229 212
255 229 212
255 229 212
255 229 212
255 229 212
255 229 212
255 241 224
255 229 212
255 229 212
255 229 212
255 229 212
255 229 212
255 229 212
255 229 212
255 229 212
255 229 212
255 229 212
255 229 212
255 229 212
255 229 212
255 229 212
255 229 212
255 229 212
255 229 212
255 229 212
255 229 212
255 229 212
255 229 212
255 229 212
255 229 212
255 229 212
255 229 212
255 229 212
255 229 212
255 229 212
255 229 212
255 229 212
255 229 212
255 229 212
255 229 212
255 229 212
255 229 212
255 229 212
255 241 224
255 229 212
255 229 212
255 229 212
255 229 212
255 229 212
255 229 212
255 229 212
255 229 212
255 229 212
255 229 212
255 229 212
255 229 212
255 229 212
255 229 212
255 229 212
255 229 212
255 229 212
255 229 212
255 229 212
255 229 212
255 229 212
255 229 212
255 229 212
255 229 212
255 229 212
255 229 212
255 229 212
255 229 212
255 229 212
255 229 212
255 229 212
255 229 212
255 229 212
255 229 212
255 229 212
255 229 212
255 241 224
255 229 212
255 229 212
255 229 212
255 229 212
255 229 212
255 229 212
255 229 212
255 229 212
255 229 212
255 229 212
255 229 212
255 229 212
255 229 212
255 229 212
255 229 212
255 229 212
255 229 212
255 229 212
255 229 212
255 229 212
255 229 212
255 229 212
255 229 212
255 229 212
255 229 212
255 229 212
255 229 212
255 229 212
255 229 212
255 229 212
255 229 212
255 229 212
255 229 212
255 229 212
255 229 212
255 229 212
255 241 224
255 229 212
255 229 212
255 229 212
255 229 212
255 229 212
255 229 212
255 229 212
255 229 212
255 229 212
255 229 212
255 229 212
255 229 212
255 229 212
255 229 212
255 229 212
255 229 212
255 229 212
255 229 212
255 229 212
255 229 212
255 229 212
255 229 212
255 229 212
255 229 212
255 229 212
255 229 212
255 229 212
255 229 212
255 229 212
255 229 212
255 229 212
255 229 212
255 229 212
255 229 212
255 229 212
255 229 212
255 241 224
255 229 212
255 229 212
255 229 212
255 229 212
255 229 212
255 229 212
255 229 212
255 229 212
255 229 212
255 229 212
255 229 212
255 229 212
255 229 212
255 229 212
255 229 212
255 229 212
255 229 212
255 229 212
255 229 212
255 229 212
255 229 212
255 229 212
255 229 212
255 229 212
255 229 212
255 229 212
255 229 212
255 229 212
255 229 212
255 229 212
255 229 212
255 229 212
255 229 212
255 229 212
255 229 212
255 229 212
255 241 224
255 229 212
255 229 212
255 229 212
255 229 212
255 229 212
255 229 212
255 229 212
255 229 212
255 229 212
255 229 212
255 229 212
255 229 212
255 229 212
255 229 212
255 229 212
255 229 212
255 229 212
255 229 212
255 229 212
255 229 212
255 229 212
255 229 212
255 241 224
255 229 212
255 229 212
255 229 212
255 229 212
255 229 212
255 229 212
255 229 212
255 229 212
255 229 212
255 229 212
255 229 212
255 229 212
255 229 212
255 229 212
255 229 212
255 229 212
255 229 212
255 229 212
255 229 212
255 229 212
255 229 212
255 229 212
255 229 212
255 229 212
255 229 212
255 229 212
255 229 212
255 229 212
255 229 212
255 229 212
255 229 212
255 229 212
255 229 212
255 229 212
255 229 212
255 229 212
255 241 224
255 229 212
255 229 212
255 229 212
255 229 212
255 229 212
255 229 212
255 229 212
255 229 212
255 229 212
255 229 212
255 229 212
255 229 212
255 229 212
255 229 212
255 229 212
255 229 212
255 229 212
255 229 212
255 229 212
255 229 212
255 229 212
255 229 212
255 229 212
255 229 212
255 229 212
255 229 212
255 229 212
255 229 212
255 229 212
255 229 212
255 229 212
255 229 212
255 229 212
255 229 212
255 229 212
255 229 212
255 241 224
255 229 212
255 229 212
255 229 212
255 229 212
255 229 212
255 229 212
255 229 212
255 229 212
255 229 212
255 229 212
255 229 212
255 229 212
255 229 212
255 229 212
255 229 212
255 229 212
255 229 212
255 229 212
255 229 212
255 229 212
255 229 212
255 229 212
255 229 212
255 229 212
255 229 212
255 229 212
255 229 212
255 229 212
255 229 212
255 229 212
255 229 212
255 229 212
255 229 212
255 229 212
255 229 212
255 229 212
255 241 224
255 229 212
255 229 212
255 229 212
255 229 212
255 229 212
255 229 212
255 229 212
255 229 212
255 229 212
255 229 212
255 229 212
255 229 212
255 229 212
255 229 212
255 229 212
255 229 212
255 229 212
255 229 212
255 229 212
255 229 212
255 229 212
255 229 212
255 229 212
255 229 212
255 229 212
255 229 212
255 229 212
255 229 212
255 229 212
255 229 212
255 229 212
255 229 212
255 229 212
255 229 212
255 229 212
255 229 212
255 241 224
255 229 212
255 229 212
255 229 212
255 229 212
255 229 212
255 229 212
255 229 212
255 229 212
255 229 212
255 229 212
255 229 212
255 229 212
255 229 212
255 229 212
255 229 212
255 229 212
255 229 212
255 229 212
255 229 212
255 229 212
255 229 212
255 229 212
255 229 212
255 229 212
255 229 212
255 229 212
255 229 212
255 229 212
255 229 212
255 229 212
255 229 212
255 229 212
255 229 212
255 229 212
255 229 212
255 229 212
255 241 224
255 229 212
255 229 212
255 229 212
255 229 212
255 229 212
255 229 212
255 229 212
255 229 212
255 229 212
255 229 212
255 229 212
255 229 212
255 229 212
255 229 212
255 229 212
255 229 212
255 229 212
255 229 212
255 229 212
255 229 212
255 229 212
255 229 212
255 229 212
255 229 212
255 229 212
255 229 212
255 229 212
255 229 212
255 229 212
255 229 212
255 229 212
255 229 212
255 229 212
255 229 212
255 229 212
255 229 212
255 241 224
255 229 212
255 229 212
255 229 212
255 229 212
255 229 212
255 229 212
255 229 212
255 229 212
255 229 212
255 229 212
255 229 212
255 229 212
255 229 212
255 229 212
255 229 212
255 229 212
255 229 212
255 229 212
255 229 212
255 229 212
255 229 212
255 229 212
255 229 212
255 229 212
255 229 212
255 229 212
255 229 212
255 229 212
255 229 212
255 229 212
255 229 212
255 229 212
255 229 212
255 229 212
255 229 212
255 229 212
255 241 224
255 229 212
255 229 212
255 229 212
255 229 212
255 229 212
255 229 212
255 229 212
255 229 212
255 229 212
255 229 212
255 229 212
255 229 212
255 229 212
255 229 212
255 229 212
255 229 212
255 229 212
255 229 212
255 229 212
255 229 212
255 229 212
255 229 212
255 229 212
255 229 212
255 229 212
255 229 212
255 229 212
255 229 212
255 229 212
255 229 212
255 229 212
255 229 212
255 229 212
255 229 212
255 229 212
255 229 212
255 241 224
255 229 212
255 229 212
255 229 212
255 229 212
255 229 212
255 229 212
255 229 212
255 229 212
255 229 212
255 229 212
255 229 212
255 229 212
255 229 212
255 229 212
255 229 212
255 229 212
255 229 212
255 229 212
255 229 212
255 229 212
255 229 212
255 229 212
255 241 224
255 229 212
255 229 212
255 229 212
255 229 212
255 229 212
255 229 212
255 229 212
255 229 212
255 229 212
255 229 212
255 229 212
255 229 212
255 229 212
255 229 212
255 229 212
255 229 212
255 229 212
255 229 212
255 229 212
255 229 212
255 229 212
255 229 212
255 229 212
255 229 212
255 229 212
255 229 212
255 229 212
255 229 212
255 229 212
255 229 212
255 229 212
255 229 212
255 229 212
255 229 212
255 229 212
255 229 212
255 241 224
255 229 212
255 229 212
255 229 212
255 229 212
255 229 212
255 229 212
255 229 212
255 229 212
255 229 212
255 229 212
255 229 212
255 229 212
255 229 212
255 229 212
255 229 212
255 229 212
255 229 212
255 229 212
255 229 212
255 229 212
255 229 212
255 229 212
255 229 212
255 229 212
255 229 212
255 229 212
255 229 212
255 229 212
255 229 212
255 229 212
255 229 212
255 229 212
255 229 212
255 229 212
255 229 212
255 229 212
255 241 224
255 229 212
255 229 212
255 229 212
255 229 212
255 229 212
255 229 212
255 229 212
255 229 212
255 229 212
255 229 212
255 229 212
255 229 212
255 229 212
255 229 212
255 229 212
255 229 212
255 229 212
255 229 212
255 229 212
255 229 212
255 229 212
255 229 212
255 229 212
255 229 212
255 229 212
255 229 212
255 229 212
255 229 212
255 229 212
255 229 212
255 229 212
255 229 212
255 229 212
255 229 212
255 229 212
255 229 212
255 241 224
255 229 212
255 229 212
255 229 212
255 229 212
255 229 212
255 229 212
255 229 212
255 229 212
255 229 212
255 229 212
255 229 212
255 229 212
255 229 212
255 229 212
255 229 212
255 229 212
255 229 212
255 229 212
255 229 212
255 229 212
255 229 212
255 229 212
255 229 212
255 229 212
255 229 212
255 229 212
255 229 212
255 229 212
255 229 212
255 229 212
255 229 212
255 229 212
255 229 212
255 229 212
255 229 212
255 229 212
255 241 224
255 229 212
255 229 212
255 229 212
255 229 212
255 229 212
255 229 212
255 229 212
255 229 212
255 229 212
255 229 212
255 229 212
255 229 212
255 229 212
255 229 212
255 229 212
255 229 212
255 229 212
255 229 212
255 229 212
255 229 212
255 229 212
255 229 212
255 229 212
255 229 212
255 229 212
255 229 212
255 229 212
255 229 212
255 229 212
255 229 212
255 229 212
255 229 212
255 229 212
255 229 212
255 229 212
255 229 212
255 241 224
255 229 212
255 229 212
255 229 212
255 229 212
255 229 212
255 229 212
255 229 212
255 229 212
255 229 212
255 229 212
255 229 212
255 229 212
255 229 212
255 229 212
255 229 212
255 229 212
255 229 212
255 229 212
255 229 212
255 229 212
255 229 212
255 229 212
255 229 212
255 229 212
255 229 212
255 229 212
255 229 212
255 229 212
255 229 212
255 229 212
255 229 212
255 229 212
255 229 212
255 229 212
255 229 212
255 229 212
255 241 224
255 229 212
255 229 212
255 229 212
255 229 212
255 229 212
255 229 212
255 229 212
255 229 212
255 229 212
255 229 212
255 229 212
255 229 212
255 229 212
255 229 212
255 229 212
255 229 212
255 229 212
255 229 212
255 229 212
255 229 212
255 229 212
255 229 212
255 229 212
255 229 212
255 229 212
255 229 212
255 229 212
255 229 212
255 229 212
255 229 212
255 229 212
255 229 212
255 229 212
255 229 212
255 229 212
255 229 212
255 241 224
255 229 212
255 229 212
255 229 212
255 229 212
255 229 212
255 229 212
255 229 212
255 229 212
255 229 212
255 229 212
255 229 212
255 229 212
255 229 212
255 229 212
255 229 212
255 229 212
255 229 212
255 229 212
255 229 212
255 229 212
255 229 212
255 229 212
255 229 212
255 229 212
255 229 212
255 229 212
255 229 212
255 229 212
255 229 212
255 229 212
255 229 212
255 229 212
255 229 212
255 229 212
255 229 212
255 229 212
255 241 224
255 229 212
255 229 212
255 229 212
255 229 212
255 229 212
255 229 212
255 229 212
255 229 212
255 229 212
255 229 212
255 229 212
255 229 212
255 229 212
255 229 212
255 229 212
255 229 212
255 229 212
255 229 212
255 229 212
255 229 212
255 229 212
255 229 212
255 229 212
255 229 212
255 229 212
255 229 212
255 229 212
255 229 212
255 229 212
255 229 212
255 229 212
255 229 212
255 229 212
255 229 212
255 229 212
255 229 212
255 229 212
255 229 212
255 229 212
255 229 212
255 229 212
255 229 212
255 229 212
255 229 212
255 229 212
255 229 212
255 229 212
255 229 212
255 229 212
255 229 212
255 229 212
255 229 212
255 229 212
255 229 212
255 229 212
255 229 212
255 229 212
255 229 212
255 229 212
255 241 224
255 229 212
255 229 212
255 229 212
255 229 212
255 229 212
255 229 212
255 229 212
255 229 212
255 229 212
255 229 212
255 229 212
255 229 212
255 229 212
255 229 212
255 229 212
255 229 212
255 229 212
255 229 212
255 229 212
255 229 212
255 229 212
255 229 212
255 229 212
255 229 212
255 229 212
255 229 212
255 229 212
255 229 212
255 229 212
255 229 212
255 229 212
255 229 212
255 229 212
255 229 212
255 229 212
255 229 212
255 241 224
255 229 212
255 229 212
255 229 212
255 229 212
255 229 212
255 229 212
255 229 212
255 229 212
255 229 212
255 229 212
255 229 212
255 229 212
255 229 212
255 229 212
255 229 212
255 229 212
255 229 212
255 229 212
255 229 212
255 229 212
255 229 212
255 229 212
255 229 212
255 229 212
255 229 212
255 229 212
255 229 212
255 229 212
255 229 212
255 229 212
255 229 212
255 229 212
255 229 212
255 229 212
255 229 212
255 229 212
255 241 224
255 229 212
255 229 212
255 229 212
255 229 212
255 229 212
255 229 212
255 229 212
255 229 212
255 229 212
255 229 212
255 229 212
255 229 212
255 229 212
255 229 212
255 229 212
255 229 212
255 229 212
255 229 212
255 229 212
255 229 212
255 229 212
255 229 212
255 229 212
255 229 212
255 229 212
255 229 212
255 229 212
255 229 212
255 229 212
255 229 212
255 229 212
255 229 212
255 229 212
255 229 212
255 229 212
255 229 212
255 241 224
255 229 212
255 229 212
255 229 212
255 229 212
255 229 212
255 229 212
255 229 212
255 229 212
255 229 212
255 229 212
255 229 212
255 229 212
255 229 212
255 229 212
255 229 212
255 229 212
255 229 212
255 229 212
255 229 212
255 229 212
255 229 212
255 229 212
255 229 212
255 229 212
255 229 212
255 229 212
255 229 212
255 229 212
255 229 212
255 229 212
255 229 212
255 229 212
255 229 212
255 229 212
255 229 212
255 229 212
255 241 224
255 229 212
255 229 212
255 229 212
255 229 212
255 229 212
255 229 212
255 229 212
255 229 212
255 229 212
255 229 212
255 229 212
255 229 212
255 229 212
255 229 212
255 229 212
255 229 212
255 229 212
255 229 212
255 229 212
255 229 212
255 229 212
255 229 212
255 229 212
255 229 212
255 229 212
255 229 212
255 229 212
255 229 212
255 229 212
255 229 212
255 229 212
255 229 212
255 229 212
255 229 212
255 229 212
255 229 212
255 241 224
255 229 212
255 229 212
255 229 212
255 229 212
255 229 212
255 229 212
255 229 212
255 229 212
255 229 212
255 229 212
255 229 212
255 229 212
255 229 212
255 229 212
255 229 212
255 229 212
255 229 212
255 229 212
255 229 212
255 229 212
255 229 212
255 229 212
255 229 212
255 229 212
255 229 212
255 229 212
255 229 212
255 229 212
255 229 212
255 229 212
255 229 212
255 229 212
255 229 212
255 229 212
255 229 212
255 229 212
255 241 224
255 229 212
255 229 212
255 229 212
255 229 212
255 229 212
255 229 212
255 229 212
255 229 212
255 229 212
255 229 212
255 229 212
255 229 212
255 229 212
255 229 212
255 229 212
255 229 212
255 229 212
255 229 212
255 229 212
255 229 212
255 229 212
255 229 212
255 229 212
255 229 212
255 229 212
255 229 212
255 229 212
255 229 212
255 229 212
255 229 212
255 229 212
255 229 212
255 229 212
255 229 212
255 229 212
255 229 212
255 241 224
255 229 212
255 229 212
255 229 212
255 229 212
255 229 212
255 229 212
255 229 212
255 229 212
255 229 212
255 229 212
255 229 212
255 229 212
255 229 212
255 229 212
255 229 212
255 229 212
255 229 212
255 229 212
255 229 212
255 229 212
255 229 212
255 229 212
255 229 212
255 229 212
255 229 212
255 229 212
255 229 212
255 229 212
255 229 212
255 229 212
255 229 212
255 229 212
255 229 212
255 229 212
255 229 212
255 229 212
255 229 212
255 229 212
255 229 212
255 229 212
255 229 212
255 229 212
255 229 212
255 229 212
255 229 212
255 229 212
255 229 212
255 229 212
255 229 212
255 229 212
255 229 212
255 229 212
255 229 212
255 229 212
255 229 212
255 229 212
255 229 212
255 229 212
255 229 212
255 241 224
255 229 212
255 229 212
255 229 212
255 229 212
255 229 212
255 229 212
255 229 212
255 229 212
255 229 212
255 229 212
255 229 212
255 229 212
255 229 212
255 229 212
255 229 212
255 229 212
255 229 212
255 229 212
255 229 212
255 229 212
255 229 212
255 229 212
255 229 212
255 229 212
255 229 212
255 229 212
255 229 212
255 229 212
255 229 212
255 229 212
255 229 212
255 229 212
255 229 212
255 229 212
255 229 212
255 229 212
255 241 224
255 229 212
255 229 212
255 229 212
255 229 212
255 229 212
255 229 212
255 229 212
255 229 212
255 229 212
255 229 212
255 229 212
255 229 212
255 229 212
255 229 212
255 229 212
255 229 212
255 229 212
255 229 212
255 229 212
255 229 212
255 229 212
255 229 212
255 229 212
255 229 212
255 229 212
255 229 212
255 229 212
255 229 212
255 229 212
255 229 212
255 229 212
255 229 212
255 229 212
255 229 212
255 229 212
255 229 212
255 241 224
255 229 212
255 229 212
255 229 212
255 229 212
255 229 212
255 229 212
255 229 212
255 229 212
255 229 212
255 229 212
255 229 212
255 229 212
255 229 212
255 229 212
255 229 212
255 229 212
255 229 212
255 229 212
255 229 212
255 229 212
255 229 212
255 229 212
255 229 212
255 229 212
255 229 212
255 229 212
255 229 212
255 229 212
255 229 212
255 229 212
255 229 212
255 229 212
255 229 212
255 229 212
255 229 212
255 229 212
255 241 224
255 229 212
255 229 212
255 229 212
255 229 212
255 229 212
255 229 212
255 229 212
255 229 212
255 229 212
255 229 212
255 229 212
255 229 212
255 229 212
255 229 212
255 229 212
255 229 212
255 229 212
255 229 212
255 229 212
255 229 212
255 229 212
255 229 212
255 229 212
255 229 212
255 229 212
255 229 212
255 229 212
255 229 212
255 229 212
255 229 212
255 229 212
255 229 212
255 229 212
255 229 212
255 229 212
255 229 212
255 241 224
255 229 212
255 229 212
255 229 212
255 229 212
255 229 212
255 229 212
255 229 212
255 229 212
255 229 212
255 229 212
255 229 212
255 229 212
255 229 212
255 229 212
255 229 212
255 229 212
255 229 212
255 229 212
255 229 212
255 229 212
255 229 212
255 229 212
255 229 212
255 229 212
255 229 212
255 229 212
255 229 212
255 229 212
255 229 212
255 229 212
255 229 212
255 229 212
255 229 212
255 229 212
255 229 212
255 229 212
255 241 224
255 229 212
255 229 212
255 229 212
255 229 212
255 229 212
255 229 212
255 229 212
255 229 212
255 229 212
255 229 212
255 229 212
255 229 212
255 229 212
255 229 212
255 229 212
255 229 212
255 229 212
255 229 212
255 229 212
255 229 212
255 229 212
255 229 212
255 229 212
255 229 212
255 229 212
255 229 212
255 229 212
255 229 212
255 229 212
255 229 212
255 229 212
255 229 212
255 229 212
255 229 212
255 229 212
255 229 212
255 241 224
255 229 212
255 229 212
255 229 212
255 229 212
255 229 212
255 229 212
255 229 212
255 229 212
255 229 212
255 229 212
255 229 212
255 229 212
255 229 212
255 229 212
255 229 212
255 229 212
255 229 212
255 229 212
255 229 212
255 229 212
255 229 212
255 229 212
255 229 212
255 229 212
255 229 212
255 229 212
255 229 212
255 229 212
255 229 212
255 229 212
255 229 212
255 229 212
255 229 212
255 229 212
255 229 212
255 229 212
255 241 224
255 229 212
255 229 212
255 229 212
255 229 212
255 229 212
255 229 212
255 229 212
255 229 212
255 229 212
255 229 212
255 229 212
255 229 212
255 229 212
255 229 212
255 229 212
255 229 212
255 229 212
255 229 212
255 229 212
255 229 212
255 229 212
255 229 212
255 229 212
255 229 212
255 229 212
255 229 212
255 229 212
255 229 212
255 229 212
255 229 212
255 229 212
255 229 212
255 229 212
255 229 212
255 229 212
255 229 212
255 229 212
255 229 212
255 229 212
255 229 212
255 229 212
255 229 212
255 229 212
255 229 212
255 229 212
255 229 212
255 229 212
255 229 212
255 229 212
255 229 212
255 229 212
255 229 212
255 229 212
255 229 212
255 229 212
255 229 212
255 229 212
255 229 212
255 229 212
255 241 224
255 229 212
255 229 212
255 229 212
255 229 212
255 229 212
255 229 212
255 229 212
255 229 212
255 229 212
255 229 212
255 229 212
255 229 212
255 229 212
255 229 212
255 229 212
255 229 212
255 229 212
255 229 212
255 229 212
255 229 212
255 229 212
255 229 212
255 229 212
255 229 212
255 229 212
255 229 212
255 229 212
255 229 212
255 229 212
255 229 212
255 229 212
255 229 212
255 229 212
255 229 212
255 229 212
255 229 212
255 241 224
255 229 212
255 229 212
255 229 212
255 229 212
255 229 212
255 229 212
255 229 212
255 229 212
255 229 212
255 229 212
255 229 212
255 229 212
255 229 212
255 229 212
255 229 212
255 229 212
255 229 212
255 229 212
255 229 212
255 229 212
255 229 212
255 229 212
255 229 212
255 229 212
255 229 212
255 229 212
255 229 212
255 229 212
255 229 212
255 229 212
255 229 212
255 229 212
255 229 212
255 229 212
255 229 212
255 229 212
255 241 224
255 229 212
255 229 212
255 229 212
255 229 212
255 229 212
255 229 212
255 229 212
255 229 212
255 229 212
255 229 212
255 229 212
255 229 212
255 229 212
255 229 212
255 229 212
255 229 212
255 229 212
255 229 212
255 229 212
255 229 212
255 229 212
255 229 212
255 229 212
255 229 212
255 229 212
255 229 212
255 229 212
255 229 212
255 229 212
255 229 212
255 229 212
255 229 212
255 229 212
255 229 212
255 229 212
255 229 212
255 241 224
255 229 212
255 229 212
255 229 212
255 229 212
255 229 212
255 229 212
255 229 212
255 229 212
255 229 212
255 229 212
255 229 212
255 229 212
255 229 212
255 229 212
255 229 212
255 229 212
255 229 212
255 229 212
255 229 212
255 229 212
255 229 212
255 229 212
255 229 212
255 229 212
255 229 212
255 229 212
255 229 212
255 229 212
255 229 212
255 229 212
255 229 212
255 229 212
255 229 212
255 229 212
255 229 212
255 229 212
255 241 224
255 229 212
255 229 212
255 229 212
255 229 212
255 229 212
255 229 212
255 229 212
255 229 212
255 229 212
255 229 212
255 229 212
255 229 212
255 229 212
255 229 212
255 229 212
255 229 212
255 229 212
255 229 212
255 229 212
255 229 212
255 229 212
255 229 212
255 229 212
255 229 212
255 229 212
255 229 212
255 229 212
255 229 212
255 229 212
255 229 212
255 229 212
255 229 212
255 229 212
255 229 212
255 229 212
255 229 212
255 241 224
255 229 212
255 229 212
255 229 212
255 229 212
255 229 212
255 229 212
255 229 212
255 229 212
255 229 212
255 229 212
255 229 212
255 229 212
255 229 212
255 229 212
255 229 212
255 229 212
255 229 212
255 229 212
255 229 212
255 229 212
255 229 212
255 229 212
255 229 212
255 229 212
255 229 212
255 229 212
255 229 212
255 229 212
255 229 212
255 229 212
255 229 212
255 229 212
255 229 212
255 229 212
255 229 212
255 229 212
255 241 224
255 229 212
255 229 212
255 229 212
255 229 212
255 229 212
255 229 212
255 229 212
255 229 212
255 229 212
255 229 212
255 229 212
255 229 212
255 229 212
255 229 212
255 229 212
255 229 212
255 229 212
255 229 212
255 229 212
255 229 212
255 229 212
255 229 212
255 229 212
255 229 212
255 229 212
255 229 212
255 229 212
255 229 212
255 229 212
255 229 212
255 229 212
255 229 212
255 229 212
255 229 212
255 229 212
255 229 212
255 241 224
255 229 212
255 229 212
255 229 212
255 229 212
255 229 212
255 229 212
255 229 212
255 229 212
255 229 212
255 229 212
255 229 212
255 229 212
255 229 212
255 229 212
255 229 212
255 229 212
255 229 212
255 229 212
255 229 212
255 229 212
255 229 212
255 229 212
255 229 212
255 229 212
255 229 212
255 229 212
255 229 212
255 229 212
255 229 212
255 229 212
255 229 212
255 229 212
255 229 212
255 229 212
255 229 212
255 229 212
255 229 212
255 229 212
255 229 212
255 229 212
255 229 212
255 229 212
255 229 212
255 229 212
255 229 212
255 229 212
255 229 212
255 229 212
255 229 212
255 229 212
255 229 212
255 229 212
255 229 212
255 229 212
255 229 212
255 229 212
255 229 212
255 229 212
255 229 212
255 241 224
255 229 212
255 229 212
255 229 212
255 229 212
255 229 212
255 229 212
255 229 212
255 229 212
255 229 212
255 229 212
255 229 212
255 229 212
255 229 212
255 229 212
255 229 212
255 229 212
255 229 212
255 229 212
255 229 212
255 229 212
255 229 212
255 229 212
255 229 212
255 229 212
255 229 212
255 229 212
255 229 212
255 229 212
255 229 212
255 229 212
255 229 212
255 229 212
255 229 212
255 229 212
255 229 212
255 229 212
255 241 224
255 229 212
255 229 212
255 229 212
255 229 212
255 229 212
255 229 212
255 229 212
255 229 212
255 229 212
255 229 212
255 229 212
255 229 212
255 229 212
255 229 212
255 229 212
255 229 212
255 229 212
255 229 212
255 229 212
255 229 212
255 229 212
255 229 212
255 229 212
255 229 212
255 229 212
255 229 212
255 229 212
255 229 212
255 229 212
255 229 212
255 229 212
255 229 212
255 229 212
255 229 212
255 229 212
255 229 212
255 241 224
255 229 212
255 229 212
255 229 212
255 229 212
255 229 212
255 229 212
255 229 212
255 229 212
255 229 212
255 229 212
255 229 212
255 229 212
255 229 212
255 229 212
255 229 212
255 229 212
255 229 212
255 229 212
255 229 212
255 229 212
255 229 212
255 229 212
255 229 212
255 229 212
255 229 212
255 229 212
255 229 212
255 229 212
255 229 212
255 229 212
255 229 212
255 229 212
255 229 212
255 229 212
255 229 212
255 229 212
255 241 224
255 229 212
255 229 212
255 229 212
255 229 212
255 229 212
255 229 212
255 229 212
255 229 212
255 229 212
255 229 212
255 229 212
255 229 212
255 229 212
255 229 212
255 229 212
255 229 212
255 229 212
255 229 212
255 229 212
255 229 212
255 229 212
255 229 212
255 229 212
255 229 212
255 229 212
255 229 212
255 229 212
255 229 212
255 229 212
255 229 212
255 229 212
255 229 212
255 229 212
255 229 212
255 229 212
255 229 212
255 241 224
255 229 212
255 229 212
255 229 212
255 229 212
255 229 212
255 229 212
255 229 212
255 229 212
255 229 212
255 229 212
255 229 212
255 229 212
255 229 212
255 229 212
255 229 212
255 229 212
255 229 212
255 229 212
255 229 212
255 229 212
255 229 212
255 229 212
255 229 212
255 229 212
255 229 212
255 229 212
255 229 212
255 229 212
255 229 212
255 229 212
255 229 212
255 229 212
255 229 212
255 229 212
255 229 212
255 229 212
255 241 224
255 229 212
255 229 212
255 229 212
255 229 212
255 229 212
255 229 212
255 229 212
255 229 212
255 229 212
255 229 212
255 229 212
255 229 212
255 229 212
255 229 212
255 229 212
255 229 212
255 229 212
255 229 212
255 229 212
255 229 212
255 229 212
255 229 212
255 229 212
255 229 212
255 229 212
255 229 212
255 229 212
255 229 212
255 229 212
255 229 212
255 229 212
255 229 212
255 229 212
255 229 212
255 229 212
255 229 212
255 241 224
255 229 212
255 229 212
255 229 212
255 229 212
255 229 212
255 229 212
255 229 212
255 229 212
255 229 212
255 229 212
255 229 212
255 229 212
255 229 212
255 229 212
255 229 212
255 229 212
255 229 212
255 229 212
255 229 212
255 229 212
255 229 212
255 229 212
255 229 212
255 229 212
255 229 212
255 229 212
255 229 212
255 229 212
255 229 212
255 229 212
255 229 212
255 229 212
255 229 212
255 229 212
255 229 212
255 229 212
255 241 224
255 229 212
255 229 212
255 229 212
255 229 212
255 229 212
255 229 212
255 229 212
255 229 212
255 229 212
255 229 212
255 229 212
255 229 212
255 229 212
255 229 212
255 229 212
255 229 212
255 229 212
255 229 212
255 229 212
255 229 212
255 229 212
255 229 212
255 229 212
255 229 212
255 229 212
255 229 212
255 229 212
255 229 212
255 229 212
255 229 212
255 229 212
255 229 212
255 229 212
255 229 212
255 229 212
255 229 212
255 229 212
255 229 212
255 229 212
255 229 212
255 229 212
255 229 212
255 229 212
255 229 212
255 229 212
255 229 212
255 229 212
255 229 212
255 229 212
255 229 212
255 229 212
255 229 212
255 229 212
255 229 212
255 229 212
255 229 212
255 229 212
255 229 212
255 229 212
255 241 224
255 229 212
255 229 212
255 229 212
255 229 212
255 229 212
255 229 212
255 229 212
255 229 212
255 229 212
255 229 212
255 229 212
255 229 212
255 229 212
255 229 212
255 229 212
255 229 212
255 229 212
255 229 212
255 229 212
255 229 212
255 229 212
255 229 212
255 229 212
255 229 212
255 229 212
255 229 212
255 229 212
255 229 212
255 229 212
255 229 212
255 229 212
255 229 212
255 229 212
255 229 212
255 229 212
255 229 212
255 241 224
255 229 212
255 229 212
255 229 212
255 229 212
255 229 212
255 229 212
255 229 212
255 229 212
255 229 212
255 229 212
255 229 212
255 229 212
255 229 212
255 229 212
255 229 212
255 229 212
255 229 212
255 229 212
255 229 212
255 229 212
255 229 212
255 229 212
255 229 212
255 229 212
255 229 212
255 229 212
255 229 212
255 229 212
255 229 212
255 229 212
255 229 212
255 229 212
255 229 212
255 229 212
255 229 212
255 229 212
255 241 224
255 229 212
255 229 212
255 229 212
255 229 212
255 229 212
255 229 212
255 229 212
255 229 212
255 229 212
255 229 212
255 229 212
255 229 212
255 229 212
255 229 212
255 229 212
255 229 212
255 229 212
255 229 212
255 229 212
255 229 212
255 229 212
255 229 212
255 229 212
255 229 212
255 229 212
255 229 212
255 229 212
255 229 212
255 229 212
255 229 212
255 229 212
255 229 212
255 229 212
255 229 212
255 229 212
255 229 212
255 241 224
255 229 212
255 229 212
255 229 212
255 229 212
255 229 212
255 229 212
255 229 212
255 229 212
255 229 212
255 229 212
255 229 212
255 229 212
255 229 212
255 229 212
255 229 212
255 229 212
255 229 212
255 229 212
255 229 212
255 229 212
255 229 212
255 229 212
255 229 212
255 229 212
255 229 212
255 229 212
255 229 212
255 229 212
255 229 212
255 229 212
255 229 212
255 229 212
255 229 212
255 229 212
255 229 212
255 229 212
255 241 224
255 229 212
255 229 212
255 229 212
255 229 212
255 229 212
255 229 212
255 229 212
255 229 212
255 229 212
255 229 212
255 229 212
255 229 212
255 229 212
255 229 212
255 229 212
255 229 212
255 229 212
255 229 212
255 229 212
255 229 212
255 229 212
255 229 212
255 229 212
255 229 212
255 229 212
255 229 212
255 229 212
255 229 212
255 229 212
255 229 212
255 229 212
255 229 212
255 229 212
255 229 212
255 229 212
255 229 212
255 241 224
255 229 212
255 229 212
255 229 212
255 229 212
255 229 212
255 229 212
255 229 212
255 229 212
255 229 212
255 229 212
255 229 212
255 229 212
255 229 212
255 229 212
255 229 212
255 229 212
255 229 212
255 229 212
255 229 212
255 229 212
255 229 212
255 229 212
255 229 212
255 229 212
255 229 212
255 229 212
255 229 212
255 229 212
255 229 212
255 229 212
255 229 212
255 229 212
255 229 212
255 229 212
255 229 212
255 229 212
255 241 224
255 229 212
255 229 212
255 229 212
255 229 212
255 229 212
255 229 212
255 229 212
255 229 212
255 229 212
255 229 212
255 229 212
255 229 212
255 229 212
255 229 212
255 229 212
255 229 212
255 229 212
255 229 212
255 229 212
255 229 212
255 229 212
255 229 212
255 229 212
255 229 212
255 229 212
255 229 212
255 229 212
255 229 212
255 229 212
255 229 212
255 229 212
255 229 212
255 229 212
255 229 212
255 229 212
255 229 212
255 241 224
255 229 212
255 229 212
255 229 212
255 229 212
255 229 212
255 229 212
255 229 212
255 229 212
255 229 212
255 229 212
255 229 212
255 229 212
255 229 212
255 229 212
255 229 212
255 229 212
255 229 212
255 229 212
255 229 212
255 229 212
255 229 212
255 229 212
255 229 212
255 229 212
255 229 212
255 229 212
255 229 212
255 229 212
255 229 212
255 229 212
255 229 212
255 229 212
255 229 212
255 229 212
255 229 212
255 229 212
255 229 212
255 229 212
255 229 212
255 229 212
255 229 212
255 229 212
255 229 212
255 229 212
255 229 212
255 229 212
255 229 212
255 229 212
255 229 212
255 229 212
255 229 212
255 229 212
255 229 212
255 229 212
255 229 212
255 229 212
255 229 212
255 229 212
255 229 212
255 241 224
255 229 212
255 229 212
255 229 212
255 229 212
255 229 212
255 229 212
255 229 212
255 229 212
255 229 212
255 229 212
255 229 212
255 229 212
255 229 212
255 229 212
255 229 212
255 229 212
255 229 212
255 229 212
255 229 212
255 229 212
255 229 212
255 229 212
255 229 212
255 229 212
255 229 212
255 229 212
255 229 212
255 229 212
255 229 212
255 229 212
255 229 212
255 229 212
255 229 212
255 229 212
255 229 212
255 229 212
255 241 224
255 229 212
255 229 212
255 229 212
255 229 212
255 229 212
255 229 212
255 229 212
255 229 212
255 229 212
255 229 212
255 229 212
255 229 212
255 229 212
255 229 212
255 229 212
255 229 212
255 229 212
255 229 212
255 229 212
255 229 212
255 229 212
255 229 212
255 229 212
255 229 212
255 229 212
255 229 212
255 229 212
255 229 212
255 229 212
255 229 212
255 229 212
255 229 212
255 229 212
255 229 212
255 229 212
255 229 212
255 241 224
255 229 212
255 229 212
255 229 212
255 229 212
255 229 212
255 229 212
255 229 212
255 229 212
255 229 212
255 229 212
255 229 212
255 229 212
255 229 212
255 229 212
255 229 212
255 229 212
255 229 212
255 229 212
255 229 212
255 229 212
255 229 212
255 229 212
255 229 212
255 229 212
255 229 212
255 229 212
255 229 212
255 229 212
255 229 212
255 229 212
255 229 212
255 229 212
255 229 212
255 229 212
255 229 212
255 229 212
255 241 224
255 229 212
255 229 212
255 229 212
255 229 212
255 229 212
255 229 212
255 229 212
255 229 212
255 229 212
255 229 212
255 229 212
255 229 212
255 229 212
255 229 212
255 229 212
255 229 212
255 229 212
255 229 212
255 229 212
255 229 212
255 229 212
255 229 212
255 229 212
255 229 212
255 229 212
255 229 212
255 229 212
255 229 212
255 229 212
255 229 212
255 229 212
255 229 212
255 229 212
255 229 212
255 229 212
255 229 212
255 241 224
255 229 212
255 229 212
255 229 212
255 229 212
255 229 212
255 229 212
255 229 212
255 229 212
255 229 212
255 229 212
255 229 212
255 229 212
255 229 212
255 229 212
255 229 212
255 229 212
255 229 212
255 229 212
255 229 212
255 229 212
255 229 212
255 229 212
255 229 212
255 229 212
255 229 212
255 229 212
255 229 212
255 229 212
255 229 212
255 229 212
255 229 212
255 229 212
255 229 212
255 229 212
255 229 212
255 229 212
255 241 224
255 229 212
255 229 212
255 229 212
255 229 212
255 229 212
255 229 212
255 229 212
255 229 212
255 229 212
255 229 212
255 229 212
255 229 212
255 229 212
255 229 212
255 229 212
255 229 212
255 229 212
255 229 212
255 229 212
255 229 212
255 229 212
255 229 212
255 229 212
255 229 212
255 229 212
255 229 212
255 229 212
255 229 212
255 229 212
255 229 212
255 229 212
255 229 212
255 229 212
255 229 212
255 229 212
255 229 212
255 241 224
255 229 212
255 229 212
255 229 212
255 229 212
255 229 212
255 229 212
255 229 212
255 229 212
255 229 212
255 229 212
255 229 212
255 229 212
255 229 212
255 229 212
255 229 212
255 229 212
255 229 212
255 229 212
255 229 212
255 229 212
255 229 212
255 229 212
255 229 212
255 229 212
255 229 212
255 229 212
255 229 212
255 229 212
255 229 212
255 229 212
255 229 212
255 229 212
255 229 212
255 229 212
255 229 212
255 229 212
255 241 224
255 229 212
255 229 212
255 229 212
255 229 212
255 229 212
255 229 212
255 229 212
255 229 212
255 229 212
255 229 212
255 229 212
255 229 212
255 229 212
255 229 212
255 229 212
255 229 212
255 229 212
255 229 212
255 229 212
255 229 212
255 229 212
255 229 212
255 229 212
255 229 212
255 229 212
255 229 212
255 229 212
255 229 212
255 229 212
255 229 212
255 229 212
255 229 212
255 229 212
255 229 212
255 229 212
255 229 212
255 229 212
255 229 212
255 229 212
255 229 212
255 229 212
255 229 212
255 229 212
255 229 212
255 229 212
255 229 212
255 229 212
255 229 212
255 229 212
255 229 212
255 229 212
255 229 212
255 229 212
255 229 212
255 229 212
255 229 212
255 229 212
255 229 212
255 229 212
255 241 224
255 229 212
255 229 212
255 229 212
255 229 212
255 229 212
255 229 212
255 229 212
255 229 212
255 229 212
255 229 212
255 229 212
255 229 212
255 229 212
255 229 212
255 229 212
255 229 212
255 229 212
255 229 212
255 229 212
255 229 212
255 229 212
255 229 212
255 229 212
255 229 212
255 229 212
255 229 212
255 229 212
255 229 212
255 229 212
255 229 212
255 229 212
255 229 212
255 229 212
255 229 212
255 229 212
255 229 212
255 241 224
255 229 212
255 229 212
255 229 212
255 229 212
255 229 212
255 229 212
255 229 212
255 229 212
255 229 212
255 229 212
255 229 212
255 229 212
255 229 212
255 229 212
255 229 212
255 229 212
255 229 212
255 229 212
255 229 212
255 229 212
255 229 212
255 229 212
255 229 212
255 229 212
255 229 212
255 229 212
255 229 212
255 229 212
255 229 212
255 229 212
255 229 212
255 229 212
255 229 212
255 229 212
255 229 212
255 229 212
255 241 224
255 229 212
255 229 212
255 229 212
255 229 212
255 229 212
255 229 212
255 229 212
255 229 212
255 229 212
255 229 212
255 229 212
255 229 212
255 229 212
255 229 212
255 229 212
255 229 212
255 229 212
255 229 212
255 229 212
255 229 212
255 229 212
255 229 212
255 229 212
255 229 212
255 229 212
255 229 212
255 229 212
255 229 212
255 229 212
255 229 212
255 229 212
255 229 212
255 229 212
255 229 212
255 229 212
255 229 212
255 241 224
255 229 212
255 229 212
255 229 212
255 229 212
255 229 212
255 229 212
255 229 212
255 229 212
255 229 212
255 229 212
255 229 212
255 229 212
255 229 212
255 229 212
255 229 212
255 229 212
255 229 212
255 229 212
255 229 212
255 229 212
255 229 212
255 229 212
255 229 212
255 229 212
255 229 212
255 229 212
255 229 212
255 229 212
255 229 212
255 229 212
255 229 212
255 229 212
255 229 212
255 229 212
255 229 212
255 229 212
255 241 224
255 229 212
255 229 212
255 229 212
255 229 212
255 229 212
255 229 212
255 229 212
255 229 212
255 229 212
255 229 212
255 229 212
255 229 212
255 229 212
255 229 212
255 229 212
255 229 212
255 229 212
255 229 212
255 229 212
255 229 212
255 229 212
255 229 212
255 229 212
255 229 212
255 229 212
255 229 212
255 229 212
255 229 212
255 229 212
255 229 212
255 229 212
255 229 212
255 229 212
255 229 212
255 229 212
255 229 212
255 241 224
255 229 212
255 229 212
255 229 212
255 229 212
255 229 212
255 229 212
255 229 212
255 229 212
255 229 212
255 229 212
255 229 212
255 229 212
255 229 212
255 229 212
255 229 212
255 229 212
255 229 212
255 229 212
255 229 212
255 229 212
255 229 212
255 229 212
255 229 212
255 229 212
255 229 212
255 229 212
255 229 212
255 229 212
255 229 212
255 229 212
255 229 212
255 229 212
255 229 212
255 229 212
255 229 212
255 229 212
255 241 224
255 229 212
255 229 212
255 229 212
255 229 212
255 229 212
255 229 212
255 229 212
255 229 212
255 229 212
255 229 212
255 229 212
255 229 212
255 229 212
255 229 212
255 229 212
255 229 212
255 229 212
255 229 212
255 229 212
255 229 212
255 229 212
255 229 212
255 229 212
255 229 212
255 229 212
255 229 212
255 229 212
255 229 212
255 229 212
255 229 212
255 229 212
255 229 212
255 229 212
255 229 212
255 229 212
255 229 212
255 241 224
255 229 212
255 229 212
255 229 212
255 229 212
255 229 212
255 229 212
255 229 212
255 229 212
255 229 212
255 229 212
255 229 212
255 229 212
255 229 212
255 229 212
255 229 212
255 229 212
255 229 212
255 229 212
255 229 212
255 229 212
255 229 212
255 229 212
255 229 212
255 229 212
255 229 212
255 229 212
255 229 212
255 229 212
255 229 212
255 229 212
255 229 212
255 229 212
255 229 212
255 229 212
255 229 212
255 229 212
255 229 212
255 229 212
255 229 212
255 229 212
255 229 212
255 229 212
255 229 212
255 229 212
255 229 212
255 229 212
255 229 212
255 229 212
255 229 212
255 229 212
255 229 212
255 229 212
255 229 212
255 229 212
255 229 212
255 229 212
255 229 212
255 229 212
255 229 212
255 241 224
255 229 212
255 229 212
255 229 212
255 229 212
255 229 212
255 229 212
255 229 212
255 229 212
255 229 212
255 229 212
255 229 212
255 229 212
255 229 212
255 229 212
255 229 212
255 229 212
255 229 212
255 229 212
255 229 212
255 229 212
255 229 212
255 229 212
255 229 212
255 229 212
255 229 212
255 229 212
255 229 212
255 229 212
255 229 212
255 229 212
255 229 212
255 229 212
255 229 212
255 229 212
255 229 212
255 229 212
255 241 224
255 229 212
255 229 212
255 229 212
255 229 212
255 229 212
255 229 212
255 229 212
255 229 212
255 229 212
255 229 212
255 229 212
255 229 212
255 229 212
255 229 212
255 229 212
255 229 212
255 229 212
255 229 212
255 229 212
255 229 212
255 229 212
255 229 212
255 229 212
255 229 212
255 229 212
255 229 212
255 229 212
255 229 212
255 229 212
255 229 212
255 229 212
255 229 212
255 229 212
255 229 212
255 229 212
255 229 212
255 241 224
255 229 212
255 229 212
255 229 212
255 229 212
255 229 212
255 229 212
255 229 212
255 229 212
255 229 212
255 229 212
255 229 212
255 229 212
255 229 212
255 229 212
255 229 212
255 229 212
255 229 212
255 229 212
255 229 212
255 229 212
255 229 212
255 229 212
255 229 212
255 229 212
255 229 212
255 229 212
255 229 212
255 229 212
255 229 212
255 229 212
255 229 212
255 229 212
255 229 212
255 229 212
255 229 212
255 229 212
255 241 224
255 229 212
255 229 212
255 229 212
255 229 212
255 229 212
255 229 212
255 229 212
255 229 212
255 229 212
255 229 212
255 229 212
255 229 212
255 229 212
255 229 212
255 229 212
255 229 212
255 229 212
255 229 212
255 229 212
255 229 212
255 229 212
255 229 212
255 229 212
255 229 212
255 229 212
255 229 212
255 229 212
255 229 212
255 229 212
255 229 212
255 229 212
255 229 212
255 229 212
255 229 212
255 229 212
255 229 212
255 241 224
255 229 212
255 229 212
255 229 212
255 229 212
255 229 212
255 229 212
255 229 212
255 229 212
255 229 212
255 229 212
255 229 212
255 229 212
255 229 212
255 229 212
255 229 212
255 229 212
255 229 212
255 229 212
255 229 212
255 229 212
255 229 212
255 229 212
255 229 212
255 229 212
255 229 212
255 229 212
255 229 212
255 229 212
255 229 212
255 229 212
255 229 212
255 229 212
255 229 212
255 229 212
255 229 212
255 229 212
255 241 224
255 229 212
255 229 212
255 229 212
255 229 212
255 229 212
255 229 212
255 229 212
255 229 212
255 229 212
255 229 212
255 229 212
255 229 212
255 229 212
255 229 212
255 229 212
255 229 212
255 229 212
255 229 212
255 229 212
255 229 212
255 229 212
255 229 212
255 229 212
255 229 212
255 229 212
255 229 212
255 229 212
255 229 212
255 229 212
255 229 212
255 229 212
255 229 212
255 229 212
255 229 212
255 229 212
255 229 212
255 241 224
255 229 212
255 229 212
255 229 212
255 229 212
255 229 212
255 229 212
255 229 212
255 229 212
255 229 212
255 229 212
255 229 212
255 229 212
255 229 212
255 229 212
255 229 212
255 229 212
255 229 212
255 229 212
255 229 212
255 229 212
255 229 212
255 229 212
255 229 212
255 229 212
255 229 212
255 229 212
255 229 212
255 229 212
255 229 212
255 229 212
255 229 212
255 229 212
255 229 212
255 229 212
255 229 212
255 229 212
255 241 224
255 229 212
255 229 212
255 229 212
255 229 212
255 229 212
255 229 212
255 229 212
255 229 212
255 229 212
255 229 212
255 229 212
255 229 212
255 229 212
255 229 212
255 229 212
255 229 212
255 229 212
255 229 212
255 229 212
255 229 212
255 229 212
255 229 212
255 229 212
255 229 212
255 229 212
255 229 212
255 229 212
255 229 212
255 229 212
255 229 212
255 229 212
255 229 212
255 229 212
255 229 212
255 229 212
255 229 212
255 229 212
255 229 212
255 229 212
255 229 212
255 229 212
255 229 212
255 229 212
255 229 212
255 229 212
255 229 212
255 229 212
255 229 212
255 229 212
255 229 212
255 229 212
255 229 212
255 229 212
255 229 212
255 229 212
255 229 212
255 229 212
255 229 212
255 229 212
255 241 224
255 229 212
255 229 212
255 229 212
255 229 212
255 229 212
255 229 212
255 229 212
255 229 212
255 229 212
255 229 212
255 229 212
255 229 212
255 229 212
255 229 212
255 229 212
255 229 212
255 229 212
255 229 212
255 229 212
255 229 212
255 229 212
255 229 212
255 229 212
255 229 212
255 229 212
255 229 212
255 229 212
255 229 212
255 229 212
255 229 212
255 229 212
255 229 212
255 229 212
255 229 212
255 229 212
255 229 212
255 241 224
255 229 212
255 229 212
255 229 212
255 229 212
255 229 212
255 229 212
255 229 212
255 229 212
255 229 212
255 229 212
255 229 212
255 229 212
255 229 212
255 229 212
255 229 212
255 229 212
255 229 212
255 229 212
255 229 212
255 229 212
255 229 212
255 229 212
255 229 212
255 229 212
255 229 212
255 229 212
255 229 212
255 229 212
255 229 212
255 229 212
255 229 212
255 229 212
255 229 212
255 229 212
255 229 212
255 229 212
255 241 224
255 229 212
255 229 212
255 229 212
255 229 212
255 229 212
255 229 212
255 229 212
255 229 212
255 229 212
255 229 212
255 229 212
255 229 212
255 229 212
255 229 212
255 229 212
255 229 212
255 229 212
255 229 212
255 229 212
255 229 212
255 229 212
255 229 212
255 229 212
255 229 212
255 229 212
255 229 212
255 229 212
255 229 212
255 229 212
255 229 212
255 229 212
255 229 212
255 229 212
255 229 212
255 229 212
255 229 212
255 241 224
255 229 212
255 229 212
255 229 212
255 229 212
255 229 212
255 229 212
255 229 212
255 229 212
255 229 212
255 229 212
255 229 212
255 229 212
255 229 212
255 229 212
255 229 212
255 229 212
255 229 212
255 229 212
255 229 212
255 229 212
255 229 212
255 229 212
255 229 212
255 229 212
255 229 212
255 229 212
255 229 212
255 229 212
255 229 212
255 229 212
255 229 212
255 229 212
255 229 212
255 229 212
255 229 212
255 229 212
255 241 224
255 229 212
255 229 212
255 229 212
255 229 212
255 229 212
255 229 212
255 229 212
255 229 212
255 229 212
255 229 212
255 229 212
255 229 212
255 229 212
255 229 212
255 229 212
255 229 212
255 229 212
255 229 212
255 229 212
255 229 212
255 229 212
255 229 212
255 229 212
255 229 212
255 229 212
255 229 212
255 229 212
255 229 212
255 229 212
255 229 212
255 229 212
255 229 212
255 229 212
255 229 212
255 229 212
255 229 212
255 241 224
255 229 212
255 229 212
255 229 212
255 229 212
255 229 212
255 229 212
255 229 212
255 229 212
255 229 212
255 229 212
255 229 212
255 229 212
255 229 212
255 229 212
255 229 212
255 229 212
255 229 212
255 229 212
255 229 212
255 229 212
255 229 212
255 229 212
255 229 212
255 229 212
255 229 212
255 229 212
255 229 212
255 229 212
255 229 212
255 229 212
255 229 212
255 229 212
255 229 212
255 229 212
255 229 212
255 229 212
255 241 224
255 229 212
255 229 212
255 229 212
255 229 212
255 229 212
255 229 212
255 229 212
255 229 212
255 229 212
255 229 212
255 229 212
255 229 212
255 229 212
255 229 212
255 229 212
255 229 212
255 229 212
255 229 212
255 229 212
255 229 212
255 229 212
255 229 212
255 229 212
255 229 212
255 229 212
255 229 212
255 229 212
255 229 212
255 229 212
255 229 212
255 229 212
255 229 212
255 229 212
255 229 212
255 229 212
255 229 212
255 241 224
255 229 212
255 229 212
255 229 212
255 229 212
255 229 212
255 229 212
255 229 212
255 229 212
255 229 212
255 229 212
255 229 212
255 229 212
255 229 212
255 229 212
255 229 212
255 229 212
255 229 212
255 229 212
255 229 212
255 229 212
255 229 212
255 229 212
255 229 212
255 229 212
255 229 212
255 229 212
255 229 212
255 229 212
255 229 212
255 229 212
255 229 212
255 229 212
255 229 212
255 229 212
255 229 212
255 229 212
255 229 212
255 229 212
255 229 212
255 229 212
255 229 212
255 229 212
255 229 212
255 229 212
255 229 212
255 229 212
255 229 212
255 229 212
255 229 212
255 229 212
255 229 212
255 229 212
255 229 212
255 229 212
255 229 212
255 229 212
255 229 212
255 229 212
255 229 212
255 241 224
255 229 212
255 229 212
255 229 212
255 229 212
255 229 212
255 229 212
255 229 212
255 229 212
255 229 212
255 229 212
255 229 212
255 229 212
255 229 212
255 229 212
255 229 212
255 229 212
255 229 212
255 229 212
255 229 212
255 229 212
255 229 212
255 229 212
255 229 212
255 229 212
255 229 212
255 229 212
255 229 212
255 229 212
255 229 212
255 229 212
255 229 212
255 229 212
255 229 212
255 229 212
255 229 212
255 229 212
255 241 224
255 229 212
255 229 212
255 229 212
255 229 212
255 229 212
255 229 212
255 229 212
255 229 212
255 229 212
255 229 212
255 229 212
255 229 212
255 229 212
255 229 212
255 229 212
255 229 212
255 229 212
255 229 212
255 229 212
255 229 212
255 229 212
255 229 212
255 229 212
255 229 212
255 229 212
255 229 212
255 229 212
255 229 212
255 229 212
255 229 212
255 229 212
255 229 212
255 229 212
255 229 212
255 229 212
255 229 212
255 241 224
255 229 212
255 229 212
255 229 212
255 229 212
255 229 212
255 229 212
255 229 212
255 229 212
255 229 212
255 229 212
255 229 212
255 229 212
255 229 212
255 229 212
255 229 212
255 229 212
255 229 212
255 229 212
255 229 212
255 229 212
255 229 212
255 229 212
255 229 212
255 229 212
255 229 212
255 229 212
255 229 212
255 229 212
255 229 212
255 229 212
255 229 212
255 229 212
255 229 212
255 229 212
255 229 212
255 229 212
255 241 224
255 229 212
255 229 212
255 229 212
255 229 212
255 229 212
255 229 212
255 229 212
255 229 212
255 229 212
255 229 212
255 229 212
255 229 212
255 229 212
255 229 212
255 229 212
255 229 212
255 229 212
255 229 212
255 229 212
255 229 212
255 229 212
255 229 212
255 229 212
255 229 212
255 229 212
255 229 212
255 229 212
255 229 212
255 229 212
255 229 212
255 229 212
255 229 212
255 229 212
255 229 212
255 229 212
255 229 212
255 241 224
255 229 212
255 229 212
255 229 212
255 229 212
255 229 212
255 229 212
255 229 212
255 229 212
255 229 212
255 229 212
255 229 212
255 229 212
255 229 212
255 229 212
255 229 212
255 229 212
255 229 212
255 229 212
255 229 212
255 229 212
255 229 212
255 229 212
255 229 212
255 229 212
255 229 212
255 229 212
255 229 212
255 229 212
255 229 212
255 229 212
255 229 212
255 229 212
255 229 212
255 229 212
255 229 212
255 229 212
255 241 224
255 229 212
255 229 212
255 229 212
255 229 212
255 229 212
255 229 212
255 229 212
255 229 212
255 229 212
255 229 212
255 229 212
255 229 212
255 229 212
255 229 212
255 229 212
255 229 212
255 229 212
255 229 212
255 229 212
255 229 212
255 229 212
255 229 212
255 229 212
255 229 212
255 229 212
255 229 212
255 229 212
255 229 212
255 229 212
255 229 212
255 229 212
255 229 212
255 229 212
255 229 212
255 229 212
255 229 212
255 241 224
255 229 212
255 229 212
255 229 212
255 229 212
255 229 212
255 229 212
255 229 212
255 229 212
255 229 212
255 229 212
255 229 212
255 229 212
255 229 212
255 229 212
255 229 212
255 229 212
255 229 212
255 229 212
255 229 212
255 229 212
255 229 212
255 229 212
255 229 212
255 229 212
255 229 212
255 229 212
255 229 212
255 229 212
255 229 212
255 229 212
255 229 212
255 229 212
255 229 212
255 229 212
255 229 212
255 229 212
255 241 224
255 229 212
255 229 212
255 229 212
255 229 212
255 229 212
255 229 212
255 229 212
255 229 212
255 229 212
255 229 212
255 229 212
255 229 212
255 229 212
255 229 212
255 229 212
255 229 212
255 229 212
255 229 212
255 229 212
255 229 212
255 229 212
255 229 212
255 229 212
255 229 212
255 229 212
255 229 212
255 229 212
255 229 212
255 229 212
255 229 212
255 229 212
255 229 212
255 229 212
255 229 212
255 229 212
255 229 212
255 229 212
255 229 212
255 229 212
255 229 212
255 229 212
255 229 212
255 229 212
255 229 212
255 229 212
255 229 212
255 229 212
255 229 212
255 229 212
255 229 212
255 229 212
255 229 212
255 229 212
255 229 212
255 229 212
255 229 212
255 229 212
255 229 212
255 229 212
255 241 224
255 229 212
255 229 212
255 229 212
255 229 212
255 229 212
255 229 212
255 229 212
255 229 212
255 229 212
255 229 212
255 229 212
255 229 212
255 229 212
255 229 212
255 229 212
255 229 212
255 229 212
255 229 212
255 229 212
255 229 212
255 229 212
255 229 212
255 229 212
255 229 212
255 229 212
255 229 212
255 229 212
255 229 212
255 229 212
255 229 212
255 229 212
255 229 212
255 229 212
255 229 212
255 229 212
255 229 212
255 241 224
255 229 212
255 229 212
255 229 212
255 229 212
255 229 212
255 229 212
255 229 212
255 229 212
255 229 212
255 229 212
255 229 212
255 229 212
255 229 212
255 229 212
255 229 212
255 229 212
255 229 212
255 229 212
255 229 212
255 229 212
255 229 212
255 229 212
255 229 212
255 229 212
255 229 212
255 229 212
255 229 212
255 229 212
255 229 212
255 229 212
255 229 212
255 229 212
255 229 212
255 229 212
255 229 212
255 229 212
255 241 224
255 229 212
255 229 212
255 229 212
255 229 212
255 229 212
255 229 212
255 229 212
255 229 212
255 229 212
255 229 212
255 229 212
255 229 212
255 229 212
255 229 212
255 229 212
255 229 212
255 229 212
255 229 212
255 229 212
255 229 212
255 229 212
255 229 212
255 229 212
255 229 212
255 229 212
255 229 212
255 229 212
255 229 212
255 229 212
255 229 212
255 229 212
255 229 212
255 229 212
255 229 212
255 229 212
255 229 212
255 241 224
255 229 212
255 229 212
255 229 212
255 229 212
255 229 212
255 229 212
255 229 212
255 229 212
255 229 212
255 229 212
255 229 212
255 229 212
255 229 212
255 229 212
255 229 212
255 229 212
255 229 212
255 229 212
255 229 212
255 229 212
255 229 212
255 229 212
255 229 212
255 229 212
255 229 212
255 229 212
255 229 212
255 229 212
255 229 212
255 229 212
255 229 212
255 229 212
255 229 212
255 229 212
255 229 212
255 229 212
255 241 224
255 229 212
255 229 212
255 229 212
255 229 212
255 229 212
255 229 212
255 229 212
255 229 212
255 229 212
255 229 212
255 229 212
255 229 212
255 229 212
255 229 212
255 229 212
255 229 212
255 229 212
255 229 212
255 229 212
255 229 212
255 229 212
255 229 212
255 229 212
255 229 212
255 229 212
255 229 212
255 229 212
255 229 212
255 229 212
255 229 212
255 229 212
255 229 212
255 229 212
255 229 212
255 229 212
255 229 212
255 241 224
255 229 212
255 229 212
255 229 212
255 229 212
255 229 212
255 229 212
255 229 212
255 229 212
255 229 212
255 229 212
255 229 212
255 229 212
255 229 212
255 229 212
255 229 212
255 229 212
255 229 212
255 229 212
255 229 212
255 229 212
255 229 212
255 229 212
255 229 212
255 229 212
255 229 212
255 229 212
255 229 212
255 229 212
255 229 212
255 229 212
255 229 212
255 229 212
255 229 212
255 229 212
255 229 212
255 229 212
255 241 224
255 229 212
255 229 212
255 229 212
255 229 212
255 229 212
255 229 212
255 229 212
255 229 212
255 229 212
255 229 212
255 229 212
255 229 212
255 229 212
255 229 212
255 229 212
255 229 212
255 229 212
255 229 212
255 229 212
255 229 212
255 229 212
255 229 212
255 229 212
255 229 212
255 229 212
255 229 212
255 229 212
255 229 212
255 229 212
255 229 212
255 229 212
255 229 212
255 229 212
255 229 212
255 229 212
255 229 212
255 241 224
255 229 212
255 229 212
255 229 212
255 229 212
255 229 212
255 229 212
255 229 212
255 229 212
255 229 212
255 229 212
255 229 212
255 229 212
255 229 212
255 229 212
255 229 212
255 229 212
255 229 212
255 229 212
255 229 212
255 229 212
255 229 212
255 229 212
255 229 212
255 229 212
255 229 212
255 229 212
255 229 212
255 229 212
255 229 212
255 229 212
255 229 212
255 229 212
255 229 212
255 229 212
255 214 193
255 214 193
255 214 193
255 214 193
255 214 193
255 214 193
255 214 193
255 214 193
255 214 193
255 214 193
255 214 193
255 214 193
255 214 193
255 214 193
255 214 193
255 214 193
255 214 193
255 214 193
255 214 193
255 214 193
255 214 193
255 214 193
255 214 193
255 214 193
255 214 193
255 226 205
255 214 193
255 214 193
255 214 193
255 214 193
255 214 193
255 214 193
255 214 193
255 214 193
255 214 193
255 214 193
255 214 193
255 214 193
255 214 193
255 214 193
255 214 193
255 214 193
255 214 193
255 214 193
255 214 193
255 214 193
255 214 193
255 214 193
255 214 193
255 214 193
255 214 193
255 214 193
255 214 193
255 214 193
255 214 193
255 214 193
255 214 193
255 214 193
255 214 193
255 214 193
255 214 193
255 214 193
255 226 205
255 214 193
255 214 193
255 214 193
255 214 193
255 214 193
255 214 193
255 214 193
255 214 193
255 214 193
255 214 193
255 214 193
255 214 193
255 214 193
255 214 193
255 214 193
255 214 193
255 214 193
255 214 193
255 214 193
255 214 193
255 214 193
255 214 193
255 214 193
255 214 193
255 214 193
255 214 193
255 214 193
255 214 193
255 214 193
255 214 193
255 214 193
255 214 193
255 214 193
255 214 193
255 214 193
255 214 193
255 226 205
255 214 193
255 214 193
255 214 193
255 214 193
255 214 193
255 214 193
255 214 193
255 214 193
255 214 193
255 214 193
255 214 193
255 214 193
255 214 193
255 214 193
255 214 193
255 214 193
255 214 193
255 214 193
255 214 193
255 214 193
255 214 193
255 214 193
255 214 193
255 214 193
255 214 193
255 214 193
255 214 193
255 214 193
255 214 193
255 214 193
255 214 193
255 214 193
255 214 193
255 214 193
255 214 193
255 214 193
255 226 205
255 214 193
255 214 193
255 214 193
255 214 193
255 214 193
255 214 193
255 214 193
255 214 193
255 214 193
255 214 193
255 214 193
255 214 193
255 214 193
255 214 193
255 214 193
255 214 193
255 214 193
255 214 193
255 214 193
255 214 193
255 214 193
255 214 193
255 214 193
255 214 193
255 214 193
255 214 193
255 214 193
255 214 193
255 214 193
255 214 193
255 214 193
255 214 193
255 214 193
255 214 193
255 214 193
255 214 193
255 226 205
255 214 193
255 214 193
255 214 193
255 214 193
255 214 193
255 214 193
255 214 193
255 214 193
255 214 193
255 214 193
255 214 193
255 214 193
255 214 193
255 214 193
255 214 193
255 214 193
255 214 193
255 214 193
255 214 193
255 214 193
255 214 193
255 214 193
255 214 193
255 214 193
255 214 193
255 214 193
255 214 193
255 214 193
255 214 193
255 214 193
255 214 193
255 214 193
255 214 193
255 214 193
255 214 193
255 214 193
255 226 205
255 214 193
255 214 193
255 214 193
255 214 193
255 214 193
255 214 193
255 214 193
255 214 193
255 214 193
255 214 193
255 214 193
255 214 193
255 214 193
255 214 193
255 214 193
255 214 193
255 214 193
255 214 193
255 214 193
255 214 193
255 214 193
255 214 193
255 214 193
255 214 193
255 214 193
255 214 193
255 214 193
255 214 193
255 214 193
255 214 193
255 214 193
255 214 193
255 214 193
255 214 193
255 214 193
255 214 193
255 226 205
255 214 193
255 214 193
255 214 193
255 214 193
255 214 193
255 214 193
255 214 193
255 214 193
255 214 193
255 214 193
255 214 193
255 214 193
255 214 193
255 214 193
255 214 193
255 214 193
255 214 193
255 214 193
255 214 193
255 214 193
255 214 193
255 214 193
255 214 193
255 214 193
255 214 193
255 214 193
255 214 193
255 214 193
255 214 193
255 214 193
255 214 193
255 214 193
255 214 193
255 214 193
255 214 193
255 214 193
255 226 205
255 214 193
255 214 193
255 214 193
255 214 193
255 214 193
255 214 193
255 214 193
255 214 193
255 214 193
255 214 193
255 214 193
255 214 193
255 214 193
255 214 193
255 214 193
255 214 193
255 214 193
255 214 193
255 214 193
255 214 193
255 214 193
255 214 193
255 214 193
255 214 193
255 214 193
255 214 193
255 214 193
255 214 193
255 214 193
255 214 193
255 214 193
255 214 193
255 214 193
255 214 193
255 214 193
255 214 193
255 214 193
255 214 193
255 214 193
255 214 193
255 214 193
255 214 193
255 214 193
255 214 193
255 214 193
255 214 193
255 214 193
255 214 193
255 214 193
255 214 193
255 214 193
255 214 193
255 214 193
255 214 193
255 214 193
255 214 193
255 214 193
255 214 193
255 214 193
255 226 205
255 214 193
255 214 193
255 214 193
255 214 193
255 214 193
255 214 193
255 214 193
255 214 193
255 214 193
255 214 193
255 214 193
255 214 193
255 214 193
255 214 193
255 214 193
255 214 193
255 214 193
255 214 193
255 214 193
255 214 193
255 214 193
255 214 193
255 214 193
255 214 193
255 214 193
255 214 193
255 214 193
255 214 193
255 214 193
255 214 193
255 214 193
255 214 193
255 214 193
255 214 193
255 214 193
255 214 193
255 226 205
255 214 193
255 214 193
255 214 193
255 214 193
255 214 193
255 214 193
255 214 193
255 214 193
255 214 193
255 214 193
255 214 193
255 214 193
255 214 193
255 214 193
255 214 193
255 214 193
255 214 193
255 214 193
255 214 193
255 214 193
255 214 193
255 214 193
255 214 193
255 214 193
255 214 193
255 214 193
255 214 193
255 214 193
255 214 193
255 214 193
255 214 193
255 214 193
255 214 193
255 214 193
255 214 193
255 214 193
255 226 205
255 214 193
255 214 193
255 214 193
255 214 193
255 214 193
255 214 193
255 214 193
255 214 193
255 214 193
255 214 193
255 214 193
255 214 193
255 214 193
255 214 193
255 214 193
255 214 193
255 214 193
255 214 193
255 214 193
255 214 193
255 214 193
255 214 193
255 214 193
255 214 193
255 214 193
255 214 193
255 214 193
255 214 193
255 214 193
255 214 193
255 214 193
255 214 193
255 214 193
255 214 193
255 214 193
255 214 193
255 226 205
255 214 193
255 214 193
255 214 193
255 214 193
255 214 193
255 214 193
255 214 193
255 214 193
255 214 193
255 214 193
255 214 193
255 214 193
255 214 193
255 214 193
255 214 193
255 214 193
255 214 193
255 214 193
255 214 193
255 214 193
255 214 193
255 214 193
255 214 193
255 214 193
255 214 193
255 214 193
255 214 193
255 214 193
255 214 193
255 214 193
255 214 193
255 214 193
255 214 193
255 214 193
255 214 193
255 214 193
255 226 205
255 214 193
255 214 193
255 214 193
255 214 193
255 214 193
255 214 193
255 214 193
255 214 193
255 214 193
255 214 193
255 214 193
255 214 193
255 214 193
255 214 193
255 214 193
255 214 193
255 214 193
255 214 193
255 214 193
255 214 193
255 214 193
255 214 193
255 214 193
255 214 193
255 214 193
255 214 193
255 214 193
255 214 193
255 214 193
255 214 193
255 214 193
255 214 193
255 214 193
255 214 193
255 214 193
255 214 193
255 226 205
255 214 193
255 214 193
255 214 193
255 214 193
255 214 193
255 214 193
255 214 193
255 214 193
255 214 193
255 214 193
255 214 193
255 214 193
255 214 193
255 214 193
255 214 193
255 214 193
255 214 193
255 214 193
255 214 193
255 214 193
255 214 193
255 214 193
255 214 193
255 214 193
255 214 193
255 214 193
255 214 193
255 214 193
255 214 193
255 214 193
255 214 193
255 214 193
255 214 193
255 214 193
255 214 193
255 214 193
255 226 205
255 214 193
255 214 193
255 214 193
255 214 193
255 214 193
255 214 193
255 214 193
255 214 193
255 214 193
255 214 193
255 214 193
255 214 193
255 214 193
255 214 193
255 214 193
255 214 193
255 214 193
255 214 193
255 214 193
255 214 193
255 214 193
255 214 193
255 214 193
255 214 193
255 214 193
255 214 193
255 214 193
255 214 193
255 214 193
255 214 193
255 214 193
255 214 193
255 214 193
255 214 193
255 214 193
255 214 193
255 226 205
255 214 193
255 214 193
255 214 193
255 214 193
255 214 193
255 214 193
255 214 193
255 214 193
255 214 193
255 214 193
255 214 193
255 214 193
255 214 193
255 214 193
255 214 193
255 214 193
255 214 193
255 214 193
255 214 193
255 214 193
255 214 193
255 214 193
255 214 193
255 214 193
255 214 193
255 214 193
255 214 193
255 214 193
255 214 193
255 214 193
255 214 193
255 214 193
255 214 193
255 214 193
255 214 193
255 214 193
255 214 193
255 214 193
255 214 193
255 214 193
255 214 193
255 214 193
255 214 193
255 214 193
255 214 193
255 214 193
255 214 193
255 214 193
255 214 193
255 214 193
255 214 193
255 214 193
255 214 193
255 214 193
255 214 193
255 214 193
255 214 193
255 214 193
255 214 193
255 226 205
255 214 193
255 214 193
255 214 193
255 214 193
255 214 193
255 214 193
255 214 193
255 214 193
255 214 193
255 214 193
255 214 193
255 214 193
255 214 193
255 214 193
255 214 193
255 214 193
255 214 193
255 214 193
255 214 193
255 214 193
255 214 193
255 214 193
255 214 193
255 214 193
255 214 193
255 214 193
255 214 193
255 214 193
255 214 193
255 214 193
255 214 193
255 214 193
255 214 193
255 214 193
255 214 193
255 214 193
255 226 205
255 214 193
255 214 193
255 214 193
255 214 193
255 214 193
255 214 193
255 214 193
255 214 193
255 214 193
255 214 193
255 214 193
255 214 193
255 214 193
255 214 193
255 214 193
255 214 193
255 214 193
255 214 193
255 214 193
255 214 193
255 214 193
255 214 193
255 214 193
255 214 193
255 214 193
255 214 193
255 214 193
255 214 193
255 214 193
255 214 193
255 214 193
255 214 193
255 214 193
255 214 193
255 214 193
255 214 193
255 226 205
255 214 193
255 214 193
255 214 193
255 214 193
255 214 193
255 214 193
255 214 193
255 214 193
255 214 193
255 214 193
255 214 193
255 214 193
255 214 193
255 214 193
255 214 193
255 214 193
255 214 193
255 214 193
255 214 193
255 214 193
255 214 193
255 214 193
255 214 193
255 214 193
255 214 193
255 214 193
255 214 193
255 214 193
255 214 193
255 214 193
255 214 193
255 214 193
255 214 193
255 214 193
255 214 193
255 214 193
255 226 205
255 214 193
255 214 193
255 214 193
255 214 193
255 214 193
255 214 193
255 214 193
255 214 193
255 214 193
255 214 193
255 214 193
255 214 193
255 214 193
255 214 193
255 214 193
255 214 193
255 214 193
255 214 193
255 214 193
255 214 193
255 214 193
255 214 193
255 214 193
255 214 193
255 214 193
255 214 193
255 214 193
255 214 193
255 214 193
255 214 193
255 214 193
255 214 193
255 214 193
255 214 193
255 214 193
255 214 193
255 226 205
255 214 193
255 214 193
255 214 193
255 214 193
255 214 193
255 214 193
255 214 193
255 214 193
255 214 193
255 214 193
255 214 193
255 214 193
255 214 193
255 214 193
255 214 193
255 214 193
255 214 193
255 214 193
255 214 193
255 214 193
255 214 193
255 214 193
255 214 193
255 214 193
255 214 193
255 214 193
255 214 193
255 214 193
255 214 193
255 214 193
255 214 193
255 214 193
255 214 193
255 214 193
255 214 193
255 214 193
255 226 205
255 214 193
255 214 193
255 214 193
255 214 193
255 214 193
255 214 193
255 214 193
255 214 193
255 214 193
255 214 193
255 214 193
255 214 193
255 214 193
255 214 193
255 214 193
255 214 193
255 214 193
255 214 193
255 214 193
255 214 193
255 214 193
255 214 193
255 214 193
255 214 193
255 214 193
255 214 193
255 214 193
255 214 193
255 214 193
255 214 193
255 214 193
255 214 193
255 214 193
255 214 193
255 214 193
255 214 193
255 226 205
255 214 193
255 214 193
255 214 193
255 214 193
255 214 193
255 214 193
255 214 193
255 214 193
255 214 193
255 214 193
255 214 193
255 214 193
255 214 193
255 214 193
255 214 193
255 214 193
255 214 193
255 214 193
255 214 193
255 214 193
255 214 193
255 214 193
255 214 193
255 214 193
255 214 193
255 214 193
255 214 193
255 214 193
255 214 193
255 214 193
255 214 193
255 214 193
255 214 193
255 214 193
255 214 193
255 214 193
255 226 205
255 214 193
255 214 193
255 214 193
255 214 193
255 214 193
255 214 193
255 214 193
255 214 193
255 214 193
255 214 193
255 214 193
255 214 193
255 214 193
255 214 193
255 214 193
255 214 193
255 214 193
255 214 193
255 214 193
255 214 193
255 214 193
255 214 193
255 214 193
255 214 193
255 214 193
255 214 193
255 214 193
255 214 193
255 214 193
255 214 193
255 214 193
255 214 193
255 214 193
255 214 193
255 214 193
255 214 193
255 226 205
255 214 193
255 214 193
255 214 193
255 214 193
255 214 193
255 214 193
255 214 193
255 214 193
255 214 193
255 214 193
255 214 193
255 214 193
255 214 193
255 214 193
255 214 193
255 214 193
255 214 193
255 214 193
255 214 193
255 214 193
255 214 193
255 214 193
255 226 205
255 214 193
255 214 193
255 214 193
255 214 193
255 214 193
255 214 193
255 214 193
255 214 193
255 214 193
255 214 193
255 214 193
255 214 193
255 214 193
255 214 193
255 214 193
255 214 193
255 214 193
255 214 193
255 214 193
255 214 193
255 214 193
255 214 193
255 214 193
255 214 193
255 214 193
255 214 193
255 214 193
255 214 193
255 214 193
255 214 193
255 214 193
255 214 193
255 214 193
255 214 193
255 214 193
255 214 193
255 226 205
255 214 193
255 214 193
255 214 193
255 214 193
255 214 193
255 214 193
255 214 193
255 214 193
255 214 193
255 214 193
255 214 193
255 214 193
255 214 193
255 214 193
255 214 193
255 214 193
255 214 193
255 214 193
255 214 193
255 214 193
255 214 193
255 214 193
255 214 193
255 214 193
255 214 193
255 214 193
255 214 193
255 214 193
255 214 193
255 214 193
255 214 193
255 214 193
255 214 193
255 214 193
255 214 193
255 214 193
255 226 205
255 214 193
255 214 193
255 214 193
255 214 193
255 214 193
255 214 193
255 214 193
255 214 193
255 214 193
255 214 193
255 214 193
255 214 193
255 214 193
255 214 193
255 214 193
255 214 193
255 214 193
255 214 193
255 214 193
255 214 193
255 214 193
255 214 193
255 214 193
255 214 193
255 214 193
255 214 193
255 214 193
255 214 193
255 214 193
255 214 193
255 214 193
255 214 193
255 214 193
255 214 193
255 214 193
255 214 193
255 226 205
255 214 193
255 214 193
255 214 193
255 214 193
255 214 193
255 214 193
255 214 193
255 214 193
255 214 193
255 214 193
255 214 193
255 214 193
255 214 193
255 214 193
255 214 193
255 214 193
255 214 193
255 214 193
255 214 193
255 214 193
255 214 193
255 214 193
255 214 193
255 214 193
255 214 193
255 214 193
255 214 193
255 214 193
255 214 193
255 214 193
255 214 193
255 214 193
255 214 193
255 214 193
255 214 193
255 214 193
255 226 205
255 214 193
255 214 193
255 214 193
255 214 193
255 214 193
255 214 193
255 214 193
255 214 193
255 214 193
255 214 193
255 214 193
255 214 193
255 214 193
255 214 193
255 214 193
255 214 193
255 214 193
255 214 193
255 214 193
255 214 193
255 214 193
255 214 193
255 214 193
255 214 193
255 214 193
255 214 193
255 214 193
255 214 193
255 214 193
255 214 193
255 214 193
255 214 193
255 214 193
255 214 193
255 214 193
255 214 193
255 226 205
255 214 193
255 214 193
255 214 193
255 214 193
255 214 193
255 214 193
255 214 193
255 214 193
255 214 193
255 214 193
255 214 193
255 214 193
255 214 193
255 214 193
255 214 193
255 214 193
255 214 193
255 214 193
255 214 193
255 214 193
255 214 193
255 214 193
255 214 193
255 214 193
255 214 193
255 214 193
255 214 193
255 214 193
255 214 193
255 214 193
255 214 193
255 214 193
255 214 193
255 214 193
255 214 193
255 214 193
255 226 205
255 214 193
255 214 193
255 214 193
255 214 193
255 214 193
255 214 193
255 214 193
255 214 193
255 214 193
255 214 193
255 214 193
255 214 193
255 214 193
255 214 193
255 214 193
255 214 193
255 214 193
255 214 193
255 214 193
255 214 193
255 214 193
255 214 193
255 214 193
255 214 193
255 214 193
255 214 193
255 214 193
255 214 193
255 214 193
255 214 193
255 214 193
255 214 193
255 214 193
255 214 193
255 214 193
255 214 193
255 226 205
255 214 193
255 214 193
255 214 193
255 214 193
255 214 193
255 214 193
255 214 193
255 214 193
255 214 193
255 214 193
255 214 193
255 214 193
255 214 193
255 214 193
255 214 193
255 214 193
255 214 193
255 214 193
255 214 193
255 214 193
255 214 193
255 214 193
255 214 193
255 214 193
255 214 193
255 214 193
255 214 193
255 214 193
255 214 193
255 214 193
255 214 193
255 214 193
255 214 193
255 214 193
255 214 193
255 214 193
255 226 205
255 214 193
255 214 193
255 214 193
255 214 193
255 214 193
255 214 193
255 214 193
255 214 193
255 214 193
255 214 193
255 214 193
255 214 193
255 214 193
255 214 193
255 214 193
255 214 193
255 214 193
255 214 193
255 214 193
255 214 193
255 214 193
255 214 193
255 226 205
255 214 193
255 214 193
255 214 193
255 214 193
255 214 193
255 214 193
255 214 193
255 214 193
255 214 193
255 214 193
255 214 193
255 214 193
255 214 193
255 214 193
255 214 193
255 214 193
255 214 193
255 214 193
255 214 193
255 214 193
255 214 193
255 214 193
255 214 193
255 214 193
255 214 193
255 214 193
255 214 193
255 214 193
255 214 193
255 214 193
255 214 193
255 214 193
255 214 193
255 214 193
255 214 193
255 214 193
255 226 205
255 214 193
255 214 193
255 214 193
255 214 193
255 214 193
255 214 193
255 214 193
255 214 193
255 214 193
255 214 193
255 214 193
255 214 193
255 214 193
255 214 193
255 214 193
255 214 193
255 214 193
255 214 193
255 214 193
255 214 193
255 214 193
255 214 193
255 214 193
255 214 193
255 214 193
255 214 193
255 214 193
255 214 193
255 214 193
255 214 193
255 214 193
255 214 193
255 214 193
255 214 193
255 214 193
255 214 193
255 226 205
255 214 193
255 214 193
255 214 193
255 214 193
255 214 193
255 214 193
255 214 193
255 214 193
255 214 193
255 214 193
255 214 193
255 214 193
255 214 193
255 214 193
255 214 193
255 214 193
255 214 193
255 214 193
255 214 193
255 214 193
255 214 193
255 214 193
255 214 193
255 214 193
255 214 193
255 214 193
255 214 193
255 214 193
255 214 193
255 214 193
255 214 193
255 214 193
255 214 193
255 214 193
255 214 193
255 214 193
255 226 205
255 214 193
255 214 193
255 214 193
255 214 193
255 214 193
255 214 193
255 214 193
255 214 193
255 214 193
255 214 193
255 214 193
255 214 193
255 214 193
255 214 193
255 214 193
255 214 193
255 214 193
255 214 193
255 214 193
255 214 193
255 214 193
255 214 193
255 214 193
255 214 193
255 214 193
255 214 193
255 214 193
255 214 193
255 214 193
255 214 193
255 214 193
255 214 193
255 214 193
255 214 193
255 214 193
255 214 193
255 226 205
255 214 193
255 214 193
255 214 193
255 214 193
255 214 193
255 214 193
255 214 193
255 214 193
255 214 193
255 214 193
255 214 193
255 214 193
255 214 193
255 214 193
255 214 193
255 214 193
255 214 193
255 214 193
255 214 193
255 214 193
255 214 193
255 214 193
255 214 193
255 214 193
255 214 193
255 214 193
255 214 193
255 214 193
255 214 193
255 214 193
255 214 193
255 214 193
255 214 193
255 214 193
255 214 193
255 214 193
255 226 205
255 214 193
255 214 193
255 214 193
255 214 193
255 214 193
255 214 193
255 214 193
255 214 193
255 214 193
255 214 193
255 214 193
255 214 193
255 214 193
255 214 193
255 214 193
255 214 193
255 214 193
255 214 193
255 214 193
255 214 193
255 214 193
255 214 193
255 214 193
255 214 193
255 214 193
255 214 193
255 214 193
255 214 193
255 214 193
255 214 193
255 214 193
255 214 193
255 214 193
255 214 193
255 214 193
255 214 193
255 226 205
255 214 193
255 214 193
255 214 193
255 214 193
255 214 193
255 214 193
255 214 193
255 214 193
255 214 193
255 214 193
255 214 193
255 214 193
255 214 193
255 214 193
255 214 193
255 214 193
255 214 193
255 214 193
255 214 193
255 214 193
255 214 193
255 214 193
255 214 193
255 214 193
255 214 193
255 214 193
255 214 193
255 214 193
255 214 193
255 214 193
255 214 193
255 214 193
255 214 193
255 214 193
255 214 193
255 214 193
255 226 205
255 214 193
255 214 193
255 214 193
255 214 193
255 214 193
255 214 193
255 214 193
255 214 193
255 214 193
255 214 193
255 214 193
255 214 193
255 214 193
255 214 193
255 214 193
255 214 193
255 214 193
255 214 193
255 214 193
255 214 193
255 214 193
255 214 193
255 214 193
255 214 193
255 214 193
255 214 193
255 214 193
255 214 193
255 214 193
255 214 193
255 214 193
255 214 193
255 214 193
255 214 193
255 214 193
255 214 193
255 226 205
255 214 193
255 214 193
255 214 193
255 214 193
255 214 193
255 214 193
255 214 193
255 214 193
255 214 193
255 214 193
255 214 193
255 214 193
255 214 193
255 214 193
255 214 193
255 214 193
255 214 193
255 214 193
255 214 193
255 214 193
255 214 193
255 214 193
255 226 205
255 214 193
255 214 193
255 214 193
255 214 193
255 214 193
255 214 193
255 214 193
255 214 193
255 214 193
255 214 193
255 214 193
255 214 193
255 214 193
255 214 193
255 214 193
255 214 193
255 214 193
255 214 193
255 214 193
255 214 193
255 214 193
255 214 193
255 214 193
255 214 193
255 214 193
255 214 193
255 214 193
255 214 193
255 214 193
255 214 193
255 214 193
255 214 193
255 214 193
255 214 193
255 214 193
255 214 193
255 226 205
255 214 193
255 214 193
255 214 193
255 214 193
255 214 193
255 214 193
255 214 193
255 214 193
255 214 193
255 214 193
255 214 193
255 214 193
255 214 193
255 214 193
255 214 193
255 214 193
255 214 193
255 214 193
255 214 193
255 214 193
255 214 193
255 214 193
255 214 193
255 214 193
255 214 193
255 214 193
255 214 193
255 214 193
255 214 193
255 214 193
255 214 193
255 214 193
255 214 193
255 214 193
255 214 193
255 214 193
255 226 205
255 214 193
255 214 193
255 214 193
255 214 193
255 214 193
255 214 193
255 214 193
255 214 193
255 214 193
255 214 193
255 214 193
255 214 193
255 214 193
255 214 193
255 214 193
255 214 193
255 214 193
255 214 193
255 214 193
255 214 193
255 214 193
255 214 193
255 214 193
255 214 193
255 214 193
255 214 193
255 214 193
255 214 193
255 214 193
255 214 193
255 214 193
255 214 193
255 214 193
255 214 193
255 214 193
255 214 193
255 226 205
255 214 193
255 214 193
255 214 193
255 214 193
255 214 193
255 214 193
255 214 193
255 214 193
255 214 193
255 214 193
255 214 193
255 214 193
255 214 193
255 214 193
255 214 193
255 214 193
255 214 193
255 214 193
255 214 193
255 214 193
255 214 193
255 214 193
255 214 193
255 214 193
255 214 193
255 214 193
255 214 193
255 214 193
255 214 193
255 214 193
255 214 193
255 214 193
255 214 193
255 214 193
255 214 193
255 214 193
255 226 205
255 214 193
255 214 193
255 214 193
255 214 193
255 214 193
255 214 193
255 214 193
255 214 193
255 214 193
255 214 193
255 214 193
255 214 193
255 214 193
255 214 193
255 214 193
255 214 193
255 214 193
255 214 193
255 214 193
255 214 193
255 214 193
255 214 193
255 214 193
255 214 193
255 214 193
255 214 193
255 214 193
255 214 193
255 214 193
255 214 193
255 214 193
255 214 193
255 214 193
255 214 193
255 214 193
255 214 193
255 226 205
255 214 193
255 214 193
255 214 193
255 214 193
255 214 193
255 214 193
255 214 193
255 214 193
255 214 193
255 214 193
255 214 193
255 214 193
255 214 193
255 214 193
255 214 193
255 214 193
255 214 193
255 214 193
255 214 193
255 214 193
255 214 193
255 214 193
255 214 193
255 214 193
255 214 193
255 214 193
255 214 193
255 214 193
255 214 193
255 214 193
255 214 193
255 214 193
255 214 193
255 214 193
255 214 193
255 214 193
255 226 205
255 214 193
255 214 193
255 214 193
255 214 193
255 214 193
255 214 193
255 214 193
255 214 193
255 214 193
255 214 193
255 214 193
255 214 193
255 214 193
255 214 193
255 214 193
255 214 193
255 214 193
255 214 193
255 214 193
255 214 193
255 214 193
255 214 193
255 214 193
255 214 193
255 214 193
255 214 193
255 214 193
255 214 193
255 214 193
255 214 193
255 214 193
255 214 193
255 214 193
255 214 193
255 214 193
255 214 193
255 226 205
255 214 193
255 214 193
255 214 193
255 214 193
255 214 193
255 214 193
255 214 193
255 214 193
255 214 193
255 214 193
255 214 193
255 214 193
255 214 193
255 214 193
255 214 193
255 214 193
255 214 193
255 214 193
255 214 193
255 214 193
255 214 193
255 214 193
255 214 193
255 214 193
255 214 193
255 214 193
255 214 193
255 214 193
255 214 193
255 214 193
255 214 193
255 214 193
255 214 193
255 214 193
255 214 193
255 214 193
255 226 205
255 214 193
255 214 193
255 214 193
255 214 193
255 214 193
255 214 193
255 214 193
255 214 193
255 214 193
255 214 193
255 214 193
255 214 193
255 214 193
255 214 193
255 214 193
255 214 193
255 214 193
255 214 193
255 214 193
255 214 193
255 214 193
255 214 193
255 226 205
255 214 193
255 214 193
255 214 193
255 214 193
255 214 193
255 214 193
255 214 193
255 214 193
255 214 193
255 214 193
255 214 193
255 214 193
255 214 193
255 214 193
255 214 193
255 214 193
255 214 193
255 214 193
255 214 193
255 214 193
255 214 193
255 214 193
255 214 193
255 214 193
255 214 193
255 214 193
255 214 193
255 214 193
255 214 193
255 214 193
255 214 193
255 214 193
255 214 193
255 214 193
255 214 193
255 214 193
255 226 205
255 214 193
255 214 193
255 214 193
255 214 193
255 214 193
255 214 193
255 214 193
255 214 193
255 214 193
255 214 193
255 214 193
255 214 193
255 214 193
255 214 193
255 214 193
255 214 193
255 214 193
255 214 193
255 214 193
255 214 193
255 214 193
255 214 193
255 214 193
255 214 193
255 214 193
255 214 193
255 214 193
255 214 193
255 214 193
255 214 193
255 214 193
255 214 193
255 214 193
255 214 193
255 214 193
255 214 193
255 226 205
255 214 193
255 214 193
255 214 193
255 214 193
255 214 193
255 214 193
255 214 193
255 214 193
255 214 193
255 214 193
255 214 193
255 214 193
255 214 193
255 214 193
255 214 193
255 214 193
255 214 193
255 214 193
255 214 193
255 214 193
255 214 193
255 214 193
255 214 193
255 214 193
255 214 193
255 214 193
255 214 193
255 214 193
255 214 193
255 214 193
255 214 193
255 214 193
255 214 193
255 214 193
255 214 193
255 214 193
255 226 205
255 214 193
255 214 193
255 214 193
255 214 193
255 214 193
255 214 193
255 214 193
255 214 193
255 214 193
255 214 193
255 214 193
255 214 193
255 214 193
255 214 193
255 214 193
255 214 193
255 214 193
255 214 193
255 214 193
255 214 193
255 214 193
255 214 193
255 214 193
255 214 193
255 214 193
255 214 193
255 214 193
255 214 193
255 214 193
255 214 193
255 214 193
255 214 193
255 214 193
255 214 193
255 214 193
255 214 193
255 226 205
255 214 193
255 214 193
255 214 193
255 214 193
255 214 193
255 214 193
255 214 193
255 214 193
255 214 193
255 214 193
255 214 193
255 214 193
255 214 193
255 214 193
255 214 193
255 214 193
255 214 193
255 214 193
255 214 193
255 214 193
255 214 193
255 214 193
255 214 193
255 214 193
255 214 193
255 214 193
255 214 193
255 214 193
255 214 193
255 214 193
255 214 193
255 214 193
255 214 193
255 214 193
255 214 193
255 214 193
255 226 205
255 214 193
255 214 193
255 214 193
255 214 193
255 214 193
255 214 193
255 214 193
255 214 193
255 214 193
255 214 193
255 214 193
255 214 193
255 214 193
255 214 193
255 214 193
255 214 193
255 214 193
255 214 193
255 214 193
255 214 193
255 214 193
255 214 193
255 214 193
255 214 193
255 214 193
255 214 193
255 214 193
255 214 193
255 214 193
255 214 193
255 214 193
255 214 193
255 214 193
255 214 193
255 214 193
255 214 193
255 226 205
255 214 193
255 214 193
255 214 193
255 214 193
255 214 193
255 214 193
255 214 193
255 214 193
255 214 193
255 214 193
255 214 193
255 214 193
255 214 193
255 214 193
255 214 193
255 214 193
255 214 193
255 214 193
255 214 193
255 214 193
255 214 193
255 214 193
255 214 193
255 214 193
255 214 193
255 214 193
255 214 193
255 214 193
255 214 193
255 214 193
255 214 193
255 214 193
255 214 193
255 214 193
255 214 193
255 214 193
255 226 205
255 214 193
255 214 193
255 214 193
255 214 193
255 214 193
255 214 193
255 214 193
255 214 193
255 214 193
255 214 193
255 214 193
255 214 193
255 214 193
255 214 193
255 214 193
255 214 193
255 214 193
255 214 193
255 214 193
255 214 193
255 214 193
255 214 193
255 214 193
255 214 193
255 214 193
255 214 193
255 214 193
255 214 193
255 214 193
255 214 193
255 214 193
255 214 193
255 214 193
255 214 193
255 214 193
255 214 193
255 226 205
255 214 193
255 214 193
255 214 193
255 214 193
255 214 193
255 214 193
255 214 193
255 214 193
255 214 193
255 214 193
255 214 193
255 214 193
255 214 193
255 214 193
255 214 193
255 214 193
255 214 193
255 214 193
255 214 193
255 214 193
255 214 193
255 214 193
255 226 205
255 214 193
255 214 193
255 214 193
255 214 193
255 214 193
255 214 193
255 214 193
255 214 193
255 214 193
255 214 193
255 214 193
255 214 193
255 214 193
255 214 193
255 214 193
255 214 193
255 214 193
255 214 193
255 214 193
255 214 193
255 214 193
255 214 193
255 214 193
255 214 193
255 214 193
255 214 193
255 214 193
255 214 193
255 214 193
255 214 193
255 214 193
255 214 193
255 214 193
255 214 193
255 214 193
255 214 193
255 226 205
255 214 193
255 214 193
255 214 193
255 214 193
255 214 193
255 214 193
255 214 193
255 214 193
255 214 193
255 214 193
255 214 193
255 214 193
255 214 193
255 214 193
255 214 193
255 214 193
255 214 193
255 214 193
255 214 193
255 214 193
255 214 193
255 214 193
255 214 193
255 214 193
255 214 193
255 214 193
255 214 193
255 214 193
255 214 193
255 214 193
255 214 193
255 214 193
255 214 193
255 214 193
255 214 193
255 214 193
255 226 205
255 214 193
255 214 193
255 214 193
255 214 193
255 214 193
255 214 193
255 214 193
255 214 193
255 214 193
255 214 193
255 214 193
255 214 193
255 214 193
255 214 193
255 214 193
255 214 193
255 214 193
255 214 193
255 214 193
255 214 193
255 214 193
255 214 193
255 214 193
255 214 193
255 214 193
255 214 193
255 214 193
255 214 193
255 214 193
255 214 193
255 214 193
255 214 193
255 214 193
255 214 193
255 214 193
255 214 193
255 226 205
255 214 193
255 214 193
255 214 193
255 214 193
255 214 193
255 214 193
255 214 193
255 214 193
255 214 193
255 214 193
255 214 193
255 214 193
255 214 193
255 214 193
255 214 193
255 214 193
255 214 193
255 214 193
255 214 193
255 214 193
255 214 193
255 214 193
255 214 193
255 214 193
255 214 193
255 214 193
255 214 193
255 214 193
255 214 193
255 214 193
255 214 193
255 214 193
255 214 193
255 214 193
255 214 193
255 214 193
255 226 205
255 214 193
255 214 193
255 214 193
255 214 193
255 214 193
255 214 193
255 214 193
255 214 193
255 214 193
255 214 193
255 214 193
255 214 193
255 214 193
255 214 193
255 214 193
255 214 193
255 214 193
255 214 193
255 214 193
255 214 193
255 214 193
255 214 193
255 214 193
255 214 193
255 214 193
255 214 193
255 214 193
255 214 193
255 214 193
255 214 193
255 214 193
255 214 193
255 214 193
255 214 193
255 214 193
255 214 193
255 226 205
255 214 193
255 214 193
255 214 193
255 214 193
255 214 193
255 214 193
255 214 193
255 214 193
255 214 193
255 214 193
255 214 193
255 214 193
255 214 193
255 214 193
255 214 193
255 214 193
255 214 193
255 214 193
255 214 193
255 214 193
255 214 193
255 214 193
255 214 193
255 214 193
255 214 193
255 214 193
255 214 193
255 214 193
255 214 193
255 214 193
255 214 193
255 214 193
255 214 193
255 214 193
255 214 193
255 214 193
255 226 205
255 214 193
255 214 193
255 214 193
255 214 193
255 214 193
255 214 193
255 214 193
255 214 193
255 214 193
255 214 193
255 214 193
255 214 193
255 214 193
255 214 193
255 214 193
255 214 193
255 214 193
255 214 193
255 214 193
255 214 193
255 214 193
255 214 193
255 214 193
255 214 193
255 214 193
255 214 193
255 214 193
255 214 193
255 214 193
255 214 193
255 214 193
255 214 193
255 214 193
255 214 193
255 214 193
255 214 193
255 226 205
255 214 193
255 214 193
255 214 193
255 214 193
255 214 193
255 214 193
255 214 193
255 214 193
255 214 193
255 214 193
255 214 193
255 214 193
255 214 193
255 214 193
255 214 193
255 214 193
255 214 193
255 214 193
255 214 193
255 214 193
255 214 193
255 214 193
255 214 193
255 214 193
255 214 193
255 214 193
255 214 193
255 214 193
255 214 193
255 214 193
255 214 193
255 214 193
255 214 193
255 214 193
255 214 193
255 214 193
255 226 205
255 214 193
255 214 193
255 214 193
255 214 193
255 214 193
255 214 193
255 214 193
255 214 193
255 214 193
255 214 193
255 214 193
255 214 193
255 214 193
255 214 193
255 214 193
255 214 193
255 214 193
255 214 193
255 214 193
255 214 193
255 214 193
255 214 193
255 226 205
255 214 193
255 214 193
255 214 193
255 214 193
255 214 193
255 214 193
255 214 193
255 214 193
255 214 193
255 214 193
255 214 193
255 214 193
255 214 193
255 214 193
255 214 193
255 214 193
255 214 193
255 214 193
255 214 193
255 214 193
255 214 193
255 214 193
255 214 193
255 214 193
255 214 193
255 214 193
255 214 193
255 214 193
255 214 193
255 214 193
255 214 193
255 214 193
255 214 193
255 214 193
255 214 193
255 214 193
255 226 205
255 214 193
255 214 193
255 214 193
255 214 193
255 214 193
255 214 193
255 214 193
255 214 193
255 214 193
255 214 193
255 214 193
255 214 193
255 214 193
255 214 193
255 214 193
255 214 193
255 214 193
255 214 193
255 214 193
255 214 193
255 214 193
255 214 193
255 214 193
255 214 193
255 214 193
255 214 193
255 214 193
255 214 193
255 214 193
255 214 193
255 214 193
255 214 193
255 214 193
255 214 193
255 214 193
255 214 193
255 226 205
255 214 193
255 214 193
255 214 193
255 214 193
255 214 193
255 214 193
255 214 193
255 214 193
255 214 193
255 214 193
255 214 193
255 214 193
255 214 193
255 214 193
255 214 193
255 214 193
255 214 193
255 214 193
255 214 193
255 214 193
255 214 193
255 214 193
255 214 193
255 214 193
255 214 193
255 214 193
255 214 193
255 214 193
255 214 193
255 214 193
255 214 193
255 214 193
255 214 193
255 214 193
255 214 193
255 214 193
255 226 205
255 214 193
255 214 193
255 214 193
255 214 193
255 214 193
255 214 193
255 214 193
255 214 193
255 214 193
255 214 193
255 214 193
255 214 193
255 214 193
255 214 193
255 214 193
255 214 193
255 214 193
255 214 193
255 214 193
255 214 193
255 214 193
255 214 193
255 214 193
255 214 193
255 214 193
255 214 193
255 214 193
255 214 193
255 214 193
255 214 193
255 214 193
255 214 193
255 214 193
255 214 193
255 214 193
255 214 193
255 226 205
255 214 193
255 214 193
255 214 193
255 214 193
255 214 193
255 214 193
255 214 193
255 214 193
255 214 193
255 214 193
255 214 193
255 214 193
255 214 193
255 214 193
255 214 193
255 214 193
255 214 193
255 214 193
255 214 193
255 214 193
255 214 193
255 214 193
255 214 193
255 214 193
255 214 193
255 214 193
255 214 193
255 214 193
255 214 193
255 214 193
255 214 193
255 214 193
255 214 193
255 214 193
255 214 193
255 214 193
255 226 205
255 214 193
255 214 193
255 214 193
255 214 193
255 214 193
255 214 193
255 214 193
255 214 193
255 214 193
255 214 193
255 214 193
255 214 193
255 214 193
255 214 193
255 214 193
255 214 193
255 214 193
255 214 193
255 214 193
255 214 193
255 214 193
255 214 193
255 214 193
255 214 193
255 214 193
255 214 193
255 214 193
255 214 193
255 214 193
255 214 193
255 214 193
255 214 193
255 214 193
255 214 193
255 214 193
255 214 193
255 226 205
255 214 193
255 214 193
255 214 193
255 214 193
255 214 193
255 214 193
255 214 193
255 214 193
255 214 193
255 214 193
255 214 193
255 214 193
255 214 193
255 214 193
255 214 193
255 214 193
255 214 193
255 214 193
255 214 193
255 214 193
255 214 193
255 214 193
255 214 193
255 214 193
255 214 193
255 214 193
255 214 193
255 214 193
255 214 193
255 214 193
255 214 193
255 214 193
255 214 193
255 214 193
255 214 193
255 214 193
255 226 205
255 214 193
255 214 193
255 214 193
255 214 193
255 214 193
255 214 193
255 214 193
255 214 193
255 214 193
255 214 193
255 214 193
255 214 193
255 214 193
255 214 193
255 214 193
255 214 193
255 214 193
255 214 193
255 214 193
255 214 193
255 214 193
255 214 193
255 214 193
255 214 193
255 214 193
255 214 193
255 214 193
255 214 193
255 214 193
255 214 193
255 214 193
255 214 193
255 214 193
255 214 193
255 214 193
255 214 193
255 226 205
255 214 193
255 214 193
255 214 193
255 214 193
255 214 193
255 214 193
255 214 193
255 214 193
255 214 193
255 214 193
255 214 193
255 214 193
255 214 193
255 214 193
255 214 193
255 214 193
255 214 193
255 214 193
255 214 193
255 214 193
255 214 193
255 214 193
255 226 205
255 214 193
255 214 193
255 214 193
255 214 193
255 214 193
255 214 193
255 214 193
255 214 193
255 214 193
255 214 193
255 214 193
255 214 193
255 214 193
255 214 193
255 214 193
255 214 193
255 214 193
255 214 193
255 214 193
255 214 193
255 214 193
255 214 193
255 214 193
255 214 193
255 214 193
255 214 193
255 214 193
255 214 193
255 214 193
255 214 193
255 214 193
255 214 193
255 214 193
255 214 193
255 214 193
255 214 193
255 226 205
255 214 193
255 214 193
255 214 193
255 214 193
255 214 193
255 214 193
255 214 193
255 214 193
255 214 193
255 214 193
255 214 193
255 214 193
255 214 193
255 214 193
255 214 193
255 214 193
255 214 193
255 214 193
255 214 193
255 214 193
255 214 193
255 214 193
255 214 193
255 214 193
255 214 193
255 214 193
255 214 193
255 214 193
255 214 193
255 214 193
255 214 193
255 214 193
255 214 193
255 214 193
255 214 193
255 214 193
255 226 205
255 214 193
255 214 193
255 214 193
255 214 193
255 214 193
255 214 193
255 214 193
255 214 193
255 214 193
255 214 193
255 214 193
255 214 193
255 214 193
255 214 193
255 214 193
255 214 193
255 214 193
255 214 193
255 214 193
255 214 193
255 214 193
255 214 193
255 214 193
255 214 193
255 214 193
255 214 193
255 214 193
255 214 193
255 214 193
255 214 193
255 214 193
255 214 193
255 214 193
255 214 193
255 214 193
255 214 193
255 226 205
255 214 193
255 214 193
255 214 193
255 214 193
255 214 193
255 214 193
255 214 193
255 214 193
255 214 193
255 214 193
255 214 193
255 214 193
255 214 193
255 214 193
255 214 193
255 214 193
255 214 193
255 214 193
255 214 193
255 214 193
255 214 193
255 214 193
255 214 193
255 214 193
255 214 193
255 214 193
255 214 193
255 214 193
255 214 193
255 214 193
255 214 193
255 214 193
255 214 193
255 214 193
255 214 193
255 214 193
255 226 205
255 214 193
255 214 193
255 214 193
255 214 193
255 214 193
255 214 193
255 214 193
255 214 193
255 214 193
255 214 193
255 214 193
255 214 193
255 214 193
255 214 193
255 214 193
255 214 193
255 214 193
255 214 193
255 214 193
255 214 193
255 214 193
255 214 193
255 214 193
255 214 193
255 214 193
255 214 193
255 214 193
255 214 193
255 214 193
255 214 193
255 214 193
255 214 193
255 214 193
255 214 193
255 214 193
255 214 193
255 226 205
255 214 193
255 214 193
255 214 193
255 214 193
255 214 193
255 214 193
255 214 193
255 214 193
255 214 193
255 214 193
255 214 193
255 214 193
255 214 193
255 214 193
255 214 193
255 214 193
255 214 193
255 214 193
255 214 193
255 214 193
255 214 193
255 214 193
255 214 193
255 214 193
255 214 193
255 214 193
255 214 193
255 214 193
255 214 193
255 214 193
255 214 193
255 214 193
255 214 193
255 214 193
255 214 193
255 214 193
255 226 205
255 214 193
255 214 193
255 214 193
255 214 193
255 214 193
255 214 193
255 214 193
255 214 193
255 214 193
255 214 193
255 214 193
255 214 193
255 214 193
255 214 193
255 214 193
255 214 193
255 214 193
255 214 193
255 214 193
255 214 193
255 214 193
255 214 193
255 214 193
255 214 193
255 214 193
255 214 193
255 214 193
255 214 193
255 214 193
255 214 193
255 214 193
255 214 193
255 214 193
255 214 193
255 214 193
255 214 193
255 226 205
255 214 193
255 214 193
255 214 193
255 214 193
255 214 193
255 214 193
255 214 193
255 214 193
255 214 193
255 214 193
255 214 193
255 214 193
255 214 193
255 214 193
255 214 193
255 214 193
255 214 193
255 214 193
255 214 193
255 214 193
255 214 193
255 214 193
255 214 193
255 214 193
255 214 193
255 214 193
255 214 193
255 214 193
255 214 193
255 214 193
255 214 193
255 214 193
255 214 193
255 214 193
255 214 193
255 214 193
255 226 205
255 214 193
255 214 193
255 214 193
255 214 193
255 214 193
255 214 193
255 214 193
255 214 193
255 214 193
255 214 193
255 214 193
255 214 193
255 214 193
255 214 193
255 214 193
255 214 193
255 214 193
255 214 193
255 214 193
255 214 193
255 214 193
255 214 193
255 226 205
255 214 193
255 214 193
255 214 193
255 214 193
255 214 193
255 214 193
255 214 193
255 214 193
255 214 193
255 214 193
255 214 193
255 214 193
255 214 193
255 214 193
255 214 193
255 214 193
255 214 193
255 214 193
255 214 193
255 214 193
255 214 193
255 214 193
255 214 193
255 214 193
255 214 193
255 214 193
255 214 193
255 214 193
255 214 193
255 214 193
255 214 193
255 214 193
255 214 193
255 214 193
255 214 193
255 214 193
255 226 205
255 214 193
255 214 193
255 214 193
255 214 193
255 214 193
255 214 193
255 214 193
255 214 193
255 214 193
255 214 193
255 214 193
255 214 193
255 214 193
255 214 193
255 214 193
255 214 193
255 214 193
255 214 193
255 214 193
255 214 193
255 214 193
255 214 193
255 214 193
255 214 193
255 214 193
255 214 193
255 214 193
255 214 193
255 214 193
255 214 193
255 214 193
255 214 193
255 214 193
255 214 193
255 214 193
255 214 193
255 226 205
255 214 193
255 214 193
255 214 193
255 214 193
255 214 193
255 214 193
255 214 193
255 214 193
255 214 193
255 214 193
255 214 193
255 214 193
255 214 193
255 214 193
255 214 193
255 214 193
255 214 193
255 214 193
255 214 193
255 214 193
255 214 193
255 214 193
255 214 193
255 214 193
255 214 193
255 214 193
255 214 193
255 214 193
255 214 193
255 214 193
255 214 193
255 214 193
255 214 193
255 214 193
255 214 193
255 214 193
255 226 205
255 214 193
255 214 193
255 214 193
255 214 193
255 214 193
255 214 193
255 214 193
255 214 193
255 214 193
255 214 193
255 214 193
255 214 193
255 214 193
255 214 193
255 214 193
255 214 193
255 214 193
255 214 193
255 214 193
255 214 193
255 214 193
255 214 193
255 214 193
255 214 193
255 214 193
255 214 193
255 214 193
255 214 193
255 214 193
255 214 193
255 214 193
255 214 193
255 214 193
255 214 193
255 214 193
255 214 193
255 226 205
255 214 193
255 214 193
255 214 193
255 214 193
255 214 193
255 214 193
255 214 193
255 214 193
255 214 193
255 214 193
255 214 193
255 214 193
255 214 193
255 214 193
255 214 193
255 214 193
255 214 193
255 214 193
255 214 193
255 214 193
255 214 193
255 214 193
255 214 193
255 214 193
255 214 193
255 214 193
255 214 193
255 214 193
255 214 193
255 214 193
255 214 193
255 214 193
255 214 193
255 214 193
255 214 193
255 214 193
255 226 205
255 214 193
255 214 193
255 214 193
255 214 193
255 214 193
255 214 193
255 214 193
255 214 193
255 214 193
255 214 193
255 214 193
255 214 193
255 214 193
255 214 193
255 214 193
255 214 193
255 214 193
255 214 193
255 214 193
255 214 193
255 214 193
255 214 193
255 214 193
255 214 193
255 214 193
255 214 193
255 214 193
255 214 193
255 214 193
255 214 193
255 214 193
255 214 193
255 214 193
255 214 193
255 214 193
255 214 193
255 226 205
255 214 193
255 214 193
255 214 193
255 214 193
255 214 193
255 214 193
255 214 193
255 214 193
255 214 193
255 214 193
255 214 193
255 214 193
255 214 193
255 214 193
255 214 193
255 214 193
255 214 193
255 214 193
255 214 193
255 214 193
255 214 193
255 214 193
255 214 193
255 214 193
255 214 193
255 214 193
255 214 193
255 214 193
255 214 193
255 214 193
255 214 193
255 214 193
255 214 193
255 214 193
255 214 193
255 214 193
255 226 205
255 214 193
255 214 193
255 214 193
255 214 193
255 214 193
255 214 193
255 214 193
255 214 193
255 214 193
255 214 193
255 214 193
255 214 193
255 214 193
255 214 193
255 214 193
255 214 193
255 214 193
255 214 193
255 214 193
255 214 193
255 214 193
255 214 193
255 214 193
255 214 193
255 214 193
255 214 193
255 214 193
255 214 193
255 214 193
255 214 193
255 214 193
255 214 193
255 214 193
255 214 193
255 214 193
255 214 193
255 226 205
255 214 193
255 214 193
255 214 193
255 214 193
255 214 193
255 214 193
255 214 193
255 214 193
255 214 193
255 214 193
255 214 193
255 214 193
255 214 193
255 214 193
255 214 193
255 214 193
255 214 193
255 214 193
255 214 193
255 214 193
255 214 193
255 214 193
255 226 205
255 214 193
255 214 193
255 214 193
255 214 193
255 214 193
255 214 193
255 214 193
255 214 193
255 214 193
255 214 193
255 214 193
255 214 193
255 214 193
255 214 193
255 214 193
255 214 193
255 214 193
255 214 193
255 214 193
255 214 193
255 214 193
255 214 193
255 214 193
255 214 193
255 214 193
255 214 193
255 214 193
255 214 193
255 214 193
255 214 193
255 214 193
255 214 193
255 214 193
255 214 193
255 214 193
255 214 193
255 226 205
255 214 193
255 214 193
255 214 193
255 214 193
255 214 193
255 214 193
255 214 193
255 214 193
255 214 193
255 214 193
255 214 193
255 214 193
255 214 193
255 214 193
255 214 193
255 214 193
255 214 193
255 214 193
255 214 193
255 214 193
255 214 193
255 214 193
255 214 193
255 214 193
255 214 193
255 214 193
255 214 193
255 214 193
255 214 193
255 214 193
255 214 193
255 214 193
255 214 193
255 214 193
255 214 193
255 214 193
255 226 205
255 214 193
255 214 193
255 214 193
255 214 193
255 214 193
255 214 193
255 214 193
255 214 193
255 214 193
255 214 193
255 214 193
255 214 193
255 214 193
255 214 193
255 214 193
255 214 193
255 214 193
255 214 193
255 214 193
255 214 193
255 214 193
255 214 193
255 214 193
255 214 193
255 214 193
255 214 193
255 214 193
255 214 193
255 214 193
255 214 193
255 214 193
255 214 193
255 214 193
255 214 193
255 214 193
255 214 193
255 226 205
255 214 193
255 214 193
255 214 193
255 214 193
255 214 193
255 214 193
255 214 193
255 214 193
255 214 193
255 214 193
255 214 193
255 214 193
255 214 193
255 214 193
255 214 193
255 214 193
255 214 193
255 214 193
255 214 193
255 214 193
255 214 193
255 214 193
255 214 193
255 214 193
255 214 193
255 214 193
255 214 193
255 214 193
255 214 193
255 214 193
255 214 193
255 214 193
255 214 193
255 214 193
255 214 193
255 214 193
255 226 205
255 214 193
255 214 193
255 214 193
255 214 193
255 214 193
255 214 193
255 214 193
255 214 193
255 214 193
255 214 193
255 214 193
255 214 193
255 214 193
255 214 193
255 214 193
255 214 193
255 214 193
255 214 193
255 214 193
255 214 193
255 214 193
255 214 193
255 214 193
255 214 193
255 214 193
255 214 193
255 214 193
255 214 193
255 214 193
255 214 193
255 214 193
255 214 193
255 214 193
255 214 193
255 214 193
255 214 193
255 226 205
255 214 193
255 214 193
255 214 193
255 214 193
255 214 193
255 214 193
255 214 193
255 214 193
255 214 193
255 214 193
255 214 193
255 214 193
255 214 193
255 214 193
255 214 193
255 214 193
255 214 193
255 214 193
255 214 193
255 214 193
255 214 193
255 214 193
255 214 193
255 214 193
255 214 193
255 214 193
255 214 193
255 214 193
255 214 193
255 214 193
255 214 193
255 214 193
255 214 193
255 214 193
255 214 193
255 214 193
255 226 205
255 214 193
255 214 193
255 214 193
255 214 193
255 214 193
255 214 193
255 214 193
255 214 193
255 214 193
255 214 193
255 214 193
255 214 193
255 214 193
255 214 193
255 214 193
255 214 193
255 214 193
255 214 193
255 214 193
255 214 193
255 214 193
255 214 193
255 214 193
255 214 193
255 214 193
255 214 193
255 214 193
255 214 193
255 214 193
255 214 193
255 214 193
255 214 193
255 214 193
255 214 193
255 214 193
255 214 193
255 226 205
255 214 193
255 214 193
255 214 193
255 214 193
255 214 193
255 214 193
255 214 193
255 214 193
255 214 193
255 214 193
255 214 193
255 214 193
255 214 193
255 214 193
255 214 193
255 214 193
255 214 193
255 214 193
255 214 193
255 214 193
255 214 193
255 214 193
255 214 193
255 214 193
255 214 193
255 214 193
255 214 193
255 214 193
255 214 193
255 214 193
255 214 193
255 214 193
255 214 193
255 214 193
255 214 193
255 214 193
255 226 205
255 214 193
255 214 193
255 214 193
255 214 193
255 214 193
255 214 193
255 214 193
255 214 193
255 214 193
255 214 193
255 214 193
255 214 193
255 214 193
255 214 193
255 214 193
255 214 193
255 214 193
255 214 193
255 214 193
255 214 193
255 214 193
255 214 193
255 226 205
255 214 193
255 214 193
255 214 193
255 214 193
255 214 193
255 214 193
255 214 193
255 214 193
255 214 193
255 214 193
255 214 193
255 214 193
255 214 193
255 214 193
255 214 193
255 214 193
255 214 193
255 214 193
255 214 193
255 214 193
255 214 193
255 214 193
255 214 193
255 214 193
255 214 193
255 214 193
255 214 193
255 214 193
255 214 193
255 214 193
255 214 193
255 214 193
255 214 193
255 214 193
255 214 193
255 214 193
255 226 205
255 214 193
255 214 193
255 214 193
255 214 193
255 214 193
255 214 193
255 214 193
255 214 193
255 214 193
255 214 193
255 214 193
255 214 193
255 214 193
255 214 193
255 214 193
255 214 193
255 214 193
255 214 193
255 214 193
255 214 193
255 214 193
255 214 193
255 214 193
255 214 193
255 214 193
255 214 193
255 214 193
255 214 193
255 214 193
255 214 193
255 214 193
255 214 193
255 214 193
255 214 193
255 214 193
255 214 193
255 226 205
255 214 193
255 214 193
255 214 193
255 214 193
255 214 193
255 214 193
255 214 193
255 214 193
255 214 193
255 214 193
255 214 193
255 214 193
255 214 193
255 214 193
255 214 193
255 214 193
255 214 193
255 214 193
255 214 193
255 214 193
255 214 193
255 214 193
255 214 193
255 214 193
255 214 193
255 214 193
255 214 193
255 214 193
255 214 193
255 214 193
255 214 193
255 214 193
255 214 193
255 214 193
255 214 193
255 214 193
255 226 205
255 214 193
255 214 193
255 214 193
255 214 193
255 214 193
255 214 193
255 214 193
255 214 193
255 214 193
255 214 193
255 214 193
255 214 193
255 214 193
255 214 193
255 214 193
255 214 193
255 214 193
255 214 193
255 214 193
255 214 193
255 214 193
255 214 193
255 214 193
255 214 193
255 214 193
255 214 193
255 214 193
255 214 193
255 214 193
255 214 193
255 214 193
255 214 193
255 214 193
255 214 193
255 214 193
255 214 193
255 226 205
255 214 193
255 214 193
255 214 193
255 214 193
255 214 193
255 214 193
255 214 193
255 214 193
255 214 193
255 214 193
255 214 193
255 214 193
255 214 193
255 214 193
255 214 193
255 214 193
255 214 193
255 214 193
255 214 193
255 214 193
255 214 193
255 214 193
255 214 193
255 214 193
255 214 193
255 214 193
255 214 193
255 214 193
255 214 193
255 214 193
255 214 193
255 214 193
255 214 193
255 214 193
255 214 193
255 214 193
255 226 205
255 214 193
255 214 193
255 214 193
255 214 193
255 214 193
255 214 193
255 214 193
255 214 193
255 214 193
255 214 193
255 214 193
255 214 193
255 214 193
255 214 193
255 214 193
255 214 193
255 214 193
255 214 193
255 214 193
255 214 193
255 214 193
255 214 193
255 214 193
255 214 193
255 214 193
255 214 193
255 214 193
255 214 193
255 214 193
255 214 193
255 214 193
255 214 193
255 214 193
255 214 193
255 214 193
255 214 193
255 226 205
255 214 193
255 214 193
255 214 193
255 214 193
255 214 193
255 214 193
255 214 193
255 214 193
255 214 193
255 214 193
255 214 193
255 214 193
255 214 193
255 214 193
255 214 193
255 214 193
255 214 193
255 214 193
255 214 193
255 214 193
255 214 193
255 214 193
255 214 193
255 214 193
255 214 193
255 214 193
255 214 193
255 214 193
255 214 193
255 214 193
255 214 193
255 214 193
255 214 193
255 214 193
255 214 193
255 214 193
255 226 205
255 214 193
255 214 193
255 214 193
255 214 193
255 214 193
255 214 193
255 214 193
255 214 193
255 214 193
255 214 193
255 214 193
255 214 193
255 214 193
255 214 193
255 214 193
255 214 193
255 214 193
255 214 193
255 214 193
255 214 193
255 214 193
255 214 193
255 214 193
255 214 193
255 214 193
255 214 193
255 214 193
255 214 193
255 214 193
255 214 193
255 214 193
255 214 193
255 214 193
255 214 193
255 214 193
255 214 193
255 226 205
255 214 193
255 214 193
255 214 193
255 214 193
255 214 193
255 214 193
255 214 193
255 214 193
255 214 193
255 214 193
255 214 193
255 214 193
255 214 193
255 214 193
255 214 193
255 214 193
255 214 193
255 214 193
255 214 193
255 214 193
255 214 193
255 214 193
255 226 205
255 214 193
255 214 193
255 214 193
255 214 193
255 214 193
255 214 193
255 214 193
255 214 193
255 214 193
255 214 193
255 214 193
255 214 193
255 214 193
255 214 193
255 214 193
255 214 193
255 214 193
255 214 193
255 214 193
255 214 193
255 214 193
255 214 193
255 214 193
255 214 193
255 214 193
255 214 193
255 214 193
255 214 193
255 214 193
255 214 193
255 214 193
255 214 193
255 214 193
255 214 193
255 214 193
255 214 193
255 226 205
255 214 193
255 214 193
255 214 193
255 214 193
255 214 193
255 214 193
255 214 193
255 214 193
255 214 193
255 214 193
255 214 193
255 214 193
255 214 193
255 214 193
255 214 193
255 214 193
255 214 193
255 214 193
255 214 193
255 214 193
255 214 193
255 214 193
255 214 193
255 214 193
255 214 193
255 214 193
255 214 193
255 214 193
255 214 193
255 214 193
255 214 193
255 214 193
255 214 193
255 214 193
255 214 193
255 214 193
255 226 205
255 214 193
255 214 193
255 214 193
255 214 193
255 214 193
255 214 193
255 214 193
255 214 193
255 214 193
255 214 193
255 214 193
255 214 193
255 214 193
255 214 193
255 214 193
255 214 193
255 214 193
255 214 193
255 214 193
255 214 193
255 214 193
255 214 193
255 214 193
255 214 193
255 214 193
255 214 193
255 214 193
255 214 193
255 214 193
255 214 193
255 214 193
255 214 193
255 214 193
255 214 193
255 214 193
255 214 193
255 226 205
255 214 193
255 214 193
255 214 193
255 214 193
255 214 193
255 214 193
255 214 193
255 214 193
255 214 193
255 214 193
255 214 193
255 214 193
255 214 193
255 214 193
255 214 193
255 214 193
255 214 193
255 214 193
255 214 193
255 214 193
255 214 193
255 214 193
255 214 193
255 214 193
255 214 193
255 214 193
255 214 193
255 214 193
255 214 193
255 214 193
255 214 193
255 214 193
255 214 193
255 214 193
255 214 193
255 214 193
255 226 205
255 214 193
255 214 193
255 214 193
255 214 193
255 214 193
255 214 193
255 214 193
255 214 193
255 214 193
255 214 193
255 214 193
255 214 193
255 214 193
255 214 193
255 214 193
255 214 193
255 214 193
255 214 193
255 214 193
255 214 193
255 214 193
255 214 193
255 214 193
255 214 193
255 214 193
255 214 193
255 214 193
255 214 193
255 214 193
255 214 193
255 214 193
255 214 193
255 214 193
255 214 193
255 214 193
255 214 193
255 226 205
255 214 193
255 214 193
255 214 193
255 214 193
255 214 193
255 214 193
255 214 193
255 214 193
255 214 193
255 214 193
255 214 193
255 214 193
255 214 193
255 214 193
255 214 193
255 214 193
255 214 193
255 214 193
255 214 193
255 214 193
255 214 193
255 214 193
255 214 193
255 214 193
255 214 193
255 214 193
255 214 193
255 214 193
255 214 193
255 214 193
255 214 193
255 214 193
255 214 193
255 214 193
255 214 193
255 214 193
255 226 205
255 214 193
255 214 193
255 214 193
255 214 193
255 214 193
255 214 193
255 214 193
255 214 193
255 214 193
255 214 193
255 214 193
255 214 193
255 214 193
255 214 193
255 214 193
255 214 193
255 214 193
255 214 193
255 214 193
255 214 193
255 214 193
255 214 193
255 214 193
255 214 193
255 214 193
255 214 193
255 214 193
255 214 193
255 214 193
255 214 193
255 214 193
255 214 193
255 214 193
255 214 193
255 214 193
255 214 193
255 226 205
255 214 193
255 214 193
255 214 193
255 214 193
255 214 193
255 214 193
255 214 193
255 214 193
255 214 193
255 214 193
255 214 193
255 214 193
255 214 193
255 214 193
255 214 193
255 214 193
255 214 193
255 214 193
255 214 193
255 214 193
255 214 193
255 214 193
255 214 193
255 214 193
255 214 193
255 214 193
255 214 193
255 214 193
255 214 193
255 214 193
255 214 193
255 214 193
255 214 193
255 214 193
255 214 193
255 214 193
255 226 205
255 214 193
255 214 193
255 214 193
255 214 193
255 214 193
255 214 193
255 214 193
255 214 193
255 214 193
255 214 193
255 214 193
255 214 193
255 214 193
255 214 193
255 214 193
255 214 193
255 214 193
255 214 193
255 214 193
255 214 193
255 214 193
255 214 193
255 226 205
255 214 193
255 214 193
255 214 193
255 214 193
255 214 193
255 214 193
255 214 193
255 214 193
255 214 193
255 214 193
255 214 193
255 214 193
255 214 193
255 214 193
255 214 193
255 214 193
255 214 193
255 214 193
255 214 193
255 214 193
255 214 193
255 214 193
255 214 193
255 214 193
255 214 193
255 214 193
255 214 193
255 214 193
255 214 193
255 214 193
255 214 193
255 214 193
255 214 193
255 214 193
255 214 193
255 214 193
255 226 205
255 214 193
255 214 193
255 214 193
255 214 193
255 214 193
255 214 193
255 214 193
255 214 193
255 214 193
255 214 193
255 214 193
255 214 193
255 214 193
255 214 193
255 214 193
255 214 193
255 214 193
255 214 193
255 214 193
255 214 193
255 214 193
255 214 193
255 214 193
255 214 193
255 214 193
255 214 193
255 214 193
255 214 193
255 214 193
255 214 193
255 214 193
255 214 193
255 214 193
255 214 193
255 214 193
255 214 193
255 226 205
255 214 193
255 214 193
255 214 193
255 214 193
255 214 193
255 214 193
255 214 193
255 214 193
255 214 193
255 214 193
255 214 193
255 214 193
255 214 193
255 214 193
255 214 193
255 214 193
255 214 193
255 214 193
255 214 193
255 214 193
255 214 193
255 214 193
255 214 193
255 214 193
255 214 193
255 214 193
255 214 193
255 214 193
255 214 193
255 214 193
255 214 193
255 214 193
255 214 193
255 214 193
255 214 193
255 214 193
255 226 205
255 214 193
255 214 193
255 214 193
255 214 193
255 214 193
255 214 193
255 214 193
255 214 193
255 214 193
255 214 193
255 214 193
255 214 193
255 214 193
255 214 193
255 214 193
255 214 193
255 214 193
255 214 193
255 214 193
255 214 193
255 214 193
255 214 193
255 214 193
255 214 193
255 214 193
255 214 193
255 214 193
255 214 193
255 214 193
255 214 193
255 214 193
255 214 193
255 214 193
255 214 193
255 214 193
255 214 193
255 226 205
255 214 193
255 214 193
255 214 193
255 214 193
255 214 193
255 214 193
255 214 193
255 214 193
255 214 193
255 214 193
255 214 193
255 214 193
255 214 193
255 214 193
255 214 193
255 214 193
255 214 193
255 214 193
255 214 193
255 214 193
255 214 193
255 214 193
255 214 193
255 214 193
255 214 193
255 214 193
255 214 193
255 214 193
255 214 193
255 214 193
255 214 193
255 214 193
255 214 193
255 214 193
255 214 193
255 214 193
255 226 205
255 214 193
255 214 193
255 214 193
255 214 193
255 214 193
255 214 193
255 214 193
255 214 193
255 214 193
255 214 193
255 214 193
255 214 193
255 214 193
255 214 193
255 214 193
255 214 193
255 214 193
255 214 193
255 214 193
255 214 193
255 214 193
255 214 193
255 214 193
255 214 193
255 214 193
255 214 193
255 214 193
255 214 193
255 214 193
255 214 193
255 214 193
255 214 193
255 214 193
255 214 193
255 214 193
255 214 193
255 226 205
255 214 193
255 214 193
255 214 193
255 214 193
255 214 193
255 214 193
255 214 193
255 214 193
255 214 193
255 214 193
255 214 193
255 214 193
255 214 193
255 214 193
255 214 193
255 214 193
255 214 193
255 214 193
255 214 193
255 214 193
255 214 193
255 214 193
255 214 193
255 214 193
255 214 193
255 214 193
255 214 193
255 214 193
255 214 193
255 214 193
255 214 193
255 214 193
255 214 193
255 214 193
255 214 193
255 214 193
255 226 205
255 214 193
255 214 193
255 214 193
255 214 193
255 214 193
255 214 193
255 214 193
255 214 193
255 214 193
255 214 193
255 214 193
255 214 193
255 214 193
255 214 193
255 214 193
255 214 193
255 214 193
255 214 193
255 214 193
255 214 193
255 214 193
255 214 193
255 214 193
255 214 193
255 214 193
255 214 193
255 214 193
255 214 193
255 214 193
255 214 193
255 214 193
255 214 193
255 214 193
255 214 193
255 214 193
255 214 193
255 226 205
255 214 193
255 214 193
255 214 193
255 214 193
255 214 193
255 214 193
255 214 193
255 214 193
255 214 193
255 214 193
255 214 193
255 214 193
255 214 193
255 214 193
255 214 193
255 214 193
255 214 193
255 214 193
255 214 193
255 214 193
255 214 193
255 214 193
255 226 205
255 214 193
255 214 193
255 214 193
255 214 193
255 214 193
255 214 193
255 214 193
255 214 193
255 214 193
255 214 193
255 214 193
255 214 193
255 214 193
255 214 193
255 214 193
255 214 193
255 214 193
255 214 193
255 214 193
255 214 193
255 214 193
255 214 193
255 214 193
255 214 193
255 214 193
255 214 193
255 214 193
255 214 193
255 214 193
255 214 193
255 214 193
255 214 193
255 214 193
255 214 193
255 214 193
255 214 193
255 226 205
255 214 193
255 214 193
255 214 193
255 214 193
255 214 193
255 214 193
255 214 193
255 214 193
255 214 193
255 214 193
255 214 193
255 214 193
255 214 193
255 214 193
255 214 193
255 214 193
255 214 193
255 214 193
255 214 193
255 214 193
255 214 193
255 214 193
255 214 193
255 214 193
255 214 193
255 214 193
255 214 193
255 214 193
255 214 193
255 214 193
255 214 193
255 214 193
255 214 193
255 214 193
255 214 193
255 214 193
255 226 205
255 214 193
255 214 193
255 214 193
255 214 193
255 214 193
255 214 193
255 214 193
255 214 193
255 214 193
255 214 193
255 214 193
255 214 193
255 214 193
255 214 193
255 214 193
255 214 193
255 214 193
255 214 193
255 214 193
255 214 193
255 214 193
255 214 193
255 214 193
255 214 193
255 214 193
255 214 193
255 214 193
255 214 193
255 214 193
255 214 193
255 214 193
255 214 193
255 214 193
255 214 193
255 214 193
255 214 193
255 226 205
255 214 193
255 214 193
255 214 193
255 214 193
255 214 193
255 214 193
255 214 193
255 214 193
255 214 193
255 214 193
255 214 193
255 214 193
255 214 193
255 214 193
255 214 193
255 214 193
255 214 193
255 214 193
255 214 193
255 214 193
255 214 193
255 214 193
255 214 193
255 214 193
255 214 193
255 214 193
255 214 193
255 214 193
255 214 193
255 214 193
255 214 193
255 214 193
255 214 193
255 214 193
255 214 193
255 214 193
255 226 205
255 214 193
255 214 193
255 214 193
255 214 193
255 214 193
255 214 193
255 214 193
255 214 193
255 214 193
255 214 193
255 214 193
255 214 193
255 214 193
255 214 193
255 214 193
255 214 193
255 214 193
255 214 193
255 214 193
255 214 193
255 214 193
255 214 193
255 214 193
255 214 193
255 214 193
255 214 193
255 214 193
255 214 193
255 214 193
255 214 193
255 214 193
255 214 193
255 214 193
255 214 193
255 214 193
255 214 193
255 226 205
255 214 193
255 214 193
255 214 193
255 214 193
255 214 193
255 214 193
255 214 193
255 214 193
255 214 193
255 214 193
255 214 193
255 214 193
255 214 193
255 214 193
255 214 193
255 214 193
255 214 193
255 214 193
255 214 193
255 214 193
255 214 193
255 214 193
255 214 193
255 214 193
255 214 193
255 214 193
255 214 193
255 214 193
255 214 193
255 214 193
255 214 193
255 214 193
255 214 193
255 214 193
255 214 193
255 214 193
255 226 205
255 214 193
255 214 193
255 214 193
255 214 193
255 214 193
255 214 193
255 214 193
255 214 193
255 214 193
255 214 193
255 214 193
255 214 193
255 214 193
255 214 193
255 214 193
255 214 193
255 214 193
255 214 193
255 214 193
255 214 193
255 214 193
255 214 193
255 214 193
255 214 193
255 214 193
255 214 193
255 214 193
255 214 193
255 214 193
255 214 193
255 214 193
255 214 193
255 214 193
255 214 193
255 214 193
255 214 193
255 226 205
255 214 193
255 214 193
255 214 193
255 214 193
255 214 193
255 214 193
255 214 193
255 214 193
255 214 193
255 214 193
255 214 193
255 214 193
255 214 193
255 214 193
255 214 193
255 214 193
255 214 193
255 214 193
255 214 193
255 214 193
255 214 193
255 214 193
255 214 193
255 214 193
255 214 193
255 214 193
255 214 193
255 214 193
255 214 193
255 214 193
255 214 193
255 214 193
255 214 193
255 214 193
255 214 193
255 214 193
255 226 205
255 214 193
255 214 193
255 214 193
255 214 193
255 214 193
255 214 193
255 214 193
255 214 193
255 214 193
255 214 193
255 214 193
255 214 193
255 214 193
255 214 193
255 214 193
255 214 193
255 214 193
255 214 193
255 214 193
255 214 193
255 214 193
255 214 193
255 226 205
255 214 193
255 214 193
255 214 193
255 214 193
255 214 193
255 214 193
255 214 193
255 214 193
255 214 193
255 214 193
255 214 193
255 214 193
255 214 193
255 214 193
255 214 193
255 214 193
255 214 193
255 214 193
255 214 193
255 214 193
255 214 193
255 214 193
255 214 193
255 214 193
255 214 193
255 214 193
255 214 193
255 214 193
255 214 193
255 214 193
255 214 193
255 214 193
255 214 193
255 214 193
255 214 193
255 214 193
255 226 205
255 214 193
255 214 193
255 214 193
255 214 193
255 214 193
255 214 193
255 214 193
255 214 193
255 214 193
255 214 193
255 214 193
255 214 193
255 214 193
255 214 193
255 214 193
255 214 193
255 214 193
255 214 193
255 214 193
255 214 193
255 214 193
255 214 193
255 214 193
255 214 193
255 214 193
255 214 193
255 214 193
255 214 193
255 214 193
255 214 193
255 214 193
255 214 193
255 214 193
255 214 193
255 214 193
255 214 193
255 226 205
255 214 193
255 214 193
255 214 193
255 214 193
255 214 193
255 214 193
255 214 193
255 214 193
255 214 193
255 214 193
255 214 193
255 214 193
255 214 193
255 214 193
255 214 193
255 214 193
255 214 193
255 214 193
255 214 193
255 214 193
255 214 193
255 214 193
255 214 193
255 214 193
255 214 193
255 214 193
255 214 193
255 214 193
255 214 193
255 214 193
255 214 193
255 214 193
255 214 193
255 214 193
255 214 193
255 214 193
255 226 205
255 214 193
255 214 193
255 214 193
255 214 193
255 214 193
255 214 193
255 214 193
255 214 193
255 214 193
255 214 193
255 214 193
255 214 193
255 214 193
255 214 193
255 214 193
255 214 193
255 214 193
255 214 193
255 214 193
255 214 193
255 214 193
255 214 193
255 214 193
255 214 193
255 214 193
255 214 193
255 214 193
255 214 193
255 214 193
255 214 193
255 214 193
255 214 193
255 214 193
255 214 193
255 214 193
255 214 193
255 226 205
255 214 193
255 214 193
255 214 193
255 214 193
255 214 193
255 214 193
255 214 193
255 214 193
255 214 193
255 214 193
255 214 193
255 214 193
255 214 193
255 214 193
255 214 193
255 214 193
255 214 193
255 214 193
255 214 193
255 214 193
255 214 193
255 214 193
255 214 193
255 214 193
255 214 193
255 214 193
255 214 193
255 214 193
255 214 193
255 214 193
255 214 193
255 214 193
255 214 193
255 214 193
255 214 193
255 214 193
255 226 205
255 214 193
255 214 193
255 214 193
255 214 193
255 214 193
255 214 193
255 214 193
255 214 193
255 214 193
255 214 193
255 214 193
255 214 193
255 214 193
255 214 193
255 214 193
255 214 193
255 214 193
255 214 193
255 214 193
255 214 193
255 214 193
255 214 193
255 214 193
255 214 193
255 214 193
255 214 193
255 214 193
255 214 193
255 214 193
255 214 193
255 214 193
255 214 193
255 214 193
255 214 193
255 214 193
255 214 193
255 226 205
255 214 193
255 214 193
255 214 193
255 214 193
255 214 193
255 214 193
255 214 193
255 214 193
255 214 193
255 214 193
255 214 193
255 214 193
255 214 193
255 214 193
255 214 193
255 214 193
255 214 193
255 214 193
255 214 193
255 214 193
255 214 193
255 214 193
255 214 193
255 214 193
255 214 193
255 214 193
255 214 193
255 214 193
255 214 193
255 214 193
255 214 193
255 214 193
255 214 193
255 214 193
255 214 193
255 214 193
255 226 205
255 214 193
255 214 193
255 214 193
255 214 193
255 214 193
255 214 193
255 214 193
255 214 193
255 214 193
255 214 193
255 214 193
255 214 193
255 214 193
255 214 193
255 214 193
255 214 193
255 214 193
255 214 193
255 214 193
255 214 193
255 214 193
255 214 193
255 214 193
255 214 193
255 214 193
255 214 193
255 214 193
255 214 193
255 214 193
255 214 193
255 214 193
255 214 193
255 214 193
255 214 193
255 214 193
255 214 193
255 226 205
255 214 193
255 214 193
255 214 193
255 214 193
255 214 193
255 214 193
255 214 193
255 214 193
255 214 193
255 214 193
255 214 193
255 214 193
255 214 193
255 214 193
255 214 193
255 214 193
255 214 193
255 214 193
255 214 193
255 214 193
255 214 193
255 214 193
255 226 205
255 214 193
255 214 193
255 214 193
255 214 193
255 214 193
255 214 193
255 214 193
255 214 193
255 214 193
255 214 193
255 214 193
255 214 193
255 214 193
255 214 193
255 214 193
255 214 193
255 214 193
255 214 193
255 214 193
255 214 193
255 214 193
255 214 193
255 214 193
255 214 193
255 214 193
255 214 193
255 214 193
255 214 193
255 214 193
255 214 193
255 214 193
255 214 193
255 214 193
255 214 193
255 214 193
255 214 193
255 226 205
255 214 193
255 214 193
255 214 193
255 214 193
255 214 193
255 214 193
255 214 193
255 214 193
255 214 193
255 214 193
255 214 193
255 214 193
255 214 193
255 214 193
255 214 193
255 214 193
255 214 193
255 214 193
255 214 193
255 214 193
255 214 193
255 214 193
255 214 193
255 214 193
255 214 193
255 214 193
255 214 193
255 214 193
255 214 193
255 214 193
255 214 193
255 214 193
255 214 193
255 214 193
255 214 193
255 214 193
255 226 205
255 214 193
255 214 193
255 214 193
255 214 193
255 214 193
255 214 193
255 214 193
255 214 193
255 214 193
255 214 193
255 214 193
255 214 193
255 214 193
255 214 193
255 214 193
255 214 193
255 214 193
255 214 193
255 214 193
255 214 193
255 214 193
255 214 193
255 214 193
255 214 193
255 214 193
255 214 193
255 214 193
255 214 193
255 214 193
255 214 193
255 214 193
255 214 193
255 214 193
255 214 193
255 214 193
255 214 193
255 226 205
255 214 193
255 214 193
255 214 193
255 214 193
255 214 193
255 214 193
255 214 193
255 214 193
255 214 193
255 214 193
255 214 193
255 214 193
255 214 193
255 214 193
255 214 193
255 214 193
255 214 193
255 214 193
255 214 193
255 214 193
255 214 193
255 214 193
255 214 193
255 214 193
255 214 193
255 214 193
255 214 193
255 214 193
255 214 193
255 214 193
255 214 193
255 214 193
255 214 193
255 214 193
255 214 193
255 214 193
255 226 205
255 214 193
255 214 193
255 214 193
255 214 193
255 214 193
255 214 193
255 214 193
255 214 193
255 214 193
255 214 193
255 214 193
255 214 193
255 214 193
255 214 193
255 214 193
255 214 193
255 214 193
255 214 193
255 214 193
255 214 193
255 214 193
255 214 193
255 214 193
255 214 193
255 214 193
255 214 193
255 214 193
255 214 193
255 214 193
255 214 193
255 214 193
255 214 193
255 214 193
255 214 193
255 214 193
255 214 193
255 226 205
255 214 193
255 214 193
255 214 193
255 214 193
255 214 193
255 214 193
255 214 193
255 214 193
255 214 193
255 214 193
255 214 193
255 214 193
255 214 193
255 214 193
255 214 193
255 214 193
255 214 193
255 214 193
255 214 193
255 214 193
255 214 193
255 214 193
255 214 193
255 214 193
255 214 193
255 214 193
255 214 193
255 214 193
255 214 193
255 214 193
255 214 193
255 214 193
255 214 193
255 214 193
255 214 193
255 214 193
255 226 205
255 214 193
255 214 193
255 214 193
255 214 193
255 214 193
255 214 193
255 214 193
255 214 193
255 214 193
255 214 193
255 214 193
255 214 193
255 214 193
255 214 193
255 214 193
255 214 193
255 214 193
255 214 193
255 214 193
255 214 193
255 214 193
255 214 193
255 214 193
255 214 193
255 214 193
255 214 193
255 214 193
255 214 193
255 214 193
255 214 193
255 214 193
255 214 193
255 214 193
255 214 193
255 214 193
255 214 193
255 226 205
255 214 193
255 214 193
255 214 193
255 214 193
255 214 193
255 214 193
255 214 193
255 214 193
255 214 193
255 214 193
255 214 193
255 214 193
255 214 193
255 214 193
255 214 193
255 214 193
255 214 193
255 214 193
255 214 193
255 214 193
255 214 193
255 214 193
255 214 193
255 214 193
255 214 193
255 214 193
255 214 193
255 214 193
255 214 193
255 214 193
255 214 193
255 214 193
255 214 193
255 214 193
255 214 193
255 214 193
255 226 205
255 214 193
255 214 193
255 214 193
255 214 193
255 214 193
255 214 193
255 214 193
255 214 193
255 214 193
255 214 193
255 214 193
255 214 193
255 214 193
255 214 193
255 214 193
255 214 193
255 214 193
255 214 193
255 214 193
255 214 193
255 214 193
255 214 193
255 226 205
255 214 193
255 214 193
255 214 193
255 214 193
255 214 193
255 214 193
255 214 193
255 214 193
255 214 193
255 214 193
255 214 193
255 214 193
255 214 193
255 214 193
255 214 193
255 214 193
255 214 193
255 214 193
255 214 193
255 214 193
255 214 193
255 214 193
255 214 193
255 214 193
255 214 193
255 214 193
255 214 193
255 214 193
255 214 193
255 214 193
255 214 193
255 214 193
255 214 193
255 214 193
255 214 193
255 214 193
255 226 205
255 214 193
255 214 193
255 214 193
255 214 193
255 214 193
255 214 193
255 214 193
255 214 193
255 214 193
255 214 193
255 214 193
255 214 193
255 214 193
255 214 193
255 214 193
255 214 193
255 214 193
255 214 193
255 214 193
255 214 193
255 214 193
255 214 193
255 214 193
255 214 193
255 214 193
255 214 193
255 214 193
255 214 193
255 214 193
255 214 193
255 214 193
255 214 193
255 214 193
255 214 193
255 214 193
255 214 193
255 226 205
255 214 193
255 214 193
255 214 193
255 214 193
255 214 193
255 214 193
255 214 193
255 214 193
255 214 193
255 214 193
255 214 193
255 214 193
255 214 193
255 214 193
255 214 193
255 214 193
255 214 193
255 214 193
255 214 193
255 214 193
255 214 193
255 214 193
255 214 193
255 214 193
255 214 193
255 214 193
255 214 193
255 214 193
255 214 193
255 214 193
255 214 193
255 214 193
255 214 193
255 214 193
255 214 193
255 214 193
255 226 205
255 214 193
255 214 193
255 214 193
255 214 193
255 214 193
255 214 193
255 214 193
255 214 193
255 214 193
255 214 193
255 214 193
255 214 193
255 214 193
255 214 193
255 214 193
255 214 193
255 214 193
255 214 193
255 214 193
255 214 193
255 214 193
255 214 193
255 214 193
255 214 193
255 214 193
255 214 193
255 214 193
255 214 193
255 214 193
255 214 193
255 214 193
255 214 193
255 214 193
255 214 193
255 214 193
255 214 193
255 226 205
255 214 193
255 214 193
255 214 193
255 214 193
255 214 193
255 214 193
255 214 193
255 214 193
255 214 193
255 214 193
255 214 193
255 214 193
255 214 193
255 214 193
255 214 193
255 214 193
255 214 193
255 214 193
255 214 193
255 214 193
255 214 193
255 214 193
255 214 193
255 214 193
255 214 193
255 214 193
255 214 193
255 214 193
255 214 193
255 214 193
255 214 193
255 214 193
255 214 193
255 214 193
255 214 193
255 214 193
255 226 205
255 214 193
255 214 193
255 214 193
255 214 193
255 214 193
255 214 193
255 214 193
255 214 193
255 214 193
255 214 193
255 214 193
255 214 193
255 214 193
255 214 193
255 214 193
255 214 193
255 214 193
255 214 193
255 214 193
255 214 193
255 214 193
255 214 193
255 214 193
255 214 193
255 214 193
255 214 193
255 214 193
255 214 193
255 214 193
255 214 193
255 214 193
255 214 193
255 214 193
255 214 193
255 214 193
255 214 193
255 226 205
255 214 193
255 214 193
255 214 193
255 214 193
255 214 193
255 214 193
255 214 193
255 214 193
255 214 193
255 214 193
255 214 193
255 214 193
255 214 193
255 214 193
255 214 193
255 214 193
255 214 193
255 214 193
255 214 193
255 214 193
255 214 193
255 214 193
255 214 193
255 214 193
255 214 193
255 214 193
255 214 193
255 214 193
255 214 193
255 214 193
255 214 193
255 214 193
255 214 193
255 214 193
255 214 193
255 214 193
255 226 205
255 214 193
255 214 193
255 214 193
255 214 193
255 214 193
255 214 193
255 214 193
255 214 193
255 214 193
255 214 193
255 214 193
255 214 193
255 214 193
255 214 193
255 214 193
255 214 193
255 214 193
255 214 193
255 214 193
255 214 193
255 214 193
255 214 193
255 214 193
255 214 193
255 214 193
255 214 193
255 214 193
255 214 193
255 214 193
255 214 193
255 214 193
255 214 193
255 214 193
255 214 193
255 214 193
255 214 193
255 226 205
255 214 193
255 214 193
255 214 193
255 214 193
255 214 193
255 214 193
255 214 193
255 214 193
255 214 193
255 214 193
255 214 193
255 214 193
255 214 193
255 214 193
255 214 193
255 214 193
255 214 193
255 214 193
255 214 193
255 214 193
255 214 193
255 214 193
255 226 205
255 214 193
255 214 193
255 214 193
255 214 193
255 214 193
255 214 193
255 214 193
255 214 193
255 214 193
255 214 193
255 214 193
255 214 193
255 214 193
255 214 193
255 214 193
255 214 193
255 214 193
255 214 193
255 214 193
255 214 193
255 214 193
255 214 193
255 214 193
255 214 193
255 214 193
255 214 193
255 214 193
255 214 193
255 214 193
255 214 193
255 214 193
255 214 193
255 214 193
255 214 193
255 214 193
255 214 193
255 226 205
255 214 193
255 214 193
255 214 193
255 214 193
255 214 193
255 214 193
255 214 193
255 214 193
255 214 193
255 214 193
255 214 193
255 214 193
255 214 193
255 214 193
255 214 193
255 214 193
255 214 193
255 214 193
255 214 193
255 214 193
255 214 193
255 214 193
255 214 193
255 214 193
255 214 193
255 214 193
255 214 193
255 214 193
255 214 193
255 214 193
255 214 193
255 214 193
255 214 193
255 214 193
255 214 193
255 214 193
255 226 205
255 214 193
255 214 193
255 214 193
255 214 193
255 214 193
255 214 193
255 214 193
255 214 193
255 214 193
255 214 193
255 214 193
255 214 193
255 214 193
255 214 193
255 214 193
255 214 193
255 214 193
255 214 193
255 214 193
255 214 193
255 214 193
255 214 193
255 214 193
255 214 193
255 214 193
255 214 193
255 214 193
255 214 193
255 214 193
255 214 193
255 214 193
255 214 193
255 214 193
255 214 193
255 214 193
255 214 193
255 226 205
255 214 193
255 214 193
255 214 193
255 214 193
255 214 193
255 214 193
255 214 193
255 214 193
255 214 193
255 214 193
255 214 193
255 214 193
255 214 193
255 214 193
255 214 193
255 214 193
255 214 193
255 214 193
255 214 193
255 214 193
255 214 193
255 214 193
255 214 193
255 214 193
255 214 193
255 214 193
255 214 193
255 214 193
255 214 193
255 214 193
255 214 193
255 214 193
255 214 193
255 214 193
255 214 193
255 214 193
255 226 205
255 214 193
255 214 193
255 214 193
255 214 193
255 214 193
255 214 193
255 214 193
255 214 193
255 214 193
255 214 193
255 214 193
255 214 193
255 214 193
255 214 193
255 214 193
255 214 193
255 214 193
255 214 193
255 214 193
255 214 193
255 214 193
255 214 193
255 214 193
255 214 193
255 214 193
255 214 193
255 214 193
255 214 193
255 214 193
255 214 193
255 214 193
255 214 193
255 214 193
255 214 193
255 214 193
255 214 193
255 226 205
255 214 193
255 214 193
255 214 193
255 214 193
255 214 193
255 214 193
255 214 193
255 214 193
255 214 193
255 214 193
255 214 193
255 214 193
255 214 193
255 214 193
255 214 193
255 214 193
255 214 193
255 214 193
255 214 193
255 214 193
255 214 193
255 214 193
255 214 193
255 214 193
255 214 193
255 214 193
255 214 193
255 214 193
255 214 193
255 214 193
255 214 193
255 214 193
255 214 193
255 214 193
255 214 193
255 214 193
255 226 205
255 214 193
255 214 193
255 214 193
255 214 193
255 214 193
255 214 193
255 214 193
255 214 193
255 214 193
255 214 193
255 214 193
255 214 193
255 214 193
255 214 193
255 214 193
255 214 193
255 214 193
255 214 193
255 214 193
255 214 193
255 214 193
255 214 193
255 214 193
255 214 193
255 214 193
255 214 193
255 214 193
255 214 193
255 214 193
255 214 193
255 214 193
255 214 193
255 214 193
255 214 193
255 214 193
255 214 193
255 226 205
255 214 193
255 214 193
255 214 193
255 214 193
255 214 193
255 214 193
255 214 193
255 214 193
255 214 193
255 214 193
255 214 193
255 214 193
255 214 193
255 214 193
255 214 193
255 214 193
255 214 193
255 214 193
255 214 193
255 214 193
255 214 193
255 214 193
255 214 193
255 214 193
255 214 193
255 214 193
255 214 193
255 214 193
255 214 193
255 214 193
255 214 193
255 214 193
255 214 193
255 214 193
255 214 193
255 214 193
255 226 205
255 214 193
255 214 193
255 214 193
255 214 193
255 214 193
255 214 193
255 214 193
255 214 193
255 214 193
255 214 193
255 214 193
255 214 193
255 214 193
255 214 193
255 214 193
255 214 193
255 214 193
255 214 193
255 214 193
255 214 193
255 214 193
255 214 193
255 226 205
255 214 193
255 214 193
255 214 193
255 214 193
255 214 193
255 214 193
255 214 193
255 214 193
255 214 193
255 214 193
255 214 193
255 214 193
255 214 193
255 214 193
255 214 193
255 214 193
255 214 193
255 214 193
255 214 193
255 214 193
255 214 193
255 214 193
255 214 193
255 214 193
255 214 193
255 214 193
255 214 193
255 214 193
255 214 193
255 214 193
255 214 193
255 214 193
255 214 193
255 214 193
255 214 193
255 214 193
255 226 205
255 214 193
255 214 193
255 214 193
255 214 193
255 214 193
255 214 193
255 214 193
255 214 193
255 214 193
255 214 193
255 214 193
255 214 193
255 214 193
255 214 193
255 214 193
255 214 193
255 214 193
255 214 193
255 214 193
255 214 193
255 214 193
255 214 193
255 214 193
255 214 193
255 214 193
255 214 193
255 214 193
255 214 193
255 214 193
255 214 193
255 214 193
255 214 193
255 214 193
255 214 193
255 214 193
255 214 193
255 226 205
255 214 193
255 214 193
255 214 193
255 214 193
255 214 193
255 214 193
255 214 193
255 214 193
255 214 193
255 214 193
255 214 193
255 214 193
255 214 193
255 214 193
255 214 193
255 214 193
255 214 193
255 214 193
255 214 193
255 214 193
255 214 193
255 214 193
255 214 193
255 214 193
255 214 193
255 214 193
255 214 193
255 214 193
255 214 193
255 214 193
255 214 193
255 214 193
255 214 193
255 214 193
255 214 193
255 214 193
255 226 205
255 214 193
255 214 193
255 214 193
255 214 193
255 214 193
255 214 193
255 214 193
255 214 193
255 214 193
255 214 193
255 214 193
255 214 193
255 214 193
255 214 193
255 214 193
255 214 193
255 214 193
255 214 193
255 214 193
255 214 193
255 214 193
255 214 193
255 214 193
255 214 193
255 214 193
255 214 193
255 214 193
255 214 193
255 214 193
255 214 193
255 214 193
255 214 193
255 214 193
255 214 193
255 214 193
255 214 193
255 226 205
255 214 193
255 214 193
255 214 193
255 214 193
255 214 193
255 214 193
255 214 193
255 214 193
255 214 193
255 214 193
255 214 193
255 214 193
255 214 193
255 214 193
255 214 193
255 214 193
255 214 193
255 214 193
255 214 193
255 214 193
255 214 193
255 214 193
255 214 193
255 214 193
255 214 193
255 214 193
255 214 193
255 214 193
255 214 193
255 214 193
255 214 193
255 214 193
255 214 193
255 214 193
255 214 193
255 214 193
255 226 205
255 214 193
255 214 193
255 214 193
255 214 193
255 214 193
255 214 193
255 214 193
255 214 193
255 214 193
255 214 193
255 214 193
255 214 193
255 214 193
255 214 193
255 214 193
255 214 193
255 214 193
255 214 193
255 214 193
255 214 193
255 214 193
255 214 193
255 214 193
255 214 193
255 214 193
255 214 193
255 214 193
255 214 193
255 214 193
255 214 193
255 214 193
255 214 193
255 214 193
255 214 193
255 214 193
255 214 193
255 226 205
255 214 193
255 214 193
255 214 193
255 214 193
255 214 193
255 214 193
255 214 193
255 214 193
255 214 193
255 214 193
255 214 193
255 214 193
255 214 193
255 214 193
255 214 193
255 214 193
255 214 193
255 214 193
255 214 193
255 214 193
255 214 193
255 214 193
255 214 193
255 214 193
255 214 193
255 214 193
255 214 193
255 214 193
255 214 193
255 214 193
255 214 193
255 214 193
255 214 193
255 214 193
255 214 193
255 214 193
255 226 205
255 214 193
255 214 193
255 214 193
255 214 193
255 214 193
255 214 193
255 214 193
255 214 193
255 214 193
255 214 193
255 214 193
255 214 193
255 214 193
255 214 193
255 214 193
255 214 193
255 214 193
255 214 193
255 214 193
255 214 193
255 214 193
255 214 193
255 214 193
255 214 193
255 214 193
255 214 193
255 214 193
255 214 193
255 214 193
255 214 193
255 214 193
255 214 193
255 214 193
255 214 193
255 214 193
255 214 193
255 226 205
255 214 193
255 214 193
255 214 193
255 214 193
255 214 193
255 214 193
255 214 193
255 214 193
255 214 193
255 214 193
255 214 193
255 214 193
255 214 193
255 214 193
255 214 193
255 214 193
255 214 193
255 214 193
255 214 193
255 214 193
255 214 193
255 214 193
255 226 205
255 214 193
255 214 193
255 214 193
255 214 193
255 214 193
255 214 193
255 214 193
255 214 193
255 214 193
255 214 193
255 214 193
255 214 193
255 214 193
255 214 193
255 214 193
255 214 193
255 214 193
255 214 193
255 214 193
255 214 193
255 214 193
255 214 193
255 214 193
255 214 193
255 214 193
255 214 193
255 214 193
255 214 193
255 214 193
255 214 193
255 214 193
255 214 193
255 214 193
255 214 193
255 214 193
255 214 193
255 226 205
255 214 193
255 214 193
255 214 193
255 214 193
255 214 193
255 214 193
255 214 193
255 214 193
255 214 193
255 214 193
255 214 193
255 214 193
255 214 193
255 214 193
255 214 193
255 214 193
255 214 193
255 214 193
255 214 193
255 214 193
255 214 193
255 214 193
255 214 193
255 214 193
255 214 193
255 214 193
255 214 193
255 214 193
255 214 193
255 214 193
255 214 193
255 214 193
255 214 193
255 214 193
255 214 193
255 214 193
255 226 205
255 214 193
255 214 193
255 214 193
255 214 193
255 214 193
255 214 193
255 214 193
255 214 193
255 214 193
255 214 193
255 214 193
255 214 193
255 214 193
255 214 193
255 214 193
255 214 193
255 214 193
255 214 193
255 214 193
255 214 193
255 214 193
255 214 193
255 214 193
255 214 193
255 214 193
255 214 193
255 214 193
255 214 193
255 214 193
255 214 193
255 214 193
255 214 193
255 214 193
255 214 193
255 214 193
255 214 193
255 226 205
255 214 193
255 214 193
255 214 193
255 214 193
255 214 193
255 214 193
255 214 193
255 214 193
255 214 193
255 214 193
255 214 193
255 214 193
255 214 193
255 214 193
255 214 193
255 214 193
255 214 193
255 214 193
255 214 193
255 214 193
255 214 193
255 214 193
255 214 193
255 214 193
255 214 193
255 214 193
255 214 193
255 214 193
255 214 193
255 214 193
255 214 193
255 214 193
255 214 193
255 214 193
255 214 193
255 214 193
255 226 205
255 214 193
255 214 193
255 214 193
255 214 193
255 214 193
255 214 193
255 214 193
255 214 193
255 214 193
255 214 193
255 214 193
255 214 193
255 214 193
255 214 193
255 214 193
255 214 193
255 214 193
255 214 193
255 214 193
255 214 193
255 214 193
255 214 193
255 214 193
255 214 193
255 214 193
255 214 193
255 214 193
255 214 193
255 214 193
255 214 193
255 214 193
255 214 193
255 214 193
255 214 193
255 214 193
255 214 193
255 226 205
255 214 193
255 214 193
255 214 193
255 214 193
255 214 193
255 214 193
255 214 193
255 214 193
255 214 193
255 214 193
255 214 193
255 214 193
255 214 193
255 214 193
255 214 193
255 214 193
255 214 193
255 214 193
255 214 193
255 214 193
255 214 193
255 214 193
255 214 193
255 214 193
255 214 193
255 214 193
255 214 193
255 214 193
255 214 193
255 214 193
255 214 193
255 214 193
255 214 193
255 214 193
255 214 193
255 214 193
255 226 205
255 214 193
255 214 193
255 214 193
255 214 193
255 214 193
255 214 193
255 214 193
255 214 193
255 214 193
255 214 193
255 214 193
255 214 193
255 214 193
255 214 193
255 214 193
255 214 193
255 214 193
255 214 193
255 214 193
255 214 193
255 214 193
255 214 193
255 214 193
255 214 193
255 214 193
255 214 193
255 214 193
255 214 193
255 214 193
255 214 193
255 214 193
255 214 193
255 214 193
255 214 193
255 214 193
255 214 193
255 226 205
255 214 193
255 214 193
255 214 193
255 214 193
255 214 193
255 214 193
255 214 193
255 214 193
255 214 193
255 214 193
255 214 193
255 214 193
255 214 193
255 214 193
255 214 193
255 214 193
255 214 193
255 214 193
255 214 193
255 214 193
255 214 193
255 214 193
255 214 193
255 214 193
255 214 193
255 214 193
255 214 193
255 214 193
255 214 193
255 214 193
255 214 193
255 214 193
255 214 193
255 214 193
255 214 193
255 214 193
255 226 205
255 214 193
255 214 193
255 214 193
255 214 193
255 214 193
255 214 193
255 214 193
255 214 193
255 214 193
255 214 193
255 214 193
255 214 193
255 214 193
255 214 193
255 214 193
255 214 193
255 214 193
255 214 193
255 214 193
255 214 193
255 214 193
255 214 193
255 226 205
255 214 193
255 214 193
255 214 193
255 214 193
255 214 193
255 214 193
255 214 193
255 214 193
255 214 193
255 214 193
255 214 193
255 214 193
255 214 193
255 214 193
255 214 193
255 214 193
255 214 193
255 214 193
255 214 193
255 214 193
255 214 193
255 214 193
255 214 193
255 214 193
255 214 193
255 214 193
255 214 193
255 214 193
255 214 193
255 214 193
255 214 193
255 214 193
255 214 193
255 214 193
255 214 193
255 214 193
255 226 205
255 214 193
255 214 193
255 214 193
255 214 193
255 214 193
255 214 193
255 214 193
255 214 193
255 214 193
255 214 193
255 214 193
255 214 193
255 214 193
255 214 193
255 214 193
255 214 193
255 214 193
255 214 193
255 214 193
255 214 193
255 214 193
255 214 193
255 214 193
255 214 193
255 214 193
255 214 193
255 214 193
255 214 193
255 214 193
255 214 193
255 214 193
255 214 193
255 214 193
255 214 193
255 214 193
255 214 193
255 226 205
255 214 193
255 214 193
255 214 193
255 214 193
255 214 193
255 214 193
255 214 193
255 214 193
255 214 193
255 214 193
255 214 193
255 214 193
255 214 193
255 214 193
255 214 193
255 214 193
255 214 193
255 214 193
255 214 193
255 214 193
255 214 193
255 214 193
255 214 193
255 214 193
255 214 193
255 214 193
255 214 193
255 214 193
255 214 193
255 214 193
255 214 193
255 214 193
255 214 193
255 214 193
255 214 193
255 214 193
255 226 205
255 214 193
255 214 193
255 214 193
255 214 193
255 214 193
255 214 193
255 214 193
255 214 193
255 214 193
255 214 193
255 214 193
255 214 193
255 214 193
255 214 193
255 214 193
255 214 193
255 214 193
255 214 193
255 214 193
255 214 193
255 214 193
255 214 193
255 214 193
255 214 193
255 214 193
255 214 193
255 214 193
255 214 193
255 214 193
255 214 193
255 214 193
255 214 193
255 214 193
255 214 193
255 214 193
255 214 193
255 226 205
255 214 193
255 214 193
255 214 193
255 214 193
255 214 193
255 214 193
255 214 193
255 214 193
255 214 193
255 214 193
255 214 193
255 214 193
255 214 193
255 214 193
255 214 193
255 214 193
255 214 193
255 214 193
255 214 193
255 214 193
255 214 193
255 214 193
255 214 193
255 214 193
255 214 193
255 214 193
255 214 193
255 214 193
255 214 193
255 214 193
255 214 193
255 214 193
255 214 193
255 214 193
255 214 193
255 214 193
255 226 205
255 214 193
255 214 193
255 214 193
255 214 193
255 214 193
255 214 193
255 214 193
255 214 193
255 214 193
255 214 193
255 214 193
255 214 193
255 214 193
255 214 193
255 214 193
255 214 193
255 214 193
255 214 193
255 214 193
255 214 193
255 214 193
255 214 193
255 214 193
255 214 193
255 214 193
255 214 193
255 214 193
255 214 193
255 214 193
255 214 193
255 214 193
255 214 193
255 214 193
255 214 193
255 214 193
255 214 193
255 226 205
255 214 193
255 214 193
255 214 193
255 214 193
255 214 193
255 214 193
255 214 193
255 214 193
255 214 193
255 214 193
255 214 193
255 214 193
255 214 193
255 214 193
255 214 193
255 214 193
255 214 193
255 214 193
255 214 193
255 214 193
255 214 193
255 214 193
255 214 193
255 214 193
255 214 193
255 214 193
255 214 193
255 214 193
255 214 193
255 214 193
255 214 193
255 214 193
255 214 193
255 214 193
255 214 193
255 214 193
255 226 205
255 214 193
255 214 193
255 214 193
255 214 193
255 214 193
255 214 193
255 214 193
255 214 193
255 214 193
255 214 193
255 214 193
255 214 193
255 214 193
255 214 193
255 214 193
255 214 193
255 214 193
255 214 193
255 214 193
255 214 193
255 214 193
255 214 193
255 214 193
255 214 193
255 214 193
255 214 193
255 214 193
255 214 193
255 214 193
255 214 193
255 214 193
255 214 193
255 214 193
255 214 193
255 214 193
255 214 193
255 226 205
255 214 193
255 214 193
255 214 193
255 214 193
255 214 193
255 214 193
255 214 193
255 214 193
255 214 193
255 214 193
255 214 193
255 214 193
255 214 193
255 214 193
255 214 193
255 214 193
255 214 193
255 214 193
255 214 193
255 214 193
255 214 193
255 214 193
255 226 205
255 214 193
255 214 193
255 214 193
255 214 193
255 214 193
255 214 193
255 214 193
255 214 193
255 214 193
255 214 193
255 214 193
255 214 193
255 214 193
255 214 193
255 214 193
255 214 193
255 214 193
255 214 193
255 214 193
255 214 193
255 214 193
255 214 193
255 214 193
255 214 193
255 214 193
255 214 193
255 214 193
255 214 193
255 214 193
255 214 193
255 214 193
255 214 193
255 214 193
255 214 193
255 214 193
255 214 193
255 226 205
255 214 193
255 214 193
255 214 193
255 214 193
255 214 193
255 214 193
255 214 193
255 214 193
255 214 193
255 214 193
255 214 193
255 214 193
255 214 193
255 214 193
255 214 193
255 214 193
255 214 193
255 214 193
255 214 193
255 214 193
255 214 193
255 214 193
255 214 193
255 214 193
255 214 193
255 214 193
255 214 193
255 214 193
255 214 193
255 214 193
255 214 193
255 214 193
255 214 193
255 214 193
255 214 193
255 214 193
255 226 205
255 214 193
255 214 193
255 214 193
255 214 193
255 214 193
255 214 193
255 214 193
255 214 193
255 214 193
255 214 193
255 214 193
255 214 193
255 214 193
255 214 193
255 214 193
255 214 193
255 214 193
255 214 193
255 214 193
255 214 193
255 214 193
255 214 193
255 214 193
255 214 193
255 214 193
255 214 193
255 214 193
255 214 193
255 214 193
255 214 193
255 214 193
255 214 193
255 214 193
255 214 193
255 214 193
255 214 193
255 226 205
255 214 193
255 214 193
255 214 193
255 214 193
255 214 193
255 214 193
255 214 193
255 214 193
255 214 193
255 214 193
255 214 193
255 214 193
255 214 193
255 214 193
255 214 193
255 214 193
255 214 193
255 214 193
255 214 193
255 214 193
255 214 193
255 214 193
255 214 193
255 214 193
255 214 193
255 214 193
255 214 193
255 214 193
255 214 193
255 214 193
255 214 193
255 214 193
255 214 193
255 214 193
255 214 193
255 214 193
255 226 205
255 214 193
255 214 193
255 214 193
255 214 193
255 214 193
255 214 193
255 214 193
255 214 193
255 214 193
255 214 193
255 214 193
255 214 193
255 214 193
255 214 193
255 214 193
255 214 193
255 214 193
255 214 193
255 214 193
255 214 193
255 214 193
255 214 193
255 214 193
255 214 193
255 214 193
255 214 193
255 214 193
255 214 193
255 214 193
255 214 193
255 214 193
255 214 193
255 214 193
255 214 193
255 214 193
255 214 193
255 226 205
255 214 193
255 214 193
255 214 193
255 214 193
255 214 193
255 214 193
255 214 193
255 214 193
255 214 193
255 214 193
255 214 193
255 214 193
255 214 193
255 214 193
255 214 193
255 214 193
255 214 193
255 214 193
255 214 193
255 214 193
255 214 193
255 214 193
255 214 193
255 214 193
255 214 193
255 214 193
255 214 193
255 214 193
255 214 193
255 214 193
255 214 193
255 214 193
255 214 193
255 214 193
255 214 193
255 214 193
255 226 205
255 214 193
255 214 193
255 214 193
255 214 193
255 214 193
255 214 193
255 214 193
255 214 193
255 214 193
255 214 193
255 214 193
255 214 193
255 214 193
255 214 193
255 214 193
255 214 193
255 214 193
255 214 193
255 214 193
255 214 193
255 214 193
255 214 193
255 214 193
255 214 193
255 214 193
255 214 193
255 214 193
255 214 193
255 214 193
255 214 193
255 214 193
255 214 193
255 214 193
255 214 193
255 214 193
255 214 193
255 226 205
255 214 193
255 214 193
255 214 193
255 214 193
255 214 193
255 214 193
255 214 193
255 214 193
255 214 193
255 214 193
255 214 193
255 214 193
255 214 193
255 214 193
255 214 193
255 214 193
255 214 193
255 214 193
255 214 193
255 214 193
255 214 193
255 214 193
255 214 193
255 214 193
255 214 193
255 214 193
255 214 193
255 214 193
255 214 193
255 214 193
255 214 193
255 214 193
255 214 193
255 214 193
255 214 193
255 214 193
255 226 205
255 214 193
255 214 193
255 214 193
255 214 193
255 214 193
255 214 193
255 214 193
255 214 193
255 214 193
255 214 193
255 214 193
255 214 193
255 214 193
255 214 193
255 214 193
255 214 193
255 214 193
255 214 193
255 214 193
255 214 193
255 214 193
255 214 193
255 226 205
255 214 193
255 214 193
255 214 193
255 214 193
255 214 193
255 214 193
255 214 193
255 214 193
255 214 193
255 214 193
255 214 193
255 214 193
255 214 193
255 214 193
255 214 193
255 214 193
255 214 193
255 214 193
255 214 193
255 214 193
255 214 193
255 214 193
255 214 193
255 214 193
255 214 193
255 214 193
255 214 193
255 214 193
255 214 193
255 214 193
255 214 193
255 214 193
255 214 193
255 214 193
255 214 193
255 214 193
255 226 205
255 214 193
255 214 193
255 214 193
255 214 193
255 214 193
255 214 193
255 214 193
255 214 193
255 214 193
255 214 193
255 214 193
255 214 193
255 214 193
255 214 193
255 214 193
255 214 193
255 214 193
255 214 193
255 214 193
255 214 193
255 214 193
255 214 193
255 214 193
255 214 193
255 214 193
255 214 193
255 214 193
255 214 193
255 214 193
255 214 193
255 214 193
255 214 193
255 214 193
255 214 193
255 214 193
255 214 193
255 226 205
255 214 193
255 214 193
255 214 193
255 214 193
255 214 193
255 214 193
255 214 193
255 214 193
255 214 193
255 214 193
255 214 193
255 214 193
255 214 193
255 214 193
255 214 193
255 214 193
255 214 193
255 214 193
255 214 193
255 214 193
255 214 193
255 214 193
255 214 193
255 214 193
255 214 193
255 214 193
255 214 193
255 214 193
255 214 193
255 214 193
255 214 193
255 214 193
255 214 193
255 214 193
255 214 193
255 214 193
255 226 205
255 214 193
255 214 193
255 214 193
255 214 193
255 214 193
255 214 193
255 214 193
255 214 193
255 214 193
255 214 193
255 214 193
255 214 193
255 214 193
255 214 193
255 214 193
255 214 193
255 214 193
255 214 193
255 214 193
255 214 193
255 214 193
255 214 193
255 214 193
255 214 193
255 214 193
255 214 193
255 214 193
255 214 193
255 214 193
255 214 193
255 214 193
255 214 193
255 214 193
255 214 193
255 214 193
255 214 193
255 226 205
255 214 193
255 214 193
255 214 193
255 214 193
255 214 193
255 214 193
255 214 193
255 214 193
255 214 193
255 214 193
255 214 193
255 214 193
255 214 193
255 214 193
255 214 193
255 214 193
255 214 193
255 214 193
255 214 193
255 214 193
255 214 193
255 214 193
255 214 193
255 214 193
255 214 193
255 214 193
255 214 193
255 214 193
255 214 193
255 214 193
255 214 193
255 214 193
255 214 193
255 214 193
255 214 193
255 214 193
255 226 205
255 214 193
255 214 193
255 214 193
255 214 193
255 214 193
255 214 193
255 214 193
255 214 193
255 214 193
255 214 193
255 214 193
255 214 193
255 214 193
255 214 193
255 214 193
255 214 193
255 214 193
255 214 193
255 214 193
255 214 193
255 214 193
255 214 193
255 214 193
255 214 193
255 214 193
255 214 193
255 214 193
255 214 193
255 214 193
255 214 193
255 214 193
255 214 193
255 214 193
255 214 193
255 214 193
255 214 193
255 226 205
255 214 193
255 214 193
255 214 193
255 214 193
255 214 193
255 214 193
255 214 193
255 214 193
255 214 193
255 214 193
255 214 193
255 214 193
255 214 193
255 214 193
255 214 193
255 214 193
255 214 193
255 214 193
255 214 193
255 214 193
255 214 193
255 214 193
255 214 193
255 214 193
255 214 193
255 214 193
255 214 193
255 214 193
255 214 193
255 214 193
255 214 193
255 214 193
255 214 193
255 214 193
255 214 193
255 214 193
255 226 205
255 214 193
255 214 193
255 214 193
255 214 193
255 214 193
255 214 193
255 214 193
255 214 193
255 214 193
255 214 193
255 214 193
255 214 193
255 214 193
255 214 193
255 214 193
255 214 193
255 214 193
255 214 193
255 214 193
255 214 193
255 214 193
255 214 193
255 214 193
255 214 193
255 214 193
255 214 193
255 214 193
255 214 193
255 214 193
255 214 193
255 214 193
255 214 193
255 214 193
255 214 193
255 214 193
255 214 193
255 226 205
255 214 193
255 214 193
255 214 193
255 214 193
255 214 193
255 214 193
255 214 193
255 214 193
255 214 193
255 214 193
255 214 193
255 214 193
255 214 193
255 214 193
255 214 193
255 214 193
255 214 193
255 214 193
255 214 193
255 214 193
255 214 193
255 214 193
255 226 205
255 214 193
255 214 193
255 214 193
255 214 193
255 214 193
255 214 193
255 214 193
255 214 193
255 214 193
255 214 193
255 214 193
255 214 193
255 214 193
255 214 193
255 214 193
255 214 193
255 214 193
255 214 193
255 214 193
255 214 193
255 214 193
255 214 193
255 214 193
255 214 193
255 214 193
255 214 193
255 214 193
255 214 193
255 214 193
255 214 193
255 214 193
255 214 193
255 214 193
255 214 193
255 214 193
255 214 193
255 226 205
255 214 193
255 214 193
255 214 193
255 214 193
255 214 193
255 214 193
255 214 193
255 214 193
255 214 193
255 214 193
255 214 193
255 214 193
255 214 193
255 214 193
255 214 193
255 214 193
255 214 193
255 214 193
255 214 193
255 214 193
255 214 193
255 214 193
255 214 193
255 214 193
255 214 193
255 214 193
255 214 193
255 214 193
255 214 193
255 214 193
255 214 193
255 214 193
255 214 193
255 214 193
255 214 193
255 214 193
255 226 205
255 214 193
255 214 193
255 214 193
255 214 193
255 214 193
255 214 193
255 214 193
255 214 193
255 214 193
255 214 193
255 214 193
255 214 193
255 214 193
255 214 193
255 214 193
255 214 193
255 214 193
255 214 193
255 214 193
255 214 193
255 214 193
255 214 193
255 214 193
255 214 193
255 214 193
255 214 193
255 214 193
255 214 193
255 214 193
255 214 193
255 214 193
255 214 193
255 214 193
255 214 193
255 214 193
255 214 193
255 226 205
255 214 193
255 214 193
255 214 193
255 214 193
255 214 193
255 214 193
255 214 193
255 214 193
255 214 193
255 214 193
255 214 193
255 214 193
255 214 193
255 214 193
255 214 193
255 214 193
255 214 193
255 214 193
255 214 193
255 214 193
255 214 193
255 214 193
255 214 193
255 214 193
255 214 193
255 214 193
255 214 193
255 214 193
255 214 193
255 214 193
255 214 193
255 214 193
255 214 193
255 214 193
255 214 193
255 214 193
255 226 205
255 214 193
255 214 193
255 214 193
255 214 193
255 214 193
255 214 193
255 214 193
255 214 193
255 214 193
255 214 193
255 214 193
255 214 193
255 214 193
255 214 193
255 214 193
255 214 193
255 214 193
255 214 193
255 214 193
255 214 193
255 214 193
255 214 193
255 214 193
255 214 193
255 214 193
255 214 193
255 214 193
255 214 193
255 214 193
255 214 193
255 214 193
255 214 193
255 214 193
255 214 193
255 214 193
255 214 193
255 226 205
255 214 193
255 214 193
255 214 193
255 214 193
255 214 193
255 214 193
255 214 193
255 214 193
255 214 193
255 214 193
255 214 193
255 214 193
255 214 193
255 214 193
255 214 193
255 214 193
255 214 193
255 214 193
255 214 193
255 214 193
255 214 193
255 214 193
255 214 193
255 214 193
255 214 193
255 214 193
255 214 193
255 214 193
255 214 193
255 214 193
255 214 193
255 214 193
255 214 193
255 214 193
255 214 193
255 214 193
255 226 205
255 214 193
255 214 193
255 214 193
255 214 193
255 214 193
255 214 193
255 214 193
255 214 193
255 214 193
255 214 193
255 214 193
255 214 193
255 214 193
255 214 193
255 214 193
255 214 193
255 214 193
255 214 193
255 214 193
255 214 193
255 214 193
255 214 193
255 214 193
255 214 193
255 214 193
255 214 193
255 214 193
255 214 193
255 214 193
255 214 193
255 214 193
255 214 193
255 214 193
255 214 193
255 214 193
255 214 193
255 226 205
255 214 193
255 214 193
255 214 193
255 214 193
255 214 193
255 214 193
255 214 193
255 214 193
255 214 193
255 214 193
255 214 193
255 214 193
255 214 193
255 214 193
255 214 193
255 214 193
255 214 193
255 214 193
255 214 193
255 214 193
255 214 193
255 214 193
255 214 193
255 214 193
255 214 193
255 214 193
255 214 193
255 214 193
255 214 193
255 214 193
255 214 193
255 214 193
255 214 193
255 214 193
255 214 193
255 214 193
255 226 205
255 214 193
255 214 193
255 214 193
255 214 193
255 214 193
255 214 193
255 214 193
255 214 193
255 214 193
255 214 193
255 214 193
255 214 193
255 214 193
255 214 193
255 214 193
255 214 193
255 214 193
255 214 193
255 214 193
255 214 193
255 214 193
255 214 193
255 214 193
255 214 193
255 214 193
255 214 193
255 214 193
255 214 193
255 214 193
255 214 193
255 214 193
255 214 193
255 214 193
255 214 193
255 214 193
255 214 193
255 214 193
255 214 193
255 214 193
255 214 193
255 214 193
255 214 193
255 214 193
255 214 193
255 214 193
255 214 193
255 214 193
255 214 193
255 214 193
255 214 193
255 214 193
255 214 193
255 214 193
255 214 193
255 214 193
255 214 193
255 214 193
255 214 193
255 214 193
255 226 205
255 214 193
255 214 193
255 214 193
255 214 193
255 214 193
255 214 193
255 214 193
255 214 193
255 214 193
255 214 193
255 214 193
255 214 193
255 214 193
255 214 193
255 214 193
255 214 193
255 214 193
255 214 193
255 214 193
255 214 193
255 214 193
255 214 193
255 214 193
255 214 193
255 214 193
255 214 193
255 214 193
255 214 193
255 214 193
255 214 193
255 214 193
255 214 193
255 214 193
255 214 193
255 214 193
255 214 193
255 226 205
255 214 193
255 214 193
255 214 193
255 214 193
255 214 193
255 214 193
255 214 193
255 214 193
255 214 193
255 214 193
255 214 193
255 214 193
255 214 193
255 214 193
255 214 193
255 214 193
255 214 193
255 214 193
255 214 193
255 214 193
255 214 193
255 214 193
255 214 193
255 214 193
255 214 193
255 214 193
255 214 193
255 214 193
255 214 193
255 214 193
255 214 193
255 214 193
255 214 193
255 214 193
255 214 193
255 214 193
255 226 205
255 214 193
255 214 193
255 214 193
255 214 193
255 214 193
255 214 193
255 214 193
255 214 193
255 214 193
255 214 193
255 214 193
255 214 193
255 214 193
255 214 193
255 214 193
255 214 193
255 214 193
255 214 193
255 214 193
255 214 193
255 214 193
255 214 193
255 214 193
255 214 193
255 214 193
255 214 193
255 214 193
255 214 193
255 214 193
255 214 193
255 214 193
255 214 193
255 214 193
255 214 193
255 214 193
255 214 193
255 226 205
255 214 193
255 214 193
255 214 193
255 214 193
255 214 193
255 214 193
255 214 193
255 214 193
255 214 193
255 214 193
255 214 193
255 214 193
255 214 193
255 214 193
255 214 193
255 214 193
255 214 193
255 214 193
255 214 193
255 214 193
255 214 193
255 214 193
255 214 193
255 214 193
255 214 193
255 214 193
255 214 193
255 214 193
255 214 193
255 214 193
255 214 193
255 214 193
255 214 193
255 214 193
255 214 193
255 214 193
255 226 205
255 214 193
255 214 193
255 214 193
255 214 193
255 214 193
255 214 193
255 214 193
255 214 193
255 214 193
255 214 193
255 214 193
255 214 193
255 214 193
255 214 193
255 214 193
255 214 193
255 214 193
255 214 193
255 214 193
255 214 193
255 214 193
255 214 193
255 214 193
255 214 193
255 214 193
255 214 193
255 214 193
255 214 193
255 214 193
255 214 193
255 214 193
255 214 193
255 214 193
255 214 193
255 214 193
255 214 193
255 226 205
255 214 193
255 214 193
255 214 193
255 214 193
255 214 193
255 214 193
255 214 193
255 214 193
255 214 193
255 214 193
255 214 193
255 214 193
255 214 193
255 214 193
255 214 193
255 214 193
255 214 193
255 214 193
255 214 193
255 214 193
255 214 193
255 214 193
255 214 193
255 214 193
255 214 193
255 214 193
255 214 193
255 214 193
255 214 193
255 214 193
255 214 193
255 214 193
255 214 193
255 214 193
255 214 193
255 214 193
255 226 205
255 214 193
255 214 193
255 214 193
255 214 193
255 214 193
255 214 193
255 214 193
255 214 193
255 214 193
255 214 193
255 214 193
255 214 193
255 214 193
255 214 193
255 214 193
255 214 193
255 214 193
255 214 193
255 214 193
255 214 193
255 214 193
255 214 193
255 214 193
255 214 193
255 214 193
255 214 193
255 214 193
255 214 193
255 214 193
255 214 193
255 214 193
255 214 193
255 214 193
255 214 193
255 214 193
255 214 193
255 226 205
255 214 193
255 214 193
255 214 193
255 214 193
255 214 193
255 214 193
255 214 193
255 214 193
255 214 193
255 214 193
255 214 193
255 214 193
255 214 193
255 214 193
255 214 193
255 214 193
255 214 193
255 214 193
255 214 193
255 214 193
255 214 193
255 214 193
255 214 193
255 214 193
255 214 193
255 214 193
255 214 193
255 214 193
255 214 193
255 214 193
255 214 193
255 214 193
255 214 193
255 214 193
255 214 193
255 214 193
255 214 193
255 214 193
255 214 193
255 214 193
255 214 193
255 214 193
255 214 193
255 214 193
255 214 193
255 214 193
255 214 193
255 214 193
255 214 193
255 214 193
255 214 193
255 214 193
255 214 193
255 214 193
255 214 193
255 214 193
255 214 193
255 214 193
255 214 193
255 226 205
255 214 193
255 214 193
255 214 193
255 214 193
255 214 193
255 214 193
255 214 193
255 214 193
255 214 193
255 214 193
255 214 193
255 214 193
255 214 193
255 214 193
255 214 193
255 214 193
255 214 193
255 214 193
255 214 193
255 214 193
255 214 193
255 214 193
255 214 193
255 214 193
255 214 193
255 214 193
255 214 193
255 214 193
255 214 193
255 214 193
255 214 193
255 214 193
255 214 193
255 214 193
255 214 193
255 214 193
255 226 205
255 214 193
255 214 193
255 214 193
255 214 193
255 214 193
255 214 193
255 214 193
255 214 193
255 214 193
255 214 193
255 214 193
255 214 193
255 214 193
255 214 193
255 214 193
255 214 193
255 214 193
255 214 193
255 214 193
255 214 193
255 214 193
255 214 193
255 214 193
255 214 193
255 214 193
255 214 193
255 214 193
255 214 193
255 214 193
255 214 193
255 214 193
255 214 193
255 214 193
255 214 193
255 214 193
255 214 193
255 226 205
255 214 193
255 214 193
255 214 193
255 214 193
255 214 193
255 214 193
255 214 193
255 214 193
255 214 193
255 214 193
255 214 193
255 214 193
255 214 193
255 214 193
255 214 193
255 214 193
255 214 193
255 214 193
255 214 193
255 214 193
255 214 193
255 214 193
255 214 193
255 214 193
255 214 193
255 214 193
255 214 193
255 214 193
255 214 193
255 214 193
255 214 193
255 214 193
255 214 193
255 214 193
255 214 193
255 214 193
255 226 205
255 214 193
255 214 193
255 214 193
255 214 193
255 214 193
255 214 193
255 214 193
255 214 193
255 214 193
255 214 193
255 214 193
255 214 193
255 214 193
255 214 193
255 214 193
255 214 193
255 214 193
255 214 193
255 214 193
255 214 193
255 214 193
255 214 193
255 214 193
255 214 193
255 214 193
255 214 193
255 214 193
255 214 193
255 214 193
255 214 193
255 214 193
255 214 193
255 214 193
255 214 193
255 214 193
255 214 193
255 226 205
255 214 193
255 214 193
255 214 193
255 214 193
255 214 193
255 214 193
255 214 193
255 214 193
255 214 193
255 214 193
255 214 193
255 214 193
255 214 193
255 214 193
255 214 193
255 214 193
255 214 193
255 214 193
255 214 193
255 214 193
255 214 193
255 214 193
255 214 193
255 214 193
255 214 193
255 214 193
255 214 193
255 214 193
255 214 193
255 214 193
255 214 193
255 214 193
255 214 193
255 214 193
255 214 193
255 214 193
255 226 205
255 214 193
255 214 193
255 214 193
255 214 193
255 214 193
255 214 193
255 214 193
255 214 193
255 214 193
255 214 193
255 214 193
255 214 193
255 214 193
255 214 193
255 214 193
255 214 193
255 214 193
255 214 193
255 214 193
255 214 193
255 214 193
255 214 193
255 214 193
255 214 193
255 214 193
255 214 193
255 214 193
255 214 193
255 214 193
255 214 193
255 214 193
255 214 193
255 214 193
255 214 193
255 214 193
255 214 193
255 226 205
255 214 193
255 214 193
255 214 193
255 214 193
255 214 193
255 214 193
255 214 193
255 214 193
255 214 193
255 214 193
255 214 193
255 214 193
255 214 193
255 214 193
255 214 193
255 214 193
255 214 193
255 214 193
255 214 193
255 214 193
255 214 193
255 214 193
255 214 193
255 214 193
255 214 193
255 214 193
255 214 193
255 214 193
255 214 193
255 214 193
255 214 193
255 214 193
255 214 193
255 214 193
255 214 193
255 214 193
255 226 205
255 214 193
255 214 193
255 214 193
255 214 193
255 214 193
255 214 193
255 214 193
255 214 193
255 214 193
255 214 193
255 214 193
255 214 193
255 214 193
255 214 193
255 214 193
255 214 193
255 214 193
255 214 193
255 214 193
255 214 193
255 214 193
255 214 193
255 214 193
255 214 193
255 214 193
255 214 193
255 214 193
255 214 193
255 214 193
255 214 193
255 214 193
255 214 193
255 214 193
255 214 193
255 214 193
255 214 193
255 214 193
255 214 193
255 214 193
255 214 193
255 214 193
255 214 193
255 214 193
255 214 193
255 214 193
255 214 193
255 214 193
255 214 193
255 214 193
255 214 193
255 214 193
255 214 193
255 214 193
255 214 193
255 214 193
255 214 193
255 214 193
255 214 193
255 214 193
255 226 205
255 214 193
255 214 193
255 214 193
255 214 193
255 214 193
255 214 193
255 214 193
255 214 193
255 214 193
255 214 193
255 214 193
255 214 193
255 214 193
255 214 193
255 214 193
255 214 193
255 214 193
255 214 193
255 214 193
255 214 193
255 214 193
255 214 193
255 214 193
255 214 193
255 214 193
255 214 193
255 214 193
255 214 193
255 214 193
255 214 193
255 214 193
255 214 193
255 214 193
255 214 193
255 214 193
255 214 193
255 226 205
255 214 193
255 214 193
255 214 193
255 214 193
255 214 193
255 214 193
255 214 193
255 214 193
255 214 193
255 214 193
255 214 193
255 214 193
255 214 193
255 214 193
255 214 193
255 214 193
255 214 193
255 214 193
255 214 193
255 214 193
255 214 193
255 214 193
255 214 193
255 214 193
255 214 193
255 214 193
255 214 193
255 214 193
255 214 193
255 214 193
255 214 193
255 214 193
255 214 193
255 214 193
255 214 193
255 214 193
255 226 205
255 214 193
255 214 193
255 214 193
255 214 193
255 214 193
255 214 193
255 214 193
255 214 193
255 214 193
255 214 193
255 214 193
255 214 193
255 214 193
255 214 193
255 214 193
255 214 193
255 214 193
255 214 193
255 214 193
255 214 193
255 214 193
255 214 193
255 214 193
255 214 193
255 214 193
255 214 193
255 214 193
255 214 193
255 214 193
255 214 193
255 214 193
255 214 193
255 214 193
255 214 193
255 214 193
255 214 193
255 226 205
255 214 193
255 214 193
255 214 193
255 214 193
255 214 193
255 214 193
255 214 193
255 214 193
255 214 193
255 214 193
255 214 193
255 214 193
255 214 193
255 214 193
255 214 193
255 214 193
255 214 193
255 214 193
255 214 193
255 214 193
255 214 193
255 214 193
255 214 193
255 214 193
255 214 193
255 214 193
255 214 193
255 214 193
255 214 193
255 214 193
255 214 193
255 214 193
255 214 193
255 214 193
255 214 193
255 214 193
255 226 205
255 214 193
255 214 193
255 214 193
255 214 193
255 214 193
255 214 193
255 214 193
255 214 193
255 214 193
255 214 193
255 214 193
255 214 193
255 214 193
255 214 193
255 214 193
255 214 193
255 214 193
255 214 193
255 214 193
255 214 193
255 214 193
255 214 193
255 214 193
255 214 193
255 214 193
255 214 193
255 214 193
255 214 193
255 214 193
255 214 193
255 214 193
255 214 193
255 214 193
255 214 193
255 214 193
255 214 193
255 226 205
255 214 193
255 214 193
255 214 193
255 214 193
255 214 193
255 214 193
255 214 193
255 214 193
255 214 193
255 214 193
255 214 193
255 214 193
255 214 193
255 214 193
255 214 193
255 214 193
255 214 193
255 214 193
255 214 193
255 214 193
255 214 193
255 214 193
255 214 193
255 214 193
255 214 193
255 214 193
255 214 193
255 214 193
255 214 193
255 214 193
255 214 193
255 214 193
255 214 193
255 214 193
255 214 193
255 214 193
255 226 205
255 214 193
255 214 193
255 214 193
255 214 193
255 214 193
255 214 193
255 214 193
255 214 193
255 214 193
255 214 193
255 214 193
255 214 193
255 214 193
255 214 193
255 214 193
255 214 193
255 214 193
255 214 193
255 214 193
255 214 193
255 214 193
255 214 193
255 214 193
255 214 193
255 214 193
255 214 193
255 214 193
255 214 193
255 214 193
255 214 193
255 214 193
255 214 193
255 214 193
255 214 193
255 214 193
255 214 193
255 226 205
255 214 193
255 214 193
255 214 193
255 214 193
255 214 193
255 214 193
255 214 193
255 214 193
255 214 193
255 214 193
255 214 193
255 214 193
255 214 193
255 214 193
255 214 193
255 214 193
255 214 193
255 214 193
255 214 193
255 214 193
255 214 193
255 214 193
255 214 193
255 214 193
255 214 193
255 214 193
255 214 193
255 214 193
255 214 193
255 214 193
255 214 193
255 214 193
255 214 193
255 214 193
255 214 193
255 214 193
255 214 193
255 214 193
255 214 193
255 214 193
255 214 193
255 214 193
255 214 193
255 214 193
255 214 193
255 214 193
255 214 193
255 214 193
255 214 193
255 214 193
255 214 193
255 214 193
255 214 193
255 214 193
255 214 193
255 214 193
255 214 193
255 214 193
255 214 193
255 226 205
255 214 193
255 214 193
255 214 193
255 214 193
255 214 193
255 214 193
255 214 193
255 214 193
255 214 193
255 214 193
255 214 193
255 214 193
255 214 193
255 214 193
255 214 193
255 214 193
255 214 193
255 214 193
255 214 193
255 214 193
255 214 193
255 214 193
255 214 193
255 214 193
255 214 193
255 214 193
255 214 193
255 214 193
255 214 193
255 214 193
255 214 193
255 214 193
255 214 193
255 214 193
255 214 193
255 214 193
255 226 205
255 214 193
255 214 193
255 214 193
255 214 193
255 214 193
255 214 193
255 214 193
255 214 193
255 214 193
255 214 193
255 214 193
255 214 193
255 214 193
255 214 193
255 214 193
255 214 193
255 214 193
255 214 193
255 214 193
255 214 193
255 214 193
255 214 193
255 214 193
255 214 193
255 214 193
255 214 193
255 214 193
255 214 193
255 214 193
255 214 193
255 214 193
255 214 193
255 214 193
255 214 193
255 214 193
255 214 193
255 226 205
255 214 193
255 214 193
255 214 193
255 214 193
255 214 193
255 214 193
255 214 193
255 214 193
255 214 193
255 214 193
255 214 193
255 214 193
255 214 193
255 214 193
255 214 193
255 214 193
255 214 193
255 214 193
255 214 193
255 214 193
255 214 193
255 214 193
255 214 193
255 214 193
255 214 193
255 214 193
255 214 193
255 214 193
255 214 193
255 214 193
255 214 193
255 214 193
255 214 193
255 214 193
255 214 193
255 214 193
255 226 205
255 214 193
255 214 193
255 214 193
255 214 193
255 214 193
255 214 193
255 214 193
255 214 193
255 214 193
255 214 193
255 214 193
255 214 193
255 214 193
255 214 193
255 214 193
255 214 193
255 214 193
255 214 193
255 214 193
255 214 193
255 214 193
255 214 193
255 214 193
255 214 193
255 214 193
255 214 193
255 214 193
255 214 193
255 214 193
255 214 193
255 214 193
255 214 193
255 214 193
255 214 193
255 214 193
255 214 193
255 226 205
255 214 193
255 214 193
255 214 193
255 214 193
255 214 193
255 214 193
255 214 193
255 214 193
255 214 193
255 214 193
255 214 193
255 214 193
255 214 193
255 214 193
255 214 193
255 214 193
255 214 193
255 214 193
255 214 193
255 214 193
255 214 193
255 214 193
255 214 193
255 214 193
255 214 193
255 214 193
255 214 193
255 214 193
255 214 193
255 214 193
255 214 193
255 214 193
255 214 193
255 214 193
255 214 193
255 214 193
255 226 205
255 214 193
255 214 193
255 214 193
255 214 193
255 214 193
255 214 193
255 214 193
255 214 193
255 214 193
255 214 193
255 214 193
255 214 193
255 214 193
255 214 193
255 214 193
255 214 193
255 214 193
255 214 193
255 214 193
255 214 193
255 214 193
255 214 193
255 214 193
255 214 193
255 214 193
255 214 193
255 214 193
255 214 193
255 214 193
255 214 193
255 214 193
255 214 193
255 214 193
255 214 193
255 214 193
255 214 193
255 226 205
255 214 193
255 214 193
255 214 193
255 214 193
255 214 193
255 214 193
255 214 193
255 214 193
255 214 193
255 214 193
255 214 193
255 214 193
255 214 193
255 214 193
255 214 193
255 214 193
255 214 193
255 214 193
255 214 193
255 214 193
255 214 193
255 214 193
255 214 193
255 214 193
255 214 193
255 214 193
255 214 193
255 214 193
255 214 193
255 214 193
255 214 193
255 214 193
255 214 193
255 214 193
255 214 193
255 214 193
255 226 205
255 214 193
255 214 193
255 214 193
255 214 193
255 214 193
255 214 193
255 214 193
255 214 193
255 214 193
255 214 193
255 214 193
255 214 193
255 214 193
255 214 193
255 214 193
255 214 193
255 214 193
255 214 193
255 214 193
255 214 193
255 214 193
255 214 193
255 214 193
255 214 193
255 214 193
255 214 193
255 214 193
255 214 193
255 214 193
255 214 193
255 214 193
255 214 193
255 214 193
255 214 193
255 214 193
255 214 193
255 214 193
255 214 193
255 214 193
255 214 193
255 214 193
255 214 193
255 214 193
255 214 193
255 214 193
255 214 193
255 214 193
255 214 193
255 214 193
255 214 193
255 214 193
255 214 193
255 214 193
255 214 193
255 214 193
255 214 193
255 214 193
255 214 193
255 214 193
255 226 205
255 214 193
255 214 193
255 214 193
255 214 193
255 214 193
255 214 193
255 214 193
255 214 193
255 214 193
255 214 193
255 214 193
255 214 193
255 214 193
255 214 193
255 214 193
255 214 193
255 214 193
255 214 193
255 214 193
255 214 193
255 214 193
255 214 193
255 214 193
255 214 193
255 214 193
255 214 193
255 214 193
255 214 193
255 214 193
255 214 193
255 214 193
255 214 193
255 214 193
255 214 193
255 214 193
255 214 193
255 226 205
255 214 193
255 214 193
255 214 193
255 214 193
255 214 193
255 214 193
255 214 193
255 214 193
255 214 193
255 214 193
255 214 193
255 214 193
255 214 193
255 214 193
255 214 193
255 214 193
255 214 193
255 214 193
255 214 193
255 214 193
255 214 193
255 214 193
255 214 193
255 214 193
255 214 193
255 214 193
255 214 193
255 214 193
255 214 193
255 214 193
255 214 193
255 214 193
255 214 193
255 214 193
255 214 193
255 214 193
255 226 205
255 214 193
255 214 193
255 214 193
255 214 193
255 214 193
255 214 193
255 214 193
255 214 193
255 214 193
255 214 193
255 214 193
255 214 193
255 214 193
255 214 193
255 214 193
255 214 193
255 214 193
255 214 193
255 214 193
255 214 193
255 214 193
255 214 193
255 214 193
255 214 193
255 214 193
255 214 193
255 214 193
255 214 193
255 214 193
255 214 193
255 214 193
255 214 193
255 214 193
255 214 193
255 214 193
255 214 193
255 226 205
255 214 193
255 214 193
255 214 193
255 214 193
255 214 193
255 214 193
255 214 193
255 214 193
255 214 193
255 214 193
255 214 193
255 214 193
255 214 193
255 214 193
255 214 193
255 214 193
255 214 193
255 214 193
255 214 193
255 214 193
255 214 193
255 214 193
255 214 193
255 214 193
255 214 193
255 214 193
255 214 193
255 214 193
255 214 193
255 214 193
255 214 193
255 214 193
255 214 193
255 214 193
255 214 193
255 214 193
255 226 205
255 214 193
255 214 193
255 214 193
255 214 193
255 214 193
255 214 193
255 214 193
255 214 193
255 214 193
255 214 193
255 214 193
255 214 193
255 214 193
255 214 193
255 214 193
255 214 193
255 214 193
255 214 193
255 214 193
255 214 193
255 214 193
255 214 193
255 214 193
255 214 193
255 214 193
255 214 193
255 214 193
255 214 193
255 214 193
255 214 193
255 214 193
255 214 193
255 214 193
255 214 193
255 214 193
255 214 193
255 226 205
255 214 193
255 214 193
255 214 193
255 214 193
255 214 193
255 214 193
255 214 193
255 214 193
255 214 193
255 214 193
255 214 193
255 214 193
255 214 193
255 214 193
255 214 193
255 214 193
255 214 193
255 214 193
255 214 193
255 214 193
255 214 193
255 214 193
255 214 193
255 214 193
255 214 193
255 214 193
255 214 193
255 214 193
255 214 193
255 214 193
255 214 193
255 214 193
255 214 193
255 214 193
255 214 193
255 214 193
255 226 205
255 214 193
255 214 193
255 214 193
255 214 193
255 214 193
255 214 193
255 214 193
255 214 193
255 214 193
255 214 193
255 214 193
255 214 193
255 214 193
255 214 193
255 214 193
255 214 193
255 214 193
255 214 193
255 214 193
255 214 193
255 214 193
255 214 193
255 214 193
255 214 193
255 214 193
255 214 193
255 214 193
255 214 193
255 214 193
255 214 193
255 214 193
255 214 193
255 214 193
255 214 193
255 214 193
255 214 193
255 226 205
255 214 193
255 214 193
255 214 193
255 214 193
255 214 193
255 214 193
255 214 193
255 214 193
255 214 193
255 214 193
255 214 193
255 214 193
255 214 193
255 214 193
255 214 193
255 214 193
255 214 193
255 214 193
255 214 193
255 214 193
255 214 193
255 214 193
255 214 193
255 214 193
255 214 193
255 214 193
255 214 193
255 214 193
255 214 193
255 214 193
255 214 193
255 214 193
255 214 193
255 214 193
255 214 193
255 214 193
255 214 193
255 214 193
255 214 193
255 214 193
255 214 193
255 214 193
255 214 193
255 214 193
255 214 193
255 214 193
255 214 193
255 214 193
255 214 193
255 214 193
255 214 193
255 214 193
255 214 193
255 214 193
255 214 193
255 214 193
255 214 193
255 214 193
255 214 193
255 226 205
255 214 193
255 214 193
255 214 193
255 214 193
255 214 193
255 214 193
255 214 193
255 214 193
255 214 193
255 214 193
255 214 193
255 214 193
255 214 193
255 214 193
255 214 193
255 214 193
255 214 193
255 214 193
255 214 193
255 214 193
255 214 193
255 214 193
255 214 193
255 214 193
255 214 193
255 214 193
255 214 193
255 214 193
255 214 193
255 214 193
255 214 193
255 214 193
255 214 193
255 214 193
255 214 193
255 214 193
255 226 205
255 214 193
255 214 193
255 214 193
255 214 193
255 214 193
255 214 193
255 214 193
255 214 193
255 214 193
255 214 193
255 214 193
255 214 193
255 214 193
255 214 193
255 214 193
255 214 193
255 214 193
255 214 193
255 214 193
255 214 193
255 214 193
255 214 193
255 214 193
255 214 193
255 214 193
255 214 193
255 214 193
255 214 193
255 214 193
255 214 193
255 214 193
255 214 193
255 214 193
255 214 193
255 214 193
255 214 193
255 226 205
255 214 193
255 214 193
255 214 193
255 214 193
255 214 193
255 214 193
255 214 193
255 214 193
255 214 193
255 214 193
255 214 193
255 214 193
255 214 193
255 214 193
255 214 193
255 214 193
255 214 193
255 214 193
255 214 193
255 214 193
255 214 193
255 214 193
255 214 193
255 214 193
255 214 193
255 214 193
255 214 193
255 214 193
255 214 193
255 214 193
255 214 193
255 214 193
255 214 193
255 214 193
255 214 193
255 214 193
255 226 205
255 214 193
255 214 193
255 214 193
255 214 193
255 214 193
255 214 193
255 214 193
255 214 193
255 214 193
255 214 193
255 214 193
255 214 193
255 214 193
255 214 193
255 214 193
255 214 193
255 214 193
255 214 193
255 214 193
255 214 193
255 214 193
255 214 193
255 214 193
255 214 193
255 214 193
255 214 193
255 214 193
255 214 193
255 214 193
255 214 193
255 214 193
255 214 193
255 214 193
255 214 193
255 214 193
255 214 193
255 226 205
255 214 193
255 214 193
255 214 193
255 214 193
255 214 193
255 214 193
255 214 193
255 214 193
255 214 193
255 214 193
255 214 193
255 214 193
255 214 193
255 214 193
255 214 193
255 214 193
255 214 193
255 214 193
255 214 193
255 214 193
255 214 193
255 214 193
255 214 193
255 214 193
255 214 193
255 214 193
255 214 193
255 214 193
255 214 193
255 214 193
255 214 193
255 214 193
255 214 193
255 214 193
255 214 193
255 214 193
255 226 205
255 214 193
255 214 193
255 214 193
255 214 193
255 214 193
255 214 193
255 214 193
255 214 193
255 214 193
255 214 193
255 214 193
255 214 193
255 214 193
255 214 193
255 214 193
255 214 193
255 214 193
255 214 193
255 214 193
255 214 193
255 214 193
255 214 193
255 214 193
255 214 193
255 214 193
255 214 193
255 214 193
255 214 193
255 214 193
255 214 193
255 214 193
255 214 193
255 214 193
255 214 193
255 214 193
255 214 193
255 226 205
255 214 193
255 214 193
255 214 193
255 214 193
255 214 193
255 214 193
255 214 193
255 214 193
255 214 193
255 214 193
255 214 193
255 214 193
255 214 193
255 214 193
255 214 193
255 214 193
255 214 193
255 214 193
255 214 193
255 214 193
255 214 193
255 214 193
255 214 193
255 214 193
255 214 193
255 214 193
255 214 193
255 214 193
255 214 193
255 214 193
255 214 193
255 214 193
255 214 193
255 214 193
255 214 193
255 214 193
255 226 205
255 214 193
255 214 193
255 214 193
255 214 193
255 214 193
255 214 193
255 214 193
255 214 193
255 214 193
255 214 193
255 214 193
255 214 193
255 214 193
255 214 193
255 214 193
255 214 193
255 214 193
255 214 193
255 214 193
255 214 193
255 214 193
255 214 193
255 214 193
255 214 193
255 214 193
255 214 193
255 214 193
255 214 193
255 214 193
255 214 193
255 214 193
255 214 193
255 214 193
255 214 193
255 214 193
255 214 193
255 214 193
255 214 193
255 214 193
255 214 193
255 214 193
255 214 193
255 214 193
255 214 193
255 214 193
255 214 193
255 214 193
255 214 193
255 214 193
255 214 193
255 214 193
255 214 193
255 214 193
255 214 193
255 214 193
255 214 193
255 214 193
255 214 193
255 214 193
255 226 205
255 214 193
255 214 193
255 214 193
255 214 193
255 214 193
255 214 193
255 214 193
255 214 193
255 214 193
255 214 193
255 214 193
255 214 193
255 214 193
255 214 193
255 214 193
255 214 193
255 214 193
255 214 193
255 214 193
255 214 193
255 214 193
255 214 193
255 214 193
255 214 193
255 214 193
255 214 193
255 214 193
255 214 193
255 214 193
255 214 193
255 214 193
255 214 193
255 214 193
255 214 193
255 214 193
255 214 193
255 226 205
255 214 193
255 214 193
255 214 193
255 214 193
255 214 193
255 214 193
255 214 193
255 214 193
255 214 193
255 214 193
255 214 193
255 214 193
255 214 193
255 214 193
255 214 193
255 214 193
255 214 193
255 214 193
255 214 193
255 214 193
255 214 193
255 214 193
255 214 193
255 214 193
255 214 193
255 214 193
255 214 193
255 214 193
255 214 193
255 214 193
255 214 193
255 214 193
255 214 193
255 214 193
255 214 193
255 214 193
255 226 205
255 214 193
255 214 193
255 214 193
255 214 193
255 214 193
255 214 193
255 214 193
255 214 193
255 214 193
255 214 193
255 214 193
255 214 193
255 214 193
255 214 193
255 214 193
255 214 193
255 214 193
255 214 193
255 214 193
255 214 193
255 214 193
255 214 193
255 214 193
255 214 193
255 214 193
255 214 193
255 214 193
255 214 193
255 214 193
255 214 193
255 214 193
255 214 193
255 214 193
255 214 193
255 214 193
255 214 193
255 226 205
255 214 193
255 214 193
255 214 193
255 214 193
255 214 193
255 214 193
255 214 193
255 214 193
255 214 193
255 214 193
255 214 193
255 214 193
255 214 193
255 214 193
255 214 193
255 214 193
255 214 193
255 214 193
255 214 193
255 214 193
255 214 193
255 214 193
255 214 193
255 214 193
255 214 193
255 214 193
255 214 193
255 214 193
255 214 193
255 214 193
255 214 193
255 214 193
255 214 193
255 214 193
255 214 193
255 214 193
255 226 205
255 214 193
255 214 193
255 214 193
255 214 193
255 214 193
255 214 193
255 214 193
255 214 193
255 214 193
255 214 193
255 214 193
255 214 193
255 214 193
255 214 193
255 214 193
255 214 193
255 214 193
255 214 193
255 214 193
255 214 193
255 214 193
255 214 193
255 214 193
255 214 193
255 214 193
255 214 193
255 214 193
255 214 193
255 214 193
255 214 193
255 214 193
255 214 193
255 214 193
255 214 193
255 214 193
255 214 193
255 226 205
255 214 193
255 214 193
255 214 193
255 214 193
255 214 193
255 214 193
255 214 193
255 214 193
255 214 193
255 214 193
255 214 193
255 214 193
255 214 193
255 214 193
255 214 193
255 214 193
255 214 193
255 214 193
255 214 193
255 214 193
255 214 193
255 214 193
255 214 193
255 214 193
255 214 193
255 214 193
255 214 193
255 214 193
255 214 193
255 214 193
255 214 193
255 214 193
255 214 193
255 214 193
255 214 193
255 214 193
255 226 205
255 214 193
255 214 193
255 214 193
255 214 193
255 214 193
255 214 193
255 214 193
255 214 193
255 214 193
255 214 193
255 214 193
255 214 193
255 214 193
255 214 193
255 214 193
255 214 193
255 214 193
255 214 193
255 214 193
255 214 193
255 214 193
255 214 193
255 214 193
255 214 193
255 214 193
255 214 193
255 214 193
255 214 193
255 214 193
255 214 193
255 214 193
255 214 193
255 214 193
255 214 193
255 214 193
255 214 193
255 226 205
255 214 193
255 214 193
255 214 193
255 214 193
255 214 193
255 214 193
255 214 193
255 214 193
255 214 193
255 214 193
255 214 193
255 214 193
255 214 193
255 214 193
255 214 193
255 214 193
255 214 193
255 214 193
255 214 193
255 214 193
255 214 193
255 214 193
255 214 193
255 214 193
255 214 193
255 214 193
255 214 193
255 214 193
255 214 193
255 214 193
255 214 193
255 214 193
255 214 193
255 214 193
255 214 193
255 214 193
255 214 193
255 214 193
255 214 193
255 214 193
255 214 193
255 214 193
255 214 193
255 214 193
255 214 193
255 214 193
255 214 193
255 214 193
255 214 193
255 214 193
255 214 193
255 214 193
255 214 193
255 214 193
255 214 193
255 214 193
255 214 193
255 214 193
255 214 193
255 226 205
255 214 193
255 214 193
255 214 193
255 214 193
255 214 193
255 214 193
255 214 193
255 214 193
255 214 193
255 214 193
255 214 193
255 214 193
255 214 193
255 214 193
255 214 193
255 214 193
255 214 193
255 214 193
255 214 193
255 214 193
255 214 193
255 214 193
255 214 193
255 214 193
255 214 193
255 214 193
255 214 193
255 214 193
255 214 193
255 214 193
255 214 193
255 214 193
255 214 193
255 214 193
255 214 193
255 214 193
255 226 205
255 214 193
255 214 193
255 214 193
255 214 193
255 214 193
255 214 193
255 214 193
255 214 193
255 214 193
255 214 193
255 214 193
255 214 193
255 214 193
255 214 193
255 214 193
255 214 193
255 214 193
255 214 193
255 214 193
255 214 193
255 214 193
255 214 193
255 214 193
255 214 193
255 214 193
255 214 193
255 214 193
255 214 193
255 214 193
255 214 193
255 214 193
255 214 193
255 214 193
255 214 193
255 214 193
255 214 193
255 226 205
255 214 193
255 214 193
255 214 193
255 214 193
255 214 193
255 214 193
255 214 193
255 214 193
255 214 193
255 214 193
255 214 193
255 214 193
255 214 193
255 214 193
255 214 193
255 214 193
255 214 193
255 214 193
255 214 193
255 214 193
255 214 193
255 214 193
255 214 193
255 214 193
255 214 193
255 214 193
255 214 193
255 214 193
255 214 193
255 214 193
255 214 193
255 214 193
255 214 193
255 214 193
255 214 193
255 214 193
255 226 205
255 214 193
255 214 193
255 214 193
255 214 193
255 214 193
255 214 193
255 214 193
255 214 193
255 214 193
255 214 193
255 214 193
255 214 193
255 214 193
255 214 193
255 214 193
255 214 193
255 214 193
255 214 193
255 214 193
255 214 193
255 214 193
255 214 193
255 214 193
255 214 193
255 214 193
255 214 193
255 214 193
255 214 193
255 214 193
255 214 193
255 214 193
255 214 193
255 214 193
255 214 193
255 214 193
255 214 193
255 226 205
255 214 193
255 214 193
255 214 193
255 214 193
255 214 193
255 214 193
255 214 193
255 214 193
255 214 193
255 214 193
255 214 193
255 214 193
255 214 193
255 214 193
255 214 193
255 214 193
255 214 193
255 214 193
255 214 193
255 214 193
255 214 193
255 214 193
255 214 193
255 214 193
255 214 193
255 214 193
255 214 193
255 214 193
255 214 193
255 214 193
255 214 193
255 214 193
255 214 193
255 214 193
255 214 193
255 214 193
255 226 205
255 214 193
255 214 193
255 214 193
255 214 193
255 214 193
255 214 193
255 214 193
255 214 193
255 214 193
255 214 193
255 214 193
255 214 193
255 214 193
255 214 193
255 214 193
255 214 193
255 214 193
255 214 193
255 214 193
255 214 193
255 214 193
255 214 193
255 214 193
255 214 193
255 214 193
255 214 193
255 214 193
255 214 193
255 214 193
255 214 193
255 214 193
255 214 193
255 214 193
255 214 193
255 214 193
255 214 193
255 226 205
255 214 193
255 214 193
255 214 193
255 214 193
255 214 193
255 214 193
255 214 193
255 214 193
255 214 193
255 214 193
255 214 193
255 214 193
255 214 193
255 214 193
255 214 193
255 214 193
255 214 193
255 214 193
255 214 193
255 214 193
255 214 193
255 214 193
255 214 193
255 214 193
255 214 193
255 214 193
255 214 193
255 214 193
255 214 193
255 214 193
255 214 193
255 214 193
255 214 193
255 214 193
255 214 193
255 214 193
255 226 205
255 214 193
255 214 193
255 214 193
255 214 193
255 214 193
255 214 193
255 214 193
255 214 193
255 214 193
255 214 193
255 214 193
255 214 193
255 214 193
255 214 193
255 214 193
255 214 193
255 214 193
255 214 193
255 214 193
255 214 193
255 214 193
255 214 193
255 214 193
255 214 193
255 214 193
255 214 193
255 214 193
255 214 193
255 214 193
255 214 193
255 214 193
255 214 193
255 214 193
255 214 193
255 214 193
255 214 193
255 214 193
255 214 193
255 214 193
255 214 193
255 214 193
255 214 193
255 214 193
255 214 193
255 214 193
255 214 193
255 214 193
255 214 193
255 214 193
255 214 193
255 214 193
255 214 193
255 214 193
255 214 193
255 214 193
255 214 193
255 214 193
255 214 193
255 214 193
255 226 205
255 214 193
255 214 193
255 214 193
255 214 193
255 214 193
255 214 193
255 214 193
255 214 193
255 214 193
255 214 193
255 214 193
255 214 193
255 214 193
255 214 193
255 214 193
255 214 193
255 214 193
255 214 193
255 214 193
255 214 193
255 214 193
255 214 193
255 214 193
255 214 193
255 214 193
255 214 193
255 214 193
255 214 193
255 214 193
255 214 193
255 214 193
255 214 193
255 214 193
255 214 193
255 214 193
255 214 193
255 226 205
255 214 193
255 214 193
255 214 193
255 214 193
255 214 193
255 214 193
255 214 193
255 214 193
255 214 193
255 214 193
255 214 193
255 214 193
255 214 193
255 214 193
255 214 193
255 214 193
255 214 193
255 214 193
255 214 193
255 214 193
255 214 193
255 214 193
255 214 193
255 214 193
255 214 193
255 214 193
255 214 193
255 214 193
255 214 193
255 214 193
255 214 193
255 214 193
255 214 193
255 214 193
255 214 193
255 214 193
255 226 205
255 214 193
255 214 193
255 214 193
255 214 193
255 214 193
255 214 193
255 214 193
255 214 193
255 214 193
255 214 193
255 214 193
255 214 193
255 214 193
255 214 193
255 214 193
255 214 193
255 214 193
255 214 193
255 214 193
255 214 193
255 214 193
255 214 193
255 214 193
255 214 193
255 214 193
255 214 193
255 214 193
255 214 193
255 214 193
255 214 193
255 214 193
255 214 193
255 214 193
255 214 193
255 214 193
255 214 193
255 226 205
255 214 193
255 214 193
255 214 193
255 214 193
255 214 193
255 214 193
255 214 193
255 214 193
255 214 193
255 214 193
255 214 193
255 214 193
255 214 193
255 214 193
255 214 193
255 214 193
255 214 193
255 214 193
255 214 193
255 214 193
255 214 193
255 214 193
255 214 193
255 214 193
255 214 193
255 214 193
255 214 193
255 214 193
255 214 193
255 214 193
255 214 193
255 214 193
255 214 193
255 214 193
255 214 193
255 214 193
255 226 205
255 214 193
255 214 193
255 214 193
255 214 193
255 214 193
255 214 193
255 214 193
255 214 193
255 214 193
255 214 193
255 214 193
255 214 193
255 214 193
255 214 193
255 214 193
255 214 193
255 214 193
255 214 193
255 214 193
255 214 193
255 214 193
255 214 193
255 214 193
255 214 193
255 214 193
255 214 193
255 214 193
255 214 193
255 214 193
255 214 193
255 214 193
255 214 193
255 214 193
255 214 193
255 214 193
255 214 193
255 226 205
255 214 193
255 214 193
255 214 193
255 214 193
255 214 193
255 214 193
255 214 193
255 214 193
255 214 193
255 214 193
255 214 193
255 214 193
255 214 193
255 214 193
255 214 193
255 214 193
255 214 193
255 214 193
255 214 193
255 214 193
255 214 193
255 214 193
255 214 193
255 214 193
255 214 193
255 214 193
255 214 193
255 214 193
255 214 193
255 214 193
255 214 193
255 214 193
255 214 193
255 214 193
255 214 193
255 214 193
255 226 205
255 214 193
255 214 193
255 214 193
255 214 193
255 214 193
255 214 193
255 214 193
255 214 193
255 214 193
255 214 193
255 214 193
255 214 193
255 214 193
255 214 193
255 214 193
255 214 193
255 214 193
255 214 193
255 214 193
255 214 193
255 214 193
255 214 193
255 214 193
255 214 193
255 214 193
255 214 193
255 214 193
255 214 193
255 214 193
255 214 193
255 214 193
255 214 193
255 214 193
255 214 193
255 214 193
255 214 193
255 226 205
255 214 193
255 214 193
255 214 193
255 214 193
255 214 193
255 214 193
255 214 193
255 214 193
255 214 193
255 214 193
255 214 193
255 214 193
255 214 193
255 214 193
255 214 193
255 214 193
255 214 193
255 214 193
255 214 193
255 214 193
255 214 193
255 214 193
255 214 193
255 214 193
255 214 193
255 214 193
255 214 193
255 214 193
255 214 193
255 214 193
255 214 193
255 214 193
255 214 193
255 214 193
255 214 193
255 214 193
255 214 193
255 214 193
255 214 193
255 214 193
255 214 193
255 214 193
255 214 193
255 214 193
255 214 193
255 214 193
255 214 193
255 214 193
255 214 193
255 214 193
255 214 193
255 214 193
255 214 193
255 214 193
255 214 193
255 214 193
255 214 193
255 214 193
255 214 193
255 226 205
255 214 193
255 214 193
255 214 193
255 214 193
255 214 193
255 214 193
255 214 193
255 214 193
255 214 193
255 214 193
255 214 193
255 214 193
255 214 193
255 214 193
255 214 193
255 214 193
255 214 193
255 214 193
255 214 193
255 214 193
255 214 193
255 214 193
255 214 193
255 214 193
255 214 193
255 214 193
255 214 193
255 214 193
255 214 193
255 214 193
255 214 193
255 214 193
255 214 193
255 214 193
255 214 193
255 214 193
255 226 205
255 214 193
255 214 193
255 214 193
255 214 193
255 214 193
255 214 193
255 214 193
255 214 193
255 214 193
255 214 193
255 214 193
255 214 193
255 214 193
255 214 193
255 214 193
255 214 193
255 214 193
255 214 193
255 214 193
255 214 193
255 214 193
255 214 193
255 214 193
255 214 193
255 214 193
255 214 193
255 214 193
255 214 193
255 214 193
255 214 193
255 214 193
255 214 193
255 214 193
255 214 193
255 214 193
255 214 193
255 226 205
255 214 193
255 214 193
255 214 193
255 214 193
255 214 193
255 214 193
255 214 193
255 214 193
255 214 193
255 214 193
255 214 193
255 214 193
255 214 193
255 214 193
255 214 193
255 214 193
255 214 193
255 214 193
255 214 193
255 214 193
255 214 193
255 214 193
255 214 193
255 214 193
255 214 193
255 214 193
255 214 193
255 214 193
255 214 193
255 214 193
255 214 193
255 214 193
255 214 193
255 214 193
255 214 193
255 214 193
255 226 205
255 214 193
255 214 193
255 214 193
255 214 193
255 214 193
255 214 193
255 214 193
255 214 193
255 214 193
255 214 193
255 214 193
255 214 193
255 214 193
255 214 193
255 214 193
255 214 193
255 214 193
255 214 193
255 214 193
255 214 193
255 214 193
255 214 193
255 214 193
255 214 193
255 214 193
255 214 193
255 214 193
255 214 193
255 214 193
255 214 193
255 214 193
255 214 193
255 214 193
255 214 193
255 214 193
255 214 193
255 226 205
255 214 193
255 214 193
255 214 193
255 214 193
255 214 193
255 214 193
255 214 193
255 214 193
255 214 193
255 214 193
255 214 193
255 214 193
255 214 193
255 214 193
255 214 193
255 214 193
255 214 193
255 214 193
255 214 193
255 214 193
255 214 193
255 214 193
255 214 193
255 214 193
255 214 193
255 214 193
255 214 193
255 214 193
255 214 193
255 214 193
255 214 193
255 214 193
255 214 193
255 214 193
255 214 193
255 214 193
255 226 205
255 214 193
255 214 193
255 214 193
255 214 193
255 214 193
255 214 193
255 214 193
255 214 193
255 214 193
255 214 193
255 214 193
255 214 193
255 214 193
255 214 193
255 214 193
255 214 193
255 214 193
255 214 193
255 214 193
255 214 193
255 214 193
255 214 193
255 214 193
255 214 193
255 214 193
255 214 193
255 214 193
255 214 193
255 214 193
255 214 193
255 214 193
255 214 193
255 214 193
255 214 193
255 214 193
255 214 193
255 226 205
255 214 193
255 214 193
255 214 193
255 214 193
255 214 193
255 214 193
255 214 193
255 214 193
255 214 193
255 214 193
255 214 193
255 214 193
255 214 193
255 214 193
255 214 193
255 214 193
255 214 193
255 214 193
255 214 193
255 214 193
255 214 193
255 214 193
255 214 193
255 214 193
255 214 193
255 214 193
255 214 193
255 214 193
255 214 193
255 214 193
255 214 193
255 214 193
255 214 193
255 214 193
255 214 193
255 214 193
255 226 205
255 214 193
255 214 193
255 214 193
255 214 193
255 214 193
255 214 193
255 214 193
255 214 193
255 214 193
255 214 193
255 214 193
255 214 193
255 214 193
255 214 193
255 214 193
255 214 193
255 214 193
255 214 193
255 214 193
255 214 193
255 214 193
255 214 193
255 214 193
255 214 193
255 214 193
255 214 193
255 214 193
255 214 193
255 214 193
255 214 193
255 214 193
255 214 193
255 214 193
255 214 193
255 214 193
255 214 193
255 214 193
255 214 193
255 214 193
255 214 193
255 214 193
255 214 193
255 214 193
255 214 193
255 214 193
255 214 193
255 214 193
255 214 193
255 214 193
255 214 193
255 214 193
255 214 193
255 214 193
255 214 193
255 214 193
255 214 193
255 214 193
255 214 193
255 214 193
255 226 205
255 214 193
255 214 193
255 214 193
255 214 193
255 214 193
255 214 193
255 214 193
255 214 193
255 214 193
255 214 193
255 214 193
255 214 193
255 214 193
255 214 193
255 214 193
255 214 193
255 214 193
255 214 193
255 214 193
255 214 193
255 214 193
255 214 193
255 214 193
255 214 193
255 214 193
255 214 193
255 214 193
255 214 193
255 214 193
255 214 193
255 214 193
255 214 193
255 214 193
255 214 193
255 214 193
255 214 193
255 226 205
255 214 193
255 214 193
255 214 193
255 214 193
255 214 193
255 214 193
255 214 193
255 214 193
255 214 193
255 214 193
255 214 193
255 214 193
255 214 193
255 214 193
255 214 193
255 214 193
255 214 193
255 214 193
255 214 193
255 214 193
255 214 193
255 214 193
255 214 193
255 214 193
255 214 193
255 214 193
255 214 193
255 214 193
255 214 193
255 214 193
255 214 193
255 214 193
255 214 193
255 214 193
255 214 193
255 214 193
255 226 205
255 214 193
255 214 193
255 214 193
255 214 193
255 214 193
255 214 193
255 214 193
255 214 193
255 214 193
255 214 193
255 214 193
255 214 193
255 214 193
255 214 193
255 214 193
255 214 193
255 214 193
255 214 193
255 214 193
255 214 193
255 214 193
255 214 193
255 214 193
255 214 193
255 214 193
255 214 193
255 214 193
255 214 193
255 214 193
255 214 193
255 214 193
255 214 193
255 214 193
255 214 193
255 214 193
255 214 193
255 226 205
255 214 193
255 214 193
255 214 193
255 214 193
255 214 193
255 214 193
255 214 193
255 214 193
255 214 193
255 214 193
255 214 193
255 214 193
255 214 193
255 214 193
255 214 193
255 214 193
255 214 193
255 214 193
255 214 193
255 214 193
255 214 193
255 214 193
255 214 193
255 214 193
255 214 193
255 214 193
255 214 193
255 214 193
255 214 193
255 214 193
255 214 193
255 214 193
255 214 193
255 214 193
255 214 193
255 214 193
255 226 205
255 214 193
255 214 193
255 214 193
255 214 193
255 214 193
255 214 193
255 214 193
255 214 193
255 214 193
255 214 193
255 214 193
255 214 193
255 214 193
255 214 193
255 214 193
255 214 193
255 214 193
255 214 193
255 214 193
255 214 193
255 214 193
255 214 193
255 214 193
255 214 193
255 214 193
255 214 193
255 214 193
255 214 193
255 214 193
255 214 193
255 214 193
255 214 193
255 214 193
255 214 193
255 214 193
255 214 193
255 226 205
255 214 193
255 214 193
255 214 193
255 214 193
255 214 193
255 214 193
255 214 193
255 214 193
255 214 193
255 214 193
255 214 193
255 214 193
255 214 193
255 214 193
255 214 193
255 214 193
255 214 193
255 214 193
255 214 193
255 214 193
255 214 193
255 214 193
255 214 193
255 214 193
255 214 193
255 214 193
255 214 193
255 214 193
255 214 193
255 214 193
255 214 193
255 214 193
255 214 193
255 214 193
255 214 193
255 214 193
255 226 205
255 214 193
255 214 193
255 214 193
255 214 193
255 214 193
255 214 193
255 214 193
255 214 193
255 214 193
255 214 193
255 214 193
255 214 193
255 214 193
255 214 193
255 214 193
255 214 193
255 214 193
255 214 193
255 214 193
255 214 193
255 214 193
255 214 193
255 214 193
255 214 193
255 214 193
255 214 193
255 214 193
255 214 193
255 214 193
255 214 193
255 214 193
255 214 193
255 214 193
255 214 193
255 214 193
255 214 193
255 226 205
255 214 193
255 214 193
255 214 193
255 214 193
255 214 193
255 214 193
255 214 193
255 214 193
255 214 193
255 214 193
255 214 193
255 214 193
255 214 193
255 214 193
255 214 193
255 214 193
255 214 193
255 214 193
255 214 193
255 214 193
255 214 193
255 214 193
255 214 193
255 214 193
255 214 193
255 214 193
255 214 193
255 214 193
255 214 193
255 214 193
255 214 193
255 214 193
255 214 193
255 214 193
255 214 193
255 214 193
255 214 193
255 214 193
255 214 193
255 214 193
255 214 193
255 214 193
255 214 193
255 214 193
255 214 193
255 214 193
255 214 193
255 214 193
255 214 193
255 214 193
255 214 193
255 214 193
255 214 193
255 214 193
255 214 193
255 214 193
255 214 193
255 214 193
255 214 193
255 226 205
255 214 193
255 214 193
255 214 193
255 214 193
255 214 193
255 214 193
255 214 193
255 214 193
255 214 193
255 214 193
255 214 193
255 214 193
255 214 193
255 214 193
255 214 193
255 214 193
255 214 193
255 214 193
255 214 193
255 214 193
255 214 193
255 214 193
255 214 193
255 214 193
255 214 193
255 214 193
255 214 193
255 214 193
255 214 193
255 214 193
255 214 193
255 214 193
255 214 193
255 214 193
255 214 193
255 214 193
255 226 205
255 214 193
255 214 193
255 214 193
255 214 193
255 214 193
255 214 193
255 214 193
255 214 193
255 214 193
255 214 193
255 214 193
255 214 193
255 214 193
255 214 193
255 214 193
255 214 193
255 214 193
255 214 193
255 214 193
255 214 193
255 214 193
255 214 193
255 214 193
255 214 193
255 214 193
255 214 193
255 214 193
255 214 193
255 214 193
255 214 193
255 214 193
255 214 193
255 214 193
255 214 193
255 214 193
255 214 193
255 226 205
255 214 193
255 214 193
255 214 193
255 214 193
255 214 193
255 214 193
255 214 193
255 214 193
255 214 193
255 214 193
255 214 193
255 214 193
255 214 193
255 214 193
255 214 193
255 214 193
255 214 193
255 214 193
255 214 193
255 214 193
255 214 193
255 214 193
255 214 193
255 214 193
255 214 193
255 214 193
255 214 193
255 214 193
255 214 193
255 214 193
255 214 193
255 214 193
255 214 193
255 214 193
255 214 193
255 214 193
255 226 205
255 214 193
255 214 193
255 214 193
255 214 193
255 214 193
255 214 193
255 214 193
255 214 193
255 214 193
255 214 193
255 214 193
255 214 193
255 214 193
255 214 193
255 214 193
255 214 193
255 214 193
255 214 193
255 214 193
255 214 193
255 214 193
255 214 193
255 214 193
255 214 193
255 214 193
255 214 193
255 214 193
255 214 193
255 214 193
255 214 193
255 214 193
255 214 193
255 214 193
255 214 193
255 214 193
255 214 193
255 226 205
255 214 193
255 214 193
255 214 193
255 214 193
255 214 193
255 214 193
255 214 193
255 214 193
255 214 193
255 214 193
255 214 193
255 214 193
255 214 193
255 214 193
255 214 193
255 214 193
255 214 193
255 214 193
255 214 193
255 214 193
255 214 193
255 214 193
255 214 193
255 214 193
255 214 193
255 214 193
255 214 193
255 214 193
255 214 193
255 214 193
255 214 193
255 214 193
255 214 193
255 214 193
255 214 193
255 214 193
255 226 205
255 214 193
255 214 193
255 214 193
255 214 193
255 214 193
255 214 193
255 214 193
255 214 193
255 214 193
255 214 193
255 214 193
255 214 193
255 214 193
255 214 193
255 214 193
255 214 193
255 214 193
255 214 193
255 214 193
255 214 193
255 214 193
255 214 193
255 214 193
255 214 193
255 214 193
255 214 193
255 214 193
255 214 193
255 214 193
255 214 193
255 214 193
255 214 193
255 214 193
255 214 193
255 214 193
255 214 193
255 226 205
255 214 193
255 214 193
255 214 193
255 214 193
255 214 193
255 214 193
255 214 193
255 214 193
255 214 193
255 214 193
255 214 193
255 214 193
255 214 193
255 214 193
255 214 193
255 214 193
255 214 193
255 214 193
255 214 193
255 214 193
255 214 193
255 214 193
255 214 193
255 214 193
255 214 193
255 214 193
255 214 193
255 214 193
255 214 193
255 214 193
255 214 193
255 214 193
255 214 193
255 214 193
255 214 193
255 214 193
255 226 205
255 214 193
255 214 193
255 214 193
255 214 193
255 214 193
255 214 193
255 214 193
255 214 193
255 214 193
255 214 193
255 214 193
255 214 193
255 214 193
255 214 193
255 214 193
255 214 193
255 214 193
255 214 193
255 214 193
255 214 193
255 214 193
255 214 193
255 214 193
255 214 193
255 214 193
255 214 193
255 214 193
255 214 193
255 214 193
255 214 193
255 214 193
255 214 193
255 214 193
255 214 193
255 214 193
255 214 193
255 214 193
255 214 193
255 214 193
255 214 193
255 214 193
255 214 193
255 214 193
255 214 193
255 214 193
255 214 193
255 214 193
255 214 193
255 214 193
255 214 193
255 214 193
255 214 193
255 214 193
255 214 193
255 214 193
255 214 193
255 214 193
255 214 193
255 214 193
255 226 205
255 214 193
255 214 193
255 214 193
255 214 193
255 214 193
255 214 193
255 214 193
255 214 193
255 214 193
255 214 193
255 214 193
255 214 193
255 214 193
255 214 193
255 214 193
255 214 193
255 214 193
255 214 193
255 214 193
255 214 193
255 214 193
255 214 193
255 214 193
255 214 193
255 214 193
255 214 193
255 214 193
255 214 193
255 214 193
255 214 193
255 214 193
255 214 193
255 214 193
255 214 193
255 214 193
255 214 193
255 226 205
255 214 193
255 214 193
255 214 193
255 214 193
255 214 193
255 214 193
255 214 193
255 214 193
255 214 193
255 214 193
255 214 193
255 214 193
255 214 193
255 214 193
255 214 193
255 214 193
255 214 193
255 214 193
255 214 193
255 214 193
255 214 193
255 214 193
255 214 193
255 214 193
255 214 193
255 214 193
255 214 193
255 214 193
255 214 193
255 214 193
255 214 193
255 214 193
255 214 193
255 214 193
255 214 193
255 214 193
255 226 205
255 214 193
255 214 193
255 214 193
255 214 193
255 214 193
255 214 193
255 214 193
255 214 193
255 214 193
255 214 193
255 214 193
255 214 193
255 214 193
255 214 193
255 214 193
255 214 193
255 214 193
255 214 193
255 214 193
255 214 193
255 214 193
255 214 193
255 214 193
255 214 193
255 214 193
255 214 193
255 214 193
255 214 193
255 214 193
255 214 193
255 214 193
255 214 193
255 214 193
255 214 193
255 214 193
255 214 193
255 226 205
255 214 193
255 214 193
255 214 193
255 214 193
255 214 193
255 214 193
255 214 193
255 214 193
255 214 193
255 214 193
255 214 193
255 214 193
255 214 193
255 214 193
255 214 193
255 214 193
255 214 193
255 214 193
255 214 193
255 214 193
255 214 193
255 214 193
255 214 193
255 214 193
255 214 193
255 214 193
255 214 193
255 214 193
255 214 193
255 214 193
255 214 193
255 214 193
255 214 193
255 214 193
255 214 193
255 214 193
255 226 205
255 214 193
255 214 193
255 214 193
255 214 193
255 214 193
255 214 193
255 214 193
255 214 193
255 214 193
255 214 193
255 214 193
255 214 193
255 214 193
255 214 193
255 214 193
255 214 193
255 214 193
255 214 193
255 214 193
255 214 193
255 214 193
255 214 193
255 214 193
255 214 193
255 214 193
255 214 193
255 214 193
255 214 193
255 214 193
255 214 193
255 214 193
255 214 193
255 214 193
255 214 193
255 214 193
255 214 193
255 226 205
255 214 193
255 214 193
255 214 193
255 214 193
255 214 193
255 214 193
255 214 193
255 214 193
255 214 193
255 214 193
255 214 193
255 214 193
255 214 193
255 214 193
255 214 193
255 214 193
255 214 193
255 214 193
255 214 193
255 214 193
255 214 193
255 214 193
255 214 193
255 214 193
255 214 193
255 214 193
255 214 193
255 214 193
255 214 193
255 214 193
255 214 193
255 214 193
255 214 193
255 214 193
255 214 193
255 214 193
255 226 205
255 214 193
255 214 193
255 214 193
255 214 193
255 214 193
255 214 193
255 214 193
255 214 193
255 214 193
255 214 193
255 214 193
255 214 193
255 214 193
255 214 193
255 214 193
255 214 193
255 214 193
255 214 193
255 214 193
255 214 193
255 214 193
255 214 193
255 214 193
255 214 193
255 214 193
255 214 193
255 214 193
255 214 193
255 214 193
255 214 193
255 214 193
255 214 193
255 214 193
255 214 193
255 214 193
255 214 193
255 226 205
255 214 193
255 214 193
255 214 193
255 214 193
255 214 193
255 214 193
255 214 193
255 214 193
255 214 193
255 214 193
255 214 193
255 214 193
255 214 193
255 214 193
255 214 193
255 214 193
255 214 193
255 214 193
255 214 193
255 214 193
255 214 193
255 214 193
255 214 193
255 214 193
255 214 193
255 214 193
255 214 193
255 214 193
255 214 193
255 214 193
255 214 193
255 214 193
255 214 193
255 214 193
255 214 193
255 214 193
255 214 193
255 214 193
255 214 193
255 214 193
255 214 193
255 214 193
255 214 193
255 214 193
255 214 193
255 214 193
255 214 193
255 214 193
255 214 193
255 214 193
255 214 193
255 214 193
255 214 193
255 214 193
255 214 193
255 214 193
255 214 193
255 214 193
255 214 193
255 226 205
255 214 193
255 214 193
255 214 193
255 214 193
255 214 193
255 214 193
255 214 193
255 214 193
255 214 193
255 214 193
255 214 193
255 214 193
255 214 193
255 214 193
255 214 193
255 214 193
255 214 193
255 214 193
255 214 193
255 214 193
255 214 193
255 214 193
255 214 193
255 214 193
255 214 193
255 214 193
255 214 193
255 214 193
255 214 193
255 214 193
255 214 193
255 214 193
255 214 193
255 214 193
255 214 193
255 214 193
255 226 205
255 214 193
255 214 193
255 214 193
255 214 193
255 214 193
255 214 193
255 214 193
255 214 193
255 214 193
255 214 193
255 214 193
255 214 193
255 214 193
255 214 193
255 214 193
255 214 193
255 214 193
255 214 193
255 214 193
255 214 193
255 214 193
255 214 193
255 214 193
255 214 193
255 214 193
255 214 193
255 214 193
255 214 193
255 214 193
255 214 193
255 214 193
255 214 193
255 214 193
255 214 193
255 214 193
255 214 193
255 226 205
255 214 193
255 214 193
255 214 193
255 214 193
255 214 193
255 214 193
255 214 193
255 214 193
255 214 193
255 214 193
255 214 193
255 214 193
255 214 193
255 214 193
255 214 193
255 214 193
255 214 193
255 214 193
255 214 193
255 214 193
255 214 193
255 214 193
255 214 193
255 214 193
255 214 193
255 214 193
255 214 193
255 214 193
255 214 193
255 214 193
255 214 193
255 214 193
255 214 193
255 214 193
255 214 193
255 214 193
255 226 205
255 214 193
255 214 193
255 214 193
255 214 193
255 214 193
255 214 193
255 214 193
255 214 193
255 214 193
255 214 193
255 214 193
255 214 193
255 214 193
255 214 193
255 214 193
255 214 193
255 214 193
255 214 193
255 214 193
255 214 193
255 214 193
255 214 193
255 214 193
255 214 193
255 214 193
255 214 193
255 214 193
255 214 193
255 214 193
255 214 193
255 214 193
255 214 193
255 214 193
255 214 193
255 214 193
255 214 193
255 226 205
255 214 193
255 214 193
255 214 193
255 214 193
255 214 193
255 214 193
255 214 193
255 214 193
255 214 193
255 214 193
255 214 193
255 214 193
255 214 193
255 214 193
255 214 193
255 214 193
255 214 193
255 214 193
255 214 193
255 214 193
255 214 193
255 214 193
255 214 193
255 214 193
255 214 193
255 214 193
255 214 193
255 214 193
255 214 193
255 214 193
255 214 193
255 214 193
255 214 193
255 214 193
255 214 193
255 214 193
255 226 205
255 214 193
255 214 193
255 214 193
255 214 193
255 214 193
255 214 193
255 214 193
255 214 193
255 214 193
255 214 193
255 214 193
255 214 193
255 214 193
255 214 193
255 214 193
255 214 193
255 214 193
255 214 193
255 214 193
255 214 193
255 214 193
255 214 193
255 214 193
255 214 193
255 214 193
255 214 193
255 214 193
255 214 193
255 214 193
255 214 193
255 214 193
255 214 193
255 214 193
255 214 193
255 214 193
255 214 193
255 226 205
255 214 193
255 214 193
255 214 193
255 214 193
255 214 193
255 214 193
255 214 193
255 214 193
255 214 193
255 214 193
255 214 193
255 214 193
255 214 193
255 214 193
255 214 193
255 214 193
255 214 193
255 214 193
255 214 193
255 214 193
255 214 193
255 214 193
255 214 193
255 214 193
255 214 193
255 214 193
255 214 193
255 214 193
255 214 193
255 214 193
255 214 193
255 214 193
255 214 193
255 214 193
255 214 193
255 214 193
255 226 205
255 214 193
255 214 193
255 214 193
255 214 193
255 214 193
255 214 193
255 214 193
255 214 193
255 214 193
255 214 193
255 214 193
255 214 193
255 214 193
255 214 193
255 214 193
255 214 193
255 214 193
255 214 193
255 214 193
255 214 193
255 214 193
255 214 193
255 214 193
255 214 193
255 214 193
255 214 193
255 214 193
255 214 193
255 214 193
255 214 193
255 214 193
255 214 193
255 214 193
255 214 193
255 214 193
255 214 193
255 226 205
255 214 193
255 214 193
255 214 193
255 214 193
255 214 193
255 214 193
255 214 193
255 214 193
255 214 193
255 214 193
255 214 193
255 214 193
255 214 193
255 214 193
255 214 193
255 214 193
255 214 193
255 214 193
255 214 193
255 214 193
255 214 193
255 214 193
255 226 205
255 214 193
255 214 193
255 214 193
255 214 193
255 214 193
255 214 193
255 214 193
255 214 193
255 214 193
255 214 193
255 214 193
255 214 193
255 214 193
255 214 193
255 214 193
255 214 193
255 214 193
255 214 193
255 214 193
255 214 193
255 214 193
255 214 193
255 214 193
255 214 193
255 214 193
255 214 193
255 214 193
255 214 193
255 214 193
255 214 193
255 214 193
255 214 193
255 214 193
255 214 193
255 214 193
255 214 193
255 226 205
255 214 193
255 214 193
255 214 193
255 214 193
255 214 193
255 214 193
255 214 193
255 214 193
255 214 193
255 214 193
255 214 193
255 214 193
255 214 193
255 214 193
255 214 193
255 214 193
255 214 193
255 214 193
255 214 193
255 214 193
255 214 193
255 214 193
255 214 193
255 214 193
255 214 193
255 214 193
255 214 193
255 214 193
255 214 193
255 214 193
255 214 193
255 214 193
255 214 193
255 214 193
255 214 193
255 214 193
255 226 205
255 214 193
255 214 193
255 214 193
255 214 193
255 214 193
255 214 193
255 214 193
255 214 193
255 214 193
255 214 193
255 214 193
255 214 193
255 214 193
255 214 193
255 214 193
255 214 193
255 214 193
255 214 193
255 214 193
255 214 193
255 214 193
255 214 193
255 214 193
255 214 193
255 214 193
255 214 193
255 214 193
255 214 193
255 214 193
255 214 193
255 214 193
255 214 193
255 214 193
255 214 193
255 214 193
255 214 193
255 226 205
255 214 193
255 214 193
255 214 193
255 214 193
255 214 193
255 214 193
255 214 193
255 214 193
255 214 193
255 214 193
255 214 193
255 214 193
255 214 193
255 214 193
255 214 193
255 214 193
255 214 193
255 214 193
255 214 193
255 214 193
255 214 193
255 214 193
255 214 193
255 214 193
255 214 193
255 214 193
255 214 193
255 214 193
255 214 193
255 214 193
255 214 193
255 214 193
255 214 193
255 214 193
255 214 193
255 214 193
255 226 205
255 214 193
255 214 193
255 214 193
255 214 193
255 214 193
255 214 193
255 214 193
255 214 193
255 214 193
255 214 193
255 214 193
255 214 193
255 214 193
255 214 193
255 214 193
255 214 193
255 214 193
255 214 193
255 214 193
255 214 193
255 214 193
255 214 193
255 214 193
255 214 193
255 214 193
255 214 193
255 214 193
255 214 193
255 214 193
255 214 193
255 214 193
255 214 193
255 214 193
255 214 193
255 214 193
255 214 193
255 226 205
255 214 193
255 214 193
255 214 193
255 214 193
255 214 193
255 214 193
255 214 193
255 214 193
255 214 193
255 214 193
255 214 193
255 214 193
255 214 193
255 214 193
255 214 193
255 214 193
255 214 193
255 214 193
255 214 193
255 214 193
255 214 193
255 214 193
255 214 193
255 214 193
255 214 193
255 214 193
255 214 193
255 214 193
255 214 193
255 214 193
255 214 193
255 214 193
255 214 193
255 214 193
255 214 193
255 214 193
255 226 205
255 214 193
255 214 193
255 214 193
255 214 193
255 214 193
255 214 193
255 214 193
255 214 193
255 214 193
255 214 193
255 214 193
255 214 193
255 214 193
255 214 193
255 214 193
255 214 193
255 214 193
255 214 193
255 214 193
255 214 193
255 214 193
255 214 193
255 214 193
255 214 193
255 214 193
255 214 193
255 214 193
255 214 193
255 214 193
255 214 193
255 214 193
255 214 193
255 214 193
255 214 193
255 214 193
255 214 193
255 226 205
255 214 193
255 214 193
255 214 193
255 214 193
255 214 193
255 214 193
255 214 193
255 214 193
255 214 193
255 214 193
255 214 193
255 214 193
255 214 193
255 214 193
255 214 193
255 214 193
255 214 193
255 214 193
255 214 193
255 214 193
255 214 193
255 214 193
255 214 193
255 214 193
255 214 193
255 214 193
255 214 193
255 214 193
255 214 193
255 214 193
255 214 193
255 214 193
255 214 193
255 214 193
255 214 193
255 214 193
255 226 205
255 214 193
255 214 193
255 214 193
255 214 193
255 214 193
255 214 193
255 214 193
255 214 193
255 214 193
255 214 193
255 214 193
255 214 193
255 214 193
255 214 193
255 214 193
255 214 193
255 214 193
255 214 193
255 214 193
255 214 193
255 214 193
255 214 193
255 226 205
255 214 193
255 214 193
255 214 193
255 214 193
255 214 193
255 214 193
255 214 193
255 214 193
255 214 193
255 214 193
255 214 193
255 214 193
255 214 193
255 214 193
255 214 193
255 214 193
255 214 193
255 214 193
255 214 193
255 214 193
255 214 193
255 214 193
255 214 193
255 214 193
255 214 193
255 214 193
255 214 193
255 214 193
255 214 193
255 214 193
255 214 193
255 214 193
255 214 193
255 214 193
255 214 193
255 214 193
255 226 205
255 214 193
255 214 193
255 214 193
255 214 193
255 214 193
255 214 193
255 214 193
255 214 193
255 214 193
255 214 193
255 214 193
255 214 193
255 214 193
255 214 193
255 214 193
255 214 193
255 214 193
255 214 193
255 214 193
255 214 193
255 214 193
255 214 193
255 214 193
255 214 193
255 214 193
255 214 193
255 214 193
255 214 193
255 214 193
255 214 193
255 214 193
255 214 193
255 214 193
255 214 193
255 214 193
255 214 193
255 226 205
255 214 193
255 214 193
255 214 193
255 214 193
255 214 193
255 214 193
255 214 193
255 214 193
255 214 193
255 214 193
255 214 193
255 214 193
255 214 193
255 214 193
255 214 193
255 214 193
255 214 193
255 214 193
255 214 193
255 214 193
255 214 193
255 214 193
255 214 193
255 214 193
255 214 193
255 214 193
255 214 193
255 214 193
255 214 193
255 214 193
255 214 193
255 214 193
255 214 193
255 214 193
255 214 193
255 214 193
255 226 205
255 214 193
255 214 193
255 214 193
255 214 193
255 214 193
255 214 193
255 214 193
255 214 193
255 214 193
255 214 193
255 214 193
255 214 193
255 214 193
255 214 193
255 214 193
255 214 193
255 214 193
255 214 193
255 214 193
255 214 193
255 214 193
255 214 193
255 214 193
255 214 193
255 214 193
255 214 193
255 214 193
255 214 193
255 214 193
255 214 193
255 214 193
255 214 193
255 214 193
255 214 193
255 214 193
255 214 193
255 226 205
255 214 193
255 214 193
255 214 193
255 214 193
255 214 193
255 214 193
255 214 193
255 214 193
255 214 193
255 214 193
255 214 193
255 214 193
255 214 193
255 214 193
255 214 193
255 214 193
255 214 193
255 214 193
255 214 193
255 214 193
255 214 193
255 214 193
255 214 193
255 214 193
255 214 193
255 214 193
255 214 193
255 214 193
255 214 193
255 214 193
255 214 193
255 214 193
255 214 193
255 214 193
255 214 193
255 214 193
255 226 205
255 214 193
255 214 193
255 214 193
255 214 193
255 214 193
255 214 193
255 214 193
255 214 193
255 214 193
255 214 193
255 214 193
255 214 193
255 214 193
255 214 193
255 214 193
255 214 193
255 214 193
255 214 193
255 214 193
255 214 193
255 214 193
255 214 193
255 214 193
255 214 193
255 214 193
255 214 193
255 214 193
255 214 193
255 214 193
255 214 193
255 214 193
255 214 193
255 214 193
255 214 193
255 214 193
255 214 193
255 226 205
255 214 193
255 214 193
255 214 193
255 214 193
255 214 193
255 214 193
255 214 193
255 214 193
255 214 193
255 214 193
255 214 193
255 214 193
255 214 193
255 214 193
255 214 193
255 214 193
255 214 193
255 214 193
255 214 193
255 214 193
255 214 193
255 214 193
255 214 193
255 214 193
255 214 193
255 214 193
255 214 193
255 214 193
255 214 193
255 214 193
255 214 193
255 214 193
255 214 193
255 214 193
255 214 193
255 214 193
255 226 205
255 214 193
255 214 193
255 214 193
255 214 193
255 214 193
255 214 193
255 214 193
255 214 193
255 214 193
255 214 193
255 214 193
255 214 193
255 214 193
255 214 193
255 214 193
255 214 193
255 214 193
255 214 193
255 214 193
255 214 193
255 214 193
255 214 193
255 214 193
255 214 193
255 214 193
255 214 193
255 214 193
255 214 193
255 214 193
255 214 193
255 214 193
255 214 193
255 214 193
255 214 193
255 214 193
255 214 193
255 226 205
255 214 193
255 214 193
255 214 193
255 214 193
255 214 193
255 214 193
255 214 193
255 214 193
255 214 193
255 214 193
255 214 193
255 214 193
255 214 193
255 214 193
255 214 193
255 214 193
255 214 193
255 214 193
255 214 193
255 214 193
255 214 193
255 214 193
255 226 205
255 214 193
255 214 193
255 214 193
255 214 193
255 214 193
255 214 193
255 214 193
255 214 193
255 214 193
255 214 193
255 214 193
255 214 193
255 214 193
255 214 193
255 214 193
255 214 193
255 214 193
255 214 193
255 214 193
255 214 193
255 214 193
255 214 193
255 214 193
255 214 193
255 214 193
255 214 193
255 214 193
255 214 193
255 214 193
255 214 193
255 214 193
255 214 193
255 214 193
255 214 193
255 214 193
255 214 193
255 226 205
255 214 193
255 214 193
255 214 193
255 214 193
255 214 193
255 214 193
255 214 193
255 214 193
255 214 193
255 214 193
255 214 193
255 214 193
255 214 193
255 214 193
255 214 193
255 214 193
255 214 193
255 214 193
255 214 193
255 214 193
255 214 193
255 214 193
255 214 193
255 214 193
255 214 193
255 214 193
255 214 193
255 214 193
255 214 193
255 214 193
255 214 193
255 214 193
255 214 193
255 214 193
255 214 193
255 214 193
255 226 205
255 214 193
255 214 193
255 214 193
255 214 193
255 214 193
255 214 193
255 214 193
255 214 193
255 214 193
255 214 193
255 214 193
255 214 193
255 214 193
255 214 193
255 214 193
255 214 193
255 214 193
255 214 193
255 214 193
255 214 193
255 214 193
255 214 193
255 214 193
255 214 193
255 214 193
255 214 193
255 214 193
255 214 193
255 214 193
255 214 193
255 214 193
255 214 193
255 214 193
255 214 193
255 214 193
255 214 193
255 226 205
255 214 193
255 214 193
255 214 193
255 214 193
255 214 193
255 214 193
255 214 193
255 214 193
255 214 193
255 214 193
255 214 193
255 214 193
255 214 193
255 214 193
255 214 193
255 214 193
255 214 193
255 214 193
255 214 193
255 214 193
255 214 193
255 214 193
255 214 193
255 214 193
255 214 193
255 214 193
255 214 193
255 214 193
255 214 193
255 214 193
255 214 193
255 214 193
255 214 193
255 214 193
255 214 193
255 214 193
255 226 205
255 214 193
255 214 193
255 214 193
255 214 193
255 214 193
255 214 193
255 214 193
255 214 193
255 214 193
255 214 193
255 214 193
255 214 193
255 214 193
255 214 193
255 214 193
255 214 193
255 214 193
255 214 193
255 214 193
255 214 193
255 214 193
255 214 193
255 214 193
255 214 193
255 214 193
255 214 193
255 214 193
255 214 193
255 214 193
255 214 193
255 214 193
255 214 193
255 214 193
255 214 193
255 214 193
255 214 193
255 226 205
255 214 193
255 214 193
255 214 193
255 214 193
255 214 193
255 214 193
255 214 193
255 214 193
255 214 193
255 214 193
255 214 193
255 214 193
255 214 193
255 214 193
255 214 193
255 214 193
255 214 193
255 214 193
255 214 193
255 214 193
255 214 193
255 214 193
255 214 193
255 214 193
255 214 193
255 214 193
255 214 193
255 214 193
255 214 193
255 214 193
255 214 193
255 214 193
255 214 193
255 214 193
255 214 193
255 214 193
255 226 205
255 214 193
255 214 193
255 214 193
255 214 193
255 214 193
255 214 193
255 214 193
255 214 193
255 214 193
255 214 193
255 214 193
255 214 193
255 214 193
255 214 193
255 214 193
255 214 193
255 214 193
255 214 193
255 214 193
255 214 193
255 214 193
255 214 193
255 214 193
255 214 193
255 214 193
255 214 193
255 214 193
255 214 193
255 214 193
255 214 193
255 214 193
255 214 193
255 214 193
255 214 193
255 214 193
255 214 193
255 226 205
255 214 193
255 214 193
255 214 193
255 214 193
255 214 193
255 214 193
255 214 193
255 214 193
255 214 193
255 214 193
255 214 193
255 214 193
255 214 193
255 214 193
255 214 193
255 214 193
255 214 193
255 214 193
255 214 193
255 214 193
255 214 193
255 214 193
255 214 193
255 214 193
255 214 193
255 214 193
255 214 193
255 214 193
255 214 193
255 214 193
255 214 193
255 214 193
255 214 193
255 214 193
255 214 193
255 214 193
255 226 205
255 214 193
255 214 193
255 214 193
255 214 193
255 214 193
255 214 193
255 214 193
255 214 193
255 214 193
255 214 193
255 214 193
255 214 193
255 214 193
255 214 193
255 214 193
255 214 193
255 214 193
255 214 193
255 214 193
255 214 193
255 214 193
255 214 193
255 226 205
255 214 193
255 214 193
255 214 193
255 214 193
255 214 193
255 214 193
255 214 193
255 214 193
255 214 193
255 214 193
255 214 193
255 214 193
255 214 193
255 214 193
255 214 193
255 214 193
255 214 193
255 214 193
255 214 193
255 214 193
255 214 193
255 214 193
255 214 193
255 214 193
255 214 193
255 214 193
255 214 193
255 214 193
255 214 193
255 214 193
255 214 193
255 214 193
255 214 193
255 214 193
255 214 193
255 214 193
255 226 205
255 214 193
255 214 193
255 214 193
255 214 193
255 214 193
255 214 193
255 214 193
255 214 193
255 214 193
255 214 193
255 214 193
255 214 193
255 214 193
255 214 193
255 214 193
255 214 193
255 214 193
255 214 193
255 214 193
255 214 193
255 214 193
255 214 193
255 214 193
255 214 193
255 214 193
255 214 193
255 214 193
255 214 193
255 214 193
255 214 193
255 214 193
255 214 193
255 214 193
255 214 193
255 214 193
255 214 193
255 226 205
255 214 193
255 214 193
255 214 193
255 214 193
255 214 193
255 214 193
255 214 193
255 214 193
255 214 193
255 214 193
255 214 193
255 214 193
255 214 193
255 214 193
255 214 193
255 214 193
255 214 193
255 214 193
255 214 193
255 214 193
255 214 193
255 214 193
255 214 193
255 214 193
255 214 193
255 214 193
255 214 193
255 214 193
255 214 193
255 214 193
255 214 193
255 214 193
255 214 193
255 214 193
255 214 193
255 214 193
255 226 205
255 214 193
255 214 193
255 214 193
255 214 193
255 214 193
255 214 193
255 214 193
255 214 193
255 214 193
255 214 193
255 214 193
255 214 193
255 214 193
255 214 193
255 214 193
255 214 193
255 214 193
255 214 193
255 214 193
255 214 193
255 214 193
255 214 193
255 214 193
255 214 193
255 214 193
255 214 193
255 214 193
255 214 193
255 214 193
255 214 193
255 214 193
255 214 193
255 214 193
255 214 193
255 214 193
255 214 193
255 226 205
255 214 193
255 214 193
255 214 193
255 214 193
255 214 193
255 214 193
255 214 193
255 214 193
255 214 193
255 214 193
255 214 193
255 214 193
255 214 193
255 214 193
255 214 193
255 214 193
255 214 193
255 214 193
255 214 193
255 214 193
255 214 193
255 214 193
255 214 193
255 214 193
255 214 193
255 214 193
255 214 193
255 214 193
255 214 193
255 214 193
255 214 193
255 214 193
255 214 193
255 214 193
255 214 193
255 214 193
255 226 205
255 214 193
255 214 193
255 214 193
255 214 193
255 214 193
255 214 193
255 214 193
255 214 193
255 214 193
255 214 193
255 214 193
255 214 193
255 214 193
255 214 193
255 214 193
255 214 193
255 214 193
255 214 193
255 214 193
255 214 193
255 214 193
255 214 193
255 214 193
255 214 193
255 214 193
255 214 193
255 214 193
255 214 193
255 214 193
255 214 193
255 214 193
255 214 193
255 214 193
255 214 193
255 214 193
255 214 193
255 226 205
255 214 193
255 214 193
255 214 193
255 214 193
255 214 193
255 214 193
255 214 193
255 214 193
255 214 193
255 214 193
255 214 193
255 214 193
255 214 193
255 214 193
255 214 193
255 214 193
255 214 193
255 214 193
255 214 193
255 214 193
255 214 193
255 214 193
255 214 193
255 214 193
255 214 193
255 214 193
255 214 193
255 214 193
255 214 193
255 214 193
255 214 193
255 214 193
255 214 193
255 214 193
255 214 193
255 214 193
255 226 205
255 214 193
255 214 193
255 214 193
255 214 193
255 214 193
255 214 193
255 214 193
255 214 193
255 214 193
255 214 193
255 214 193
255 214 193
255 214 193
255 214 193
255 214 193
255 214 193
255 214 193
255 214 193
255 214 193
255 214 193
255 214 193
255 214 193
255 214 193
255 214 193
255 214 193
255 214 193
255 214 193
255 214 193
255 214 193
255 214 193
255 214 193
255 214 193
255 214 193
255 214 193
255 214 193
255 214 193
255 226 205
255 214 193
255 214 193
255 214 193
255 214 193
255 214 193
255 214 193
255 214 193
255 214 193
255 214 193
255 214 193
255 214 193
255 214 193
255 214 193
255 214 193
255 214 193
255 214 193
255 214 193
255 214 193
255 214 193
255 214 193
255 214 193
255 214 193
255 226 205
255 214 193
255 214 193
255 214 193
255 214 193
255 214 193
255 214 193
255 214 193
255 214 193
255 214 193
255 214 193
255 214 193
255 214 193
255 214 193
255 214 193
255 214 193
255 214 193
255 214 193
255 214 193
255 214 193
255 214 193
255 214 193
255 214 193
255 214 193
255 214 193
255 214 193
255 214 193
255 214 193
255 214 193
255 214 193
255 214 193
255 214 193
255 214 193
255 214 193
255 214 193
255 214 193
255 214 193
255 226 205
255 214 193
255 214 193
255 214 193
255 214 193
255 214 193
255 214 193
255 214 193
255 214 193
255 214 193
255 214 193
255 214 193
255 214 193
255 214 193
255 214 193
255 214 193
255 214 193
255 214 193
255 214 193
255 214 193
255 214 193
255 214 193
255 214 193
255 214 193
255 214 193
255 214 193
255 214 193
255 214 193
255 214 193
255 214 193
255 214 193
255 214 193
255 214 193
255 214 193
255 214 193
255 214 193
255 214 193
255 226 205
255 214 193
255 214 193
255 214 193
255 214 193
255 214 193
255 214 193
255 214 193
255 214 193
255 214 193
255 214 193
255 214 193
255 214 193
255 214 193
255 214 193
255 214 193
255 214 193
255 214 193
255 214 193
255 214 193
255 214 193
255 214 193
255 214 193
255 214 193
255 214 193
255 214 193
255 214 193
255 214 193
255 214 193
255 214 193
255 214 193
255 214 193
255 214 193
255 214 193
255 214 193
255 214 193
255 214 193
255 226 205
255 214 193
255 214 193
255 214 193
255 214 193
255 214 193
255 214 193
255 214 193
255 214 193
255 214 193
255 214 193
255 214 193
255 214 193
255 214 193
255 214 193
255 214 193
255 214 193
255 214 193
255 214 193
255 214 193
255 214 193
255 214 193
255 214 193
255 214 193
255 214 193
255 214 193
255 214 193
255 214 193
255 214 193
255 214 193
255 214 193
255 214 193
255 214 193
255 214 193
255 214 193
255 214 193
255 214 193
255 226 205
255 214 193
255 214 193
255 214 193
255 214 193
255 214 193
255 214 193
255 214 193
255 214 193
255 214 193
255 214 193
255 214 193
255 214 193
255 214 193
255 214 193
255 214 193
255 214 193
255 214 193
255 214 193
255 214 193
255 214 193
255 214 193
255 214 193
255 214 193
255 214 193
255 214 193
255 214 193
255 214 193
255 214 193
255 214 193
255 214 193
255 214 193
255 214 193
255 214 193
255 214 193
255 214 193
255 214 193
255 226 205
255 214 193
255 214 193
255 214 193
255 214 193
255 214 193
255 214 193
255 214 193
255 214 193
255 214 193
255 214 193
255 214 193
255 214 193
255 214 193
255 214 193
255 214 193
255 214 193
255 214 193
255 214 193
255 214 193
255 214 193
255 214 193
255 214 193
255 214 193
255 214 193
255 214 193
255 214 193
255 214 193
255 214 193
255 214 193
255 214 193
255 214 193
255 214 193
255 214 193
255 214 193
255 214 193
255 214 193
255 226 205
255 214 193
255 214 193
255 214 193
255 214 193
255 214 193
255 214 193
255 214 193
255 214 193
255 214 193
255 214 193
255 214 193
255 214 193
255 214 193
255 214 193
255 214 193
255 214 193
255 214 193
255 214 193
255 214 193
255 214 193
255 214 193
255 214 193
255 214 193
255 214 193
255 214 193
255 214 193
255 214 193
255 214 193
255 214 193
255 214 193
255 214 193
255 214 193
255 214 193
255 214 193
255 214 193
255 214 193
255 226 205
255 214 193
255 214 193
255 214 193
255 214 193
255 214 193
255 214 193
255 214 193
255 214 193
255 214 193
255 214 193
255 214 193
255 214 193
255 214 193
255 214 193
255 214 193
255 214 193
255 214 193
255 214 193
255 214 193
255 214 193
255 214 193
255 214 193
255 214 193
255 214 193
255 214 193
255 214 193
255 214 193
255 214 193
255 214 193
255 214 193
255 214 193
255 214 193
255 214 193
255 214 193
255 214 193
255 214 193
255 226 205
255 214 193
255 214 193
255 214 193
255 214 193
255 214 193
255 214 193
255 214 193
255 214 193
255 214 193
255 214 193
255 214 193
255 214 193
255 214 193
255 214 193
255 214 193
255 214 193
255 214 193
255 214 193
255 214 193
255 214 193
255 214 193
255 214 193
255 226 205
255 214 193
255 214 193
255 214 193
255 214 193
255 214 193
255 214 193
255 214 193
255 214 193
255 214 193
255 214 193
255 214 193
255 214 193
255 214 193
255 214 193
255 214 193
255 214 193
255 214 193
255 214 193
255 214 193
255 214 193
255 214 193
255 214 193
255 214 193
255 214 193
255 214 193
255 214 193
255 214 193
255 214 193
255 214 193
255 214 193
255 214 193
255 214 193
255 214 193
255 214 193
255 214 193
255 214 193
255 226 205
255 214 193
255 214 193
255 214 193
255 214 193
255 214 193
255 214 193
255 214 193
255 214 193
255 214 193
255 214 193
255 214 193
255 214 193
255 214 193
255 214 193
255 214 193
255 214 193
255 214 193
255 214 193
255 214 193
255 214 193
255 214 193
255 214 193
255 214 193
255 214 193
255 214 193
255 214 193
255 214 193
255 214 193
255 214 193
255 214 193
255 214 193
255 214 193
255 214 193
255 214 193
255 214 193
255 214 193
255 226 205
255 214 193
255 214 193
255 214 193
255 214 193
255 214 193
255 214 193
255 214 193
255 214 193
255 214 193
255 214 193
255 214 193
255 214 193
255 214 193
255 214 193
255 214 193
255 214 193
255 214 193
255 214 193
255 214 193
255 214 193
255 214 193
255 214 193
255 214 193
255 214 193
255 214 193
255 214 193
255 214 193
255 214 193
255 214 193
255 214 193
255 214 193
255 214 193
255 214 193
255 214 193
255 214 193
255 214 193
255 226 205
255 214 193
255 214 193
255 214 193
255 214 193
255 214 193
255 214 193
255 214 193
255 214 193
255 214 193
255 214 193
255 214 193
255 214 193
255 214 193
255 214 193
255 214 193
255 214 193
255 214 193
255 214 193
255 214 193
255 214 193
255 214 193
255 214 193
255 214 193
255 214 193
255 214 193
255 214 193
255 214 193
255 214 193
255 214 193
255 214 193
255 214 193
255 214 193
255 214 193
255 214 193
255 214 193
255 214 193
255 226 205
255 214 193
255 214 193
255 214 193
255 214 193
255 214 193
255 214 193
255 214 193
255 214 193
255 214 193
255 214 193
255 214 193
255 214 193
255 214 193
255 214 193
255 214 193
255 214 193
255 214 193
255 214 193
255 214 193
255 214 193
255 214 193
255 214 193
255 214 193
255 214 193
255 214 193
255 214 193
255 214 193
255 214 193
255 214 193
255 214 193
255 214 193
255 214 193
255 214 193
255 214 193
255 214 193
255 214 193
255 226 205
255 214 193
255 214 193
255 214 193
255 214 193
255 214 193
255 214 193
255 214 193
255 214 193
255 214 193
255 214 193
255 214 193
255 214 193
255 214 193
255 214 193
255 214 193
255 214 193
255 214 193
255 214 193
255 214 193
255 214 193
255 214 193
255 214 193
255 214 193
255 214 193
255 214 193
255 214 193
255 214 193
255 214 193
255 214 193
255 214 193
255 214 193
255 214 193
255 214 193
255 214 193
255 214 193
255 214 193
255 226 205
255 214 193
255 214 193
255 214 193
255 214 193
255 214 193
255 214 193
255 214 193
255 214 193
255 214 193
255 214 193
255 214 193
255 214 193
255 214 193
255 214 193
255 214 193
255 214 193
255 214 193
255 214 193
255 214 193
255 214 193
255 214 193
255 214 193
255 214 193
255 214 193
255 214 193
255 214 193
255 214 193
255 214 193
255 214 193
255 214 193
255 214 193
255 214 193
255 214 193
255 214 193
255 214 193
255 214 193
255 226 205
255 214 193
255 214 193
255 214 193
255 214 193
255 214 193
255 214 193
255 214 193
255 214 193
255 214 193
255 214 193
255 214 193
255 214 193
255 214 193
255 214 193
255 214 193
255 214 193
255 214 193
255 214 193
255 214 193
255 214 193
255 214 193
255 214 193
255 214 193
255 214 193
255 214 193
255 214 193
255 214 193
255 214 193
255 214 193
255 214 193
255 214 193
255 214 193
255 214 193
255 214 193
255 214 193
255 214 193
255 226 205
255 214 193
255 214 193
255 214 193
255 214 193
255 214 193
255 214 193
255 214 193
255 214 193
255 214 193
255 214 193
255 214 193
255 214 193
255 214 193
255 214 193
255 214 193
255 214 193
255 214 193
255 214 193
255 214 193
255 214 193
255 214 193
255 214 193
255 226 205
255 214 193
255 214 193
255 214 193
255 214 193
255 214 193
255 214 193
255 214 193
255 214 193
255 214 193
255 214 193
255 214 193
255 214 193
255 214 193
255 214 193
255 214 193
255 214 193
255 214 193
255 214 193
255 214 193
255 214 193
255 214 193
255 214 193
255 214 193
255 214 193
255 214 193
255 214 193
255 214 193
255 214 193
255 214 193
255 214 193
255 214 193
255 214 193
255 214 193
255 214 193
255 214 193
255 214 193
255 226 205
255 214 193
255 214 193
255 214 193
255 214 193
255 214 193
255 214 193
255 214 193
255 214 193
255 214 193
255 214 193
255 214 193
255 214 193
255 214 193
255 214 193
255 214 193
255 214 193
255 214 193
255 214 193
255 214 193
255 214 193
255 214 193
255 214 193
255 214 193
255 214 193
255 214 193
255 214 193
255 214 193
255 214 193
255 214 193
255 214 193
255 214 193
255 214 193
255 214 193
255 214 193
255 214 193
255 214 193
255 226 205
255 214 193
255 214 193
255 214 193
255 214 193
255 214 193
255 214 193
255 214 193
255 214 193
255 214 193
255 214 193
255 214 193
255 214 193
255 214 193
255 214 193
255 214 193
255 214 193
255 214 193
255 214 193
255 214 193
255 214 193
255 214 193
255 214 193
255 214 193
255 214 193
255 214 193
255 214 193
255 214 193
255 214 193
255 214 193
255 214 193
255 214 193
255 214 193
255 214 193
255 214 193
255 214 193
255 214 193
255 226 205
255 214 193
255 214 193
255 214 193
255 214 193
255 214 193
255 214 193
255 214 193
255 214 193
255 214 193
255 214 193
255 214 193
255 214 193
255 214 193
255 214 193
255 214 193
255 214 193
255 214 193
255 214 193
255 214 193
255 214 193
255 214 193
255 214 193
255 214 193
255 214 193
255 214 193
255 214 193
255 214 193
255 214 193
255 214 193
255 214 193
255 214 193
255 214 193
255 214 193
255 214 193
255 214 193
255 214 193
255 226 205
255 214 193
255 214 193
255 214 193
255 214 193
255 214 193
255 214 193
255 214 193
255 214 193
255 214 193
255 214 193
255 214 193
255 214 193
255 214 193
255 214 193
255 214 193
255 214 193
255 214 193
255 214 193
255 214 193
255 214 193
255 214 193
255 214 193
255 214 193
255 214 193
255 214 193
255 214 193
255 214 193
255 214 193
255 214 193
255 214 193
255 214 193
255 214 193
255 214 193
255 214 193
255 214 193
255 214 193
255 226 205
255 214 193
255 214 193
255 214 193
255 214 193
255 214 193
255 214 193
255 214 193
255 214 193
255 214 193
255 214 193
255 214 193
255 214 193
255 214 193
255 214 193
255 214 193
255 214 193
255 214 193
255 214 193
255 214 193
255 214 193
255 214 193
255 214 193
255 214 193
255 214 193
255 214 193
255 214 193
255 214 193
255 214 193
255 214 193
255 214 193
255 214 193
255 214 193
255 214 193
255 214 193
255 214 193
255 214 193
255 226 205
255 214 193
255 214 193
255 214 193
255 214 193
255 214 193
255 214 193
255 214 193
255 214 193
255 214 193
255 214 193
255 214 193
255 214 193
255 214 193
255 214 193
255 214 193
255 214 193
255 214 193
255 214 193
255 214 193
255 214 193
255 214 193
255 214 193
255 214 193
255 214 193
255 214 193
255 214 193
255 214 193
255 214 193
255 214 193
255 214 193
255 214 193
255 214 193
255 214 193
255 214 193
255 214 193
255 214 193
255 226 205
255 214 193
255 214 193
255 214 193
255 214 193
255 214 193
255 214 193
255 214 193
255 214 193
255 214 193
255 214 193
255 214 193
255 214 193
255 214 193
255 214 193
255 214 193
255 214 193
255 214 193
255 214 193
255 214 193
255 214 193
255 214 193
255 214 193
255 214 193
255 214 193
255 214 193
255 214 193
255 214 193
255 214 193
255 214 193
255 214 193
255 214 193
255 214 193
255 214 193
255 214 193
255 214 193
255 214 193
255 226 205
255 214 193
255 214 193
255 214 193
255 214 193
255 214 193
255 214 193
255 214 193
255 214 193
255 214 193
255 214 193
255 214 193
255 214 193
255 214 193
255 214 193
255 214 193
255 214 193
255 214 193
255 214 193
255 214 193
255 214 193
255 214 193
255 214 193
255 226 205
255 214 193
255 214 193
255 214 193
255 214 193
255 214 193
255 214 193
255 214 193
255 214 193
255 214 193
255 214 193
255 214 193
255 214 193
255 214 193
255 214 193
255 214 193
255 214 193
255 214 193
255 214 193
255 214 193
255 214 193
255 214 193
255 214 193
255 214 193
255 214 193
255 214 193
255 214 193
255 214 193
255 214 193
255 214 193
255 214 193
255 214 193
255 214 193
255 214 193
255 214 193
255 214 193
255 214 193
255 226 205
255 214 193
255 214 193
255 214 193
255 214 193
255 214 193
255 214 193
255 214 193
255 214 193
255 214 193
255 214 193
255 214 193
255 214 193
255 214 193
255 214 193
255 214 193
255 214 193
255 214 193
255 214 193
255 214 193
255 214 193
255 214 193
255 214 193
255 214 193
255 214 193
255 214 193
255 214 193
255 214 193
255 214 193
255 214 193
255 214 193
255 214 193
255 214 193
255 214 193
255 214 193
255 214 193
255 214 193
255 226 205
255 214 193
255 214 193
255 214 193
255 214 193
255 214 193
255 214 193
255 214 193
255 214 193
255 214 193
255 214 193
255 214 193
255 214 193
255 214 193
255 214 193
255 214 193
255 214 193
255 214 193
255 214 193
255 214 193
255 214 193
255 214 193
255 214 193
255 214 193
255 214 193
255 214 193
255 214 193
255 214 193
255 214 193
255 214 193
255 214 193
255 214 193
255 214 193
255 214 193
255 214 193
255 214 193
255 214 193
255 226 205
255 214 193
255 214 193
255 214 193
255 214 193
255 214 193
255 214 193
255 214 193
255 214 193
255 214 193
255 214 193
255 214 193
255 214 193
255 214 193
255 214 193
255 214 193
255 214 193
255 214 193
255 214 193
255 214 193
255 214 193
255 214 193
255 214 193
255 214 193
255 214 193
255 214 193
255 214 193
255 214 193
255 214 193
255 214 193
255 214 193
255 214 193
255 214 193
255 214 193
255 214 193
255 214 193
255 214 193
255 226 205
255 214 193
255 214 193
255 214 193
255 214 193
255 214 193
255 214 193
255 214 193
255 214 193
255 214 193
255 214 193
255 214 193
255 214 193
255 214 193
255 214 193
255 214 193
255 214 193
255 214 193
255 214 193
255 214 193
255 214 193
255 214 193
255 214 193
255 214 193
255 214 193
255 214 193
255 214 193
255 214 193
255 214 193
255 214 193
255 214 193
255 214 193
255 214 193
255 214 193
255 214 193
255 214 193
255 214 193
255 226 205
255 214 193
255 214 193
255 214 193
255 214 193
255 214 193
255 214 193
255 214 193
255 214 193
255 214 193
255 214 193
255 214 193
255 214 193
255 214 193
255 214 193
255 214 193
255 214 193
255 214 193
255 214 193
255 214 193
255 214 193
255 214 193
255 214 193
255 214 193
255 214 193
255 214 193
255 214 193
255 214 193
255 214 193
255 214 193
255 214 193
255 214 193
255 214 193
255 214 193
255 214 193
255 214 193
255 214 193
255 226 205
255 214 193
255 214 193
255 214 193
255 214 193
255 214 193
255 214 193
255 214 193
255 214 193
255 214 193
255 214 193
255 214 193
255 214 193
255 214 193
255 214 193
255 214 193
255 214 193
255 214 193
255 214 193
255 214 193
255 214 193
255 214 193
255 214 193
255 214 193
255 214 193
255 214 193
255 214 193
255 214 193
255 214 193
255 214 193
255 214 193
255 214 193
255 214 193
255 214 193
255 214 193
255 214 193
255 214 193
255 226 205
255 214 193
255 214 193
255 214 193
255 214 193
255 214 193
255 214 193
255 214 193
255 214 193
255 214 193
255 214 193
255 214 193
255 214 193
255 214 193
255 214 193
255 214 193
255 214 193
255 214 193
255 214 193
255 214 193
255 214 193
255 214 193
255 214 193
255 214 193
255 214 193
255 214 193
255 214 193
255 214 193
255 214 193
255 214 193
255 214 193
255 214 193
255 214 193
255 214 193
255 214 193
255 214 193
255 214 193
255 226 205
255 214 193
255 214 193
255 214 193
255 214 193
255 214 193
255 214 193
255 214 193
255 214 193
255 214 193
255 214 193
255 214 193
255 214 193
255 214 193
255 214 193
255 214 193
255 214 193
255 214 193
255 214 193
255 214 193
255 214 193
255 214 193
255 214 193
255 226 205
255 214 193
255 214 193
255 214 193
255 214 193
255 214 193
255 214 193
255 214 193
255 214 193
255 214 193
255 214 193
255 214 193
255 214 193
255 214 193
255 214 193
255 214 193
255 214 193
255 214 193
255 214 193
255 214 193
255 214 193
255 214 193
255 214 193
255 214 193
255 214 193
255 214 193
255 214 193
255 214 193
255 214 193
255 214 193
255 214 193
255 214 193
255 214 193
255 214 193
255 214 193
255 214 193
255 214 193
255 226 205
255 214 193
255 214 193
255 214 193
255 214 193
255 214 193
255 214 193
255 214 193
255 214 193
255 214 193
255 214 193
255 214 193
255 214 193
255 214 193
255 214 193
255 214 193
255 214 193
255 214 193
255 214 193
255 214 193
255 214 193
255 214 193
255 214 193
255 214 193
255 214 193
255 214 193
255 214 193
255 214 193
255 214 193
255 214 193
255 214 193
255 214 193
255 214 193
255 214 193
255 214 193
255 214 193
255 214 193
255 226 205
255 214 193
255 214 193
255 214 193
255 214 193
255 214 193
255 214 193
255 214 193
255 214 193
255 214 193
255 214 193
255 214 193
255 214 193
255 214 193
255 214 193
255 214 193
255 214 193
255 214 193
255 214 193
255 214 193
255 214 193
255 214 193
255 214 193
255 214 193
255 214 193
255 214 193
255 214 193
255 214 193
255 214 193
255 214 193
255 214 193
255 214 193
255 214 193
255 214 193
255 214 193
255 214 193
255 214 193
255 226 205
255 214 193
255 214 193
255 214 193
255 214 193
255 214 193
255 214 193
255 214 193
255 214 193
255 214 193
255 214 193
255 214 193
255 214 193
255 214 193
255 214 193
255 214 193
255 214 193
255 214 193
255 214 193
255 214 193
255 214 193
255 214 193
255 214 193
255 214 193
255 214 193
255 214 193
255 214 193
255 214 193
255 214 193
255 214 193
255 214 193
255 214 193
255 214 193
255 214 193
255 214 193
255 214 193
255 214 193
255 226 205
255 214 193
255 214 193
255 214 193
255 214 193
255 214 193
255 214 193
255 214 193
255 214 193
255 214 193
255 214 193
255 214 193
255 214 193
255 214 193
255 214 193
255 214 193
255 214 193
255 214 193
255 214 193
255 214 193
255 214 193
255 214 193
255 214 193
255 214 193
255 214 193
255 214 193
255 214 193
255 214 193
255 214 193
255 214 193
255 214 193
255 214 193
255 214 193
255 214 193
255 214 193
255 214 193
255 214 193
255 226 205
255 214 193
255 214 193
255 214 193
255 214 193
255 214 193
255 214 193
255 214 193
255 214 193
255 214 193
255 214 193
255 214 193
255 214 193
255 214 193
255 214 193
255 214 193
255 214 193
255 214 193
255 214 193
255 214 193
255 214 193
255 214 193
255 214 193
255 214 193
255 214 193
255 214 193
255 214 193
255 214 193
255 214 193
255 214 193
255 214 193
255 214 193
255 214 193
255 214 193
255 214 193
255 214 193
255 214 193
255 226 205
255 214 193
255 214 193
255 214 193
255 214 193
255 214 193
255 214 193
255 214 193
255 214 193
255 214 193
255 214 193
255 214 193
255 214 193
255 214 193
255 214 193
255 214 193
255 214 193
255 214 193
255 214 193
255 214 193
255 214 193
255 214 193
255 214 193
255 214 193
255 214 193
255 214 193
255 214 193
255 214 193
255 214 193
255 214 193
255 214 193
255 214 193
255 214 193
255 214 193
255 214 193
255 214 193
255 214 193
255 226 205
255 214 193
255 214 193
255 214 193
255 214 193
255 214 193
255 214 193
255 214 193
255 214 193
255 214 193
255 214 193
255 214 193
255 214 193
255 214 193
255 214 193
255 214 193
255 214 193
255 214 193
255 214 193
255 214 193
255 214 193
255 214 193
255 214 193
255 214 193
255 214 193
255 214 193
255 214 193
255 214 193
255 214 193
255 214 193
255 214 193
255 214 193
255 214 193
255 214 193
255 214 193
255 214 193
255 214 193
255 226 205
255 214 193
255 214 193
255 214 193
255 214 193
255 214 193
255 214 193
255 214 193
255 214 193
255 214 193
255 214 193
255 214 193
255 214 193
255 214 193
255 214 193
255 214 193
255 214 193
255 214 193
255 214 193
255 214 193
255 214 193
255 214 193
255 214 193
255 226 205
255 214 193
255 214 193
255 214 193
255 214 193
255 214 193
255 214 193
255 214 193
255 214 193
255 214 193
255 214 193
255 214 193
255 214 193
255 214 193
255 214 193
255 214 193
255 214 193
255 214 193
255 214 193
255 214 193
255 214 193
255 214 193
255 214 193
255 214 193
255 214 193
255 214 193
255 214 193
255 214 193
255 214 193
255 214 193
255 214 193
255 214 193
255 214 193
255 214 193
255 214 193
255 214 193
255 214 193
255 226 205
255 214 193
255 214 193
255 214 193
255 214 193
255 214 193
255 214 193
255 214 193
255 214 193
255 214 193
255 214 193
255 214 193
255 214 193
255 214 193
255 214 193
255 214 193
255 214 193
255 214 193
255 214 193
255 214 193
255 214 193
255 214 193
255 214 193
255 214 193
255 214 193
255 214 193
255 214 193
255 214 193
255 214 193
255 214 193
255 214 193
255 214 193
255 214 193
255 214 193
255 214 193
255 214 193
255 214 193
255 226 205
255 214 193
255 214 193
255 214 193
255 214 193
255 214 193
255 214 193
255 214 193
255 214 193
255 214 193
255 214 193
255 214 193
255 214 193
255 214 193
255 214 193
255 214 193
255 214 193
255 214 193
255 214 193
255 214 193
255 214 193
255 214 193
255 214 193
255 214 193
255 214 193
255 214 193
255 214 193
255 214 193
255 214 193
255 214 193
255 214 193
255 214 193
255 214 193
255 214 193
255 214 193
255 214 193
255 214 193
255 226 205
255 214 193
255 214 193
255 214 193
255 214 193
255 214 193
255 214 193
255 214 193
255 214 193
255 214 193
255 214 193
255 214 193
255 214 193
255 214 193
255 214 193
255 214 193
255 214 193
255 214 193
255 214 193
255 214 193
255 214 193
255 214 193
255 214 193
255 214 193
255 214 193
255 214 193
255 214 193
255 214 193
255 214 193
255 214 193
255 214 193
255 214 193
255 214 193
255 214 193
255 214 193
255 214 193
255 214 193
255 226 205
255 214 193
255 214 193
255 214 193
255 214 193
255 214 193
255 214 193
255 214 193
255 214 193
255 214 193
255 214 193
255 214 193
255 214 193
255 214 193
255 214 193
255 214 193
255 214 193
255 214 193
255 214 193
255 214 193
255 214 193
255 214 193
255 214 193
255 214 193
255 214 193
255 214 193
255 214 193
255 214 193
255 214 193
255 214 193
255 214 193
255 214 193
255 214 193
255 214 193
255 214 193
255 214 193
255 214 193
255 226 205
255 214 193
255 214 193
255 214 193
255 214 193
255 214 193
255 214 193
255 214 193
255 214 193
255 214 193
255 214 193
255 214 193
255 214 193
255 214 193
255 214 193
255 214 193
255 214 193
255 214 193
255 214 193
255 214 193
255 214 193
255 214 193
255 214 193
255 214 193
255 214 193
255 214 193
255 214 193
255 214 193
255 214 193
255 214 193
255 214 193
255 214 193
255 214 193
255 214 193
255 214 193
255 214 193
255 214 193
255 226 205
255 214 193
255 214 193
255 214 193
255 214 193
255 214 193
255 214 193
255 214 193
255 214 193
255 214 193
255 214 193
255 214 193
255 214 193
255 214 193
255 214 193
255 214 193
255 214 193
255 214 193
255 214 193
255 214 193
255 214 193
255 214 193
255 214 193
255 214 193
255 214 193
255 214 193
255 214 193
255 214 193
255 214 193
255 214 193
255 214 193
255 214 193
255 214 193
255 214 193
255 214 193
255 214 193
255 214 193
255 226 205
255 214 193
255 214 193
255 214 193
255 214 193
255 214 193
255 214 193
255 214 193
255 214 193
255 214 193
255 214 193
255 214 193
255 214 193
255 214 193
255 214 193
255 214 193
255 214 193
255 214 193
255 214 193
255 214 193
255 214 193
255 214 193
255 214 193
255 214 193
255 214 193
255 214 193
255 214 193
255 214 193
255 214 193
255 214 193
255 214 193
255 214 193
255 214 193
255 214 193
255 214 193
255 214 193
255 214 193
255 226 205
255 214 193
255 214 193
255 214 193
255 214 193
255 214 193
255 214 193
255 214 193
255 214 193
255 214 193
255 214 193
255 214 193
255 214 193
255 214 193
255 214 193
255 214 193
255 214 193
255 214 193
255 214 193
255 214 193
255 214 193
255 214 193
255 214 193
255 226 205
255 214 193
255 214 193
255 214 193
255 214 193
255 214 193
255 214 193
255 214 193
255 214 193
255 214 193
255 214 193
255 214 193
255 214 193
255 214 193
255 214 193
255 214 193
255 214 193
255 214 193
255 214 193
255 214 193
255 214 193
255 214 193
255 214 193
255 214 193
255 214 193
255 214 193
255 214 193
255 214 193
255 214 193
255 214 193
255 214 193
255 214 193
255 214 193
255 214 193
255 214 193
255 214 193
255 214 193
255 226 205
255 214 193
255 214 193
255 214 193
255 214 193
255 214 193
255 214 193
255 214 193
255 214 193
255 214 193
255 214 193
255 214 193
255 214 193
255 214 193
255 214 193
255 214 193
255 214 193
255 214 193
255 214 193
255 214 193
255 214 193
255 214 193
255 214 193
255 214 193
255 214 193
255 214 193
255 214 193
255 214 193
255 214 193
255 214 193
255 214 193
255 214 193
255 214 193
255 214 193
255 214 193
255 214 193
255 214 193
255 226 205
255 214 193
255 214 193
255 214 193
255 214 193
255 214 193
255 214 193
255 214 193
255 214 193
255 214 193
255 214 193
255 214 193
255 214 193
255 214 193
255 214 193
255 214 193
255 214 193
255 214 193
255 214 193
255 214 193
255 214 193
255 214 193
255 214 193
255 214 193
255 214 193
255 214 193
255 214 193
255 214 193
255 214 193
255 214 193
255 214 193
255 214 193
255 214 193
255 214 193
255 214 193
255 214 193
255 214 193
255 226 205
255 214 193
255 214 193
255 214 193
255 214 193
255 214 193
255 214 193
255 214 193
255 214 193
255 214 193
255 214 193
255 214 193
255 214 193
255 214 193
255 214 193
255 214 193
255 214 193
255 214 193
255 214 193
255 214 193
255 214 193
255 214 193
255 214 193
255 214 193
255 214 193
255 214 193
255 214 193
255 214 193
255 214 193
255 214 193
255 214 193
255 214 193
255 214 193
255 214 193
255 214 193
255 214 193
255 214 193
255 226 205
255 214 193
255 214 193
255 214 193
255 214 193
255 214 193
255 214 193
255 214 193
255 214 193
255 214 193
255 214 193
255 214 193
255 214 193
255 214 193
255 214 193
255 214 193
255 214 193
255 214 193
255 214 193
255 214 193
255 214 193
255 214 193
255 214 193
255 214 193
255 214 193
255 214 193
255 214 193
255 214 193
255 214 193
255 214 193
255 214 193
255 214 193
255 214 193
255 214 193
255 214 193
255 214 193
255 214 193
255 226 205
255 214 193
255 214 193
255 214 193
255 214 193
255 214 193
255 214 193
255 214 193
255 214 193
255 214 193
255 214 193
255 214 193
255 214 193
255 214 193
255 214 193
255 214 193
255 214 193
255 214 193
255 214 193
255 214 193
255 214 193
255 214 193
255 214 193
255 214 193
255 214 193
255 214 193
255 214 193
255 214 193
255 214 193
255 214 193
255 214 193
255 214 193
255 214 193
255 214 193
255 214 193
255 214 193
255 214 193
255 226 205
255 214 193
255 214 193
255 214 193
255 214 193
255 214 193
255 214 193
255 214 193
255 214 193
255 214 193
255 214 193
255 214 193
255 214 193
255 214 193
255 214 193
255 214 193
255 214 193
255 214 193
255 214 193
255 214 193
255 214 193
255 214 193
255 214 193
255 214 193
255 214 193
255 214 193
255 214 193
255 214 193
255 214 193
255 214 193
255 214 193
255 214 193
255 214 193
255 214 193
255 214 193
255 214 193
255 214 193
255 226 205
255 214 193
255 214 193
255 214 193
255 214 193
255 214 193
255 214 193
255 214 193
255 214 193
255 214 193
255 214 193
255 214 193
255 214 193
255 214 193
255 214 193
255 214 193
255 214 193
255 214 193
255 214 193
255 214 193
255 214 193
255 214 193
255 214 193
255 214 193
255 214 193
255 214 193
255 214 193
255 214 193
255 214 193
255 214 193
255 214 193
255 214 193
255 214 193
255 214 193
255 214 193
255 214 193
255 214 193
255 226 205
255 214 193
255 214 193
255 214 193
255 214 193
255 214 193
255 214 193
255 214 193
255 214 193
255 214 193
255 214 193
255 214 193
255 214 193
255 214 193
255 214 193
255 214 193
255 214 193
255 214 193
255 214 193
255 214 193
255 214 193
255 214 193
255 214 193
255 226 205
255 214 193
255 214 193
255 214 193
255 214 193
255 214 193
255 214 193
255 214 193
255 214 193
255 214 193
255 214 193
255 214 193
255 214 193
255 214 193
255 214 193
255 214 193
255 214 193
255 214 193
255 214 193
255 214 193
255 214 193
255 214 193
255 214 193
255 214 193
255 214 193
255 214 193
255 214 193
255 214 193
255 214 193
255 214 193
255 214 193
255 214 193
255 214 193
255 214 193
255 214 193
255 214 193
255 214 193
255 226 205
255 214 193
255 214 193
255 214 193
255 214 193
255 214 193
255 214 193
255 214 193
255 214 193
255 214 193
255 214 193
255 214 193
255 214 193
255 214 193
255 214 193
255 214 193
255 214 193
255 214 193
255 214 193
255 214 193
255 214 193
255 214 193
255 214 193
255 214 193
255 214 193
255 214 193
255 214 193
255 214 193
255 214 193
255 214 193
255 214 193
255 214 193
255 214 193
255 214 193
255 214 193
255 214 193
255 214 193
255 226 205
255 214 193
255 214 193
255 214 193
255 214 193
255 214 193
255 214 193
255 214 193
255 214 193
255 214 193
255 214 193
255 214 193
255 214 193
255 214 193
255 214 193
255 214 193
255 214 193
255 214 193
255 214 193
255 214 193
255 214 193
255 214 193
255 214 193
255 214 193
255 214 193
255 214 193
255 214 193
255 214 193
255 214 193
255 214 193
255 214 193
255 214 193
255 214 193
255 214 193
255 214 193
255 214 193
255 214 193
255 226 205
255 214 193
255 214 193
255 214 193
255 214 193
255 214 193
255 214 193
255 214 193
255 214 193
255 214 193
255 214 193
255 214 193
255 214 193
255 214 193
255 214 193
255 214 193
255 214 193
255 214 193
255 214 193
255 214 193
255 214 193
255 214 193
255 214 193
255 214 193
255 214 193
255 214 193
255 214 193
255 214 193
255 214 193
255 214 193
255 214 193
255 214 193
255 214 193
255 214 193
255 214 193
255 214 193
255 214 193
255 226 205
255 214 193
255 214 193
255 214 193
255 214 193
255 214 193
255 214 193
255 214 193
255 214 193
255 214 193
255 214 193
255 214 193
255 214 193
255 214 193
255 214 193
255 214 193
255 214 193
255 214 193
255 214 193
255 214 193
255 214 193
255 214 193
255 214 193
255 214 193
255 214 193
255 214 193
255 214 193
255 214 193
255 214 193
255 214 193
255 214 193
255 214 193
255 214 193
255 214 193
255 214 193
255 214 193
255 214 193
255 226 205
255 214 193
255 214 193
255 214 193
255 214 193
255 214 193
255 214 193
255 214 193
255 214 193
255 214 193
255 214 193
255 214 193
255 214 193
255 214 193
255 214 193
255 214 193
255 214 193
255 214 193
255 214 193
255 214 193
255 214 193
255 214 193
255 214 193
255 214 193
255 214 193
255 214 193
255 214 193
255 214 193
255 214 193
255 214 193
255 214 193
255 214 193
255 214 193
255 214 193
255 214 193
255 214 193
255 214 193
255 226 205
255 214 193
255 214 193
255 214 193
255 214 193
255 214 193
255 214 193
255 214 193
255 214 193
255 214 193
255 214 193
255 214 193
255 214 193
255 214 193
255 214 193
255 214 193
255 214 193
255 214 193
255 214 193
255 214 193
255 214 193
255 214 193
255 214 193
255 214 193
255 214 193
255 214 193
255 214 193
255 214 193
255 214 193
255 214 193
255 214 193
255 214 193
255 214 193
255 214 193
255 214 193
255 214 193
255 214 193
255 226 205
255 214 193
255 214 193
255 214 193
255 214 193
255 214 193
255 214 193
255 214 193
255 214 193
255 214 193
255 214 193
255 214 193
255 214 193
255 214 193
255 214 193
255 214 193
255 214 193
255 214 193
255 214 193
255 214 193
255 214 193
255 214 193
255 214 193
255 214 193
255 214 193
255 214 193
255 214 193
255 214 193
255 214 193
255 214 193
255 214 193
255 214 193
255 214 193
255 214 193
255 214 193
255 214 193
255 214 193
255 226 205
255 214 193
255 214 193
255 214 193
255 214 193
255 214 193
255 214 193
255 214 193
255 214 193
255 214 193
255 214 193
255 214 193
255 214 193
255 214 193
255 214 193
255 214 193
255 214 193
255 214 193
255 214 193
255 214 193
255 214 193
255 214 193
255 214 193
255 226 205
255 214 193
255 214 193
255 214 193
255 214 193
255 214 193
255 214 193
255 214 193
255 214 193
255 214 193
255 214 193
255 214 193
255 214 193
255 214 193
255 214 193
255 214 193
255 214 193
255 214 193
255 214 193
255 214 193
255 214 193
255 214 193
255 214 193
255 214 193
255 214 193
255 214 193
255 214 193
255 214 193
255 214 193
255 214 193
255 214 193
255 214 193
255 214 193
255 214 193
255 214 193
255 214 193
255 214 193
255 226 205
255 214 193
255 214 193
255 214 193
255 214 193
255 214 193
255 214 193
255 214 193
255 214 193
255 214 193
255 214 193
255 214 193
255 214 193
255 214 193
255 214 193
255 214 193
255 214 193
255 214 193
255 214 193
255 214 193
255 214 193
255 214 193
255 214 193
255 214 193
255 214 193
255 214 193
255 214 193
255 214 193
255 214 193
255 214 193
255 214 193
255 214 193
255 214 193
255 214 193
255 214 193
255 214 193
255 214 193
255 226 205
255 214 193
255 214 193
255 214 193
255 214 193
255 214 193
255 214 193
255 214 193
255 214 193
255 214 193
255 214 193
255 214 193
255 214 193
255 214 193
255 214 193
255 214 193
255 214 193
255 214 193
255 214 193
255 214 193
255 214 193
255 214 193
255 214 193
255 214 193
255 214 193
255 214 193
255 214 193
255 214 193
255 214 193
255 214 193
255 214 193
255 214 193
255 214 193
255 214 193
255 214 193
255 214 193
255 214 193
255 226 205
255 214 193
255 214 193
255 214 193
255 214 193
255 214 193
255 214 193
255 214 193
255 214 193
255 214 193
255 214 193
255 214 193
255 214 193
255 214 193
255 214 193
255 214 193
255 214 193
255 214 193
255 214 193
255 214 193
255 214 193
255 214 193
255 214 193
255 214 193
255 214 193
255 214 193
255 214 193
255 214 193
255 214 193
255 214 193
255 214 193
255 214 193
255 214 193
255 214 193
255 214 193
255 214 193
255 214 193
255 226 205
255 214 193
255 214 193
255 214 193
255 214 193
255 214 193
255 214 193
255 214 193
255 214 193
255 214 193
255 214 193
255 214 193
255 214 193
255 214 193
255 214 193
255 214 193
255 214 193
255 214 193
255 214 193
255 214 193
255 214 193
255 214 193
255 214 193
255 214 193
255 214 193
255 214 193
255 214 193
255 214 193
255 214 193
255 214 193
255 214 193
255 214 193
255 214 193
255 214 193
255 214 193
255 214 193
255 214 193
255 226 205
255 214 193
255 214 193
255 214 193
255 214 193
255 214 193
255 214 193
255 214 193
255 214 193
255 214 193
255 214 193
255 214 193
255 214 193
255 214 193
255 214 193
255 214 193
255 214 193
255 214 193
255 214 193
255 214 193
255 214 193
255 214 193
255 214 193
255 214 193
255 214 193
255 214 193
255 214 193
255 214 193
255 214 193
255 214 193
255 214 193
255 214 193
255 214 193
255 214 193
255 214 193
255 214 193
255 214 193
255 226 205
255 214 193
255 214 193
255 214 193
255 214 193
255 214 193
255 214 193
255 214 193
255 214 193
255 214 193
255 214 193
255 214 193
255 214 193
255 214 193
255 214 193
255 214 193
255 214 193
255 214 193
255 214 193
255 214 193
255 214 193
255 214 193
255 214 193
255 214 193
255 214 193
255 214 193
255 214 193
255 214 193
255 214 193
255 214 193
255 214 193
255 214 193
255 214 193
255 214 193
255 214 193
255 214 193
255 214 193
255 226 205
255 214 193
255 214 193
255 214 193
255 214 193
255 214 193
255 214 193
255 214 193
255 214 193
255 214 193
255 214 193
255 214 193
255 214 193
255 214 193
255 214 193
255 214 193
255 214 193
255 214 193
255 214 193
255 214 193
255 214 193
255 214 193
255 214 193
255 214 193
255 214 193
255 214 193
255 214 193
255 214 193
255 214 193
255 214 193
255 214 193
255 214 193
255 214 193
255 214 193
255 214 193
255 214 193
255 214 193
255 226 205
255 214 193
255 214 193
255 214 193
255 214 193
255 214 193
255 214 193
255 214 193
255 214 193
255 214 193
255 214 193
255 214 193
255 214 193
255 214 193
255 214 193
255 214 193
255 214 193
255 214 193
255 214 193
255 214 193
255 214 193
255 214 193
255 214 193
255 226 205
255 214 193
255 214 193
255 214 193
255 214 193
255 214 193
255 214 193
255 214 193
255 214 193
255 214 193
255 214 193
255 214 193
255 214 193
255 214 193
255 214 193
255 214 193
255 214 193
255 214 193
255 214 193
255 214 193
255 214 193
255 214 193
255 214 193
255 214 193
255 214 193
255 214 193
255 214 193
255 214 193
255 214 193
255 214 193
255 214 193
255 214 193
255 214 193
255 214 193
255 214 193
255 214 193
255 214 193
255 226 205
255 214 193
255 214 193
255 214 193
255 214 193
255 214 193
255 214 193
255 214 193
255 214 193
255 214 193
255 214 193
255 214 193
255 214 193
255 214 193
255 214 193
255 214 193
255 214 193
255 214 193
255 214 193
255 214 193
255 214 193
255 214 193
255 214 193
255 214 193
255 214 193
255 214 193
255 214 193
255 214 193
255 214 193
255 214 193
255 214 193
255 214 193
255 214 193
255 214 193
255 214 193
255 214 193
255 214 193
255 226 205
255 214 193
255 214 193
255 214 193
255 214 193
255 214 193
255 214 193
255 214 193
255 214 193
255 214 193
255 214 193
255 214 193
255 214 193
255 214 193
255 214 193
255 214 193
255 214 193
255 214 193
255 214 193
255 214 193
255 214 193
255 214 193
255 214 193
255 214 193
255 214 193
255 214 193
255 214 193
255 214 193
255 214 193
255 214 193
255 214 193
255 214 193
255 214 193
255 214 193
255 214 193
255 214 193
255 214 193
255 226 205
255 214 193
255 214 193
255 214 193
255 214 193
255 214 193
255 214 193
255 214 193
255 214 193
255 214 193
255 214 193
255 214 193
255 214 193
255 214 193
255 214 193
255 214 193
255 214 193
255 214 193
255 214 193
255 214 193
255 214 193
255 214 193
255 214 193
255 214 193
255 214 193
255 214 193
255 214 193
255 214 193
255 214 193
255 214 193
255 214 193
255 214 193
255 214 193
255 214 193
255 214 193
255 214 193
255 214 193
255 226 205
255 214 193
255 214 193
255 214 193
255 214 193
255 214 193
255 214 193
255 214 193
255 214 193
255 214 193
255 214 193
255 214 193
255 214 193
255 214 193
255 214 193
255 214 193
255 214 193
255 214 193
255 214 193
255 214 193
255 214 193
255 214 193
255 214 193
255 214 193
255 214 193
255 214 193
255 214 193
255 214 193
255 214 193
255 214 193
255 214 193
255 214 193
255 214 193
255 214 193
255 214 193
255 214 193
255 214 193
255 226 205
255 214 193
255 214 193
255 214 193
255 214 193
255 214 193
255 214 193
255 214 193
255 214 193
255 214 193
255 214 193
255 214 193
255 214 193
255 214 193
255 214 193
255 214 193
255 214 193
255 214 193
255 214 193
255 214 193
255 214 193
255 214 193
255 214 193
255 214 193
255 214 193
255 214 193
255 214 193
255 214 193
255 214 193
255 214 193
255 214 193
255 214 193
255 214 193
255 214 193
255 214 193
255 214 193
255 214 193
255 226 205
255 214 193
255 214 193
255 214 193
255 214 193
255 214 193
255 214 193
255 214 193
255 214 193
255 214 193
255 214 193
255 214 193
255 214 193
255 214 193
255 214 193
255 214 193
255 214 193
255 214 193
255 214 193
255 214 193
255 214 193
255 214 193
255 214 193
255 214 193
255 214 193
255 214 193
255 214 193
255 214 193
255 214 193
255 214 193
255 214 193
255 214 193
255 214 193
255 214 193
255 214 193
255 214 193
255 214 193
255 226 205
255 214 193
255 214 193
255 214 193
255 214 193
255 214 193
255 214 193
255 214 193
255 214 193
255 214 193
255 214 193
255 214 193
255 214 193
255 214 193
255 214 193
255 214 193
255 214 193
255 214 193
255 214 193
255 214 193
255 214 193
255 214 193
255 214 193
255 214 193
255 214 193
255 214 193
255 214 193
255 214 193
255 214 193
255 214 193
255 214 193
255 214 193
255 214 193
255 214 193
255 214 193
255 214 193
255 214 193
255 226 205
255 214 193
255 214 193
255 214 193
255 214 193
255 214 193
255 214 193
255 214 193
255 214 193
255 214 193
255 214 193
255 214 193
255 214 193
255 214 193
255 214 193
255 214 193
255 214 193
255 214 193
255 214 193
255 214 193
255 214 193
255 214 193
255 214 193
255 226 205
255 214 193
255 214 193
255 214 193
255 214 193
255 214 193
255 214 193
255 214 193
255 214 193
255 214 193
255 214 193
255 214 193
255 214 193
255 214 193
255 214 193
255 214 193
255 214 193
255 214 193
255 214 193
255 214 193
255 214 193
255 214 193
255 214 193
255 214 193
255 214 193
255 214 193
255 214 193
255 214 193
255 214 193
255 214 193
255 214 193
255 214 193
255 214 193
255 214 193
255 214 193
255 214 193
255 214 193
255 226 205
255 214 193
255 214 193
255 214 193
255 214 193
255 214 193
255 214 193
255 214 193
255 214 193
255 214 193
255 214 193
255 214 193
255 214 193
255 214 193
255 214 193
255 214 193
255 214 193
255 214 193
255 214 193
255 214 193
255 214 193
255 214 193
255 214 193
255 214 193
255 214 193
255 214 193
255 214 193
255 214 193
255 214 193
255 214 193
255 214 193
255 214 193
255 214 193
255 214 193
255 214 193
255 214 193
255 214 193
255 226 205
255 214 193
255 214 193
255 214 193
255 214 193
255 214 193
255 214 193
255 214 193
255 214 193
255 214 193
255 214 193
255 214 193
255 214 193
255 214 193
255 214 193
255 214 193
255 214 193
255 214 193
255 214 193
255 214 193
255 214 193
255 214 193
255 214 193
255 214 193
255 214 193
255 214 193
255 214 193
255 214 193
255 214 193
255 214 193
255 214 193
255 214 193
255 214 193
255 214 193
255 214 193
255 214 193
255 214 193
255 226 205
255 214 193
255 214 193
255 214 193
255 214 193
255 214 193
255 214 193
255 214 193
255 214 193
255 214 193
255 214 193
255 214 193
255 214 193
255 214 193
255 214 193
255 214 193
255 214 193
255 214 193
255 214 193
255 214 193
255 214 193
255 214 193
255 214 193
255 214 193
255 214 193
255 214 193
255 214 193
255 214 193
255 214 193
255 214 193
255 214 193
255 214 193
255 214 193
255 214 193
255 214 193
255 214 193
255 214 193
255 226 205
255 214 193
255 214 193
255 214 193
255 214 193
255 214 193
255 214 193
255 214 193
255 214 193
255 214 193
255 214 193
255 214 193
255 214 193
255 214 193
255 214 193
255 214 193
255 214 193
255 214 193
255 214 193
255 214 193
255 214 193
255 214 193
255 214 193
255 214 193
255 214 193
255 214 193
255 214 193
255 214 193
255 214 193
255 214 193
255 214 193
255 214 193
255 214 193
255 214 193
255 214 193
255 214 193
255 214 193
255 226 205
255 214 193
255 214 193
255 214 193
255 214 193
255 214 193
255 214 193
255 214 193
255 214 193
255 214 193
255 214 193
255 214 193
255 214 193
255 214 193
255 214 193
255 214 193
255 214 193
255 214 193
255 214 193
255 214 193
255 214 193
255 214 193
255 214 193
255 214 193
255 214 193
255 214 193
255 214 193
255 214 193
255 214 193
255 214 193
255 214 193
255 214 193
255 214 193
255 214 193
255 214 193
255 214 193
255 214 193
255 226 205
255 214 193
255 214 193
255 214 193
255 214 193
255 214 193
255 214 193
255 214 193
255 214 193
255 214 193
255 214 193
255 214 193
255 214 193
255 214 193
255 214 193
255 214 193
255 214 193
255 214 193
255 214 193
255 214 193
255 214 193
255 214 193
255 214 193
255 214 193
255 214 193
255 214 193
255 214 193
255 214 193
255 214 193
255 214 193
255 214 193
255 214 193
255 214 193
255 214 193
255 214 193
255 214 193
255 214 193
255 226 205
255 214 193
255 214 193
255 214 193
255 214 193
255 214 193
255 214 193
255 214 193
255 214 193
255 214 193
255 214 193
255 214 193
255 214 193
255 214 193
255 214 193
255 214 193
255 214 193
255 214 193
255 214 193
255 214 193
255 214 193
255 214 193
255 214 193
255 214 193
255 214 193
255 214 193
255 214 193
255 214 193
255 214 193
255 214 193
255 214 193
255 214 193
255 214 193
255 214 193
255 214 193
255 214 193
255 214 193
255 226 205
255 214 193
255 214 193
255 214 193
255 214 193
255 214 193
255 214 193
255 214 193
255 214 193
255 214 193
255 214 193
255 214 193
255 214 193
255 214 193
255 214 193
255 214 193
255 214 193
255 214 193
255 214 193
255 214 193
255 214 193
255 214 193
255 214 193
255 226 205
255 214 193
255 214 193
255 214 193
255 214 193
255 214 193
255 214 193
255 214 193
255 214 193
255 214 193
255 214 193
255 214 193
255 214 193
255 214 193
255 214 193
255 214 193
255 214 193
255 214 193
255 214 193
255 214 193
255 214 193
255 214 193
255 214 193
255 214 193
255 214 193
255 214 193
255 214 193
255 214 193
255 214 193
255 214 193
255 214 193
255 214 193
255 214 193
255 214 193
255 214 193
255 214 193
255 214 193
255 226 205
255 214 193
255 214 193
255 214 193
255 214 193
255 214 193
255 214 193
255 214 193
255 214 193
255 214 193
255 214 193
255 214 193
255 214 193
255 214 193
255 214 193
255 214 193
255 214 193
255 214 193
255 214 193
255 214 193
255 214 193
255 214 193
255 214 193
255 214 193
255 214 193
255 214 193
255 214 193
255 214 193
255 214 193
255 214 193
255 214 193
255 214 193
255 214 193
255 214 193
255 214 193
255 214 193
255 214 193
255 226 205
255 214 193
255 214 193
255 214 193
255 214 193
255 214 193
255 214 193
255 214 193
255 214 193
255 214 193
255 214 193
255 214 193
255 214 193
255 214 193
255 214 193
255 214 193
255 214 193
255 214 193
255 214 193
255 214 193
255 214 193
255 214 193
255 214 193
255 214 193
255 214 193
255 214 193
255 214 193
255 214 193
255 214 193
255 214 193
255 214 193
255 214 193
255 214 193
255 214 193
255 214 193
255 214 193
255 214 193
255 226 205
255 214 193
255 214 193
255 214 193
255 214 193
255 214 193
255 214 193
255 214 193
255 214 193
255 214 193
255 214 193
255 214 193
255 214 193
255 214 193
255 214 193
255 214 193
255 214 193
255 214 193
255 214 193
255 214 193
255 214 193
255 214 193
255 214 193
255 214 193
255 214 193
255 214 193
255 214 193
255 214 193
255 214 193
255 214 193
255 214 193
255 214 193
255 214 193
255 214 193
255 214 193
255 214 193
255 214 193
255 226 205
255 214 193
255 214 193
255 214 193
255 214 193
255 214 193
255 214 193
255 214 193
255 214 193
255 214 193
255 214 193
255 214 193
255 214 193
255 214 193
255 214 193
255 214 193
255 214 193
255 214 193
255 214 193
255 214 193
255 214 193
255 214 193
255 214 193
255 214 193
255 214 193
255 214 193
255 214 193
255 214 193
255 214 193
255 214 193
255 214 193
255 214 193
255 214 193
255 214 193
255 214 193
255 214 193
255 214 193
255 226 205
255 214 193
255 214 193
255 214 193
255 214 193
255 214 193
255 214 193
255 214 193
255 214 193
255 214 193
255 214 193
255 214 193
255 214 193
255 214 193
255 214 193
255 214 193
255 214 193
255 214 193
255 214 193
255 214 193
255 214 193
255 214 193
255 214 193
255 214 193
255 214 193
255 214 193
255 214 193
255 214 193
255 214 193
255 214 193
255 214 193
255 214 193
255 214 193
255 214 193
255 214 193
255 214 193
255 214 193
255 226 205
255 214 193
255 214 193
255 214 193
255 214 193
255 214 193
255 214 193
255 214 193
255 214 193
255 214 193
255 214 193
255 214 193
255 214 193
255 214 193
255 214 193
255 214 193
255 214 193
255 214 193
255 214 193
255 214 193
255 214 193
255 214 193
255 214 193
255 214 193
255 214 193
255 214 193
255 214 193
255 214 193
255 214 193
255 214 193
255 214 193
255 214 193
255 214 193
255 214 193
255 214 193
255 214 193
255 214 193
255 226 205
255 214 193
255 214 193
255 214 193
255 214 193
255 214 193
255 214 193
255 214 193
255 214 193
255 214 193
255 214 193
255 214 193
255 214 193
255 214 193
255 214 193
255 214 193
255 214 193
255 214 193
255 214 193
255 214 193
255 214 193
255 214 193
255 214 193
255 214 193
255 214 193
255 214 193
255 214 193
255 214 193
255 214 193
255 214 193
255 214 193
255 214 193
255 214 193
255 214 193
255 214 193
255 214 193
255 214 193
255 226 205
255 214 193
255 214 193
255 214 193
255 214 193
255 214 193
255 214 193
255 214 193
255 214 193
255 214 193
255 214 193
255 214 193
255 214 193
255 214 193
255 214 193
255 214 193
255 214 193
255 214 193
255 214 193
255 214 193
255 214 193
255 214 193
255 214 193
255 226 205
255 214 193
255 214 193
255 214 193
255 214 193
255 214 193
255 214 193
255 214 193
255 214 193
255 214 193
255 214 193
255 214 193
255 214 193
255 214 193
255 214 193
255 214 193
255 214 193
255 214 193
255 214 193
255 214 193
255 214 193
255 214 193
255 214 193
255 214 193
255 214 193
255 214 193
255 214 193
255 214 193
255 214 193
255 214 193
255 214 193
255 214 193
255 214 193
255 214 193
255 214 193
255 214 193
255 214 193
255 226 205
255 214 193
255 214 193
255 214 193
255 214 193
255 214 193
255 214 193
255 214 193
255 214 193
255 214 193
255 214 193
255 214 193
255 214 193
255 214 193
255 214 193
255 214 193
255 214 193
255 214 193
255 214 193
255 214 193
255 214 193
255 214 193
255 214 193
255 214 193
255 214 193
255 214 193
255 214 193
255 214 193
255 214 193
255 214 193
255 214 193
255 214 193
255 214 193
255 214 193
255 214 193
255 214 193
255 214 193
255 226 205
255 214 193
255 214 193
255 214 193
255 214 193
255 214 193
255 214 193
255 214 193
255 214 193
255 214 193
255 214 193
255 214 193
255 214 193
255 214 193
255 214 193
255 214 193
255 214 193
255 214 193
255 214 193
255 214 193
255 214 193
255 214 193
255 214 193
255 214 193
255 214 193
255 214 193
255 214 193
255 214 193
255 214 193
255 214 193
255 214 193
255 214 193
255 214 193
255 214 193
255 214 193
255 214 193
255 214 193
255 226 205
255 214 193
255 214 193
255 214 193
255 214 193
255 214 193
255 214 193
255 214 193
255 214 193
255 214 193
255 214 193
255 214 193
255 214 193
255 214 193
255 214 193
255 214 193
255 214 193
255 214 193
255 214 193
255 214 193
255 214 193
255 214 193
255 214 193
255 214 193
255 214 193
255 214 193
255 214 193
255 214 193
255 214 193
255 214 193
255 214 193
255 214 193
255 214 193
255 214 193
255 214 193
255 214 193
255 214 193
255 226 205
255 214 193
255 214 193
255 214 193
255 214 193
255 214 193
255 214 193
255 214 193
255 214 193
255 214 193
255 214 193
255 214 193
255 214 193
255 214 193
255 214 193
255 214 193
255 214 193
255 214 193
255 214 193
255 214 193
255 214 193
255 214 193
255 214 193
255 214 193
255 214 193
255 214 193
255 214 193
255 214 193
255 214 193
255 214 193
255 214 193
255 214 193
255 214 193
255 214 193
255 214 193
255 214 193
255 214 193
255 226 205
255 214 193
255 214 193
255 214 193
255 214 193
255 214 193
255 214 193
255 214 193
255 214 193
255 214 193
255 214 193
255 214 193
255 214 193
255 214 193
255 214 193
255 214 193
255 214 193
255 214 193
255 214 193
255 214 193
255 214 193
255 214 193
255 214 193
255 214 193
255 214 193
255 214 193
255 214 193
255 214 193
255 214 193
255 214 193
255 214 193
255 214 193
255 214 193
255 214 193
255 214 193
255 214 193
255 214 193
255 226 205
255 214 193
255 214 193
255 214 193
255 214 193
255 214 193
255 214 193
255 214 193
255 214 193
255 214 193
255 214 193
255 214 193
255 214 193
255 214 193
255 214 193
255 214 193
255 214 193
255 214 193
255 214 193
255 214 193
255 214 193
255 214 193
255 214 193
255 214 193
255 214 193
255 214 193
255 214 193
255 214 193
255 214 193
255 214 193
255 214 193
255 214 193
255 214 193
255 214 193
255 214 193
255 214 193
255 214 193
255 226 205
255 214 193
255 214 193
255 214 193
255 214 193
255 214 193
255 214 193
255 214 193
255 214 193
255 214 193
255 214 193
255 214 193
255 214 193
255 214 193
255 214 193
255 214 193
255 214 193
255 214 193
255 214 193
255 214 193
255 214 193
255 214 193
255 214 193
255 214 193
255 214 193
255 214 193
255 214 193
255 214 193
255 214 193
255 214 193
255 214 193
255 214 193
255 214 193
255 214 193
255 214 193
255 214 193
255 214 193
255 226 205
255 214 193
255 214 193
255 214 193
255 214 193
255 214 193
255 214 193
255 214 193
255 214 193
255 214 193
255 214 193
255 214 193
255 214 193
255 214 193
255 214 193
255 214 193
255 214 193
255 214 193
255 214 193
255 214 193
255 214 193
255 214 193
255 214 193
255 226 205
255 214 193
255 214 193
255 214 193
255 214 193
255 214 193
255 214 193
255 214 193
255 214 193
255 214 193
255 214 193
255 214 193
255 214 193
255 214 193
255 214 193
255 214 193
255 214 193
255 214 193
255 214 193
255 214 193
255 214 193
255 214 193
255 214 193
255 214 193
255 214 193
255 214 193
255 214 193
255 214 193
255 214 193
255 214 193
255 214 193
255 214 193
255 214 193
255 214 193
255 214 193
255 214 193
255 214 193
255 226 205
255 214 193
255 214 193
255 214 193
255 214 193
255 214 193
255 214 193
255 214 193
255 214 193
255 214 193
255 214 193
255 214 193
255 214 193
255 214 193
255 214 193
255 214 193
255 214 193
255 214 193
255 214 193
255 214 193
255 214 193
255 214 193
255 214 193
255 214 193
255 214 193
255 214 193
255 214 193
255 214 193
255 214 193
255 214 193
255 214 193
255 214 193
255 214 193
255 214 193
255 214 193
255 214 193
255 214 193
255 226 205
255 214 193
255 214 193
255 214 193
255 214 193
255 214 193
255 214 193
255 214 193
255 214 193
255 214 193
255 214 193
255 214 193
255 214 193
255 214 193
255 214 193
255 214 193
255 214 193
255 214 193
255 214 193
255 214 193
255 214 193
255 214 193
255 214 193
255 214 193
255 214 193
255 214 193
255 214 193
255 214 193
255 214 193
255 214 193
255 214 193
255 214 193
255 214 193
255 214 193
255 214 193
255 214 193
255 214 193
255 226 205
255 214 193
255 214 193
255 214 193
255 214 193
255 214 193
255 214 193
255 214 193
255 214 193
255 214 193
255 214 193
255 214 193
255 214 193
255 214 193
255 214 193
255 214 193
255 214 193
255 214 193
255 214 193
255 214 193
255 214 193
255 214 193
255 214 193
255 214 193
255 214 193
255 214 193
255 214 193
255 214 193
255 214 193
255 214 193
255 214 193
255 214 193
255 214 193
255 214 193
255 214 193
255 214 193
255 214 193
255 226 205
255 214 193
255 214 193
255 214 193
255 214 193
255 214 193
255 214 193
255 214 193
255 214 193
255 214 193
255 214 193
255 214 193
255 214 193
255 214 193
255 214 193
255 214 193
255 214 193
255 214 193
255 214 193
255 214 193
255 214 193
255 214 193
255 214 193
255 214 193
255 214 193
255 214 193
255 214 193
255 214 193
255 214 193
255 214 193
255 214 193
255 214 193
255 214 193
255 214 193
255 214 193
255 214 193
255 214 193
255 226 205
255 214 193
255 214 193
255 214 193
255 214 193
255 214 193
255 214 193
255 214 193
255 214 193
255 214 193
255 214 193
255 214 193
255 214 193
255 214 193
255 214 193
255 214 193
255 214 193
255 214 193
255 214 193
255 214 193
255 214 193
255 214 193
255 214 193
255 214 193
255 214 193
255 214 193
255 214 193
255 214 193
255 214 193
255 214 193
255 214 193
255 214 193
255 214 193
255 214 193
255 214 193
255 214 193
255 214 193
255 226 205
255 214 193
255 214 193
255 214 193
255 214 193
255 214 193
255 214 193
255 214 193
255 214 193
255 214 193
255 214 193
255 214 193
255 214 193
255 214 193
255 214 193
255 214 193
255 214 193
255 214 193
255 214 193
255 214 193
255 214 193
255 214 193
255 214 193
255 214 193
255 214 193
255 214 193
255 214 193
255 214 193
255 214 193
255 214 193
255 214 193
255 214 193
255 214 193
255 214 193
255 214 193
255 214 193
255 214 193
255 226 205
255 214 193
255 214 193
255 214 193
255 214 193
255 214 193
255 214 193
255 214 193
255 214 193
255 214 193
255 214 193
255 214 193
255 214 193
255 214 193
255 214 193
255 214 193
255 214 193
255 214 193
255 214 193
255 214 193
255 214 193
255 214 193
255 214 193
255 214 193
255 214 193
255 214 193
255 214 193
255 214 193
255 214 193
255 214 193
255 214 193
255 214 193
255 214 193
255 214 193
255 214 193
255 214 193
255 214 193
255 226 205
255 214 193
255 214 193
255 214 193
255 214 193
255 214 193
255 214 193
255 214 193
255 214 193
255 214 193
255 214 193
255 214 193
255 214 193
255 214 193
255 214 193
255 214 193
255 214 193
255 214 193
255 214 193
255 214 193
255 214 193
255 214 193
255 214 193
255 226 205
255 214 193
255 214 193
255 214 193
255 214 193
255 214 193
255 214 193
255 214 193
255 214 193
255 214 193
255 214 193
255 214 193
255 214 193
255 214 193
255 214 193
255 214 193
255 214 193
255 214 193
255 214 193
255 214 193
255 214 193
255 214 193
255 214 193
255 214 193
255 214 193
255 214 193
255 214 193
255 214 193
255 214 193
255 214 193
255 214 193
255 214 193
255 214 193
255 214 193
255 214 193
255 214 193
255 214 193
255 226 205
255 214 193
255 214 193
255 214 193
255 214 193
255 214 193
255 214 193
255 214 193
255 214 193
255 214 193
255 214 193
255 214 193
255 214 193
255 214 193
255 214 193
255 214 193
255 214 193
255 214 193
255 214 193
255 214 193
255 214 193
255 214 193
255 214 193
255 214 193
255 214 193
255 214 193
255 214 193
255 214 193
255 214 193
255 214 193
255 214 193
255 214 193
255 214 193
255 214 193
255 214 193
255 214 193
255 214 193
255 226 205
255 214 193
255 214 193
255 214 193
255 214 193
255 214 193
255 214 193
255 214 193
255 214 193
255 214 193
255 214 193
255 214 193
255 214 193
255 214 193
255 214 193
255 214 193
255 214 193
255 214 193
255 214 193
255 214 193
255 214 193
255 214 193
255 214 193
255 214 193
255 214 193
255 214 193
255 214 193
255 214 193
255 214 193
255 214 193
255 214 193
255 214 193
255 214 193
255 214 193
255 214 193
255 214 193
255 214 193
255 226 205
255 214 193
255 214 193
255 214 193
255 214 193
255 214 193
255 214 193
255 214 193
255 214 193
255 214 193
255 214 193
255 214 193
255 214 193
255 214 193
255 214 193
255 214 193
255 214 193
255 214 193
255 214 193
255 214 193
255 214 193
255 214 193
255 214 193
255 214 193
255 214 193
255 214 193
255 214 193
255 214 193
255 214 193
255 214 193
255 214 193
255 214 193
255 214 193
255 214 193
255 214 193
255 214 193
255 214 193
255 226 205
255 214 193
255 214 193
255 214 193
255 214 193
255 214 193
255 214 193
255 214 193
255 214 193
255 214 193
255 214 193
255 214 193
255 214 193
255 214 193
255 214 193
255 214 193
255 214 193
255 214 193
255 214 193
255 214 193
255 214 193
255 214 193
255 214 193
255 214 193
255 214 193
255 214 193
255 214 193
255 214 193
255 214 193
255 214 193
255 214 193
255 214 193
255 214 193
255 214 193
255 214 193
255 214 193
255 214 193
255 226 205
255 214 193
255 214 193
255 214 193
255 214 193
255 214 193
255 214 193
255 214 193
255 214 193
255 214 193
255 214 193
255 214 193
255 214 193
255 214 193
255 214 193
255 214 193
255 214 193
255 214 193
255 214 193
255 214 193
255 214 193
255 214 193
255 214 193
255 214 193
255 214 193
255 214 193
255 214 193
255 214 193
255 214 193
255 214 193
255 214 193
255 214 193
255 214 193
255 214 193
255 214 193
255 214 193
255 214 193
255 226 205
255 214 193
255 214 193
255 214 193
255 214 193
255 214 193
255 214 193
255 214 193
255 214 193
255 214 193
255 214 193
255 214 193
255 214 193
255 214 193
255 214 193
255 214 193
255 214 193
255 214 193
255 214 193
255 214 193
255 214 193
255 214 193
255 214 193
255 214 193
255 214 193
255 214 193
255 214 193
255 214 193
255 214 193
255 214 193
255 214 193
255 214 193
255 214 193
255 214 193
255 214 193
255 214 193
255 214 193
255 226 205
255 214 193
255 214 193
255 214 193
255 214 193
255 214 193
255 214 193
255 214 193
255 214 193
255 214 193
255 214 193
255 214 193
255 214 193
255 214 193
255 214 193
255 214 193
255 214 193
255 214 193
255 214 193
255 214 193
255 214 193
255 214 193
255 214 193
255 214 193
255 214 193
255 214 193
255 214 193
255 214 193
255 214 193
255 214 193
255 214 193
255 214 193
255 214 193
255 214 193
255 214 193
255 214 193
255 214 193
255 226 205
255 214 193
255 214 193
255 214 193
255 214 193
255 214 193
255 214 193
255 214 193
255 214 193
255 214 193
255 214 193
255 214 193
255 214 193
255 214 193
255 214 193
255 214 193
255 214 193
255 214 193
255 214 193
255 214 193
255 214 193
255 214 193
255 214 193
255 226 205
255 214 193
255 214 193
255 214 193
255 214 193
255 214 193
255 214 193
255 214 193
255 214 193
255 214 193
255 214 193
255 214 193
255 214 193
255 214 193
255 214 193
255 214 193
255 214 193
255 214 193
255 214 193
255 214 193
255 214 193
255 214 193
255 214 193
255 214 193
255 214 193
255 214 193
255 214 193
255 214 193
255 214 193
255 214 193
255 214 193
255 214 193
255 214 193
255 214 193
255 214 193
255 214 193
255 214 193
255 226 205
255 214 193
255 214 193
255 214 193
255 214 193
255 214 193
255 214 193
255 214 193
255 214 193
255 214 193
255 214 193
255 214 193
255 214 193
255 214 193
255 214 193
255 214 193
255 214 193
255 214 193
255 214 193
255 214 193
255 214 193
255 214 193
255 214 193
255 214 193
255 214 193
255 214 193
255 214 193
255 214 193
255 214 193
255 214 193
255 214 193
255 214 193
255 214 193
255 214 193
255 214 193
255 214 193
255 214 193
255 226 205
255 214 193
255 214 193
255 214 193
255 214 193
255 214 193
255 214 193
255 214 193
255 214 193
255 214 193
255 214 193
255 214 193
255 214 193
255 214 193
255 214 193
255 214 193
255 214 193
255 214 193
255 214 193
255 214 193
255 214 193
255 214 193
255 214 193
255 214 193
255 214 193
255 214 193
255 214 193
255 214 193
255 214 193
255 214 193
255 214 193
255 214 193
255 214 193
255 214 193
255 214 193
255 214 193
255 214 193
255 226 205
255 214 193
255 214 193
255 214 193
255 214 193
255 214 193
255 214 193
255 214 193
255 214 193
255 214 193
255 214 193
255 214 193
255 214 193
255 214 193
255 214 193
255 214 193
255 214 193
255 214 193
255 214 193
255 214 193
255 214 193
255 214 193
255 214 193
255 214 193
255 214 193
255 214 193
255 214 193
255 214 193
255 214 193
255 214 193
255 214 193
255 214 193
255 214 193
255 214 193
255 214 193
255 214 193
255 214 193
255 226 205
255 214 193
255 214 193
255 214 193
255 214 193
255 214 193
255 214 193
255 214 193
255 214 193
255 214 193
255 214 193
255 214 193
255 214 193
255 214 193
255 214 193
255 214 193
255 214 193
255 214 193
255 214 193
255 214 193
255 214 193
255 214 193
255 214 193
255 214 193
255 214 193
255 214 193
255 214 193
255 214 193
255 214 193
255 214 193
255 214 193
255 214 193
255 214 193
255 214 193
255 214 193
255 214 193
255 214 193
255 226 205
255 214 193
255 214 193
255 214 193
255 214 193
255 214 193
255 214 193
255 214 193
255 214 193
255 214 193
255 214 193
255 214 193
255 214 193
255 214 193
255 214 193
255 214 193
255 214 193
255 214 193
255 214 193
255 214 193
255 214 193
255 214 193
255 214 193
255 214 193
255 214 193
255 214 193
255 214 193
255 214 193
255 214 193
255 214 193
255 214 193
255 214 193
255 214 193
255 214 193
255 214 193
255 214 193
255 214 193
255 226 205
255 214 193
255 214 193
255 214 193
255 214 193
255 214 193
255 214 193
255 214 193
255 214 193
255 214 193
255 214 193
255 214 193
255 214 193
255 214 193
255 214 193
255 214 193
255 214 193
255 214 193
255 214 193
255 214 193
255 214 193
255 214 193
255 214 193
255 214 193
255 214 193
255 214 193
255 214 193
255 214 193
255 214 193
255 214 193
255 214 193
255 214 193
255 214 193
255 214 193
255 214 193
255 214 193
255 214 193
255 226 205
255 214 193
255 214 193
255 214 193
255 214 193
255 214 193
255 214 193
255 214 193
255 214 193
255 214 193
255 214 193
255 214 193
255 214 193
255 214 193
255 214 193
255 214 193
255 214 193
255 214 193
255 214 193
255 214 193
255 214 193
255 214 193
255 214 193
255 214 193
255 214 193
255 214 193
255 214 193
255 214 193
255 214 193
255 214 193
255 214 193
255 214 193
255 214 193
255 214 193
255 214 193
255 214 193
255 214 193
255 226 205
255 214 193
255 214 193
255 214 193
255 214 193
255 214 193
255 214 193
255 214 193
255 214 193
255 214 193
255 214 193
255 214 193
255 214 193
255 214 193
255 214 193
255 214 193
255 214 193
255 214 193
255 214 193
255 214 193
255 214 193
255 214 193
255 214 193
255 226 205
255 214 193
255 214 193
255 214 193
255 214 193
255 214 193
255 214 193
255 214 193
255 214 193
255 214 193
255 214 193
255 214 193
255 214 193
255 214 193
255 214 193
255 214 193
255 214 193
255 214 193
255 214 193
255 214 193
255 214 193
255 214 193
255 214 193
255 214 193
255 214 193
255 214 193
255 214 193
255 214 193
255 214 193
255 214 193
255 214 193
255 214 193
255 214 193
255 214 193
255 214 193
255 214 193
255 214 193
255 226 205
255 214 193
255 214 193
255 214 193
255 214 193
255 214 193
255 214 193
255 214 193
255 214 193
255 214 193
255 214 193
255 214 193
255 214 193
255 214 193
255 214 193
255 214 193
255 214 193
255 214 193
255 214 193
255 214 193
255 214 193
255 214 193
255 214 193
255 214 193
255 214 193
255 214 193
255 214 193
255 214 193
255 214 193
255 214 193
255 214 193
255 214 193
255 214 193
255 214 193
255 214 193
255 214 193
255 214 193
255 226 205
255 214 193
255 214 193
255 214 193
255 214 193
255 214 193
255 214 193
255 214 193
255 214 193
255 214 193
255 214 193
255 214 193
255 214 193
255 214 193
255 214 193
255 214 193
255 214 193
255 214 193
255 214 193
255 214 193
255 214 193
255 214 193
255 214 193
255 214 193
255 214 193
255 214 193
255 214 193
255 214 193
255 214 193
255 214 193
255 214 193
255 214 193
255 214 193
255 214 193
255 214 193
255 214 193
255 214 193
255 226 205
255 214 193
255 214 193
255 214 193
255 214 193
255 214 193
255 214 193
255 214 193
255 214 193
255 214 193
255 214 193
255 214 193
255 214 193
255 214 193
255 214 193
255 214 193
255 214 193
255 214 193
255 214 193
255 214 193
255 214 193
255 214 193
255 214 193
255 214 193
255 214 193
255 214 193
255 214 193
255 214 193
255 214 193
255 214 193
255 214 193
255 214 193
255 214 193
255 214 193
255 214 193
255 214 193
255 214 193
255 226 205
255 214 193
255 214 193
255 214 193
255 214 193
255 214 193
255 214 193
255 214 193
255 214 193
255 214 193
255 214 193
255 214 193
255 214 193
255 214 193
255 214 193
255 214 193
255 214 193
255 214 193
255 214 193
255 214 193
255 214 193
255 214 193
255 214 193
255 214 193
255 214 193
255 214 193
255 214 193
255 214 193
255 214 193
255 214 193
255 214 193
255 214 193
255 214 193
255 214 193
255 214 193
255 214 193
255 214 193
255 226 205
255 214 193
255 214 193
255 214 193
255 214 193
255 214 193
255 214 193
255 214 193
255 214 193
255 214 193
255 214 193
255 214 193
255 214 193
255 214 193
255 214 193
255 214 193
255 214 193
255 214 193
255 214 193
255 214 193
255 214 193
255 214 193
255 214 193
255 214 193
255 214 193
255 214 193
255 214 193
255 214 193
255 214 193
255 214 193
255 214 193
255 214 193
255 214 193
255 214 193
255 214 193
255 214 193
255 214 193
255 226 205
255 214 193
255 214 193
255 214 193
255 214 193
255 214 193
255 214 193
255 214 193
255 214 193
255 214 193
255 214 193
255 214 193
255 214 193
255 214 193
255 214 193
255 214 193
255 214 193
255 214 193
255 214 193
255 214 193
255 214 193
255 214 193
255 214 193
255 214 193
255 214 193
255 214 193
255 214 193
255 214 193
255 214 193
255 214 193
255 214 193
255 214 193
255 214 193
255 214 193
255 214 193
255 214 193
255 214 193
255 226 205
255 214 193
255 214 193
255 214 193
255 214 193
255 214 193
255 214 193
255 214 193
255 214 193
255 214 193
255 214 193
255 214 193
255 214 193
255 214 193
255 214 193
255 214 193
255 214 193
255 214 193
255 214 193
255 214 193
255 214 193
255 214 193
255 214 193
255 214 193
255 214 193
255 214 193
255 214 193
255 214 193
255 214 193
255 214 193
255 214 193
255 214 193
255 214 193
255 214 193
255 214 193
255 214 193
255 214 193
255 226 205
255 214 193
255 214 193
255 214 193
255 214 193
255 214 193
255 214 193
255 214 193
255 214 193
255 214 193
255 214 193
255 214 193
255 214 193
255 214 193
255 214 193
255 214 193
255 214 193
255 214 193
255 214 193
255 214 193
255 214 193
255 214 193
255 214 193
255 226 205
255 214 193
255 214 193
255 214 193
255 214 193
255 214 193
255 214 193
255 214 193
255 214 193
255 214 193
255 214 193
255 214 193
255 214 193
255 214 193
255 214 193
255 214 193
255 214 193
255 214 193
255 214 193
255 214 193
255 214 193
255 214 193
255 214 193
255 214 193
255 214 193
255 214 193
255 214 193
255 214 193
255 214 193
255 214 193
255 214 193
255 214 193
255 214 193
255 214 193
255 214 193
255 214 193
255 214 193
255 226 205
255 214 193
255 214 193
255 214 193
255 214 193
255 214 193
255 214 193
255 214 193
255 214 193
255 214 193
255 214 193
255 214 193
255 214 193
255 214 193
255 214 193
255 214 193
255 214 193
255 214 193
255 214 193
255 214 193
255 214 193
255 214 193
255 214 193
255 214 193
255 214 193
255 214 193
255 214 193
255 214 193
255 214 193
255 214 193
255 214 193
255 214 193
255 214 193
255 214 193
255 214 193
255 214 193
255 214 193
255 226 205
255 214 193
255 214 193
255 214 193
255 214 193
255 214 193
255 214 193
255 214 193
255 214 193
255 214 193
255 214 193
255 214 193
255 214 193
255 214 193
255 214 193
255 214 193
255 214 193
255 214 193
255 214 193
255 214 193
255 214 193
255 214 193
255 214 193
255 214 193
255 214 193
255 214 193
255 214 193
255 214 193
255 214 193
255 214 193
255 214 193
255 214 193
255 214 193
255 214 193
255 214 193
255 214 193
255 214 193
255 226 205
255 214 193
255 214 193
255 214 193
255 214 193
255 214 193
255 214 193
255 214 193
255 214 193
255 214 193
255 214 193
255 214 193
255 214 193
255 214 193
255 214 193
255 214 193
255 214 193
255 214 193
255 214 193
255 214 193
255 214 193
255 214 193
255 214 193
255 214 193
255 214 193
255 214 193
255 214 193
255 214 193
255 214 193
255 214 193
255 214 193
255 214 193
255 214 193
255 214 193
255 214 193
255 214 193
255 214 193
255 226 205
255 214 193
255 214 193
255 214 193
255 214 193
255 214 193
255 214 193
255 214 193
255 214 193
255 214 193
255 214 193
255 214 193
255 214 193
255 214 193
255 214 193
255 214 193
255 214 193
255 214 193
255 214 193
255 214 193
255 214 193
255 214 193
255 214 193
255 214 193
255 214 193
255 214 193
255 214 193
255 214 193
255 214 193
255 214 193
255 214 193
255 214 193
255 214 193
255 214 193
255 214 193
255 214 193
255 214 193
255 226 205
255 214 193
255 214 193
255 214 193
255 214 193
255 214 193
255 214 193
255 214 193
255 214 193
255 214 193
255 214 193
255 214 193
255 214 193
255 214 193
255 214 193
255 214 193
255 214 193
255 214 193
255 214 193
255 214 193
255 214 193
255 214 193
255 214 193
255 214 193
255 214 193
255 214 193
255 214 193
255 214 193
255 214 193
255 214 193
255 214 193
255 214 193
255 214 193
255 214 193
255 214 193
255 214 193
255 214 193
255 226 205
255 214 193
255 214 193
255 214 193
255 214 193
255 214 193
255 214 193
255 214 193
255 214 193
255 214 193
255 214 193
255 214 193
255 214 193
255 214 193
255 214 193
255 214 193
255 214 193
255 214 193
255 214 193
255 214 193
255 214 193
255 214 193
255 214 193
255 214 193
255 214 193
255 214 193
255 214 193
255 214 193
255 214 193
255 214 193
255 214 193
255 214 193
255 214 193
255 214 193
255 214 193
255 214 193
255 214 193
255 226 205
255 214 193
255 214 193
255 214 193
255 214 193
255 214 193
255 214 193
255 214 193
255 214 193
255 214 193
255 214 193
255 214 193
255 214 193
255 214 193
255 214 193
255 214 193
255 214 193
255 214 193
255 214 193
255 214 193
255 214 193
255 214 193
255 214 193
255 214 193
255 214 193
255 214 193
255 214 193
255 214 193
255 214 193
255 214 193
255 214 193
255 214 193
255 214 193
255 214 193
255 214 193
255 214 193
255 214 193
255 226 205
255 214 193
255 214 193
255 214 193
255 214 193
255 214 193
255 214 193
255 214 193
255 214 193
255 214 193
255 214 193
255 214 193
255 214 193
255 214 193
255 214 193
255 214 193
255 214 193
255 214 193
255 214 193
255 214 193
255 214 193
255 214 193
255 214 193
255 226 205
255 214 193
255 214 193
255 214 193
255 214 193
255 214 193
255 214 193
255 214 193
255 214 193
255 214 193
255 214 193
255 214 193
255 214 193
255 214 193
255 214 193
255 214 193
255 214 193
255 214 193
255 214 193
255 214 193
255 214 193
255 214 193
255 214 193
255 214 193
255 214 193
255 214 193
255 214 193
255 214 193
255 214 193
255 214 193
255 214 193
255 214 193
255 214 193
255 214 193
255 214 193
255 214 193
255 214 193
255 226 205
255 214 193
255 214 193
255 214 193
255 214 193
255 214 193
255 214 193
255 214 193
255 214 193
255 214 193
255 214 193
255 214 193
255 214 193
255 214 193
255 214 193
255 214 193
255 214 193
255 214 193
255 214 193
255 214 193
255 214 193
255 214 193
255 214 193
255 214 193
255 214 193
255 214 193
255 214 193
255 214 193
255 214 193
255 214 193
255 214 193
255 214 193
255 214 193
255 214 193
255 214 193
255 214 193
255 214 193
255 226 205
255 214 193
255 214 193
255 214 193
255 214 193
255 214 193
255 214 193
255 214 193
255 214 193
255 214 193
255 214 193
255 214 193
255 214 193
255 214 193
255 214 193
255 214 193
255 214 193
255 214 193
255 214 193
255 214 193
255 214 193
255 214 193
255 214 193
255 214 193
255 214 193
255 214 193
255 214 193
255 214 193
255 214 193
255 214 193
255 214 193
255 214 193
255 214 193
255 214 193
255 214 193
255 214 193
255 214 193
255 226 205
255 214 193
255 214 193
255 214 193
255 214 193
255 214 193
255 214 193
255 214 193
255 214 193
255 214 193
255 214 193
255 214 193
255 214 193
255 214 193
255 214 193
255 214 193
255 214 193
255 214 193
255 214 193
255 214 193
255 214 193
255 214 193
255 214 193
255 214 193
255 214 193
255 214 193
255 214 193
255 214 193
255 214 193
255 214 193
255 214 193
255 214 193
255 214 193
255 214 193
255 214 193
255 214 193
255 214 193
255 226 205
255 214 193
255 214 193
255 214 193
255 214 193
255 214 193
255 214 193
255 214 193
255 214 193
255 214 193
255 214 193
255 214 193
255 214 193
255 214 193
255 214 193
255 214 193
255 214 193
255 214 193
255 214 193
255 214 193
255 214 193
255 214 193
255 214 193
255 214 193
255 214 193
255 214 193
255 214 193
255 214 193
255 214 193
255 214 193
255 214 193
255 214 193
255 214 193
255 214 193
255 214 193
255 214 193
255 214 193
255 226 205
255 214 193
255 214 193
255 214 193
255 214 193
255 214 193
255 214 193
255 214 193
255 214 193
255 214 193
255 214 193
255 214 193
255 214 193
255 214 193
255 214 193
255 214 193
255 214 193
255 214 193
255 214 193
255 214 193
255 214 193
255 214 193
255 214 193
255 214 193
255 214 193
255 214 193
255 214 193
255 214 193
255 214 193
255 214 193
255 214 193
255 214 193
255 214 193
255 214 193
255 214 193
255 214 193
255 214 193
255 226 205
255 214 193
255 214 193
255 214 193
255 214 193
255 214 193
255 214 193
255 214 193
255 214 193
255 214 193
255 214 193
255 214 193
255 214 193
255 214 193
255 214 193
255 214 193
255 214 193
255 214 193
255 214 193
255 214 193
255 214 193
255 214 193
255 214 193
255 214 193
255 214 193
255 214 193
255 214 193
255 214 193
255 214 193
255 214 193
255 214 193
255 214 193
255 214 193
255 214 193
255 214 193
255 214 193
255 214 193
255 226 205
255 214 193
255 214 193
255 214 193
255 214 193
255 214 193
255 214 193
255 214 193
255 214 193
255 214 193
255 214 193
255 214 193
255 214 193
255 214 193
255 214 193
255 214 193
255 214 193
255 214 193
255 214 193
255 214 193
255 214 193
255 214 193
255 214 193
255 214 193
255 214 193
255 214 193
255 214 193
255 214 193
255 214 193
255 214 193
255 214 193
255 214 193
255 214 193
255 214 193
255 214 193
255 214 193
255 214 193
255 226 205
255 214 193
255 214 193
255 214 193
255 214 193
255 214 193
255 214 193
255 214 193
255 214 193
255 214 193
255 214 193
255 214 193
255 214 193
255 214 193
255 214 193
255 214 193
255 214 193
255 214 193
255 214 193
255 214 193
255 214 193
255 214 193
255 214 193
255 214 193
255 214 193
255 214 193
255 214 193
255 214 193
255 214 193
255 214 193
255 214 193
255 214 193
255 214 193
255 214 193
255 214 193
255 214 193
255 214 193
255 214 193
255 214 193
255 214 193
255 214 193
255 214 193
255 214 193
255 214 193
255 214 193
255 214 193
255 214 193
255 214 193
255 214 193
255 214 193
255 214 193
255 214 193
255 214 193
255 214 193
255 214 193
255 214 193
255 214 193
255 214 193
255 214 193
255 214 193
255 226 205
255 214 193
255 214 193
255 214 193
255 214 193
255 214 193
255 214 193
255 214 193
255 214 193
255 214 193
255 214 193
255 214 193
255 214 193
255 214 193
255 214 193
255 214 193
255 214 193
255 214 193
255 214 193
255 214 193
255 214 193
255 214 193
255 214 193
255 214 193
255 214 193
255 214 193
255 214 193
255 214 193
255 214 193
255 214 193
255 214 193
255 214 193
255 214 193
255 214 193
255 214 193
255 214 193
255 214 193
255 226 205
255 214 193
255 214 193
255 214 193
255 214 193
255 214 193
255 214 193
255 214 193
255 214 193
255 214 193
255 214 193
255 214 193
255 214 193
255 214 193
255 214 193
255 214 193
255 214 193
255 214 193
255 214 193
255 214 193
255 214 193
255 214 193
255 214 193
255 214 193
255 214 193
255 214 193
255 214 193
255 214 193
255 214 193
255 214 193
255 214 193
255 214 193
255 214 193
255 214 193
255 214 193
255 214 193
255 214 193
255 226 205
255 214 193
255 214 193
255 214 193
255 214 193
255 214 193
255 214 193
255 214 193
255 214 193
255 214 193
255 214 193
255 214 193
255 214 193
255 214 193
255 214 193
255 214 193
255 214 193
255 214 193
255 214 193
255 214 193
255 214 193
255 214 193
255 214 193
255 214 193
255 214 193
255 214 193
255 214 193
255 214 193
255 214 193
255 214 193
255 214 193
255 214 193
255 214 193
255 214 193
255 214 193
255 214 193
255 214 193
255 226 205
255 214 193
255 214 193
255 214 193
255 214 193
255 214 193
255 214 193
255 214 193
255 214 193
255 214 193
255 214 193
255 214 193
255 214 193
255 214 193
255 214 193
255 214 193
255 214 193
255 214 193
255 214 193
255 214 193
255 214 193
255 214 193
255 214 193
255 214 193
255 214 193
255 214 193
255 214 193
255 214 193
255 214 193
255 214 193
255 214 193
255 214 193
255 214 193
255 214 193
255 214 193
255 214 193
255 214 193
255 226 205
255 214 193
255 214 193
255 214 193
255 214 193
255 214 193
255 214 193
255 214 193
255 214 193
255 214 193
255 214 193
255 214 193
255 214 193
255 214 193
255 214 193
255 214 193
255 214 193
255 214 193
255 214 193
255 214 193
255 214 193
255 214 193
255 214 193
255 214 193
255 214 193
255 214 193
255 214 193
255 214 193
255 214 193
255 214 193
255 214 193
255 214 193
255 214 193
255 214 193
255 214 193
255 214 193
255 214 193
255 226 205
255 214 193
255 214 193
255 214 193
255 214 193
255 214 193
255 214 193
255 214 193
255 214 193
255 214 193
255 214 193
255 214 193
255 214 193
255 214 193
255 214 193
255 214 193
255 214 193
255 214 193
255 214 193
255 214 193
255 214 193
255 214 193
255 214 193
255 214 193
255 214 193
255 214 193
255 214 193
255 214 193
255 214 193
255 214 193
255 214 193
255 214 193
255 214 193
255 214 193
255 214 193
255 214 193
255 214 193
255 226 205
255 214 193
255 214 193
255 214 193
255 214 193
255 214 193
255 214 193
255 214 193
255 214 193
255 214 193
255 214 193
255 214 193
255 214 193
255 214 193
255 214 193
255 214 193
255 214 193
255 214 193
255 214 193
255 214 193
255 214 193
255 214 193
255 214 193
255 214 193
255 214 193
255 214 193
255 214 193
255 214 193
255 214 193
255 214 193
255 214 193
255 214 193
255 214 193
255 214 193
255 214 193
255 214 193
255 214 193
255 226 205
255 214 193
255 214 193
255 214 193
255 214 193
255 214 193
255 214 193
255 214 193
255 214 193
255 214 193
255 214 193
255 214 193
255 214 193
255 214 193
255 214 193
255 214 193
255 214 193
255 214 193
255 214 193
255 214 193
255 214 193
255 214 193
255 214 193
255 214 193
255 214 193
255 214 193
255 214 193
255 214 193
255 214 193
255 214 193
255 214 193
255 214 193
255 214 193
255 214 193
255 214 193
255 214 193
255 214 193
255 214 193
255 214 193
255 214 193
255 214 193
255 214 193
255 214 193
255 214 193
255 214 193
255 214 193
255 214 193
255 214 193
255 214 193
255 214 193
255 214 193
255 214 193
255 214 193
255 214 193
255 214 193
255 214 193
255 214 193
255 214 193
255 214 193
255 214 193
255 226 205
255 214 193
255 214 193
255 214 193
255 214 193
255 214 193
255 214 193
255 214 193
255 214 193
255 214 193
255 214 193
255 214 193
255 214 193
255 214 193
255 214 193
255 214 193
255 214 193
255 214 193
255 214 193
255 214 193
255 214 193
255 214 193
255 214 193
255 214 193
255 214 193
255 214 193
255 214 193
255 214 193
255 214 193
255 214 193
255 214 193
255 214 193
255 214 193
255 214 193
255 214 193
255 214 193
255 214 193
255 226 205
255 214 193
255 214 193
255 214 193
255 214 193
255 214 193
255 214 193
255 214 193
255 214 193
255 214 193
255 214 193
255 214 193
255 214 193
255 214 193
255 214 193
255 214 193
255 214 193
255 214 193
255 214 193
255 214 193
255 214 193
255 214 193
255 214 193
255 214 193
255 214 193
255 214 193
255 214 193
255 214 193
255 214 193
255 214 193
255 214 193
255 214 193
255 214 193
255 214 193
255 214 193
255 214 193
255 214 193
255 226 205
255 214 193
255 214 193
255 214 193
255 214 193
255 214 193
255 214 193
255 214 193
255 214 193
255 214 193
255 214 193
255 214 193
255 214 193
255 214 193
255 214 193
255 214 193
255 214 193
255 214 193
255 214 193
255 214 193
255 214 193
255 214 193
255 214 193
255 214 193
255 214 193
255 214 193
255 214 193
255 214 193
255 214 193
255 214 193
255 214 193
255 214 193
255 214 193
255 214 193
255 214 193
255 214 193
255 214 193
255 226 205
255 214 193
255 214 193
255 214 193
255 214 193
255 214 193
255 214 193
255 214 193
255 214 193
255 214 193
255 214 193
255 214 193
255 214 193
255 214 193
255 214 193
255 214 193
255 214 193
255 214 193
255 214 193
255 214 193
255 214 193
255 214 193
255 214 193
255 214 193
255 214 193
255 214 193
255 214 193
255 214 193
255 214 193
255 214 193
255 214 193
255 214 193
255 214 193
255 214 193
255 214 193
255 214 193
255 214 193
255 226 205
255 214 193
255 214 193
255 214 193
255 214 193
255 214 193
255 214 193
255 214 193
255 214 193
255 214 193
255 214 193
255 214 193
255 214 193
255 214 193
255 214 193
255 214 193
255 214 193
255 214 193
255 214 193
255 214 193
255 214 193
255 214 193
255 214 193
255 214 193
255 214 193
255 214 193
255 214 193
255 214 193
255 214 193
255 214 193
255 214 193
255 214 193
255 214 193
255 214 193
255 214 193
255 214 193
255 214 193
255 226 205
255 214 193
255 214 193
255 214 193
255 214 193
255 214 193
255 214 193
255 214 193
255 214 193
255 214 193
255 214 193
255 214 193
255 214 193
255 214 193
255 214 193
255 214 193
255 214 193
255 214 193
255 214 193
255 214 193
255 214 193
255 214 193
255 214 193
255 214 193
255 214 193
255 214 193
255 214 193
255 214 193
255 214 193
255 214 193
255 214 193
255 214 193
255 214 193
255 214 193
255 214 193
255 214 193
255 214 193
255 226 205
255 214 193
255 214 193
255 214 193
255 214 193
255 214 193
255 214 193
255 214 193
255 214 193
255 214 193
255 214 193
255 214 193
255 214 193
255 214 193
255 214 193
255 214 193
255 214 193
255 214 193
255 214 193
255 214 193
255 214 193
255 214 193
255 214 193
255 214 193
255 214 193
255 214 193
255 214 193
255 214 193
255 214 193
255 214 193
255 214 193
255 214 193
255 214 193
255 214 193
255 214 193
255 214 193
255 214 193
255 226 205
255 214 193
255 214 193
255 214 193
255 214 193
255 214 193
255 214 193
255 214 193
255 214 193
255 214 193
255 214 193
255 214 193
255 214 193
255 214 193
255 214 193
255 214 193
255 214 193
255 214 193
255 214 193
255 214 193
255 214 193
255 214 193
255 214 193
255 214 193
255 214 193
255 214 193
255 214 193
255 214 193
255 214 193
255 214 193
255 214 193
255 214 193
255 214 193
255 214 193
255 214 193
255 214 193
255 214 193
255 214 193
255 214 193
255 214 193
255 214 193
255 214 193
255 214 193
255 214 193
255 214 193
255 214 193
255 214 193
255 214 193
255 214 193
255 214 193
255 214 193
255 214 193
255 214 193
255 214 193
255 214 193
255 214 193
255 214 193
255 214 193
255 214 193
255 214 193
255 226 205
255 214 193
255 214 193
255 214 193
255 214 193
255 214 193
255 214 193
255 214 193
255 214 193
255 214 193
255 214 193
255 214 193
255 214 193
255 214 193
255 214 193
255 214 193
255 214 193
255 214 193
255 214 193
255 214 193
255 214 193
255 214 193
255 214 193
255 214 193
255 214 193
255 214 193
255 214 193
255 214 193
255 214 193
255 214 193
255 214 193
255 214 193
255 214 193
255 214 193
255 214 193
255 214 193
255 214 193
255 226 205
255 214 193
255 214 193
255 214 193
255 214 193
255 214 193
255 214 193
255 214 193
255 214 193
255 214 193
255 214 193
255 214 193
255 214 193
255 214 193
255 214 193
255 214 193
255 214 193
255 214 193
255 214 193
255 214 193
255 214 193
255 214 193
255 214 193
255 214 193
255 214 193
255 214 193
255 214 193
255 214 193
255 214 193
255 214 193
255 214 193
255 214 193
255 214 193
255 214 193
255 214 193
255 214 193
255 214 193
255 226 205
255 214 193
255 214 193
255 214 193
255 214 193
255 214 193
255 214 193
255 214 193
255 214 193
255 214 193
255 214 193
255 214 193
255 214 193
255 214 193
255 214 193
255 214 193
255 214 193
255 214 193
255 214 193
255 214 193
255 214 193
255 214 193
255 214 193
255 214 193
255 214 193
255 214 193
255 214 193
255 214 193
255 214 193
255 214 193
255 214 193
255 214 193
255 214 193
255 214 193
255 214 193
255 214 193
255 214 193
255 226 205
255 214 193
255 214 193
255 214 193
255 214 193
255 214 193
255 214 193
255 214 193
255 214 193
255 214 193
255 214 193
255 214 193
255 214 193
255 214 193
255 214 193
255 214 193
255 214 193
255 214 193
255 214 193
255 214 193
255 214 193
255 214 193
255 214 193
255 214 193
255 214 193
255 214 193
255 214 193
255 214 193
255 214 193
255 214 193
255 214 193
255 214 193
255 214 193
255 214 193
255 214 193
255 214 193
255 214 193
255 226 205
255 214 193
255 214 193
255 214 193
255 214 193
255 214 193
255 214 193
255 214 193
255 214 193
255 214 193
255 214 193
255 214 193
255 214 193
255 214 193
255 214 193
255 214 193
255 214 193
255 214 193
255 214 193
255 214 193
255 214 193
255 214 193
255 214 193
255 214 193
255 214 193
255 214 193
255 214 193
255 214 193
255 214 193
255 214 193
255 214 193
255 214 193
255 214 193
255 214 193
255 214 193
255 214 193
255 214 193
255 226 205
255 214 193
255 214 193
255 214 193
255 214 193
255 214 193
255 214 193
255 214 193
255 214 193
255 214 193
255 214 193
255 214 193
255 214 193
255 214 193
255 214 193
255 214 193
255 214 193
255 214 193
255 214 193
255 214 193
255 214 193
255 214 193
255 214 193
255 214 193
255 214 193
255 214 193
255 214 193
255 214 193
255 214 193
255 214 193
255 214 193
255 214 193
255 214 193
255 214 193
255 214 193
255 214 193
255 214 193
255 226 205
255 214 193
255 214 193
255 214 193
255 214 193
255 214 193
255 214 193
255 214 193
255 214 193
255 214 193
255 214 193
255 214 193
255 214 193
255 214 193
255 214 193
255 214 193
255 214 193
255 214 193
255 214 193
255 214 193
255 214 193
255 214 193
255 214 193
255 214 193
255 214 193
255 214 193
255 214 193
255 214 193
255 214 193
255 214 193
255 214 193
255 214 193
255 214 193
255 214 193
255 214 193
255 214 193
255 214 193
255 226 205
255 214 193
255 214 193
255 214 193
255 214 193
255 214 193
255 214 193
255 214 193
255 214 193
255 214 193
255 214 193
255 214 193
255 214 193
255 214 193
255 214 193
255 214 193
255 214 193
255 214 193
255 214 193
255 214 193
255 214 193
255 214 193
255 214 193
255 214 193
255 214 193
255 214 193
255 214 193
255 214 193
255 214 193
255 214 193
255 214 193
255 214 193
255 214 193
255 214 193
255 214 193
255 214 193
255 214 193
255 214 193
255 214 193
255 214 193
255 214 193
255 214 193
255 214 193
255 214 193
255 214 193
255 214 193
255 214 193
255 214 193
255 214 193
255 214 193
255 214 193
255 214 193
255 214 193
255 214 193
255 214 193
255 214 193
255 214 193
255 214 193
255 214 193
255 214 193
255 226 205
255 214 193
255 214 193
255 214 193
255 214 193
255 214 193
255 214 193
255 214 193
255 214 193
255 214 193
255 214 193
255 214 193
255 214 193
255 214 193
255 214 193
255 214 193
255 214 193
255 214 193
255 214 193
255 214 193
255 214 193
255 214 193
255 214 193
255 214 193
255 214 193
255 214 193
255 214 193
255 214 193
255 214 193
255 214 193
255 214 193
255 214 193
255 214 193
255 214 193
255 214 193
255 214 193
255 214 193
255 226 205
255 214 193
255 214 193
255 214 193
255 214 193
255 214 193
255 214 193
255 214 193
255 214 193
255 214 193
255 214 193
255 214 193
255 214 193
255 214 193
255 214 193
255 214 193
255 214 193
255 214 193
255 214 193
255 214 193
255 214 193
255 214 193
255 214 193
255 214 193
255 214 193
255 214 193
255 214 193
255 214 193
255 214 193
255 214 193
255 214 193
255 214 193
255 214 193
255 214 193
255 214 193
255 214 193
255 214 193
255 226 205
255 214 193
255 214 193
255 214 193
255 214 193
255 214 193
255 214 193
255 214 193
255 214 193
255 214 193
255 214 193
255 214 193
255 214 193
255 214 193
255 214 193
255 214 193
255 214 193
255 214 193
255 214 193
255 214 193
255 214 193
255 214 193
255 214 193
255 214 193
255 214 193
255 214 193
255 214 193
255 214 193
255 214 193
255 214 193
255 214 193
255 214 193
255 214 193
255 214 193
255 214 193
255 214 193
255 214 193
255 226 205
255 214 193
255 214 193
255 214 193
255 214 193
255 214 193
255 214 193
255 214 193
255 214 193
255 214 193
255 214 193
255 214 193
255 214 193
255 214 193
255 214 193
255 214 193
255 214 193
255 214 193
255 214 193
255 214 193
255 214 193
255 214 193
255 214 193
255 214 193
255 214 193
255 214 193
255 214 193
255 214 193
255 214 193
255 214 193
255 214 193
255 214 193
255 214 193
255 214 193
255 214 193
255 214 193
255 214 193
255 226 205
255 214 193
255 214 193
255 214 193
255 214 193
255 214 193
255 214 193
255 214 193
255 214 193
255 214 193
255 214 193
255 214 193
255 214 193
255 214 193
255 214 193
255 214 193
255 214 193
255 214 193
255 214 193
255 214 193
255 214 193
255 214 193
255 214 193
255 214 193
255 214 193
255 214 193
255 214 193
255 214 193
255 214 193
255 214 193
255 214 193
255 214 193
255 214 193
255 214 193
255 214 193
255 214 193
255 214 193
255 226 205
255 214 193
255 214 193
255 214 193
255 214 193
255 214 193
255 214 193
255 214 193
255 214 193
255 214 193
255 214 193
255 214 193
255 214 193
255 214 193
255 214 193
255 214 193
255 214 193
255 214 193
255 214 193
255 214 193
255 214 193
255 214 193
255 214 193
255 214 193
255 214 193
255 214 193
255 214 193
255 214 193
255 214 193
255 214 193
255 214 193
255 214 193
255 214 193
255 214 193
255 214 193
255 214 193
255 214 193
255 226 205
255 214 193
255 214 193
255 214 193
255 214 193
255 214 193
255 214 193
255 214 193
255 214 193
255 214 193
255 214 193
255 214 193
255 214 193
255 214 193
255 214 193
255 214 193
255 214 193
255 214 193
255 214 193
255 214 193
255 214 193
255 214 193
255 214 193
255 214 193
255 214 193
255 214 193
255 214 193
255 214 193
255 214 193
255 214 193
255 214 193
255 214 193
255 214 193
255 214 193
255 214 193
255 214 193
255 214 193
255 226 205
255 214 193
255 214 193
255 214 193
255 214 193
255 214 193
255 214 193
255 214 193
255 214 193
255 214 193
255 214 193
255 214 193
255 214 193
255 214 193
255 214 193
255 214 193
255 214 193
255 214 193
255 214 193
255 214 193
255 214 193
255 214 193
255 214 193
255 214 193
255 214 193
255 214 193
255 214 193
255 214 193
255 214 193
255 214 193
255 214 193
255 214 193
255 214 193
255 214 193
255 214 193
255 214 193
255 214 193
255 214 193
255 214 193
255 214 193
255 214 193
255 214 193
255 214 193
255 214 193
255 214 193
255 214 193
255 214 193
255 214 193
255 214 193
255 214 193
255 214 193
255 214 193
255 214 193
255 214 193
255 214 193
255 214 193
255 214 193
255 214 193
255 214 193
255 214 193
255 226 205
255 214 193
255 214 193
255 214 193
255 214 193
255 214 193
255 214 193
255 214 193
255 214 193
255 214 193
255 214 193
255 214 193
255 214 193
255 214 193
255 214 193
255 214 193
255 214 193
255 214 193
255 214 193
255 214 193
255 214 193
255 214 193
255 214 193
255 214 193
255 214 193
255 214 193
255 214 193
255 214 193
255 214 193
255 214 193
255 214 193
255 214 193
255 214 193
255 214 193
255 214 193
255 214 193
255 214 193
255 226 205
255 214 193
255 214 193
255 214 193
255 214 193
255 214 193
255 214 193
255 214 193
255 214 193
255 214 193
255 214 193
255 214 193
255 214 193
255 214 193
255 214 193
255 214 193
255 214 193
255 214 193
255 214 193
255 214 193
255 214 193
255 214 193
255 214 193
255 214 193
255 214 193
255 214 193
255 214 193
255 214 193
255 214 193
255 214 193
255 214 193
255 214 193
255 214 193
255 214 193
255 214 193
255 214 193
255 214 193
255 226 205
255 214 193
255 214 193
255 214 193
255 214 193
255 214 193
255 214 193
255 214 193
255 214 193
255 214 193
255 214 193
255 214 193
255 214 193
255 214 193
255 214 193
255 214 193
255 214 193
255 214 193
255 214 193
255 214 193
255 214 193
255 214 193
255 214 193
255 214 193
255 214 193
255 214 193
255 214 193
255 214 193
255 214 193
255 214 193
255 214 193
255 214 193
255 214 193
255 214 193
255 214 193
255 214 193
255 214 193
255 226 205
255 214 193
255 214 193
255 214 193
255 214 193
255 214 193
255 214 193
255 214 193
255 214 193
255 214 193
255 214 193
255 214 193
255 214 193
255 214 193
255 214 193
255 214 193
255 214 193
255 214 193
255 214 193
255 214 193
255 214 193
255 214 193
255 214 193
255 214 193
255 214 193
255 214 193
255 214 193
255 214 193
255 214 193
255 214 193
255 214 193
255 214 193
255 214 193
255 214 193
255 214 193
255 214 193
255 214 193
255 226 205
255 214 193
255 214 193
255 214 193
255 214 193
255 214 193
255 214 193
255 214 193
255 214 193
255 214 193
255 214 193
255 214 193
255 214 193
255 214 193
255 214 193
255 214 193
255 214 193
255 214 193
255 214 193
255 214 193
255 214 193
255 214 193
255 214 193
255 214 193
255 214 193
255 214 193
255 214 193
255 214 193
255 214 193
255 214 193
255 214 193
255 214 193
255 214 193
255 214 193
255 214 193
255 214 193
255 214 193
255 226 205
255 214 193
255 214 193
255 214 193
255 214 193
255 214 193
255 214 193
255 214 193
255 214 193
255 214 193
255 214 193
255 214 193
255 214 193
255 214 193
255 214 193
255 214 193
255 214 193
255 214 193
255 214 193
255 214 193
255 214 193
255 214 193
255 214 193
255 214 193
255 214 193
255 214 193
255 214 193
255 214 193
255 214 193
255 214 193
255 214 193
255 214 193
255 214 193
255 214 193
255 214 193
255 214 193
255 214 193
255 226 205
255 214 193
255 214 193
255 214 193
255 214 193
255 214 193
255 214 193
255 214 193
255 214 193
255 214 193
255 214 193
255 214 193
255 214 193
255 214 193
255 214 193
255 214 193
255 214 193
255 214 193
255 214 193
255 214 193
255 214 193
255 214 193
255 214 193
255 214 193
255 214 193
255 214 193
255 214 193
255 214 193
255 214 193
255 214 193
255 214 193
255 214 193
255 214 193
255 214 193
255 214 193
255 214 193
255 214 193
255 226 205
255 214 193
255 214 193
255 214 193
255 214 193
255 214 193
255 214 193
255 214 193
255 214 193
255 214 193
255 214 193
255 214 193
255 214 193
255 214 193
255 214 193
255 214 193
255 214 193
255 214 193
255 214 193
255 214 193
255 214 193
255 214 193
255 214 193
255 214 193
255 214 193
255 214 193
255 214 193
255 214 193
255 214 193
255 214 193
255 214 193
255 214 193
255 214 193
255 214 193
255 214 193
255 214 193
255 214 193
255 214 193
255 214 193
255 214 193
255 214 193
255 214 193
255 214 193
255 214 193
255 214 193
255 214 193
255 214 193
255 214 193
255 214 193
255 214 193
255 214 193
255 214 193
255 214 193
255 214 193
255 214 193
255 214 193
255 214 193
255 214 193
255 214 193
255 214 193
255 226 205
255 214 193
255 214 193
255 214 193
255 214 193
255 214 193
255 214 193
255 214 193
255 214 193
255 214 193
255 214 193
255 214 193
255 214 193
255 214 193
255 214 193
255 214 193
255 214 193
255 214 193
255 214 193
255 214 193
255 214 193
255 214 193
255 214 193
255 214 193
255 214 193
255 214 193
255 214 193
255 214 193
255 214 193
255 214 193
255 214 193
255 214 193
255 214 193
255 214 193
255 214 193
255 214 193
255 214 193
255 226 205
255 214 193
255 214 193
255 214 193
255 214 193
255 214 193
255 214 193
255 214 193
255 214 193
255 214 193
255 214 193
255 214 193
255 214 193
255 214 193
255 214 193
255 214 193
255 214 193
255 214 193
255 214 193
255 214 193
255 214 193
255 214 193
255 214 193
255 214 193
255 214 193
255 214 193
255 214 193
255 214 193
255 214 193
255 214 193
255 214 193
255 214 193
255 214 193
255 214 193
255 214 193
255 214 193
255 214 193
255 226 205
255 214 193
255 214 193
255 214 193
255 214 193
255 214 193
255 214 193
255 214 193
255 214 193
255 214 193
255 214 193
255 214 193
255 214 193
255 214 193
255 214 193
255 214 193
255 214 193
255 214 193
255 214 193
255 214 193
255 214 193
255 214 193
255 214 193
255 214 193
255 214 193
255 214 193
255 214 193
255 214 193
255 214 193
255 214 193
255 214 193
255 214 193
255 214 193
255 214 193
255 214 193
255 214 193
255 214 193
255 226 205
255 214 193
255 214 193
255 214 193
255 214 193
255 214 193
255 214 193
255 214 193
255 214 193
255 214 193
255 214 193
255 214 193
255 214 193
255 214 193
255 214 193
255 214 193
255 214 193
255 214 193
255 214 193
255 214 193
255 214 193
255 214 193
255 214 193
255 214 193
255 214 193
255 214 193
255 214 193
255 214 193
255 214 193
255 214 193
255 214 193
255 214 193
255 214 193
255 214 193
255 214 193
255 214 193
255 214 193
255 226 205
255 214 193
255 214 193
255 214 193
255 214 193
255 214 193
255 214 193
255 214 193
255 214 193
255 214 193
255 214 193
255 214 193
255 214 193
255 214 193
255 214 193
255 214 193
255 214 193
255 214 193
255 214 193
255 214 193
255 214 193
255 214 193
255 214 193
255 214 193
255 214 193
255 214 193
255 214 193
255 214 193
255 214 193
255 214 193
255 214 193
255 214 193
255 214 193
255 214 193
255 214 193
255 214 193
255 214 193
255 226 205
255 214 193
255 214 193
255 214 193
255 214 193
255 214 193
255 214 193
255 214 193
255 214 193
255 214 193
255 214 193
255 214 193
255 214 193
255 214 193
255 214 193
255 214 193
255 214 193
255 214 193
255 214 193
255 214 193
255 214 193
255 214 193
255 214 193
255 214 193
255 214 193
255 214 193
255 214 193
255 214 193
255 214 193
255 214 193
255 214 193
255 214 193
255 214 193
255 214 193
255 214 193
255 214 193
255 214 193
255 226 205
255 214 193
255 214 193
255 214 193
255 214 193
255 214 193
255 214 193
255 214 193
255 214 193
255 214 193
255 214 193
255 214 193
255 214 193
255 214 193
255 214 193
255 214 193
255 214 193
255 214 193
255 214 193
255 214 193
255 214 193
255 214 193
255 214 193
255 214 193
255 214 193
255 214 193
255 214 193
255 214 193
255 214 193
255 214 193
255 214 193
255 214 193
255 214 193
255 214 193
255 214 193
255 214 193
255 214 193
255 226 205
255 214 193
255 214 193
255 214 193
255 214 193
255 214 193
255 214 193
255 214 193
255 214 193
255 214 193
255 214 193
255 214 193
255 214 193
255 214 193
255 214 193
255 214 193
255 214 193
255 214 193
255 214 193
255 214 193
255 214 193
255 214 193
255 214 193
255 214 193
255 214 193
255 214 193
255 214 193
255 214 193
255 214 193
255 214 193
255 214 193
255 214 193
255 214 193
255 214 193
255 214 193
255 214 193
255 214 193
255 214 193
255 214 193
255 214 193
255 214 193
255 214 193
255 214 193
255 214 193
255 214 193
255 214 193
255 214 193
255 214 193
255 214 193
255 214 193
255 214 193
255 214 193
255 214 193
255 214 193
255 214 193
255 214 193
255 214 193
255 214 193
255 214 193
255 214 193
255 226 205
255 214 193
255 214 193
255 214 193
255 214 193
255 214 193
255 214 193
255 214 193
255 214 193
255 214 193
255 214 193
255 214 193
255 214 193
255 214 193
255 214 193
255 214 193
255 214 193
255 214 193
255 214 193
255 214 193
255 214 193
255 214 193
255 214 193
255 214 193
255 214 193
255 214 193
255 214 193
255 214 193
255 214 193
255 214 193
255 214 193
255 214 193
255 214 193
255 214 193
255 214 193
255 214 193
255 214 193
255 226 205
255 214 193
255 214 193
255 214 193
255 214 193
255 214 193
255 214 193
255 214 193
255 214 193
255 214 193
255 214 193
255 214 193
255 214 193
255 214 193
255 214 193
255 214 193
255 214 193
255 214 193
255 214 193
255 214 193
255 214 193
255 214 193
255 214 193
255 214 193
255 214 193
255 214 193
255 214 193
255 214 193
255 214 193
255 214 193
255 214 193
255 214 193
255 214 193
255 214 193
255 214 193
255 214 193
255 214 193
255 226 205
255 214 193
255 214 193
255 214 193
255 214 193
255 214 193
255 214 193
255 214 193
255 214 193
255 214 193
255 214 193
255 214 193
255 214 193
255 214 193
255 214 193
255 214 193
255 214 193
255 214 193
255 214 193
255 214 193
255 214 193
255 214 193
255 214 193
255 214 193
255 214 193
255 214 193
255 214 193
255 214 193
255 214 193
255 214 193
255 214 193
255 214 193
255 214 193
255 214 193
255 214 193
255 214 193
255 214 193
255 226 205
255 214 193
255 214 193
255 214 193
255 214 193
255 214 193
255 214 193
255 214 193
255 214 193
255 214 193
255 214 193
255 214 193
255 214 193
255 214 193
255 214 193
255 214 193
255 214 193
255 214 193
255 214 193
255 214 193
255 214 193
255 214 193
255 214 193
255 214 193
255 214 193
255 214 193
255 214 193
255 214 193
255 214 193
255 214 193
255 214 193
255 214 193
255 214 193
255 214 193
255 214 193
255 214 193
255 214 193
255 226 205
255 214 193
255 214 193
255 214 193
255 214 193
255 214 193
255 214 193
255 214 193
255 214 193
255 214 193
255 214 193
255 214 193
255 214 193
255 214 193
255 214 193
255 214 193
255 214 193
255 214 193
255 214 193
255 214 193
255 214 193
255 214 193
255 214 193
255 214 193
255 214 193
255 214 193
255 214 193
255 214 193
255 214 193
255 214 193
255 214 193
255 214 193
255 214 193
255 214 193
255 214 193
255 214 193
255 214 193
255 226 205
255 214 193
255 214 193
255 214 193
255 214 193
255 214 193
255 214 193
255 214 193
255 214 193
255 214 193
255 214 193
255 214 193
255 214 193
255 214 193
255 214 193
255 214 193
255 214 193
255 214 193
255 214 193
255 214 193
255 214 193
255 214 193
255 214 193
255 214 193
255 214 193
255 214 193
255 214 193
255 214 193
255 214 193
255 214 193
255 214 193
255 214 193
255 214 193
255 214 193
255 214 193
255 214 193
255 214 193
255 226 205
255 214 193
255 214 193
255 214 193
255 214 193
255 214 193
255 214 193
255 214 193
255 214 193
255 214 193
255 214 193
255 214 193
255 214 193
255 214 193
255 214 193
255 214 193
255 214 193
255 214 193
255 214 193
255 214 193
255 214 193
255 214 193
255 214 193
255 214 193
255 214 193
255 214 193
255 214 193
255 214 193
255 214 193
255 214 193
255 214 193
255 214 193
255 214 193
255 214 193
255 214 193
255 214 193
255 214 193
255 226 205
255 214 193
255 214 193
255 214 193
255 214 193
255 214 193
255 214 193
255 214 193
255 214 193
255 214 193
255 214 193
255 214 193
255 214 193
255 214 193
255 214 193
255 214 193
255 214 193
255 214 193
255 214 193
255 214 193
255 214 193
255 214 193
255 214 193
255 214 193
255 214 193
255 214 193
255 214 193
255 214 193
255 214 193
255 214 193
255 214 193
255 214 193
255 214 193
255 214 193
255 214 193
255 214 193
255 214 193
255 214 193
255 214 193
255 214 193
255 214 193
255 214 193
255 214 193
255 214 193
255 214 193
255 214 193
255 214 193
255 214 193
255 214 193
255 214 193
255 214 193
255 214 193
255 214 193
255 214 193
255 214 193
255 214 193
255 214 193
255 214 193
255 214 193
255 214 193
255 226 205
255 214 193
255 214 193
255 214 193
255 214 193
255 214 193
255 214 193
255 214 193
255 214 193
255 214 193
255 214 193
255 214 193
255 214 193
255 214 193
255 214 193
255 214 193
255 214 193
255 214 193
255 214 193
255 214 193
255 214 193
255 214 193
255 214 193
255 214 193
255 214 193
255 214 193
255 214 193
255 214 193
255 214 193
255 214 193
255 214 193
255 214 193
255 214 193
255 214 193
255 214 193
255 214 193
255 214 193
255 226 205
255 214 193
255 214 193
255 214 193
255 214 193
255 214 193
255 214 193
255 214 193
255 214 193
255 214 193
255 214 193
255 214 193
255 214 193
255 214 193
255 214 193
255 214 193
255 214 193
255 214 193
255 214 193
255 214 193
255 214 193
255 214 193
255 214 193
255 214 193
255 214 193
255 214 193
255 214 193
255 214 193
255 214 193
255 214 193
255 214 193
255 214 193
255 214 193
255 214 193
255 214 193
255 214 193
255 214 193
255 226 205
255 214 193
255 214 193
255 214 193
255 214 193
255 214 193
255 214 193
255 214 193
255 214 193
255 214 193
255 214 193
255 214 193
255 214 193
255 214 193
255 214 193
255 214 193
255 214 193
255 214 193
255 214 193
255 214 193
255 214 193
255 214 193
255 214 193
255 214 193
255 214 193
255 214 193
255 214 193
255 214 193
255 214 193
255 214 193
255 214 193
255 214 193
255 214 193
255 214 193
255 214 193
255 214 193
255 214 193
255 226 205
255 214 193
255 214 193
255 214 193
255 214 193
255 214 193
255 214 193
255 214 193
255 214 193
255 214 193
255 214 193
255 214 193
255 214 193
255 214 193
255 214 193
255 214 193
255 214 193
255 214 193
255 214 193
255 214 193
255 214 193
255 214 193
255 214 193
255 214 193
255 214 193
255 214 193
255 214 193
255 214 193
255 214 193
255 214 193
255 214 193
255 214 193
255 214 193
255 214 193
255 214 193
255 214 193
255 214 193
255 226 205
255 214 193
255 214 193
255 214 193
255 214 193
255 214 193
255 214 193
255 214 193
255 214 193
255 214 193
255 214 193
255 214 193
255 214 193
255 214 193
255 214 193
255 214 193
255 214 193
255 214 193
255 214 193
255 214 193
255 214 193
255 214 193
255 214 193
255 214 193
255 214 193
255 214 193
255 214 193
255 214 193
255 214 193
255 214 193
255 214 193
255 214 193
255 214 193
255 214 193
255 214 193
255 214 193
255 214 193
255 226 205
255 214 193
255 214 193
255 214 193
255 214 193
255 214 193
255 214 193
255 214 193
255 214 193
255 214 193
255 214 193
255 214 193
255 214 193
255 214 193
255 214 193
255 214 193
255 214 193
255 214 193
255 214 193
255 214 193
255 214 193
255 214 193
255 214 193
255 214 193
255 214 193
255 214 193
255 214 193
255 214 193
255 214 193
255 214 193
255 214 193
255 214 193
255 214 193
255 214 193
255 214 193
255 214 193
255 214 193
255 226 205
255 214 193
255 214 193
255 214 193
255 214 193
255 214 193
255 214 193
255 214 193
255 214 193
255 214 193
255 214 193
255 214 193
255 214 193
255 214 193
255 214 193
255 214 193
255 214 193
255 214 193
255 214 193
255 214 193
255 214 193
255 214 193
255 214 193
255 214 193
255 214 193
255 214 193
255 214 193
255 214 193
255 214 193
255 214 193
255 214 193
255 214 193
255 214 193
255 214 193
255 214 193
255 214 193
255 214 193
255 226 205
255 214 193
255 214 193
255 214 193
255 214 193
255 214 193
255 214 193
255 214 193
255 214 193
255 214 193
255 214 193
255 214 193
255 214 193
255 214 193
255 214 193
255 214 193
255 214 193
255 214 193
255 214 193
255 214 193
255 214 193
255 214 193
255 214 193
255 214 193
255 214 193
255 214 193
255 214 193
255 214 193
255 214 193
255 214 193
255 214 193
255 214 193
255 214 193
255 214 193
255 214 193
255 214 193
255 214 193
255 214 193
255 214 193
255 214 193
255 214 193
255 214 193
255 214 193
255 214 193
255 214 193
255 214 193
255 214 193
255 214 193
255 214 193
255 214 193
255 214 193
255 214 193
255 214 193
255 214 193
255 214 193
255 214 193
255 214 193
255 214 193
255 214 193
255 214 193
255 226 205
255 214 193
255 214 193
255 214 193
255 214 193
255 214 193
255 214 193
255 214 193
255 214 193
255 214 193
255 214 193
255 214 193
255 214 193
255 214 193
255 214 193
255 214 193
255 214 193
255 214 193
255 214 193
255 214 193
255 214 193
255 214 193
255 214 193
255 214 193
255 214 193
255 214 193
255 214 193
255 214 193
255 214 193
255 214 193
255 214 193
255 214 193
255 214 193
255 214 193
255 214 193
255 214 193
255 214 193
255 226 205
255 214 193
255 214 193
255 214 193
255 214 193
255 214 193
255 214 193
255 214 193
255 214 193
255 214 193
255 214 193
255 214 193
255 214 193
255 214 193
255 214 193
255 214 193
255 214 193
255 214 193
255 214 193
255 214 193
255 214 193
255 214 193
255 214 193
255 214 193
255 214 193
255 214 193
255 214 193
255 214 193
255 214 193
255 214 193
255 214 193
255 214 193
255 214 193
255 214 193
255 214 193
255 214 193
255 214 193
255 226 205
255 214 193
255 214 193
255 214 193
255 214 193
255 214 193
255 214 193
255 214 193
255 214 193
255 214 193
255 214 193
255 214 193
255 214 193
255 214 193
255 214 193
255 214 193
255 214 193
255 214 193
255 214 193
255 214 193
255 214 193
255 214 193
255 214 193
255 214 193
255 214 193
255 214 193
255 214 193
255 214 193
255 214 193
255 214 193
255 214 193
255 214 193
255 214 193
255 214 193
255 214 193
255 214 193
255 214 193
255 226 205
255 214 193
255 214 193
255 214 193
255 214 193
255 214 193
255 214 193
255 214 193
255 214 193
255 214 193
255 214 193
255 214 193
255 214 193
255 214 193
255 214 193
255 214 193
255 214 193
255 214 193
255 214 193
255 214 193
255 214 193
255 214 193
255 214 193
255 214 193
255 214 193
255 214 193
255 214 193
255 214 193
255 214 193
255 214 193
255 214 193
255 214 193
255 214 193
255 214 193
255 214 193
255 214 193
255 214 193
255 226 205
255 214 193
255 214 193
255 214 193
255 214 193
255 214 193
255 214 193
255 214 193
255 214 193
255 214 193
255 214 193
255 214 193
255 214 193
255 214 193
255 214 193
255 214 193
255 214 193
255 214 193
255 214 193
255 214 193
255 214 193
255 214 193
255 214 193
255 214 193
255 214 193
255 214 193
255 214 193
255 214 193
255 214 193
255 214 193
255 214 193
255 214 193
255 214 193
255 214 193
255 214 193
255 214 193
255 214 193
255 226 205
255 214 193
255 214 193
255 214 193
255 214 193
255 214 193
255 214 193
255 214 193
255 214 193
255 214 193
255 214 193
255 214 193
255 214 193
255 214 193
255 214 193
255 214 193
255 214 193
255 214 193
255 214 193
255 214 193
255 214 193
255 214 193
255 214 193
255 214 193
255 214 193
255 214 193
255 214 193
255 214 193
255 214 193
255 214 193
255 214 193
255 214 193
255 214 193
255 214 193
255 214 193
255 214 193
255 214 193
255 226 205
255 214 193
255 214 193
255 214 193
255 214 193
255 214 193
255 214 193
255 214 193
255 214 193
255 214 193
255 214 193
255 214 193
255 214 193
255 214 193
255 214 193
255 214 193
255 214 193
255 214 193
255 214 193
255 214 193
255 214 193
255 214 193
255 214 193
255 214 193
255 214 193
255 214 193
255 214 193
255 214 193
255 214 193
255 214 193
255 214 193
255 214 193
255 214 193
255 214 193
255 214 193
255 214 193
255 214 193
255 226 205
255 214 193
255 214 193
255 214 193
255 214 193
255 214 193
255 214 193
255 214 193
255 214 193
255 214 193
255 214 193
255 214 193
255 214 193
255 214 193
255 214 193
255 214 193
255 214 193
255 214 193
255 214 193
255 214 193
255 214 193
255 214 193
255 214 193
255 214 193
255 214 193
255 214 193
255 214 193
255 214 193
255 214 193
255 214 193
255 214 193
255 214 193
255 214 193
255 214 193
255 214 193
255 214 193
255 214 193
255 214 193
255 214 193
255 214 193
255 214 193
255 214 193
255 214 193
255 214 193
255 214 193
255 214 193
255 214 193
255 214 193
255 214 193
255 214 193
255 214 193
255 214 193
255 214 193
255 214 193
255 214 193
255 214 193
255 214 193
255 214 193
255 214 193
255 214 193
255 226 205
255 214 193
255 214 193
255 214 193
255 214 193
255 214 193
255 214 193
255 214 193
255 214 193
255 214 193
255 214 193
255 214 193
255 214 193
255 214 193
255 214 193
255 214 193
255 214 193
255 214 193
255 214 193
255 214 193
255 214 193
255 214 193
255 214 193
255 214 193
255 214 193
255 214 193
255 214 193
255 214 193
255 214 193
255 214 193
255 214 193
255 214 193
255 214 193
255 214 193
255 214 193
255 214 193
255 214 193
255 226 205
255 214 193
255 214 193
255 214 193
255 214 193
255 214 193
255 214 193
255 214 193
255 214 193
255 214 193
255 214 193
255 214 193
255 214 193
255 214 193
255 214 193
255 214 193
255 214 193
255 214 193
255 214 193
255 214 193
255 214 193
255 214 193
255 214 193
255 214 193
255 214 193
255 214 193
255 214 193
255 214 193
255 214 193
255 214 193
255 214 193
255 214 193
255 214 193
255 214 193
255 214 193
255 214 193
255 214 193
255 226 205
255 214 193
255 214 193
255 214 193
255 214 193
255 214 193
255 214 193
255 214 193
255 214 193
255 214 193
255 214 193
255 214 193
255 214 193
255 214 193
255 214 193
255 214 193
255 214 193
255 214 193
255 214 193
255 214 193
255 214 193
255 214 193
255 214 193
255 214 193
255 214 193
255 214 193
255 214 193
255 214 193
255 214 193
255 214 193
255 214 193
255 214 193
255 214 193
255 214 193
255 214 193
255 214 193
255 214 193
255 226 205
255 214 193
255 214 193
255 214 193
255 214 193
255 214 193
255 214 193
255 214 193
255 214 193
255 214 193
255 214 193
255 214 193
255 214 193
255 214 193
255 214 193
255 214 193
255 214 193
255 214 193
255 214 193
255 214 193
255 214 193
255 214 193
255 214 193
255 214 193
255 214 193
255 214 193
255 214 193
255 214 193
255 214 193
255 214 193
255 214 193
255 214 193
255 214 193
255 214 193
255 214 193
255 214 193
255 214 193
255 226 205
255 214 193
255 214 193
255 214 193
255 214 193
255 214 193
255 214 193
255 214 193
255 214 193
255 214 193
255 214 193
255 214 193
255 214 193
255 214 193
255 214 193
255 214 193
255 214 193
255 214 193
255 214 193
255 214 193
255 214 193
255 214 193
255 214 193
255 214 193
255 214 193
255 214 193
255 214 193
255 214 193
255 214 193
255 214 193
255 214 193
255 214 193
255 214 193
255 214 193
255 214 193
255 214 193
255 214 193
255 226 205
255 214 193
255 214 193
255 214 193
255 214 193
255 214 193
255 214 193
255 214 193
255 214 193
255 214 193
255 214 193
255 214 193
255 214 193
255 214 193
255 214 193
255 214 193
255 214 193
255 214 193
255 214 193
255 214 193
255 214 193
255 214 193
255 214 193
255 214 193
255 214 193
255 214 193
255 214 193
255 214 193
255 214 193
255 214 193
255 214 193
255 214 193
255 214 193
255 214 193
255 214 193
255 214 193
255 214 193
255 226 205
255 214 193
255 214 193
255 214 193
255 214 193
255 214 193
255 214 193
255 214 193
255 214 193
255 214 193
255 214 193
255 214 193
255 214 193
255 214 193
255 214 193
255 214 193
255 214 193
255 214 193
255 214 193
255 214 193
255 214 193
255 214 193
255 214 193
255 214 193
255 214 193
255 214 193
255 214 193
255 214 193
255 214 193
255 214 193
255 214 193
255 214 193
255 214 193
255 214 193
255 214 193
255 214 193
255 214 193
255 226 205
255 214 193
255 214 193
255 214 193
255 214 193
255 214 193
255 214 193
255 214 193
255 214 193
255 214 193
255 214 193
255 214 193
255 214 193
255 214 193
255 214 193
255 214 193
255 214 193
255 214 193
255 214 193
255 214 193
255 214 193
255 214 193
255 214 193
255 214 193
255 214 193
255 214 193
255 214 193
255 214 193
255 214 193
255 214 193
255 214 193
255 214 193
255 214 193
255 214 193
255 214 193
255 214 193
255 214 193
255 214 193
255 214 193
255 214 193
255 214 193
255 214 193
255 214 193
255 214 193
255 214 193
255 214 193
255 214 193
255 214 193
255 214 193
255 214 193
255 214 193
255 214 193
255 214 193
255 214 193
255 214 193
255 214 193
255 214 193
255 214 193
255 214 193
255 214 193
255 226 205
255 214 193
255 214 193
255 214 193
255 214 193
255 214 193
255 214 193
255 214 193
255 214 193
255 214 193
255 214 193
255 214 193
255 214 193
255 214 193
255 214 193
255 214 193
255 214 193
255 214 193
255 214 193
255 214 193
255 214 193
255 214 193
255 214 193
255 214 193
255 214 193
255 214 193
255 214 193
255 214 193
255 214 193
255 214 193
255 214 193
255 214 193
255 214 193
255 214 193
255 214 193
255 214 193
255 214 193
255 226 205
255 214 193
255 214 193
255 214 193
255 214 193
255 214 193
255 214 193
255 214 193
255 214 193
255 214 193
255 214 193
255 214 193
255 214 193
255 214 193
255 214 193
255 214 193
255 214 193
255 214 193
255 214 193
255 214 193
255 214 193
255 214 193
255 214 193
255 214 193
255 214 193
255 214 193
255 214 193
255 214 193
255 214 193
255 214 193
255 214 193
255 214 193
255 214 193
255 214 193
255 214 193
255 214 193
255 214 193
255 226 205
255 214 193
255 214 193
255 214 193
255 214 193
255 214 193
255 214 193
255 214 193
255 214 193
255 214 193
255 214 193
255 214 193
255 214 193
255 214 193
255 214 193
255 214 193
255 214 193
255 214 193
255 214 193
255 214 193
255 214 193
255 214 193
255 214 193
255 214 193
255 214 193
255 214 193
255 214 193
255 214 193
255 214 193
255 214 193
255 214 193
255 214 193
255 214 193
255 214 193
255 214 193
255 214 193
255 214 193
255 226 205
255 214 193
255 214 193
255 214 193
255 214 193
255 214 193
255 214 193
255 214 193
255 214 193
255 214 193
255 214 193
255 214 193
255 214 193
255 214 193
255 214 193
255 214 193
255 214 193
255 214 193
255 214 193
255 214 193
255 214 193
255 214 193
255 214 193
255 214 193
255 214 193
255 214 193
255 214 193
255 214 193
255 214 193
255 214 193
255 214 193
255 214 193
255 214 193
255 214 193
255 214 193
255 214 193
255 214 193
255 226 205
255 214 193
255 214 193
255 214 193
255 214 193
255 214 193
255 214 193
255 214 193
255 214 193
255 214 193
255 214 193
255 214 193
255 214 193
255 214 193
255 214 193
255 214 193
255 214 193
255 214 193
255 214 193
255 214 193
255 214 193
255 214 193
255 214 193
255 214 193
255 214 193
255 214 193
255 214 193
255 214 193
255 214 193
255 214 193
255 214 193
255 214 193
255 214 193
255 214 193
255 214 193
255 214 193
255 214 193
255 226 205
255 214 193
255 214 193
255 214 193
255 214 193
255 214 193
255 214 193
255 214 193
255 214 193
255 214 193
255 214 193
255 214 193
255 214 193
255 214 193
255 214 193
255 214 193
255 214 193
255 214 193
255 214 193
255 214 193
255 214 193
255 214 193
255 214 193
255 214 193
255 214 193
255 214 193
255 214 193
255 214 193
255 214 193
255 214 193
255 214 193
255 214 193
255 214 193
255 214 193
255 214 193
255 214 193
255 214 193
255 226 205
255 214 193
255 214 193
255 214 193
255 214 193
255 214 193
255 214 193
255 214 193
255 214 193
255 214 193
255 214 193
255 214 193
255 214 193
255 214 193
255 214 193
255 214 193
255 214 193
255 214 193
255 214 193
255 214 193
255 214 193
255 214 193
255 214 193
255 214 193
255 214 193
255 214 193
255 214 193
255 214 193
255 214 193
255 214 193
255 214 193
255 214 193
255 214 193
255 214 193
255 214 193
255 214 193
255 214 193
255 226 205
255 214 193
255 214 193
255 214 193
255 214 193
255 214 193
255 214 193
255 214 193
255 214 193
255 214 193
255 214 193
255 214 193
255 214 193
255 214 193
255 214 193
255 214 193
255 214 193
255 214 193
255 214 193
255 214 193
255 214 193
255 214 193
255 214 193
255 214 193
255 214 193
255 214 193
255 214 193
255 214 193
255 214 193
255 214 193
255 214 193
255 214 193
255 214 193
255 214 193
255 214 193
255 214 193
255 214 193
255 214 193
255 214 193
255 214 193
255 214 193
255 214 193
255 214 193
255 214 193
255 214 193
255 214 193
255 214 193
255 214 193
255 214 193
255 214 193
255 214 193
255 214 193
255 214 193
255 214 193
255 214 193
255 214 193
255 214 193
255 214 193
255 214 193
255 214 193
255 226 205
255 214 193
255 214 193
255 214 193
255 214 193
255 214 193
255 214 193
255 214 193
255 214 193
255 214 193
255 214 193
255 214 193
255 214 193
255 214 193
255 214 193
255 214 193
255 214 193
255 214 193
255 214 193
255 214 193
255 214 193
255 214 193
255 214 193
255 214 193
255 214 193
255 214 193
255 214 193
255 214 193
255 214 193
255 214 193
255 214 193
255 214 193
255 214 193
255 214 193
255 214 193
255 214 193
255 214 193
255 226 205
255 214 193
255 214 193
255 214 193
255 214 193
255 214 193
255 214 193
255 214 193
255 214 193
255 214 193
255 214 193
255 214 193
255 214 193
255 214 193
255 214 193
255 214 193
255 214 193
255 214 193
255 214 193
255 214 193
255 214 193
255 214 193
255 214 193
255 214 193
255 214 193
255 214 193
255 214 193
255 214 193
255 214 193
255 214 193
255 214 193
255 214 193
255 214 193
255 214 193
255 214 193
255 214 193
255 214 193
255 226 205
255 214 193
255 214 193
255 214 193
255 214 193
255 214 193
255 214 193
255 214 193
255 214 193
255 214 193
255 214 193
255 214 193
255 214 193
255 214 193
255 214 193
255 214 193
255 214 193
255 214 193
255 214 193
255 214 193
255 214 193
255 214 193
255 214 193
255 214 193
255 214 193
255 214 193
255 214 193
255 214 193
255 214 193
255 214 193
255 214 193
255 214 193
255 214 193
255 214 193
255 214 193
255 214 193
255 214 193
255 226 205
255 214 193
255 214 193
255 214 193
255 214 193
255 214 193
255 214 193
255 214 193
255 214 193
255 214 193
255 214 193
255 214 193
255 214 193
255 214 193
255 214 193
255 214 193
255 214 193
255 214 193
255 214 193
255 214 193
255 214 193
255 214 193
255 214 193
255 214 193
255 214 193
255 214 193
255 214 193
255 214 193
255 214 193
255 214 193
255 214 193
255 214 193
255 214 193
255 214 193
255 214 193
255 214 193
255 214 193
255 226 205
255 214 193
255 214 193
255 214 193
255 214 193
255 214 193
255 214 193
255 214 193
255 214 193
255 214 193
255 214 193
255 214 193
255 214 193
255 214 193
255 214 193
255 214 193
255 214 193
255 214 193
255 214 193
255 214 193
255 214 193
255 214 193
255 214 193
255 214 193
255 214 193
255 214 193
255 214 193
255 214 193
255 214 193
255 214 193
255 214 193
255 214 193
255 214 193
255 214 193
255 214 193
255 214 193
255 214 193
255 226 205
255 214 193
255 214 193
255 214 193
255 214 193
255 214 193
255 214 193
255 214 193
255 214 193
255 214 193
255 214 193
255 214 193
255 214 193
255 214 193
255 214 193
255 214 193
255 214 193
255 214 193
255 214 193
255 214 193
255 214 193
255 214 193
255 214 193
255 214 193
255 214 193
255 214 193
255 214 193
255 214 193
255 214 193
255 214 193
255 214 193
255 214 193
255 214 193
255 214 193
255 214 193
255 214 193
255 214 193
255 226 205
255 214 193
255 214 193
255 214 193
255 214 193
255 214 193
255 214 193
255 214 193
255 214 193
255 214 193
255 214 193
255 214 193
255 214 193
255 214 193
255 214 193
255 214 193
255 214 193
255 214 193
255 214 193
255 214 193
255 214 193
255 214 193
255 214 193
255 214 193
255 214 193
255 214 193
255 214 193
255 214 193
255 214 193
255 214 193
255 214 193
255 214 193
255 214 193
255 214 193
255 214 193
255 214 193
255 214 193
255 226 205
255 214 193
255 214 193
255 214 193
255 214 193
255 214 193
255 214 193
255 214 193
255 214 193
255 214 193
255 214 193
255 214 193
255 214 193
255 214 193
255 214 193
255 214 193
255 214 193
255 214 193
255 214 193
255 214 193
255 214 193
255 214 193
255 214 193
255 214 193
255 214 193
255 214 193
255 214 193
255 214 193
255 214 193
255 214 193
255 214 193
255 214 193
255 214 193
255 214 193
255 214 193
255 214 193
255 214 193
255 214 193
255 214 193
255 214 193
255 214 193
255 214 193
255 214 193
255 214 193
255 214 193
255 214 193
255 214 193
255 214 193
255 214 193
255 214 193
255 214 193
255 214 193
255 214 193
255 214 193
255 214 193
255 214 193
255 214 193
255 214 193
255 214 193
255 214 193
255 226 205
255 214 193
255 214 193
255 214 193
255 214 193
255 214 193
255 214 193
255 214 193
255 214 193
255 214 193
255 214 193
255 214 193
255 214 193
255 214 193
255 214 193
255 214 193
255 214 193
255 214 193
255 214 193
255 214 193
255 214 193
255 214 193
255 214 193
255 214 193
255 214 193
255 214 193
255 214 193
255 214 193
255 214 193
255 214 193
255 214 193
255 214 193
255 214 193
255 214 193
255 214 193
255 214 193
255 214 193
255 226 205
255 214 193
255 214 193
255 214 193
255 214 193
255 214 193
255 214 193
255 214 193
255 214 193
255 214 193
255 214 193
255 214 193
255 214 193
255 214 193
255 214 193
255 214 193
255 214 193
255 214 193
255 214 193
255 214 193
255 214 193
255 214 193
255 214 193
255 214 193
255 214 193
255 214 193
255 214 193
255 214 193
255 214 193
255 214 193
255 214 193
255 214 193
255 214 193
255 214 193
255 214 193
255 214 193
255 214 193
255 226 205
255 214 193
255 214 193
255 214 193
255 214 193
255 214 193
255 214 193
255 214 193
255 214 193
255 214 193
255 214 193
255 214 193
255 214 193
255 214 193
255 214 193
255 214 193
255 214 193
255 214 193
255 214 193
255 214 193
255 214 193
255 214 193
255 214 193
255 214 193
255 214 193
255 214 193
255 214 193
255 214 193
255 214 193
255 214 193
255 214 193
255 214 193
255 214 193
255 214 193
255 214 193
255 214 193
255 214 193
255 226 205
255 214 193
255 214 193
255 214 193
255 214 193
255 214 193
255 214 193
255 214 193
255 214 193
255 214 193
255 214 193
255 214 193
255 214 193
255 214 193
255 214 193
255 214 193
255 214 193
255 214 193
255 214 193
255 214 193
255 214 193
255 214 193
255 214 193
255 214 193
255 214 193
255 214 193
255 214 193
255 214 193
255 214 193
255 214 193
255 214 193
255 214 193
255 214 193
255 214 193
255 214 193
255 214 193
255 214 193
255 226 205
255 214 193
255 214 193
255 214 193
255 214 193
255 214 193
255 214 193
255 214 193
255 214 193
255 214 193
255 214 193
255 214 193
255 214 193
255 214 193
255 214 193
255 214 193
255 214 193
255 214 193
255 214 193
255 214 193
255 214 193
255 214 193
255 214 193
255 214 193
255 214 193
255 214 193
255 214 193
255 214 193
255 214 193
255 214 193
255 214 193
255 214 193
255 214 193
255 214 193
255 214 193
255 214 193
255 214 193
255 226 205
255 214 193
255 214 193
255 214 193
255 214 193
255 214 193
255 214 193
255 214 193
255 214 193
255 214 193
255 214 193
255 214 193
255 214 193
255 214 193
255 214 193
255 214 193
255 214 193
255 214 193
255 214 193
255 214 193
255 214 193
255 214 193
255 214 193
255 214 193
255 214 193
255 214 193
255 214 193
255 214 193
255 214 193
255 214 193
255 214 193
255 214 193
255 214 193
255 214 193
255 214 193
255 214 193
255 214 193
255 226 205
255 214 193
255 214 193
255 214 193
255 214 193
255 214 193
255 214 193
255 214 193
255 214 193
255 214 193
255 214 193
255 214 193
255 214 193
255 214 193
255 214 193
255 214 193
255 214 193
255 214 193
255 214 193
255 214 193
255 214 193
255 214 193
255 214 193
255 214 193
255 214 193
255 214 193
255 214 193
255 214 193
255 214 193
255 214 193
255 214 193
255 214 193
255 214 193
255 214 193
255 214 193
255 214 193
255 214 193
255 226 205
255 214 193
255 214 193
255 214 193
255 214 193
255 214 193
255 214 193
255 214 193
255 214 193
255 214 193
255 214 193
255 214 193
255 214 193
255 214 193
255 214 193
255 214 193
255 214 193
255 214 193
255 214 193
255 214 193
255 214 193
255 214 193
255 214 193
255 214 193
255 214 193
255 214 193
255 214 193
255 214 193
255 214 193
255 214 193
255 214 193
255 214 193
255 214 193
255 214 193
255 214 193
255 214 193
255 214 193
255 214 193
255 214 193
255 214 193
255 214 193
255 214 193
255 214 193
255 214 193
255 214 193
255 214 193
255 214 193
255 214 193
255 214 193
255 214 193
255 214 193
255 214 193
255 214 193
255 214 193
255 214 193
255 214 193
255 214 193
255 214 193
255 214 193
255 214 193
255 226 205
255 214 193
255 214 193
255 214 193
255 214 193
255 214 193
255 214 193
255 214 193
255 214 193
255 214 193
255 214 193
255 214 193
255 214 193
255 214 193
255 214 193
255 214 193
255 214 193
255 214 193
255 214 193
255 214 193
255 214 193
255 214 193
255 214 193
255 214 193
255 214 193
255 214 193
255 214 193
255 214 193
255 214 193
255 214 193
255 214 193
255 214 193
255 214 193
255 214 193
255 214 193
255 214 193
255 214 193
255 226 205
255 214 193
255 214 193
255 214 193
255 214 193
255 214 193
255 214 193
255 214 193
255 214 193
255 214 193
255 214 193
255 214 193
255 214 193
255 214 193
255 214 193
255 214 193
255 214 193
255 214 193
255 214 193
255 214 193
255 214 193
255 214 193
255 214 193
255 214 193
255 214 193
255 214 193
255 214 193
255 214 193
255 214 193
255 214 193
255 214 193
255 214 193
255 214 193
255 214 193
255 214 193
255 214 193
255 214 193
255 226 205
255 214 193
255 214 193
255 214 193
255 214 193
255 214 193
255 214 193
255 214 193
255 214 193
255 214 193
255 214 193
255 214 193
255 214 193
255 214 193
255 214 193
255 214 193
255 214 193
255 214 193
255 214 193
255 214 193
255 214 193
255 214 193
255 214 193
255 214 193
255 214 193
255 214 193
255 214 193
255 214 193
255 214 193
255 214 193
255 214 193
255 214 193
255 214 193
255 214 193
255 214 193
255 214 193
255 214 193
255 226 205
255 214 193
255 214 193
255 214 193
255 214 193
255 214 193
255 214 193
255 214 193
255 214 193
255 214 193
255 214 193
255 214 193
255 214 193
255 214 193
255 214 193
255 214 193
255 214 193
255 214 193
255 214 193
255 214 193
255 214 193
255 214 193
255 214 193
255 214 193
255 214 193
255 214 193
255 214 193
255 214 193
255 214 193
255 214 193
255 214 193
255 214 193
255 214 193
255 214 193
255 214 193
255 214 193
255 214 193
255 226 205
255 214 193
255 214 193
255 214 193
255 214 193
255 214 193
255 214 193
255 214 193
255 214 193
255 214 193
255 214 193
255 214 193
255 214 193
255 214 193
255 214 193
255 214 193
255 214 193
255 214 193
255 214 193
255 214 193
255 214 193
255 214 193
255 214 193
255 214 193
255 214 193
255 214 193
255 214 193
255 214 193
255 214 193
255 214 193
255 214 193
255 214 193
255 214 193
255 214 193
255 214 193
255 214 193
255 214 193
255 226 205
255 214 193
255 214 193
255 214 193
255 214 193
255 214 193
255 214 193
255 214 193
255 214 193
255 214 193
255 214 193
255 214 193
255 214 193
255 214 193
255 214 193
255 214 193
255 214 193
255 214 193
255 214 193
255 214 193
255 214 193
255 214 193
255 214 193
255 214 193
255 214 193
255 214 193
255 214 193
255 214 193
255 214 193
255 214 193
255 214 193
255 214 193
255 214 193
255 214 193
255 214 193
255 214 193
255 214 193
255 226 205
255 214 193
255 214 193
255 214 193
255 214 193
255 214 193
255 214 193
255 214 193
255 214 193
255 214 193
255 214 193
255 214 193
255 214 193
255 214 193
255 214 193
255 214 193
255 214 193
255 214 193
255 214 193
255 214 193
255 214 193
255 214 193
255 214 193
255 214 193
255 214 193
255 214 193
255 214 193
255 214 193
255 214 193
255 214 193
255 214 193
255 214 193
255 214 193
255 214 193
255 214 193
255 214 193
255 214 193
255 226 205
255 214 193
255 214 193
255 214 193
255 214 193
255 214 193
255 214 193
255 214 193
255 214 193
255 214 193
255 214 193
255 214 193
255 214 193
255 214 193
255 214 193
255 214 193
255 214 193
255 214 193
255 214 193
255 214 193
255 214 193
255 214 193
255 214 193
255 214 193
255 214 193
255 214 193
255 214 193
255 214 193
255 214 193
255 214 193
255 214 193
255 214 193
255 214 193
255 214 193
255 214 193
255 214 193
255 214 193
255 226 205
255 214 193
255 214 193
255 214 193
255 214 193
255 214 193
255 214 193
255 214 193
255 214 193
255 214 193
255 214 193
255 214 193
255 214 193
255 214 193
255 214 193
255 214 193
255 214 193
255 214 193
255 214 193
255 214 193
255 214 193
255 214 193
255 214 193
255 226 205
255 214 193
255 214 193
255 214 193
255 214 193
255 214 193
255 214 193
255 214 193
255 214 193
255 214 193
255 214 193
255 214 193
255 214 193
255 214 193
255 214 193
255 214 193
255 214 193
255 214 193
255 214 193
255 214 193
255 214 193
255 214 193
255 214 193
255 214 193
255 214 193
255 214 193
255 214 193
255 214 193
255 214 193
255 214 193
255 214 193
255 214 193
255 214 193
255 214 193
255 214 193
255 214 193
255 214 193
255 226 205
255 214 193
255 214 193
255 214 193
255 214 193
255 214 193
255 214 193
255 214 193
255 214 193
255 214 193
255 214 193
255 214 193
255 214 193
255 214 193
255 214 193
255 214 193
255 214 193
255 214 193
255 214 193
255 214 193
255 214 193
255 214 193
255 214 193
255 214 193
255 214 193
255 214 193
255 214 193
255 214 193
255 214 193
255 214 193
255 214 193
255 214 193
255 214 193
255 214 193
255 214 193
255 214 193
255 214 193
255 226 205
255 214 193
255 214 193
255 214 193
255 214 193
255 214 193
255 214 193
255 214 193
255 214 193
255 214 193
255 214 193
255 214 193
255 214 193
255 214 193
255 214 193
255 214 193
255 214 193
255 214 193
255 214 193
255 214 193
255 214 193
255 214 193
255 214 193
255 214 193
255 214 193
255 214 193
255 214 193
255 214 193
255 214 193
255 214 193
255 214 193
255 214 193
255 214 193
255 214 193
255 214 193
255 214 193
255 214 193
255 226 205
255 214 193
255 214 193
255 214 193
255 214 193
255 214 193
255 214 193
255 214 193
255 214 193
255 214 193
255 214 193
255 214 193
255 214 193
255 214 193
255 214 193
255 214 193
255 214 193
255 214 193
255 214 193
255 214 193
255 214 193
255 214 193
255 214 193
255 214 193
255 214 193
255 214 193
255 214 193
255 214 193
255 214 193
255 214 193
255 214 193
255 214 193
255 214 193
255 214 193
255 214 193
255 214 193
255 214 193
255 226 205
255 214 193
255 214 193
255 214 193
255 214 193
255 214 193
255 214 193
255 214 193
255 214 193
255 214 193
255 214 193
255 214 193
255 214 193
255 214 193
255 214 193
255 214 193
255 214 193
255 214 193
255 214 193
255 214 193
255 214 193
255 214 193
255 214 193
255 214 193
255 214 193
255 214 193
255 214 193
255 214 193
255 214 193
255 214 193
255 214 193
255 214 193
255 214 193
255 214 193
255 214 193
255 214 193
255 214 193
255 226 205
255 214 193
255 214 193
255 214 193
255 214 193
255 214 193
255 214 193
255 214 193
255 214 193
255 214 193
255 214 193
255 214 193
255 214 193
255 214 193
255 214 193
255 214 193
255 214 193
255 214 193
255 214 193
255 214 193
255 214 193
255 214 193
255 214 193
255 214 193
255 214 193
255 214 193
255 214 193
255 214 193
255 214 193
255 214 193
255 214 193
255 214 193
255 214 193
255 214 193
255 214 193
255 214 193
255 214 193
255 226 205
255 214 193
255 214 193
255 214 193
255 214 193
255 214 193
255 214 193
255 214 193
255 214 193
255 214 193
255 214 193
255 214 193
255 214 193
255 214 193
255 214 193
255 214 193
255 214 193
255 214 193
255 214 193
255 214 193
255 214 193
255 214 193
255 214 193
255 214 193
255 214 193
255 214 193
255 214 193
255 214 193
255 214 193
255 214 193
255 214 193
255 214 193
255 214 193
255 214 193
255 214 193
255 214 193
255 214 193
255 226 205
255 214 193
255 214 193
255 214 193
255 214 193
255 214 193
255 214 193
255 214 193
255 214 193
255 214 193
255 214 193
255 214 193
255 214 193
255 214 193
255 214 193
255 214 193
255 214 193
255 214 193
255 214 193
255 214 193
255 214 193
255 214 193
255 214 193
255 214 193
255 214 193
255 214 193
255 214 193
255 214 193
255 214 193
255 214 193
255 214 193
255 214 193
255 214 193
255 214 193
255 214 193
255 214 193
255 214 193
255 226 205
255 214 193
255 214 193
255 214 193
255 214 193
255 214 193
255 214 193
255 214 193
255 214 193
255 214 193
255 214 193
255 214 193
255 214 193
255 214 193
255 214 193
255 214 193
255 214 193
255 214 193
255 214 193
255 214 193
255 214 193
255 214 193
255 214 193
255 226 205
255 214 193
255 214 193
255 214 193
255 214 193
255 214 193
255 214 193
255 214 193
255 214 193
255 214 193
255 214 193
255 214 193
255 214 193
255 214 193
255 214 193
255 214 193
255 214 193
255 214 193
255 214 193
255 214 193
255 214 193
255 214 193
255 214 193
255 214 193
255 214 193
255 214 193
255 214 193
255 214 193
255 214 193
255 214 193
255 214 193
255 214 193
255 214 193
255 214 193
255 214 193
255 214 193
255 214 193
255 226 205
255 214 193
255 214 193
255 214 193
255 214 193
255 214 193
255 214 193
255 214 193
255 214 193
255 214 193
255 214 193
255 214 193
255 214 193
255 214 193
255 214 193
255 214 193
255 214 193
255 214 193
255 214 193
255 214 193
255 214 193
255 214 193
255 214 193
255 214 193
255 214 193
255 214 193
255 214 193
255 214 193
255 214 193
255 214 193
255 214 193
255 214 193
255 214 193
255 214 193
255 214 193
255 214 193
255 214 193
255 226 205
255 214 193
255 214 193
255 214 193
255 214 193
255 214 193
255 214 193
255 214 193
255 214 193
255 214 193
255 214 193
255 214 193
255 214 193
255 214 193
255 214 193
255 214 193
255 214 193
255 214 193
255 214 193
255 214 193
255 214 193
255 214 193
255 214 193
255 214 193
255 214 193
255 214 193
255 214 193
255 214 193
255 214 193
255 214 193
255 214 193
255 214 193
255 214 193
255 214 193
255 214 193
255 214 193
255 214 193
255 226 205
255 214 193
255 214 193
255 214 193
255 214 193
255 214 193
255 214 193
255 214 193
255 214 193
255 214 193
255 214 193
255 214 193
255 214 193
255 214 193
255 214 193
255 214 193
255 214 193
255 214 193
255 214 193
255 214 193
255 214 193
255 214 193
255 214 193
255 214 193
255 214 193
255 214 193
255 214 193
255 214 193
255 214 193
255 214 193
255 214 193
255 214 193
255 214 193
255 214 193
255 214 193
255 214 193
255 214 193
255 226 205
255 214 193
255 214 193
255 214 193
255 214 193
255 214 193
255 214 193
255 214 193
255 214 193
255 214 193
255 214 193
255 214 193
255 214 193
255 214 193
255 214 193
255 214 193
255 214 193
255 214 193
255 214 193
255 214 193
255 214 193
255 214 193
255 214 193
255 214 193
255 214 193
255 214 193
255 214 193
255 214 193
255 214 193
255 214 193
255 214 193
255 214 193
255 214 193
255 214 193
255 214 193
255 214 193
255 214 193
255 226 205
255 214 193
255 214 193
255 214 193
255 214 193
255 214 193
255 214 193
255 214 193
255 214 193
255 214 193
255 214 193
255 214 193
255 214 193
255 214 193
255 214 193
255 214 193
255 214 193
255 214 193
255 214 193
255 214 193
255 214 193
255 214 193
255 214 193
255 214 193
255 214 193
255 214 193
255 214 193
255 214 193
255 214 193
255 214 193
255 214 193
255 214 193
255 214 193
255 214 193
255 214 193
255 214 193
255 214 193
255 226 205
255 214 193
255 214 193
255 214 193
255 214 193
255 214 193
255 214 193
255 214 193
255 214 193
255 214 193
255 214 193
255 214 193
255 214 193
255 214 193
255 214 193
255 214 193
255 214 193
255 214 193
255 214 193
255 214 193
255 214 193
255 214 193
255 214 193
255 214 193
255 214 193
255 214 193
255 214 193
255 214 193
255 214 193
255 214 193
255 214 193
255 214 193
255 214 193
255 214 193
255 214 193
255 214 193
255 214 193
255 226 205
255 214 193
255 214 193
255 214 193
255 214 193
255 214 193
255 214 193
255 214 193
255 214 193
255 214 193
255 214 193
255 214 193
255 214 193
255 214 193
255 214 193
255 214 193
255 214 193
255 214 193
255 214 193
255 214 193
255 214 193
255 214 193
255 214 193
255 214 193
255 214 193
255 214 193
255 214 193
255 214 193
255 214 193
255 214 193
255 214 193
255 214 193
255 214 193
255 214 193
255 214 193
255 214 193
255 214 193
255 226 205
255 214 193
255 214 193
255 214 193
255 214 193
255 214 193
255 214 193
255 214 193
255 214 193
255 214 193
255 214 193
255 214 193
255 214 193
255 214 193
255 214 193
255 214 193
255 214 193
255 214 193
255 214 193
255 214 193
255 214 193
255 214 193
255 214 193
255 226 205
255 214 193
255 214 193
255 214 193
255 214 193
255 214 193
255 214 193
255 214 193
255 214 193
255 214 193
255 214 193
255 214 193
255 214 193
255 214 193
255 214 193
255 214 193
255 214 193
255 214 193
255 214 193
255 214 193
255 214 193
255 214 193
255 214 193
255 214 193
255 214 193
255 214 193
255 214 193
255 214 193
255 214 193
255 214 193
255 214 193
255 214 193
255 214 193
255 214 193
255 214 193
255 214 193
255 214 193
255 226 205
255 214 193
255 214 193
255 214 193
255 214 193
255 214 193
255 214 193
255 214 193
255 214 193
255 214 193
255 214 193
255 214 193
255 214 193
255 214 193
255 214 193
255 214 193
255 214 193
255 214 193
255 214 193
255 214 193
255 214 193
255 214 193
255 214 193
255 214 193
255 214 193
255 214 193
255 214 193
255 214 193
255 214 193
255 214 193
255 214 193
255 214 193
255 214 193
255 214 193
255 214 193
255 214 193
255 214 193
255 226 205
255 214 193
255 214 193
255 214 193
255 214 193
255 214 193
255 214 193
255 214 193
255 214 193
255 214 193
255 214 193
255 214 193
255 214 193
255 214 193
255 214 193
255 214 193
255 214 193
255 214 193
255 214 193
255 214 193
255 214 193
255 214 193
255 214 193
255 214 193
255 214 193
255 214 193
255 214 193
255 214 193
255 214 193
255 214 193
255 214 193
255 214 193
255 214 193
255 214 193
255 214 193
255 214 193
255 214 193
255 226 205
255 214 193
255 214 193
255 214 193
255 214 193
255 214 193
255 214 193
255 214 193
255 214 193
255 214 193
255 214 193
255 214 193
255 214 193
255 214 193
255 214 193
255 214 193
255 214 193
255 214 193
255 214 193
255 214 193
255 214 193
255 214 193
255 214 193
255 214 193
255 214 193
255 214 193
255 214 193
255 214 193
255 214 193
255 214 193
255 214 193
255 214 193
255 214 193
255 214 193
255 214 193
255 214 193
255 214 193
255 226 205
255 214 193
255 214 193
255 214 193
255 214 193
255 214 193
255 214 193
255 214 193
255 214 193
255 214 193
255 214 193
255 214 193
255 214 193
255 214 193
255 214 193
255 214 193
255 214 193
255 214 193
255 214 193
255 214 193
255 214 193
255 214 193
255 214 193
255 214 193
255 214 193
255 214 193
255 214 193
255 214 193
255 214 193
255 214 193
255 214 193
255 214 193
255 214 193
255 214 193
255 214 193
255 214 193
255 214 193
255 226 205
255 214 193
255 214 193
255 214 193
255 214 193
255 214 193
255 214 193
255 214 193
255 214 193
255 214 193
255 214 193
255 214 193
255 214 193
255 214 193
255 214 193
255 214 193
255 214 193
255 214 193
255 214 193
255 214 193
255 214 193
255 214 193
255 214 193
255 214 193
255 214 193
255 214 193
255 214 193
255 214 193
255 214 193
255 214 193
255 214 193
255 214 193
255 214 193
255 214 193
255 214 193
255 214 193
255 214 193
255 226 205
255 214 193
255 214 193
255 214 193
255 214 193
255 214 193
255 214 193
255 214 193
255 214 193
255 214 193
255 214 193
255 214 193
255 214 193
255 214 193
255 214 193
255 214 193
255 214 193
255 214 193
255 214 193
255 214 193
255 214 193
255 214 193
255 214 193
255 214 193
255 214 193
255 214 193
255 214 193
255 214 193
255 214 193
255 214 193
255 214 193
255 214 193
255 214 193
255 214 193
255 214 193
255 214 193
255 214 193
255 226 205
255 214 193
255 214 193
255 214 193
255 214 193
255 214 193
255 214 193
255 214 193
255 214 193
255 214 193
255 214 193
255 214 193
255 214 193
255 214 193
255 214 193
255 214 193
255 214 193
255 214 193
255 214 193
255 214 193
255 214 193
255 214 193
255 214 193
255 214 193
255 214 193
255 214 193
255 214 193
255 214 193
255 214 193
255 214 193
255 214 193
255 214 193
255 214 193
255 214 193
255 214 193
255 214 193
255 214 193
255 226 205
255 214 193
255 214 193
255 214 193