P3
320 240
255
255 248 255
255 236 247
255 236 247
255 236 247
255 236 247
255 236 247
255 236 247
255 236 247
255 236 247
255 236 247
255 236 247
255 236 247
255 236 247
255 236 247
255 236 247
255 236 247
255 236 247
255 236 247
255 236 247
255 236 247
255 236 247
255 236 247
255 236 247
255 236 247
255 236 247
255 236 247
255 236 247
255 236 247
255 236 247
255 236 247
255 236 247
255 236 247
255 236 247
255 236 247
255 236 247
255 236 247
255 236 247
255 248 255
255 236 247
255 236 247
255 236 247
255 236 247
255 236 247
255 236 247
255 236 247
255 236 247
255 236 247
255 236 247
255 236 247
255 236 247
255 236 247
255 236 247
255 236 247
255 236 247
255 236 247
255 236 247
255 236 247
255 236 247
255 236 247
255 236 247
255 236 247
255 236 247
255 236 247
255 236 247
255 236 247
255 236 247
255 236 247
255 236 247
255 236 247
255 236 247
255 236 247
255 236 247
255 236 247
255 236 247
255 248 255
255 236 247
255 236 247
255 236 247
255 236 247
255 236 247
255 236 247
255 236 247
255 236 247
255 236 247
255 236 247
255 236 247
255 236 247
255 236 247
255 236 247
255 236 247
255 236 247
255 236 247
255 236 247
255 236 247
255 236 247
255 236 247
255 236 247
255 236 247
255 236 247
255 236 247
255 236 247
255 236 247
255 236 247
255 236 247
255 236 247
255 236 247
255 236 247
255 236 247
255 236 247
255 236 247
255 236 247
255 248 255
255 236 247
255 236 247
255 236 247
255 236 247
255 236 247
255 236 247
255 236 247
255 236 247
255 236 247
255 236 247
255 236 247
255 236 247
255 236 247
255 236 247
255 236 247
255 236 247
255 236 247
255 236 247
255 236 247
255 236 247
255 236 247
255 236 247
255 236 247
255 236 247
255 236 247
255 236 247
255 236 247
255 236 247
255 236 247
255 236 247
255 236 247
255 236 247
255 236 247
255 236 247
255 236 247
255 236 247
255 248 255
255 236 247
255 236 247
255 236 247
255 236 247
255 236 247
255 236 247
255 236 247
255 236 247
255 236 247
255 236 247
255 236 247
255 236 247
255 236 247
255 236 247
255 236 247
255 236 247
255 236 247
255 236 247
255 236 247
255 236 247
255 236 247
255 236 247
255 236 247
255 236 247
255 236 247
255 236 247
255 236 247
255 236 247
255 236 247
255 236 247
255 236 247
255 236 247
255 236 247
255 236 247
255 236 247
255 236 247
255 248 255
255 236 247
255 236 247
255 236 247
255 236 247
255 236 247
255 236 247
255 236 247
255 236 247
255 236 247
255 236 247
255 236 247
255 236 247
255 236 247
255 236 247
255 236 247
255 236 247
255 236 247
255 236 247
255 236 247
255 236 247
255 236 247
255 236 247
255 236 247
255 236 247
255 236 247
255 236 247
255 236 247
255 236 247
255 236 247
255 236 247
255 236 247
255 236 247
255 236 247
255 236 247
255 236 247
255 236 247
255 248 255
255 236 247
255 236 247
255 236 247
255 236 247
255 236 247
255 236 247
255 236 247
255 236 247
255 236 247
255 236 247
255 236 247
255 236 247
255 236 247
255 236 247
255 236 247
255 236 247
255 236 247
255 236 247
255 236 247
255 236 247
255 236 247
255 236 247
255 236 247
255 236 247
255 236 247
255 236 247
255 236 247
255 236 247
255 236 247
255 236 247
255 236 247
255 236 247
255 236 247
255 236 247
255 236 247
255 236 247
255 248 255
255 236 247
255 236 247
255 236 247
255 236 247
255 236 247
255 236 247
255 236 247
255 236 247
255 236 247
255 236 247
255 236 247
255 236 247
255 236 247
255 236 247
255 236 247
255 236 247
255 236 247
255 236 247
255 236 247
255 236 247
255 236 247
255 236 247
255 236 247
255 236 247
255 236 247
255 236 247
255 236 247
255 236 247
255 236 247
255 236 247
255 236 247
255 236 247
255 236 247
255 236 247
255 236 247
255 236 247
255 248 255
255 236 247
255 236 247
255 236 247
255 236 247
255 236 247
255 236 247
255 236 247
255 236 247
255 236 247
255 236 247
255 236 247
255 236 247
255 236 247
255 236 247
255 236 247
255 236 247
255 236 247
255 236 247
255 236 247
255 236 247
255 236 247
255 236 247
255 236 247
255 236 247
255 236 247
255 236 247
255 236 247
255 236 247
255 236 247
255 236 247
255 236 247
255 236 247
255 236 247
255 236 247
255 236 247
255 236 247
255 236 247
255 236 247
255 236 247
255 236 247
255 236 247
255 236 247
255 236 247
255 236 247
255 236 247
255 236 247
255 236 247
255 236 247
255 236 247
255 236 247
255 236 247
255 236 247
255 236 247
255 236 247
255 236 247
255 236 247
255 236 247
255 236 247
255 236 247
255 248 255
255 236 247
255 236 247
255 236 247
255 236 247
255 236 247
255 236 247
255 236 247
255 236 247
255 236 247
255 236 247
255 236 247
255 236 247
255 236 247
255 236 247
255 236 247
255 236 247
255 236 247
255 236 247
255 236 247
255 236 247
255 236 247
255 236 247
255 236 247
255 236 247
255 236 247
255 236 247
255 236 247
255 236 247
255 236 247
255 236 247
255 236 247
255 236 247
255 236 247
255 236 247
255 236 247
255 236 247
255 248 255
255 236 247
255 236 247
255 236 247
255 236 247
255 236 247
255 236 247
255 236 247
255 236 247
255 236 247
255 236 247
255 236 247
255 236 247
255 236 247
255 236 247
255 236 247
255 236 247
255 236 247
255 236 247
255 236 247
255 236 247
255 236 247
255 236 247
255 236 247
255 236 247
255 236 247
255 236 247
255 236 247
255 236 247
255 236 247
255 236 247
255 236 247
255 236 247
255 236 247
255 236 247
255 236 247
255 236 247
255 248 255
255 236 247
255 236 247
255 236 247
255 236 247
255 236 247
255 236 247
255 236 247
255 236 247
255 236 247
255 236 247
255 236 247
255 236 247
255 236 247
255 236 247
255 236 247
255 236 247
255 236 247
255 236 247
255 236 247
255 236 247
255 236 247
255 236 247
255 236 247
255 236 247
255 236 247
255 236 247
255 236 247
255 236 247
255 236 247
255 236 247
255 236 247
255 236 247
255 236 247
255 236 247
255 236 247
255 236 247
255 248 255
255 236 247
255 236 247
255 236 247
255 236 247
255 236 247
255 236 247
255 236 247
255 236 247
255 236 247
255 236 247
255 236 247
255 236 247
255 236 247
255 236 247
255 236 247
255 236 247
255 236 247
255 236 247
255 236 247
255 236 247
255 236 247
255 236 247
255 236 247
255 236 247
255 236 247
255 236 247
255 236 247
255 236 247
255 236 247
255 236 247
255 236 247
255 236 247
255 236 247
255 236 247
255 236 247
255 236 247
255 248 255
255 236 247
255 236 247
255 236 247
255 236 247
255 236 247
255 236 247
255 236 247
255 236 247
255 236 247
255 236 247
255 236 247
255 236 247
255 236 247
255 236 247
255 236 247
255 236 247
255 236 247
255 236 247
255 236 247
255 236 247
255 236 247
255 236 247
255 236 247
255 236 247
255 236 247
255 236 247
255 236 247
255 236 247
255 236 247
255 236 247
255 236 247
255 236 247
255 236 247
255 236 247
255 236 247
255 236 247
255 248 255
255 236 247
255 236 247
255 236 247
255 236 247
255 236 247
255 236 247
255 236 247
255 236 247
255 236 247
255 236 247
255 236 247
255 236 247
255 236 247
255 236 247
255 236 247
255 236 247
255 236 247
255 236 247
255 236 247
255 236 247
255 236 247
255 236 247
255 236 247
255 236 247
255 236 247
255 236 247
255 236 247
255 236 247
255 236 247
255 236 247
255 236 247
255 236 247
255 236 247
255 236 247
255 236 247
255 236 247
255 248 255
255 236 247
255 236 247
255 236 247
255 236 247
255 236 247
255 236 247
255 236 247
255 236 247
255 236 247
255 236 247
255 236 247
255 236 247
255 236 247
255 236 247
255 236 247
255 236 247
255 236 247
255 236 247
255 236 247
255 236 247
255 236 247
255 236 247
255 236 247
255 236 247
255 236 247
255 236 247
255 236 247
255 236 247
255 236 247
255 236 247
255 236 247
255 236 247
255 236 247
255 236 247
255 236 247
255 236 247
255 248 255
255 236 247
255 236 247
255 236 247
255 236 247
255 236 247
255 236 247
255 236 247
255 236 247
255 236 247
255 236 247
255 236 247
255 236 247
255 236 247
255 236 247
255 236 247
255 236 247
255 236 247
255 236 247
255 236 247
255 236 247
255 236 247
255 236 247
255 236 247
255 236 247
255 236 247
255 236 247
255 236 247
255 236 247
255 236 247
255 236 247
255 236 247
255 236 247
255 236 247
255 236 247
255 236 247
255 236 247
255 236 247
255 236 247
255 236 247
255 236 247
255 236 247
255 236 247
255 236 247
255 236 247
255 236 247
255 236 247
255 236 247
255 236 247
255 236 247
255 236 247
255 236 247
255 236 247
255 236 247
255 236 247
255 236 247
255 236 247
255 236 247
255 236 247
255 236 247
255 248 255
255 236 247
255 236 247
255 236 247
255 236 247
255 236 247
255 236 247
255 236 247
255 236 247
255 236 247
255 236 247
255 236 247
255 236 247
255 236 247
255 236 247
255 236 247
255 236 247
255 236 247
255 236 247
255 236 247
255 236 247
255 236 247
255 236 247
255 236 247
255 236 247
255 236 247
255 236 247
255 236 247
255 236 247
255 236 247
255 236 247
255 236 247
255 236 247
255 236 247
255 236 247
255 236 247
255 236 247
255 248 255
255 236 247
255 236 247
255 236 247
255 236 247
255 236 247
255 236 247
255 236 247
255 236 247
255 236 247
255 236 247
255 236 247
255 236 247
255 236 247
255 236 247
255 236 247
255 236 247
255 236 247
255 236 247
255 236 247
255 236 247
255 236 247
255 236 247
255 236 247
255 236 247
255 236 247
255 236 247
255 236 247
255 236 247
255 236 247
255 236 247
255 236 247
255 236 247
255 236 247
255 236 247
255 236 247
255 236 247
255 248 255
255 236 247
255 236 247
255 236 247
255 236 247
255 236 247
255 236 247
255 236 247
255 236 247
255 236 247
255 236 247
255 236 247
255 236 247
255 236 247
255 236 247
255 236 247
255 236 247
255 236 247
255 236 247
255 236 247
255 236 247
255 236 247
255 236 247
255 236 247
255 236 247
255 236 247
255 236 247
255 236 247
255 236 247
255 236 247
255 236 247
255 236 247
255 236 247
255 236 247
255 236 247
255 236 247
255 236 247
255 248 255
255 236 247
255 236 247
255 236 247
255 236 247
255 236 247
255 236 247
255 236 247
255 236 247
255 236 247
255 236 247
255 236 247
255 236 247
255 236 247
255 236 247
255 236 247
255 236 247
255 236 247
255 236 247
255 236 247
255 236 247
255 236 247
255 236 247
255 236 247
255 236 247
255 236 247
255 236 247
255 236 247
255 236 247
255 236 247
255 236 247
255 236 247
255 236 247
255 236 247
255 236 247
255 236 247
255 236 247
255 248 255
255 236 247
255 236 247
255 236 247
255 236 247
255 236 247
255 236 247
255 236 247
255 236 247
255 236 247
255 236 247
255 236 247
255 236 247
255 236 247
255 236 247
255 236 247
255 236 247
255 236 247
255 236 247
255 236 247
255 236 247
255 236 247
255 236 247
255 236 247
255 236 247
255 236 247
255 236 247
255 236 247
255 236 247
255 236 247
255 236 247
255 236 247
255 236 247
255 236 247
255 236 247
255 236 247
255 236 247
255 248 255
255 236 247
255 236 247
255 236 247
255 236 247
255 236 247
255 236 247
255 236 247
255 236 247
255 236 247
255 236 247
255 236 247
255 236 247
255 236 247
255 236 247
255 236 247
255 236 247
255 236 247
255 236 247
255 236 247
255 236 247
255 236 247
255 236 247
255 236 247
255 236 247
255 236 247
255 236 247
255 236 247
255 236 247
255 236 247
255 236 247
255 236 247
255 236 247
255 236 247
255 236 247
255 236 247
255 236 247
255 248 255
255 236 247
255 236 247
255 236 247
255 236 247
255 236 247
255 236 247
255 236 247
255 236 247
255 236 247
255 236 247
255 236 247
255 236 247
255 236 247
255 236 247
255 236 247
255 236 247
255 236 247
255 236 247
255 236 247
255 236 247
255 236 247
255 236 247
255 236 247
255 236 247
255 236 247
255 236 247
255 236 247
255 236 247
255 236 247
255 236 247
255 236 247
255 236 247
255 236 247
255 236 247
255 236 247
255 236 247
255 248 255
255 236 247
255 236 247
255 236 247
255 236 247
255 236 247
255 236 247
255 236 247
255 236 247
255 236 247
255 236 247
255 236 247
255 236 247
255 236 247
255 236 247
255 236 247
255 236 247
255 236 247
255 236 247
255 236 247
255 236 247
255 236 247
255 236 247
255 236 247
255 236 247
255 236 247
255 236 247
255 236 247
255 236 247
255 236 247
255 236 247
255 236 247
255 236 247
255 236 247
255 236 247
255 236 247
255 236 247
255 236 247
255 236 247
255 236 247
255 236 247
255 236 247
255 236 247
255 236 247
255 236 247
255 236 247
255 236 247
255 236 247
255 236 247
255 236 247
255 236 247
255 236 247
255 236 247
255 236 247
255 236 247
255 236 247
255 236 247
255 236 247
255 236 247
255 236 247
255 248 255
255 236 247
255 236 247
255 236 247
255 236 247
255 236 247
255 236 247
255 236 247
255 236 247
255 236 247
255 236 247
255 236 247
255 236 247
255 236 247
255 236 247
255 236 247
255 236 247
255 236 247
255 236 247
255 236 247
255 236 247
255 236 247
255 236 247
255 236 247
255 236 247
255 236 247
255 236 247
255 236 247
255 236 247
255 236 247
255 236 247
255 236 247
255 236 247
255 236 247
255 236 247
255 236 247
255 236 247
255 248 255
255 236 247
255 236 247
255 236 247
255 236 247
255 236 247
255 236 247
255 236 247
255 236 247
255 236 247
255 236 247
255 236 247
255 236 247
255 236 247
255 236 247
255 236 247
255 236 247
255 236 247
255 236 247
255 236 247
255 236 247
255 236 247
255 236 247
255 236 247
255 236 247
255 236 247
255 236 247
255 236 247
255 236 247
255 236 247
255 236 247
255 236 247
255 236 247
255 236 247
255 236 247
255 236 247
255 236 247
255 248 255
255 236 247
255 236 247
255 236 247
255 236 247
255 236 247
255 236 247
255 236 247
255 236 247
255 236 247
255 236 247
255 236 247
255 236 247
255 236 247
255 236 247
255 236 247
255 236 247
255 236 247
255 236 247
255 236 247
255 236 247
255 236 247
255 236 247
255 236 247
255 236 247
255 236 247
255 236 247
255 236 247
255 236 247
255 236 247
255 236 247
255 236 247
255 236 247
255 236 247
255 236 247
255 236 247
255 236 247
255 248 255
255 236 247
255 236 247
255 236 247
255 236 247
255 236 247
255 236 247
255 236 247
255 236 247
255 236 247
255 236 247
255 236 247
255 236 247
255 236 247
255 236 247
255 236 247
255 236 247
255 236 247
255 236 247
255 236 247
255 236 247
255 236 247
255 236 247
255 236 247
255 236 247
255 236 247
255 236 247
255 236 247
255 236 247
255 236 247
255 236 247
255 236 247
255 236 247
255 236 247
255 236 247
255 236 247
255 236 247
255 248 255
255 236 247
255 236 247
255 236 247
255 236 247
255 236 247
255 236 247
255 236 247
255 236 247
255 236 247
255 236 247
255 236 247
255 236 247
255 236 247
255 236 247
255 236 247
255 236 247
255 236 247
255 236 247
255 236 247
255 236 247
255 236 247
255 236 247
255 236 247
255 236 247
255 236 247
255 236 247
255 236 247
255 236 247
255 236 247
255 236 247
255 236 247
255 236 247
255 236 247
255 236 247
255 236 247
255 236 247
255 248 255
255 236 247
255 236 247
255 236 247
255 236 247
255 236 247
255 236 247
255 236 247
255 236 247
255 236 247
255 236 247
255 236 247
255 236 247
255 236 247
255 236 247
255 236 247
255 236 247
255 236 247
255 236 247
255 236 247
255 236 247
255 236 247
255 236 247
255 236 247
255 236 247
255 236 247
255 236 247
255 236 247
255 236 247
255 236 247
255 236 247
255 236 247
255 236 247
255 236 247
255 236 247
255 236 247
255 236 247
255 248 255
255 236 247
255 236 247
255 236 247
255 236 247
255 236 247
255 236 247
255 236 247
255 236 247
255 236 247
255 236 247
255 236 247
255 236 247
255 236 247
255 236 247
255 236 247
255 236 247
255 236 247
255 236 247
255 236 247
255 236 247
255 236 247
255 236 247
255 236 247
255 236 247
255 236 247
255 236 247
255 236 247
255 236 247
255 236 247
255 236 247
255 236 247
255 236 247
255 236 247
255 236 247
255 236 247
255 236 247
255 248 255
255 236 247
255 236 247
255 236 247
255 236 247
255 236 247
255 236 247
255 236 247
255 236 247
255 236 247
255 236 247
255 236 247
255 236 247
255 236 247
255 236 247
255 236 247
255 236 247
255 236 247
255 236 247
255 236 247
255 236 247
255 236 247
255 236 247
255 236 247
255 236 247
255 236 247
255 236 247
255 236 247
255 236 247
255 236 247
255 236 247
255 236 247
255 236 247
255 236 247
255 236 247
255 236 247
255 236 247
255 236 247
255 236 247
255 236 247
255 236 247
255 236 247
255 236 247
255 236 247
255 236 247
255 236 247
255 236 247
255 236 247
255 236 247
255 236 247
255 236 247
255 236 247
255 236 247
255 236 247
255 236 247
255 236 247
255 236 247
255 236 247
255 236 247
255 236 247
255 248 255
255 236 247
255 236 247
255 236 247
255 236 247
255 236 247
255 236 247
255 236 247
255 236 247
255 236 247
255 236 247
255 236 247
255 236 247
255 236 247
255 236 247
255 236 247
255 236 247
255 236 247
255 236 247
255 236 247
255 236 247
255 236 247
255 236 247
255 236 247
255 236 247
255 236 247
255 236 247
255 236 247
255 236 247
255 236 247
255 236 247
255 236 247
255 236 247
255 236 247
255 236 247
255 236 247
255 236 247
255 248 255
255 236 247
255 236 247
255 236 247
255 236 247
255 236 247
255 236 247
255 236 247
255 236 247
255 236 247
255 236 247
255 236 247
255 236 247
255 236 247
255 236 247
255 236 247
255 236 247
255 236 247
255 236 247
255 236 247
255 236 247
255 236 247
255 236 247
255 236 247
255 236 247
255 236 247
255 236 247
255 236 247
255 236 247
255 236 247
255 236 247
255 236 247
255 236 247
255 236 247
255 236 247
255 236 247
255 236 247
255 248 255
255 236 247
255 236 247
255 236 247
255 236 247
255 236 247
255 236 247
255 236 247
255 236 247
255 236 247
255 236 247
255 236 247
255 236 247
255 236 247
255 236 247
255 236 247
255 236 247
255 236 247
255 236 247
255 236 247
255 236 247
255 236 247
255 236 247
255 236 247
255 236 247
255 236 247
255 236 247
255 236 247
255 236 247
255 236 247
255 236 247
255 236 247
255 236 247
255 236 247
255 236 247
255 236 247
255 236 247
255 248 255
255 236 247
255 236 247
255 236 247
255 236 247
255 236 247
255 236 247
255 236 247
255 236 247
255 236 247
255 236 247
255 236 247
255 236 247
255 236 247
255 236 247
255 236 247
255 236 247
255 236 247
255 236 247
255 236 247
255 236 247
255 236 247
255 236 247
255 236 247
255 236 247
255 236 247
255 236 247
255 236 247
255 236 247
255 236 247
255 236 247
255 236 247
255 236 247
255 236 247
255 236 247
255 236 247
255 236 247
255 248 255
255 236 247
255 236 247
255 236 247
255 236 247
255 236 247
255 236 247
255 236 247
255 236 247
255 236 247
255 236 247
255 236 247
255 236 247
255 236 247
255 236 247
255 236 247
255 236 247
255 236 247
255 236 247
255 236 247
255 236 247
255 236 247
255 236 247
255 236 247
255 236 247
255 236 247
255 236 247
255 236 247
255 236 247
255 236 247
255 236 247
255 236 247
255 236 247
255 236 247
255 236 247
255 236 247
255 236 247
255 248 255
255 236 247
255 236 247
255 236 247
255 236 247
255 236 247
255 236 247
255 236 247
255 236 247
255 236 247
255 236 247
255 236 247
255 236 247
255 236 247
255 236 247
255 236 247
255 236 247
255 236 247
255 236 247
255 236 247
255 236 247
255 236 247
255 236 247
255 236 247
255 236 247
255 236 247
255 236 247
255 236 247
255 236 247
255 236 247
255 236 247
255 236 247
255 236 247
255 236 247
255 236 247
255 236 247
255 236 247
255 248 255
255 236 247
255 236 247
255 236 247
255 236 247
255 236 247
255 236 247
255 236 247
255 236 247
255 236 247
255 236 247
255 236 247
255 236 247
255 236 247
255 236 247
255 236 247
255 236 247
255 236 247
255 236 247
255 236 247
255 236 247
255 236 247
255 236 247
255 236 247
255 236 247
255 236 247
255 236 247
255 236 247
255 236 247
255 236 247
255 236 247
255 236 247
255 236 247
255 236 247
255 236 247
255 236 247
255 236 247
255 248 255
255 236 247
255 236 247
255 236 247
255 236 247
255 236 247
255 236 247
255 236 247
255 236 247
255 236 247
255 236 247
255 236 247
255 236 247
255 236 247
255 236 247
255 236 247
255 236 247
255 236 247
255 236 247
255 236 247
255 236 247
255 236 247
255 236 247
255 236 247
255 236 247
255 236 247
255 236 247
255 236 247
255 236 247
255 236 247
255 236 247
255 236 247
255 236 247
255 236 247
255 236 247
255 236 247
255 236 247
255 236 247
255 236 247
255 236 247
255 236 247
255 236 247
255 236 247
255 236 247
255 236 247
255 236 247
255 236 247
255 236 247
255 236 247
255 236 247
255 236 247
255 236 247
255 236 247
255 236 247
255 236 247
255 236 247
255 236 247
255 236 247
255 236 247
255 236 247
255 248 255
255 236 247
255 236 247
255 236 247
255 236 247
255 236 247
255 236 247
255 236 247
255 236 247
255 236 247
255 236 247
255 236 247
255 236 247
255 236 247
255 236 247
255 236 247
255 236 247
255 236 247
255 236 247
255 236 247
255 236 247
255 236 247
255 236 247
255 236 247
255 236 247
255 236 247
255 236 247
255 236 247
255 236 247
255 236 247
255 236 247
255 236 247
255 236 247
255 236 247
255 236 247
255 236 247
255 236 247
255 248 255
255 236 247
255 236 247
255 236 247
255 236 247
255 236 247
255 236 247
255 236 247
255 236 247
255 236 247
255 236 247
255 236 247
255 236 247
255 236 247
255 236 247
255 236 247
255 236 247
255 236 247
255 236 247
255 236 247
255 236 247
255 236 247
255 236 247
255 236 247
255 236 247
255 236 247
255 236 247
255 236 247
255 236 247
255 236 247
255 236 247
255 236 247
255 236 247
255 236 247
255 236 247
255 236 247
255 236 247
255 248 255
255 236 247
255 236 247
255 236 247
255 236 247
255 236 247
255 236 247
255 236 247
255 236 247
255 236 247
255 236 247
255 236 247
255 236 247
255 236 247
255 236 247
255 236 247
255 236 247
255 236 247
255 236 247
255 236 247
255 236 247
255 236 247
255 236 247
255 236 247
255 236 247
255 236 247
255 236 247
255 236 247
255 236 247
255 236 247
255 236 247
255 236 247
255 236 247
255 236 247
255 236 247
255 236 247
255 236 247
255 248 255
255 236 247
255 236 247
255 236 247
255 236 247
255 236 247
255 236 247
255 236 247
255 236 247
255 236 247
255 236 247
255 236 247
255 236 247
255 236 247
255 236 247
255 236 247
255 236 247
255 236 247
255 236 247
255 236 247
255 236 247
255 236 247
255 236 247
255 236 247
255 236 247
255 236 247
255 236 247
255 236 247
255 236 247
255 236 247
255 236 247
255 236 247
255 236 247
255 236 247
255 236 247
255 236 247
255 236 247
255 248 255
255 236 247
255 236 247
255 236 247
255 236 247
255 236 247
255 236 247
255 236 247
255 236 247
255 236 247
255 236 247
255 236 247
255 236 247
255 236 247
255 236 247
255 236 247
255 236 247
255 236 247
255 236 247
255 236 247
255 236 247
255 236 247
255 236 247
255 236 247
255 236 247
255 236 247
255 236 247
255 236 247
255 236 247
255 236 247
255 236 247
255 236 247
255 236 247
255 236 247
255 236 247
255 236 247
255 236 247
255 248 255
255 236 247
255 236 247
255 236 247
255 236 247
255 236 247
255 236 247
255 236 247
255 236 247
255 236 247
255 236 247
255 236 247
255 236 247
255 236 247
255 236 247
255 236 247
255 236 247
255 236 247
255 236 247
255 236 247
255 236 247
255 236 247
255 236 247
255 236 247
255 236 247
255 236 247
255 236 247
255 236 247
255 236 247
255 236 247
255 236 247
255 236 247
255 236 247
255 236 247
255 236 247
255 236 247
255 236 247
255 248 255
255 236 247
255 236 247
255 236 247
255 236 247
255 236 247
255 236 247
255 236 247
255 236 247
255 236 247
255 236 247
255 236 247
255 236 247
255 236 247
255 236 247
255 236 247
255 236 247
255 236 247
255 236 247
255 236 247
255 236 247
255 236 247
255 236 247
255 236 247
255 236 247
255 236 247
255 236 247
255 236 247
255 236 247
255 236 247
255 236 247
255 236 247
255 236 247
255 236 247
255 236 247
255 236 247
255 236 247
255 248 255
255 236 247
255 236 247
255 236 247
255 236 247
255 236 247
255 236 247
255 236 247
255 236 247
255 236 247
255 236 247
255 236 247
255 236 247
255 236 247
255 236 247
255 236 247
255 236 247
255 236 247
255 236 247
255 236 247
255 236 247
255 236 247
255 236 247
255 236 247
255 236 247
255 236 247
255 236 247
255 236 247
255 236 247
255 236 247
255 236 247
255 236 247
255 236 247
255 236 247
255 236 247
255 236 247
255 236 247
255 236 247
255 236 247
255 236 247
255 236 247
255 236 247
255 236 247
255 236 247
255 236 247
255 236 247
255 236 247
255 236 247
255 236 247
255 236 247
255 236 247
255 236 247
255 236 247
255 236 247
255 236 247
255 236 247
255 236 247
255 236 247
255 236 247
255 236 247
255 248 255
255 236 247
255 236 247
255 236 247
255 236 247
255 236 247
255 236 247
255 236 247
255 236 247
255 236 247
255 236 247
255 236 247
255 236 247
255 236 247
255 236 247
255 236 247
255 236 247
255 236 247
255 236 247
255 236 247
255 236 247
255 236 247
255 236 247
255 236 247
255 236 247
255 236 247
255 236 247
255 236 247
255 236 247
255 236 247
255 236 247
255 236 247
255 236 247
255 236 247
255 236 247
255 236 247
255 236 247
255 248 255
255 236 247
255 236 247
255 236 247
255 236 247
255 236 247
255 236 247
255 236 247
255 236 247
255 236 247
255 236 247
255 236 247
255 236 247
255 236 247
255 236 247
255 236 247
255 236 247
255 236 247
255 236 247
255 236 247
255 236 247
255 236 247
255 236 247
255 236 247
255 236 247
255 236 247
255 236 247
255 236 247
255 236 247
255 236 247
255 236 247
255 236 247
255 236 247
255 236 247
255 236 247
255 236 247
255 236 247
255 248 255
255 236 247
255 236 247
255 236 247
255 236 247
255 236 247
255 236 247
255 236 247
255 236 247
255 236 247
255 236 247
255 236 247
255 236 247
255 236 247
255 236 247
255 236 247
255 236 247
255 236 247
255 236 247
255 236 247
255 236 247
255 236 247
255 236 247
255 236 247
255 236 247
255 236 247
255 236 247
255 236 247
255 236 247
255 236 247
255 236 247
255 236 247
255 236 247
255 236 247
255 236 247
255 236 247
255 236 247
255 248 255
255 236 247
255 236 247
255 236 247
255 236 247
255 236 247
255 236 247
255 236 247
255 236 247
255 236 247
255 236 247
255 236 247
255 236 247
255 236 247
255 236 247
255 236 247
255 236 247
255 236 247
255 236 247
255 236 247
255 236 247
255 236 247
255 236 247
255 236 247
255 236 247
255 236 247
255 236 247
255 236 247
255 236 247
255 236 247
255 236 247
255 236 247
255 236 247
255 236 247
255 236 247
255 236 247
255 236 247
255 248 255
255 236 247
255 236 247
255 236 247
255 236 247
255 236 247
255 236 247
255 236 247
255 236 247
255 236 247
255 236 247
255 236 247
255 236 247
255 236 247
255 236 247
255 236 247
255 236 247
255 236 247
255 236 247
255 236 247
255 236 247
255 236 247
255 236 247
255 236 247
255 236 247
255 236 247
255 236 247
255 236 247
255 236 247
255 236 247
255 236 247
255 236 247
255 236 247
255 236 247
255 236 247
255 236 247
255 236 247
255 248 255
255 236 247
255 236 247
255 236 247
255 236 247
255 236 247
255 236 247
255 236 247
255 236 247
255 236 247
255 236 247
255 236 247
255 236 247
255 236 247
255 236 247
255 236 247
255 236 247
255 236 247
255 236 247
255 236 247
255 236 247
255 236 247
255 236 247
255 236 247
255 236 247
255 236 247
255 236 247
255 236 247
255 236 247
255 236 247
255 236 247
255 236 247
255 236 247
255 236 247
255 236 247
255 236 247
255 236 247
255 248 255
255 236 247
255 236 247
255 236 247
255 236 247
255 236 247
255 236 247
255 236 247
255 236 247
255 236 247
255 236 247
255 236 247
255 236 247
255 236 247
255 236 247
255 236 247
255 236 247
255 236 247
255 236 247
255 236 247
255 236 247
255 236 247
255 236 247
255 236 247
255 236 247
255 236 247
255 236 247
255 236 247
255 236 247
255 236 247
255 236 247
255 236 247
255 236 247
255 236 247
255 236 247
255 236 247
255 236 247
255 248 255
255 236 247
255 236 247
255 236 247
255 236 247
255 236 247
255 236 247
255 236 247
255 236 247
255 236 247
255 236 247
255 236 247
255 236 247
255 236 247
255 236 247
255 236 247
255 236 247
255 236 247
255 236 247
255 236 247
255 236 247
255 236 247
255 236 247
255 236 247
255 236 247
255 236 247
255 236 247
255 236 247
255 236 247
255 236 247
255 236 247
255 236 247
255 236 247
255 236 247
255 236 247
255 236 247
255 236 247
255 236 247
255 236 247
255 236 247
255 236 247
255 236 247
255 236 247
255 236 247
255 236 247
255 236 247
255 236 247
255 236 247
255 236 247
255 236 247
255 236 247
255 236 247
255 236 247
255 236 247
255 236 247
255 236 247
255 236 247
255 236 247
255 236 247
255 236 247
255 248 255
255 236 247
255 236 247
255 236 247
255 236 247
255 236 247
255 236 247
255 236 247
255 236 247
255 236 247
255 236 247
255 236 247
255 236 247
255 236 247
255 236 247
255 236 247
255 236 247
255 236 247
255 236 247
255 236 247
255 236 247
255 236 247
255 236 247
255 236 247
255 236 247
255 236 247
255 236 247
255 236 247
255 236 247
255 236 247
255 236 247
255 236 247
255 236 247
255 236 247
255 236 247
255 236 247
255 236 247
255 248 255
255 236 247
255 236 247
255 236 247
255 236 247
255 236 247
255 236 247
255 236 247
255 236 247
255 236 247
255 236 247
255 236 247
255 236 247
255 236 247
255 236 247
255 236 247
255 236 247
255 236 247
255 236 247
255 236 247
255 236 247
255 236 247
255 236 247
255 236 247
255 236 247
255 236 247
255 236 247
255 236 247
255 236 247
255 236 247
255 236 247
255 236 247
255 236 247
255 236 247
255 236 247
255 236 247
255 236 247
255 248 255
255 236 247
255 236 247
255 236 247
255 236 247
255 236 247
255 236 247
255 236 247
255 236 247
255 236 247
255 236 247
255 236 247
255 236 247
255 236 247
255 236 247
255 236 247
255 236 247
255 236 247
255 236 247
255 236 247
255 236 247
255 236 247
255 236 247
255 236 247
255 236 247
255 236 247
255 236 247
255 236 247
255 236 247
255 236 247
255 236 247
255 236 247
255 236 247
255 236 247
255 236 247
255 236 247
255 236 247
255 248 255
255 236 247
255 236 247
255 236 247
255 236 247
255 236 247
255 236 247
255 236 247
255 236 247
255 236 247
255 236 247
255 236 247
255 236 247
255 236 247
255 236 247
255 236 247
255 236 247
255 236 247
255 236 247
255 236 247
255 236 247
255 236 247
255 236 247
255 236 247
255 236 247
255 236 247
255 236 247
255 236 247
255 236 247
255 236 247
255 236 247
255 236 247
255 236 247
255 236 247
255 236 247
255 236 247
255 236 247
255 248 255
255 236 247
255 236 247
255 236 247
255 236 247
255 236 247
255 236 247
255 236 247
255 236 247
255 236 247
255 236 247
255 236 247
255 236 247
255 236 247
255 236 247
255 236 247
255 236 247
255 236 247
255 236 247
255 236 247
255 236 247
255 236 247
255 236 247
255 236 247
255 236 247
255 236 247
255 236 247
255 236 247
255 236 247
255 236 247
255 236 247
255 236 247
255 236 247
255 236 247
255 236 247
255 236 247
255 236 247
255 248 255
255 236 247
255 236 247
255 236 247
255 236 247
255 236 247
255 236 247
255 236 247
255 236 247
255 236 247
255 236 247
255 236 247
255 236 247
255 236 247
255 236 247
255 236 247
255 236 247
255 236 247
255 236 247
255 236 247
255 236 247
255 236 247
255 236 247
255 236 247
255 236 247
255 236 247
255 236 247
255 236 247
255 236 247
255 236 247
255 236 247
255 236 247
255 236 247
255 236 247
255 236 247
255 236 247
255 236 247
255 248 255
255 236 247
255 236 247
255 236 247
255 236 247
255 236 247
255 236 247
255 236 247
255 236 247
255 236 247
255 236 247
255 236 247
255 236 247
255 236 247
255 236 247
255 236 247
255 236 247
255 236 247
255 236 247
255 236 247
255 236 247
255 236 247
255 236 247
255 236 247
255 236 247
255 236 247
255 236 247
255 236 247
255 236 247
255 236 247
255 236 247
255 236 247
255 236 247
255 236 247
255 236 247
255 236 247
255 236 247
255 248 255
255 236 247
255 236 247
255 236 247
255 236 247
255 236 247
255 236 247
255 236 247
255 236 247
255 236 247
255 236 247
255 236 247
255 236 247
255 236 247
255 236 247
255 236 247
255 236 247
255 236 247
255 236 247
255 236 247
255 236 247
255 236 247
255 236 247
255 236 247
255 236 247
255 236 247
255 236 247
255 236 247
255 236 247
255 236 247
255 236 247
255 236 247
255 236 247
255 236 247
255 236 247
255 236 247
255 236 247
255 236 247
255 236 247
255 236 247
255 236 247
255 236 247
255 236 247
255 236 247
255 236 247
255 236 247
255 236 247
255 236 247
255 236 247
255 236 247
255 236 247
255 236 247
255 236 247
255 236 247
255 236 247
255 236 247
255 236 247
255 236 247
255 236 247
255 236 247
255 248 255
255 236 247
255 236 247
255 236 247
255 236 247
255 236 247
255 236 247
255 236 247
255 236 247
255 236 247
255 236 247
255 236 247
255 236 247
255 236 247
255 236 247
255 236 247
255 236 247
255 236 247
255 236 247
255 236 247
255 236 247
255 236 247
255 236 247
255 236 247
255 236 247
255 236 247
255 236 247
255 236 247
255 236 247
255 236 247
255 236 247
255 236 247
255 236 247
255 236 247
255 236 247
255 236 247
255 236 247
255 248 255
255 236 247
255 236 247
255 236 247
255 236 247
255 236 247
255 236 247
255 236 247
255 236 247
255 236 247
255 236 247
255 236 247
255 236 247
255 236 247
255 236 247
255 236 247
255 236 247
255 236 247
255 236 247
255 236 247
255 236 247
255 236 247
255 236 247
255 236 247
255 236 247
255 236 247
255 236 247
255 236 247
255 236 247
255 236 247
255 236 247
255 236 247
255 236 247
255 236 247
255 236 247
255 236 247
255 236 247
255 248 255
255 236 247
255 236 247
255 236 247
255 236 247
255 236 247
255 236 247
255 236 247
255 236 247
255 236 247
255 236 247
255 236 247
255 236 247
255 236 247
255 236 247
255 236 247
255 236 247
255 236 247
255 236 247
255 236 247
255 236 247
255 236 247
255 236 247
255 236 247
255 236 247
255 236 247
255 236 247
255 236 247
255 236 247
255 236 247
255 236 247
255 236 247
255 236 247
255 236 247
255 236 247
255 236 247
255 236 247
255 248 255
255 236 247
255 236 247
255 236 247
255 236 247
255 236 247
255 236 247
255 236 247
255 236 247
255 236 247
255 236 247
255 236 247
255 236 247
255 236 247
255 236 247
255 236 247
255 236 247
255 236 247
255 236 247
255 236 247
255 236 247
255 236 247
255 236 247
255 236 247
255 236 247
255 236 247
255 236 247
255 236 247
255 236 247
255 236 247
255 236 247
255 236 247
255 236 247
255 236 247
255 236 247
255 236 247
255 236 247
255 248 255
255 236 247
255 236 247
255 236 247
255 236 247
255 236 247
255 236 247
255 236 247
255 236 247
255 236 247
255 236 247
255 236 247
255 236 247
255 236 247
255 236 247
255 236 247
255 236 247
255 236 247
255 236 247
255 236 247
255 236 247
255 236 247
255 236 247
255 236 247
255 236 247
255 236 247
255 236 247
255 236 247
255 236 247
255 236 247
255 236 247
255 236 247
255 236 247
255 236 247
255 236 247
255 236 247
255 236 247
255 248 255
255 236 247
255 236 247
255 236 247
255 236 247
255 236 247
255 236 247
255 236 247
255 236 247
255 236 247
255 236 247
255 236 247
255 236 247
255 236 247
255 236 247
255 236 247
255 236 247
255 236 247
255 236 247
255 236 247
255 236 247
255 236 247
255 236 247
255 236 247
255 236 247
255 236 247
255 236 247
255 236 247
255 236 247
255 236 247
255 236 247
255 236 247
255 236 247
255 236 247
255 236 247
255 236 247
255 236 247
255 248 255
255 236 247
255 236 247
255 236 247
255 236 247
255 236 247
255 236 247
255 236 247
255 236 247
255 236 247
255 236 247
255 236 247
255 236 247
255 236 247
255 236 247
255 236 247
255 236 247
255 236 247
255 236 247
255 236 247
255 236 247
255 236 247
255 236 247
255 236 247
255 236 247
255 236 247
255 236 247
255 236 247
255 236 247
255 236 247
255 236 247
255 236 247
255 236 247
255 236 247
255 236 247
255 236 247
255 236 247
255 248 255
255 236 247
255 236 247
255 236 247
255 236 247
255 236 247
255 236 247
255 236 247
255 236 247
255 236 247
255 236 247
255 236 247
255 236 247
255 236 247
255 236 247
255 236 247
255 236 247
255 236 247
255 236 247
255 236 247
255 236 247
255 236 247
255 236 247
255 236 247
255 236 247
255 236 247
255 236 247
255 236 247
255 236 247
255 236 247
255 236 247
255 236 247
255 236 247
255 236 247
255 236 247
255 236 247
255 236 247
255 236 247
255 236 247
255 236 247
255 236 247
255 236 247
255 236 247
255 236 247
255 236 247
255 236 247
255 236 247
255 236 247
255 236 247
255 236 247
255 236 247
255 236 247
255 236 247
255 236 247
255 236 247
255 236 247
255 236 247
255 236 247
255 236 247
255 236 247
255 248 255
255 236 247
255 236 247
255 236 247
255 236 247
255 236 247
255 236 247
255 236 247
255 236 247
255 236 247
255 236 247
255 236 247
255 236 247
255 236 247
255 236 247
255 236 247
255 236 247
255 236 247
255 236 247
255 236 247
255 236 247
255 236 247
255 236 247
255 236 247
255 236 247
255 236 247
255 236 247
255 236 247
255 236 247
255 236 247
255 236 247
255 236 247
255 236 247
255 236 247
255 236 247
255 236 247
255 236 247
255 248 255
255 236 247
255 236 247
255 236 247
255 236 247
255 236 247
255 236 247
255 236 247
255 236 247
255 236 247
255 236 247
255 236 247
255 236 247
255 236 247
255 236 247
255 236 247
255 236 247
255 236 247
255 236 247
255 236 247
255 236 247
255 236 247
255 236 247
255 236 247
255 236 247
255 236 247
255 236 247
255 236 247
255 236 247
255 236 247
255 236 247
255 236 247
255 236 247
255 236 247
255 236 247
255 236 247
255 236 247
255 248 255
255 236 247
255 236 247
255 236 247
255 236 247
255 236 247
255 236 247
255 236 247
255 236 247
255 236 247
255 236 247
255 236 247
255 236 247
255 236 247
255 236 247
255 236 247
255 236 247
255 236 247
255 236 247
255 236 247
255 236 247
255 236 247
255 236 247
255 236 247
255 236 247
255 236 247
255 236 247
255 236 247
255 236 247
255 236 247
255 236 247
255 236 247
255 236 247
255 236 247
255 236 247
255 236 247
255 236 247
255 248 255
255 236 247
255 236 247
255 236 247
255 236 247
255 236 247
255 236 247
255 236 247
255 236 247
255 236 247
255 236 247
255 236 247
255 236 247
255 236 247
255 236 247
255 236 247
255 236 247
255 236 247
255 236 247
255 236 247
255 236 247
255 236 247
255 236 247
255 236 247
255 236 247
255 236 247
255 236 247
255 236 247
255 236 247
255 236 247
255 236 247
255 236 247
255 236 247
255 236 247
255 236 247
255 236 247
255 236 247
255 248 255
255 236 247
255 236 247
255 236 247
255 236 247
255 236 247
255 236 247
255 236 247
255 236 247
255 236 247
255 236 247
255 236 247
255 236 247
255 236 247
255 236 247
255 236 247
255 236 247
255 236 247
255 236 247
255 236 247
255 236 247
255 236 247
255 236 247
255 236 247
255 236 247
255 236 247
255 236 247
255 236 247
255 236 247
255 236 247
255 236 247
255 236 247
255 236 247
255 236 247
255 236 247
255 236 247
255 236 247
255 248 255
255 236 247
255 236 247
255 236 247
255 236 247
255 236 247
255 236 247
255 236 247
255 236 247
255 236 247
255 236 247
255 236 247
255 236 247
255 236 247
255 236 247
255 236 247
255 236 247
255 236 247
255 236 247
255 236 247
255 236 247
255 236 247
255 236 247
255 236 247
255 236 247
255 236 247
255 236 247
255 236 247
255 236 247
255 236 247
255 236 247
255 236 247
255 236 247
255 236 247
255 236 247
255 236 247
255 236 247
255 248 255
255 236 247
255 236 247
255 236 247
255 236 247
255 236 247
255 236 247
255 236 247
255 236 247
255 236 247
255 236 247
255 236 247
255 236 247
255 236 247
255 236 247
255 236 247
255 236 247
255 236 247
255 236 247
255 236 247
255 236 247
255 236 247
255 236 247
255 236 247
255 236 247
255 236 247
255 236 247
255 236 247
255 236 247
255 236 247
255 236 247
255 236 247
255 236 247
255 236 247
255 236 247
255 236 247
255 236 247
255 248 255
255 236 247
255 236 247
255 236 247
255 236 247
255 236 247
255 236 247
255 236 247
255 236 247
255 236 247
255 236 247
255 236 247
255 236 247
255 236 247
255 236 247
255 236 247
255 236 247
255 236 247
255 236 247
255 236 247
255 236 247
255 236 247
255 236 247
255 236 247
255 236 247
255 236 247
255 236 247
255 236 247
255 236 247
255 236 247
255 236 247
255 236 247
255 236 247
255 236 247
255 236 247
255 236 247
255 236 247
255 236 247
255 236 247
255 236 247
255 236 247
255 236 247
255 236 247
255 236 247
255 236 247
255 236 247
255 236 247
255 236 247
255 236 247
255 236 247
255 236 247
255 236 247
255 236 247
255 236 247
255 236 247
255 236 247
255 236 247
255 236 247
255 236 247
255 236 247
255 248 255
255 236 247
255 236 247
255 236 247
255 236 247
255 236 247
255 236 247
255 236 247
255 236 247
255 236 247
255 236 247
255 236 247
255 236 247
255 236 247
255 236 247
255 236 247
255 236 247
255 236 247
255 236 247
255 236 247
255 236 247
255 236 247
255 236 247
255 236 247
255 236 247
255 236 247
255 236 247
255 236 247
255 236 247
255 236 247
255 236 247
255 236 247
255 236 247
255 236 247
255 236 247
255 236 247
255 236 247
255 248 255
255 236 247
255 236 247
255 236 247
255 236 247
255 236 247
255 236 247
255 236 247
255 236 247
255 236 247
255 236 247
255 236 247
255 236 247
255 236 247
255 236 247
255 236 247
255 236 247
255 236 247
255 236 247
255 236 247
255 236 247
255 236 247
255 236 247
255 236 247
255 236 247
255 236 247
255 236 247
255 236 247
255 236 247
255 236 247
255 236 247
255 236 247
255 236 247
255 236 247
255 236 247
255 236 247
255 236 247
255 248 255
255 236 247
255 236 247
255 236 247
255 236 247
255 236 247
255 236 247
255 236 247
255 236 247
255 236 247
255 236 247
255 236 247
255 236 247
255 236 247
255 236 247
255 236 247
255 236 247
255 236 247
255 236 247
255 236 247
255 236 247
255 236 247
255 236 247
255 236 247
255 236 247
255 236 247
255 236 247
255 236 247
255 236 247
255 236 247
255 236 247
255 236 247
255 236 247
255 236 247
255 236 247
255 236 247
255 236 247
255 248 255
255 236 247
255 236 247
255 236 247
255 236 247
255 236 247
255 236 247
255 236 247
255 236 247
255 236 247
255 236 247
255 236 247
255 236 247
255 236 247
255 236 247
255 236 247
255 236 247
255 236 247
255 236 247
255 236 247
255 236 247
255 236 247
255 236 247
255 236 247
255 236 247
255 236 247
255 236 247
255 236 247
255 236 247
255 236 247
255 236 247
255 236 247
255 236 247
255 236 247
255 236 247
255 236 247
255 236 247
255 248 255
255 236 247
255 236 247
255 236 247
255 236 247
255 236 247
255 236 247
255 236 247
255 236 247
255 236 247
255 236 247
255 236 247
255 236 247
255 236 247
255 236 247
255 236 247
255 236 247
255 236 247
255 236 247
255 236 247
255 236 247
255 236 247
255 236 247
255 236 247
255 236 247
255 236 247
255 236 247
255 236 247
255 236 247
255 236 247
255 236 247
255 236 247
255 236 247
255 236 247
255 236 247
255 236 247
255 236 247
255 248 255
255 236 247
255 236 247
255 236 247
255 236 247
255 236 247
255 236 247
255 236 247
255 236 247
255 236 247
255 236 247
255 236 247
255 236 247
255 236 247
255 236 247
255 236 247
255 236 247
255 236 247
255 236 247
255 236 247
255 236 247
255 236 247
255 236 247
255 236 247
255 236 247
255 236 247
255 236 247
255 236 247
255 236 247
255 236 247
255 236 247
255 236 247
255 236 247
255 236 247
255 236 247
255 236 247
255 236 247
255 248 255
255 236 247
255 236 247
255 236 247
255 236 247
255 236 247
255 236 247
255 236 247
255 236 247
255 236 247
255 236 247
255 236 247
255 236 247
255 236 247
255 236 247
255 236 247
255 236 247
255 236 247
255 236 247
255 236 247
255 236 247
255 236 247
255 236 247
255 236 247
255 236 247
255 236 247
255 236 247
255 236 247
255 236 247
255 236 247
255 236 247
255 236 247
255 236 247
255 236 247
255 236 247
255 236 247
255 236 247
255 248 255
255 236 247
255 236 247
255 236 247
255 236 247
255 236 247
255 236 247
255 236 247
255 236 247
255 236 247
255 236 247
255 236 247
255 236 247
255 236 247
255 236 247
255 236 247
255 236 247
255 236 247
255 236 247
255 236 247
255 236 247
255 236 247
255 236 247
255 236 247
255 236 247
255 236 247
255 236 247
255 236 247
255 236 247
255 236 247
255 236 247
255 236 247
255 236 247
255 236 247
255 236 247
255 236 247
255 236 247
255 236 247
255 236 247
255 236 247
255 236 247
255 236 247
255 236 247
255 236 247
255 236 247
255 236 247
255 236 247
255 236 247
255 236 247
255 236 247
255 236 247
255 236 247
255 236 247
255 236 247
255 236 247
255 236 247
255 236 247
255 236 247
255 236 247
255 236 247
255 248 255
255 236 247
255 236 247
255 236 247
255 236 247
255 236 247
255 236 247
255 236 247
255 236 247
255 236 247
255 236 247
255 236 247
255 236 247
255 236 247
255 236 247
255 236 247
255 236 247
255 236 247
255 236 247
255 236 247
255 236 247
255 236 247
255 236 247
255 236 247
255 236 247
255 236 247
255 236 247
255 236 247
255 236 247
255 236 247
255 236 247
255 236 247
255 236 247
255 236 247
255 236 247
255 236 247
255 236 247
255 248 255
255 236 247
255 236 247
255 236 247
255 236 247
255 236 247
255 236 247
255 236 247
255 236 247
255 236 247
255 236 247
255 236 247
255 236 247
255 236 247
255 236 247
255 236 247
255 236 247
255 236 247
255 236 247
255 236 247
255 236 247
255 236 247
255 236 247
255 236 247
255 236 247
255 236 247
255 236 247
255 236 247
255 236 247
255 236 247
255 236 247
255 236 247
255 236 247
255 236 247
255 236 247
255 236 247
255 236 247
255 248 255
255 236 247
255 236 247
255 236 247
255 236 247
255 236 247
255 236 247
255 236 247
255 236 247
255 236 247
255 236 247
255 236 247
255 236 247
255 236 247
255 236 247
255 236 247
255 236 247
255 236 247
255 236 247
255 236 247
255 236 247
255 236 247
255 236 247
255 236 247
255 236 247
255 236 247
255 236 247
255 236 247
255 236 247
255 236 247
255 236 247
255 236 247
255 236 247
255 236 247
255 236 247
255 236 247
255 236 247
255 248 255
255 236 247
255 236 247
255 236 247
255 236 247
255 236 247
255 236 247
255 236 247
255 236 247
255 236 247
255 236 247
255 236 247
255 236 247
255 236 247
255 236 247
255 236 247
255 236 247
255 236 247
255 236 247
255 236 247
255 236 247
255 236 247
255 236 247
255 236 247
255 236 247
255 236 247
255 236 247
255 236 247
255 236 247
255 236 247
255 236 247
255 236 247
255 236 247
255 236 247
255 236 247
255 236 247
255 236 247
255 248 255
255 236 247
255 236 247
255 236 247
255 236 247
255 236 247
255 236 247
255 236 247
255 236 247
255 236 247
255 236 247
255 236 247
255 236 247
255 236 247
255 236 247
255 236 247
255 236 247
255 236 247
255 236 247
255 236 247
255 236 247
255 236 247
255 236 247
255 236 247
255 236 247
255 236 247
255 236 247
255 236 247
255 236 247
255 236 247
255 236 247
255 236 247
255 236 247
255 236 247
255 236 247
255 236 247
255 236 247
255 248 255
255 236 247
255 236 247
255 236 247
255 236 247
255 236 247
255 236 247
255 236 247
255 236 247
255 236 247
255 236 247
255 236 247
255 236 247
255 236 247
255 236 247
255 236 247
255 236 247
255 236 247
255 236 247
255 236 247
255 236 247
255 236 247
255 236 247
255 236 247
255 236 247
255 236 247
255 236 247
255 236 247
255 236 247
255 236 247
255 236 247
255 236 247
255 236 247
255 236 247
255 236 247
255 236 247
255 236 247
255 248 255
255 236 247
255 236 247
255 236 247
255 236 247
255 236 247
255 236 247
255 236 247
255 236 247
255 236 247
255 236 247
255 236 247
255 236 247
255 236 247
255 236 247
255 236 247
255 236 247
255 236 247
255 236 247
255 236 247
255 236 247
255 236 247
255 236 247
255 236 247
255 236 247
255 236 247
255 236 247
255 236 247
255 236 247
255 236 247
255 236 247
255 236 247
255 236 247
255 236 247
255 236 247
255 236 247
255 236 247
255 248 255
255 236 247
255 236 247
255 236 247
255 236 247
255 236 247
255 236 247
255 236 247
255 236 247
255 236 247
255 236 247
255 236 247
255 236 247
255 236 247
255 236 247
255 236 247
255 236 247
255 236 247
255 236 247
255 236 247
255 236 247
255 236 247
255 236 247
255 236 247
255 236 247
255 236 247
255 236 247
255 236 247
255 236 247
255 236 247
255 236 247
255 236 247
255 236 247
255 236 247
255 236 247
255 236 247
255 236 247
255 236 247
255 236 247
255 236 247
255 236 247
255 236 247
255 236 247
255 236 247
255 236 247
255 236 247
255 236 247
255 236 247
255 236 247
255 236 247
255 236 247
255 236 247
255 236 247
255 236 247
255 236 247
255 236 247
255 236 247
255 236 247
255 236 247
255 236 247
255 248 255
255 236 247
255 236 247
255 236 247
255 236 247
255 236 247
255 236 247
255 236 247
255 236 247
255 236 247
255 236 247
255 236 247
255 236 247
255 236 247
255 236 247
255 236 247
255 236 247
255 236 247
255 236 247
255 236 247
255 236 247
255 236 247
255 236 247
255 236 247
255 236 247
255 236 247
255 236 247
255 236 247
255 236 247
255 236 247
255 236 247
255 236 247
255 236 247
255 236 247
255 236 247
255 236 247
255 236 247
255 248 255
255 236 247
255 236 247
255 236 247
255 236 247
255 236 247
255 236 247
255 236 247
255 236 247
255 236 247
255 236 247
255 236 247
255 236 247
255 236 247
255 236 247
255 236 247
255 236 247
255 236 247
255 236 247
255 236 247
255 236 247
255 236 247
255 236 247
255 236 247
255 236 247
255 236 247
255 236 247
255 236 247
255 236 247
255 236 247
255 236 247
255 236 247
255 236 247
255 236 247
255 236 247
255 236 247
255 236 247
255 248 255
255 236 247
255 236 247
255 236 247
255 236 247
255 236 247
255 236 247
255 236 247
255 236 247
255 236 247
255 236 247
255 236 247
255 236 247
255 236 247
255 236 247
255 236 247
255 236 247
255 236 247
255 236 247
255 236 247
255 236 247
255 236 247
255 236 247
255 236 247
255 236 247
255 236 247
255 236 247
255 236 247
255 236 247
255 236 247
255 236 247
255 236 247
255 236 247
255 236 247
255 236 247
255 236 247
255 236 247
255 248 255
255 236 247
255 236 247
255 236 247
255 236 247
255 236 247
255 236 247
255 236 247
255 236 247
255 236 247
255 236 247
255 236 247
255 236 247
255 236 247
255 236 247
255 236 247
255 236 247
255 236 247
255 236 247
255 236 247
255 236 247
255 236 247
255 236 247
255 236 247
255 236 247
255 236 247
255 236 247
255 236 247
255 236 247
255 236 247
255 236 247
255 236 247
255 236 247
255 236 247
255 236 247
255 236 247
255 236 247
255 248 255
255 236 247
255 236 247
255 236 247
255 236 247
255 236 247
255 236 247
255 236 247
255 236 247
255 236 247
255 236 247
255 236 247
255 236 247
255 236 247
255 236 247
255 236 247
255 236 247
255 236 247
255 236 247
255 236 247
255 236 247
255 236 247
255 236 247
255 236 247
255 236 247
255 236 247
255 236 247
255 236 247
255 236 247
255 236 247
255 236 247
255 236 247
255 236 247
255 236 247
255 236 247
255 236 247
255 236 247
255 248 255
255 236 247
255 236 247
255 236 247
255 236 247
255 236 247
255 236 247
255 236 247
255 236 247
255 236 247
255 236 247
255 236 247
255 236 247
255 236 247
255 236 247
255 236 247
255 236 247
255 236 247
255 236 247
255 236 247
255 236 247
255 236 247
255 236 247
255 236 247
255 236 247
255 236 247
255 236 247
255 236 247
255 236 247
255 236 247
255 236 247
255 236 247
255 236 247
255 236 247
255 236 247
255 236 247
255 236 247
255 248 255
255 236 247
255 236 247
255 236 247
255 236 247
255 236 247
255 236 247
255 236 247
255 236 247
255 236 247
255 236 247
255 236 247
255 236 247
255 236 247
255 236 247
255 236 247
255 236 247
255 236 247
255 236 247
255 236 247
255 236 247
255 236 247
255 236 247
255 236 247
255 236 247
255 236 247
255 236 247
255 236 247
255 236 247
255 236 247
255 236 247
255 236 247
255 236 247
255 236 247
255 236 247
255 236 247
255 236 247
255 248 255
255 236 247
255 236 247
255 236 247
255 236 247
255 236 247
255 236 247
255 236 247
255 236 247
255 236 247
255 236 247
255 236 247
255 236 247
255 236 247
255 236 247
255 236 247
255 236 247
255 236 247
255 236 247
255 236 247
255 236 247
255 236 247
255 236 247
255 236 247
255 236 247
255 236 247
255 236 247
255 236 247
255 236 247
255 236 247
255 236 247
255 236 247
255 236 247
255 236 247
255 236 247
255 236 247
255 236 247
255 236 247
255 236 247
255 236 247
255 236 247
255 236 247
255 236 247
255 236 247
255 236 247
255 236 247
255 236 247
255 236 247
255 236 247
255 236 247
255 236 247
255 236 247
255 236 247
255 236 247
255 236 247
255 236 247
255 236 247
255 236 247
255 236 247
255 236 247
255 248 255
255 236 247
255 236 247
255 236 247
255 236 247
255 236 247
255 236 247
255 236 247
255 236 247
255 236 247
255 236 247
255 236 247
255 236 247
255 236 247
255 236 247
255 236 247
255 236 247
255 236 247
255 236 247
255 236 247
255 236 247
255 236 247
255 236 247
255 236 247
255 236 247
255 236 247
255 236 247
255 236 247
255 236 247
255 236 247
255 236 247
255 236 247
255 236 247
255 236 247
255 236 247
255 236 247
255 236 247
255 248 255
255 236 247
255 236 247
255 236 247
255 236 247
255 236 247
255 236 247
255 236 247
255 236 247
255 236 247
255 236 247
255 236 247
255 236 247
255 236 247
255 236 247
255 236 247
255 236 247
255 236 247
255 236 247
255 236 247
255 236 247
255 236 247
255 236 247
255 236 247
255 236 247
255 236 247
255 236 247
255 236 247
255 236 247
255 236 247
255 236 247
255 236 247
255 236 247
255 236 247
255 236 247
255 236 247
255 236 247
255 248 255
255 236 247
255 236 247
255 236 247
255 236 247
255 236 247
255 236 247
255 236 247
255 236 247
255 236 247
255 236 247
255 236 247
255 236 247
255 236 247
255 236 247
255 236 247
255 236 247
255 236 247
255 236 247
255 236 247
255 236 247
255 236 247
255 236 247
255 236 247
255 236 247
255 236 247
255 236 247
255 236 247
255 236 247
255 236 247
255 236 247
255 236 247
255 236 247
255 236 247
255 236 247
255 236 247
255 236 247
255 248 255
255 236 247
255 236 247
255 236 247
255 236 247
255 236 247
255 236 247
255 236 247
255 236 247
255 236 247
255 236 247
255 236 247
255 236 247
255 236 247
255 236 247
255 236 247
255 236 247
255 236 247
255 236 247
255 236 247
255 236 247
255 236 247
255 236 247
255 236 247
255 236 247
255 236 247
255 236 247
255 236 247
255 236 247
255 236 247
255 236 247
255 236 247
255 236 247
255 236 247
255 236 247
255 236 247
255 236 247
255 248 255
255 236 247
255 236 247
255 236 247
255 236 247
255 236 247
255 236 247
255 236 247
255 236 247
255 236 247
255 236 247
255 236 247
255 236 247
255 236 247
255 236 247
255 236 247
255 236 247
255 236 247
255 236 247
255 236 247
255 236 247
255 236 247
255 236 247
255 236 247
255 236 247
255 236 247
255 236 247
255 236 247
255 236 247
255 236 247
255 236 247
255 236 247
255 236 247
255 236 247
255 236 247
255 236 247
255 236 247
255 248 255
255 236 247
255 236 247
255 236 247
255 236 247
255 236 247
255 236 247
255 236 247
255 236 247
255 236 247
255 236 247
255 236 247
255 236 247
255 236 247
255 236 247
255 236 247
255 236 247
255 236 247
255 236 247
255 236 247
255 236 247
255 236 247
255 236 247
255 236 247
255 236 247
255 236 247
255 236 247
255 236 247
255 236 247
255 236 247
255 236 247
255 236 247
255 236 247
255 236 247
255 236 247
255 236 247
255 236 247
255 248 255
255 236 247
255 236 247
255 236 247
255 236 247
255 236 247
255 236 247
255 236 247
255 236 247
255 236 247
255 236 247
255 236 247
255 236 247
255 236 247
255 236 247
255 236 247
255 236 247
255 236 247
255 236 247
255 236 247
255 236 247
255 236 247
255 236 247
255 236 247
255 236 247
255 236 247
255 236 247
255 236 247
255 236 247
255 236 247
255 236 247
255 236 247
255 236 247
255 236 247
255 236 247
255 236 247
255 236 247
255 248 255
255 236 247
255 236 247
255 236 247
255 236 247
255 236 247
255 236 247
255 236 247
255 236 247
255 236 247
255 236 247
255 236 247
255 236 247
255 236 247
255 236 247
255 236 247
255 236 247
255 236 247
255 236 247
255 236 247
255 236 247
255 236 247
255 236 247
255 236 247
255 236 247
255 236 247
255 236 247
255 236 247
255 236 247
255 236 247
255 236 247
255 236 247
255 236 247
255 236 247
255 236 247
255 236 247
255 236 247
255 236 247
255 236 247
255 236 247
255 236 247
255 236 247
255 236 247
255 236 247
255 236 247
255 236 247
255 236 247
255 236 247
255 236 247
255 236 247
255 236 247
255 236 247
255 236 247
255 236 247
255 236 247
255 236 247
255 236 247
255 236 247
255 236 247
255 236 247
255 248 255
255 236 247
255 236 247
255 236 247
255 236 247
255 236 247
255 236 247
255 236 247
255 236 247
255 236 247
255 236 247
255 236 247
255 236 247
255 236 247
255 236 247
255 236 247
255 236 247
255 236 247
255 236 247
255 236 247
255 236 247
255 236 247
255 236 247
255 236 247
255 236 247
255 236 247
255 236 247
255 236 247
255 236 247
255 236 247
255 236 247
255 236 247
255 236 247
255 236 247
255 236 247
255 236 247
255 236 247
255 248 255
255 236 247
255 236 247
255 236 247
255 236 247
255 236 247
255 236 247
255 236 247
255 236 247
255 236 247
255 236 247
255 236 247
255 236 247
255 236 247
255 236 247
255 236 247
255 236 247
255 236 247
255 236 247
255 236 247
255 236 247
255 236 247
255 236 247
255 236 247
255 236 247
255 236 247
255 236 247
255 236 247
255 236 247
255 236 247
255 236 247
255 236 247
255 236 247
255 236 247
255 236 247
255 236 247
255 236 247
255 248 255
255 236 247
255 236 247
255 236 247
255 236 247
255 236 247
255 236 247
255 236 247
255 236 247
255 236 247
255 236 247
255 236 247
255 236 247
255 236 247
255 236 247
255 236 247
255 236 247
255 236 247
255 236 247
255 236 247
255 236 247
255 236 247
255 236 247
255 236 247
255 236 247
255 236 247
255 236 247
255 236 247
255 236 247
255 236 247
255 236 247
255 236 247
255 236 247
255 236 247
255 236 247
255 236 247
255 236 247
255 248 255
255 236 247
255 236 247
255 236 247
255 236 247
255 236 247
255 236 247
255 236 247
255 236 247
255 236 247
255 236 247
255 236 247
255 236 247
255 236 247
255 236 247
255 236 247
255 236 247
255 236 247
255 236 247
255 236 247
255 236 247
255 236 247
255 236 247
255 236 247
255 236 247
255 236 247
255 236 247
255 236 247
255 236 247
255 236 247
255 236 247
255 236 247
255 236 247
255 236 247
255 236 247
255 236 247
255 236 247
255 248 255
255 236 247
255 236 247
255 236 247
255 236 247
255 236 247
255 236 247
255 236 247
255 236 247
255 236 247
255 236 247
255 236 247
255 236 247
255 236 247
255 236 247
255 236 247
255 236 247
255 236 247
255 236 247
255 236 247
255 236 247
255 236 247
255 236 247
255 236 247
255 236 247
255 236 247
255 236 247
255 236 247
255 236 247
255 236 247
255 236 247
255 236 247
255 236 247
255 236 247
255 236 247
255 236 247
255 236 247
255 248 255
255 236 247
255 236 247
255 236 247
255 236 247
255 236 247
255 236 247
255 236 247
255 236 247
255 236 247
255 236 247
255 236 247
255 236 247
255 236 247
255 236 247
255 236 247
255 236 247
255 236 247
255 236 247
255 236 247
255 236 247
255 236 247
255 236 247
255 236 247
255 236 247
255 236 247
255 236 247
255 236 247
255 236 247
255 236 247
255 236 247
255 236 247
255 236 247
255 236 247
255 236 247
255 236 247
255 236 247
255 248 255
255 236 247
255 236 247
255 236 247
255 236 247
255 236 247
255 236 247
255 236 247
255 236 247
255 236 247
255 236 247
255 236 247
255 236 247
255 236 247
255 236 247
255 236 247
255 236 247
255 236 247
255 236 247
255 236 247
255 236 247
255 236 247
255 236 247
255 236 247
255 236 247
255 236 247
255 236 247
255 236 247
255 236 247
255 236 247
255 236 247
255 236 247
255 236 247
255 236 247
255 236 247
255 236 247
255 236 247
255 248 255
255 236 247
255 236 247
255 236 247
255 236 247
255 236 247
255 236 247
255 236 247
255 236 247
255 236 247
255 236 247
255 236 247
255 236 247
255 236 247
255 236 247
255 236 247
255 236 247
255 236 247
255 236 247
255 236 247
255 236 247
255 236 247
255 236 247
255 236 247
255 236 247
255 236 247
255 236 247
255 236 247
255 236 247
255 236 247
255 236 247
255 236 247
255 236 247
255 236 247
255 236 247
255 236 247
255 236 247
255 248 255
255 236 247
255 236 247
255 236 247
255 236 247
255 236 247
255 236 247
255 236 247
255 236 247
255 236 247
255 236 247
255 236 247
255 236 247
255 236 247
255 236 247
255 236 247
255 236 247
255 236 247
255 236 247
255 236 247
255 236 247
255 236 247
255 236 247
255 248 255
255 236 247
255 236 247
255 236 247
255 236 247
255 236 247
255 236 247
255 236 247
255 236 247
255 236 247
255 236 247
255 236 247
255 236 247
255 236 247
255 236 247
255 236 247
255 236 247
255 236 247
255 236 247
255 236 247
255 236 247
255 236 247
255 236 247
255 236 247
255 236 247
255 236 247
255 236 247
255 236 247
255 236 247
255 236 247
255 236 247
255 236 247
255 236 247
255 236 247
255 236 247
255 236 247
255 236 247
255 248 255
255 236 247
255 236 247
255 236 247
255 236 247
255 236 247
255 236 247
255 236 247
255 236 247
255 236 247
255 236 247
255 236 247
255 236 247
255 236 247
255 236 247
255 236 247
255 236 247
255 236 247
255 236 247
255 236 247
255 236 247
255 236 247
255 236 247
255 236 247
255 236 247
255 236 247
255 236 247
255 236 247
255 236 247
255 236 247
255 236 247
255 236 247
255 236 247
255 236 247
255 236 247
255 236 247
255 236 247
255 248 255
255 236 247
255 236 247
255 236 247
255 236 247
255 236 247
255 236 247
255 236 247
255 236 247
255 236 247
255 236 247
255 236 247
255 236 247
255 236 247
255 236 247
255 236 247
255 236 247
255 236 247
255 236 247
255 236 247
255 236 247
255 236 247
255 236 247
255 236 247
255 236 247
255 236 247
255 236 247
255 236 247
255 236 247
255 236 247
255 236 247
255 236 247
255 236 247
255 236 247
255 236 247
255 236 247
255 236 247
255 248 255
255 236 247
255 236 247
255 236 247
255 236 247
255 236 247
255 236 247
255 236 247
255 236 247
255 236 247
255 236 247
255 236 247
255 236 247
255 236 247
255 236 247
255 236 247
255 236 247
255 236 247
255 236 247
255 236 247
255 236 247
255 236 247
255 236 247
255 236 247
255 236 247
255 236 247
255 236 247
255 236 247
255 236 247
255 236 247
255 236 247
255 236 247
255 236 247
255 236 247
255 236 247
255 236 247
255 236 247
255 248 255
255 236 247
255 236 247
255 236 247
255 236 247
255 236 247
255 236 247
255 236 247
255 236 247
255 236 247
255 236 247
255 236 247
255 236 247
255 236 247
255 236 247
255 236 247
255 236 247
255 236 247
255 236 247
255 236 247
255 236 247
255 236 247
255 236 247
255 236 247
255 236 247
255 236 247
255 236 247
255 236 247
255 236 247
255 236 247
255 236 247
255 236 247
255 236 247
255 236 247
255 236 247
255 236 247
255 236 247
255 248 255
255 236 247
255 236 247
255 236 247
255 236 247
255 236 247
255 236 247
255 236 247
255 236 247
255 236 247
255 236 247
255 236 247
255 236 247
255 236 247
255 236 247
255 236 247
255 236 247
255 236 247
255 236 247
255 236 247
255 236 247
255 236 247
255 236 247
255 236 247
255 236 247
255 236 247
255 236 247
255 236 247
255 236 247
255 236 247
255 236 247
255 236 247
255 236 247
255 236 247
255 236 247
255 236 247
255 236 247
255 248 255
255 236 247
255 236 247
255 236 247
255 236 247
255 236 247
255 236 247
255 236 247
255 236 247
255 236 247
255 236 247
255 236 247
255 236 247
255 236 247
255 236 247
255 236 247
255 236 247
255 236 247
255 236 247
255 236 247
255 236 247
255 236 247
255 236 247
255 236 247
255 236 247
255 236 247
255 236 247
255 236 247
255 236 247
255 236 247
255 236 247
255 236 247
255 236 247
255 236 247
255 236 247
255 236 247
255 236 247
255 248 255
255 236 247
255 236 247
255 236 247
255 236 247
255 236 247
255 236 247
255 236 247
255 236 247
255 236 247
255 236 247
255 236 247
255 236 247
255 236 247
255 236 247
255 236 247
255 236 247
255 236 247
255 236 247
255 236 247
255 236 247
255 236 247
255 236 247
255 236 247
255 236 247
255 236 247
255 236 247
255 236 247
255 236 247
255 236 247
255 236 247
255 236 247
255 236 247
255 236 247
255 236 247
255 236 247
255 236 247
255 248 255
255 236 247
255 236 247
255 236 247
255 236 247
255 236 247
255 236 247
255 236 247
255 236 247
255 236 247
255 236 247
255 236 247
255 236 247
255 236 247
255 236 247
255 236 247
255 236 247
255 236 247
255 236 247
255 236 247
255 236 247
255 236 247
255 236 247
255 248 255
255 236 247
255 236 247
255 236 247
255 236 247
255 236 247
255 236 247
255 236 247
255 236 247
255 236 247
255 236 247
255 236 247
255 236 247
255 236 247
255 236 247
255 236 247
255 236 247
255 236 247
255 236 247
255 236 247
255 236 247
255 236 247
255 236 247
255 236 247
255 236 247
255 236 247
255 236 247
255 236 247
255 236 247
255 236 247
255 236 247
255 236 247
255 236 247
255 236 247
255 236 247
255 236 247
255 236 247
255 248 255
255 236 247
255 236 247
255 236 247
255 236 247
255 236 247
255 236 247
255 236 247
255 236 247
255 236 247
255 236 247
255 236 247
255 236 247
255 236 247
255 236 247
255 236 247
255 236 247
255 236 247
255 236 247
255 236 247
255 236 247
255 236 247
255 236 247
255 236 247
255 236 247
255 236 247
255 236 247
255 236 247
255 236 247
255 236 247
255 236 247
255 236 247
255 236 247
255 236 247
255 236 247
255 236 247
255 236 247
255 248 255
255 236 247
255 236 247
255 236 247
255 236 247
255 236 247
255 236 247
255 236 247
255 236 247
255 236 247
255 236 247
255 236 247
255 236 247
255 236 247
255 236 247
255 236 247
255 236 247
255 236 247
255 236 247
255 236 247
255 236 247
255 236 247
255 236 247
255 236 247
255 236 247
255 236 247
255 236 247
255 236 247
255 236 247
255 236 247
255 236 247
255 236 247
255 236 247
255 236 247
255 236 247
255 236 247
255 236 247
255 248 255
255 236 247
255 236 247
255 236 247
255 236 247
255 236 247
255 236 247
255 236 247
255 236 247
255 236 247
255 236 247
255 236 247
255 236 247
255 236 247
255 236 247
255 236 247
255 236 247
255 236 247
255 236 247
255 236 247
255 236 247
255 236 247
255 236 247
255 236 247
255 236 247
255 236 247
255 236 247
255 236 247
255 236 247
255 236 247
255 236 247
255 236 247
255 236 247
255 236 247
255 236 247
255 236 247
255 236 247
255 248 255
255 236 247
255 236 247
255 236 247
255 236 247
255 236 247
255 236 247
255 236 247
255 236 247
255 236 247
255 236 247
255 236 247
255 236 247
255 236 247
255 236 247
255 236 247
255 236 247
255 236 247
255 236 247
255 236 247
255 236 247
255 236 247
255 236 247
255 236 247
255 236 247
255 236 247
255 236 247
255 236 247
255 236 247
255 236 247
255 236 247
255 236 247
255 236 247
255 236 247
255 236 247
255 236 247
255 236 247
255 248 255
255 236 247
255 236 247
255 236 247
255 236 247
255 236 247
255 236 247
255 236 247
255 236 247
255 236 247
255 236 247
255 236 247
255 236 247
255 236 247
255 236 247
255 236 247
255 236 247
255 236 247
255 236 247
255 236 247
255 236 247
255 236 247
255 236 247
255 236 247
255 236 247
255 236 247
255 236 247
255 236 247
255 236 247
255 236 247
255 236 247
255 236 247
255 236 247
255 236 247
255 236 247
255 236 247
255 236 247
255 248 255
255 236 247
255 236 247
255 236 247
255 236 247
255 236 247
255 236 247
255 236 247
255 236 247
255 236 247
255 236 247
255 236 247
255 236 247
255 236 247
255 236 247
255 236 247
255 236 247
255 236 247
255 236 247
255 236 247
255 236 247
255 236 247
255 236 247
255 236 247
255 236 247
255 236 247
255 236 247
255 236 247
255 236 247
255 236 247
255 236 247
255 236 247
255 236 247
255 236 247
255 236 247
255 236 247
255 236 247
255 248 255
255 236 247
255 236 247
255 236 247
255 236 247
255 236 247
255 236 247
255 236 247
255 236 247
255 236 247
255 236 247
255 236 247
255 236 247
255 236 247
255 236 247
255 236 247
255 236 247
255 236 247
255 236 247
255 236 247
255 236 247
255 236 247
255 236 247
255 236 247
255 236 247
255 236 247
255 236 247
255 236 247
255 236 247
255 236 247
255 236 247
255 236 247
255 236 247
255 236 247
255 236 247
255 236 247
255 236 247
255 248 255
255 236 247
255 236 247
255 236 247
255 236 247
255 236 247
255 236 247
255 236 247
255 236 247
255 236 247
255 236 247
255 236 247
255 236 247
255 236 247
255 236 247
255 236 247
255 236 247
255 236 247
255 236 247
255 236 247
255 236 247
255 236 247
255 236 247
255 248 255
255 236 247
255 236 247
255 236 247
255 236 247
255 236 247
255 236 247
255 236 247
255 236 247
255 236 247
255 236 247
255 236 247
255 236 247
255 236 247
255 236 247
255 236 247
255 236 247
255 236 247
255 236 247
255 236 247
255 236 247
255 236 247
255 236 247
255 236 247
255 236 247
255 236 247
255 236 247
255 236 247
255 236 247
255 236 247
255 236 247
255 236 247
255 236 247
255 236 247
255 236 247
255 236 247
255 236 247
255 248 255
255 236 247
255 236 247
255 236 247
255 236 247
255 236 247
255 236 247
255 236 247
255 236 247
255 236 247
255 236 247
255 236 247
255 236 247
255 236 247
255 236 247
255 236 247
255 236 247
255 236 247
255 236 247
255 236 247
255 236 247
255 236 247
255 236 247
255 236 247
255 236 247
255 236 247
255 236 247
255 236 247
255 236 247
255 236 247
255 236 247
255 236 247
255 236 247
255 236 247
255 236 247
255 236 247
255 236 247
255 248 255
255 236 247
255 236 247
255 236 247
255 236 247
255 236 247
255 236 247
255 236 247
255 236 247
255 236 247
255 236 247
255 236 247
255 236 247
255 236 247
255 236 247
255 236 247
255 236 247
255 236 247
255 236 247
255 236 247
255 236 247
255 236 247
255 236 247
255 236 247
255 236 247
255 236 247
255 236 247
255 236 247
255 236 247
255 236 247
255 236 247
255 236 247
255 236 247
255 236 247
255 236 247
255 236 247
255 236 247
255 248 255
255 236 247
255 236 247
255 236 247
255 236 247
255 236 247
255 236 247
255 236 247
255 236 247
255 236 247
255 236 247
255 236 247
255 236 247
255 236 247
255 236 247
255 236 247
255 236 247
255 236 247
255 236 247
255 236 247
255 236 247
255 236 247
255 236 247
255 236 247
255 236 247
255 236 247
255 236 247
255 236 247
255 236 247
255 236 247
255 236 247
255 236 247
255 236 247
255 236 247
255 236 247
255 236 247
255 236 247
255 248 255
255 236 247
255 236 247
255 236 247
255 236 247
255 236 247
255 236 247
255 236 247
255 236 247
255 236 247
255 236 247
255 236 247
255 236 247
255 236 247
255 236 247
255 236 247
255 236 247
255 236 247
255 236 247
255 236 247
255 236 247
255 236 247
255 236 247
255 236 247
255 236 247
255 236 247
255 236 247
255 236 247
255 236 247
255 236 247
255 236 247
255 236 247
255 236 247
255 236 247
255 236 247
255 236 247
255 236 247
255 248 255
255 236 247
255 236 247
255 236 247
255 236 247
255 236 247
255 236 247
255 236 247
255 236 247
255 236 247
255 236 247
255 236 247
255 236 247
255 236 247
255 236 247
255 236 247
255 236 247
255 236 247
255 236 247
255 236 247
255 236 247
255 236 247
255 236 247
255 236 247
255 236 247
255 236 247
255 236 247
255 236 247
255 236 247
255 236 247
255 236 247
255 236 247
255 236 247
255 236 247
255 236 247
255 236 247
255 236 247
255 248 255
255 236 247
255 236 247
255 236 247
255 236 247
255 236 247
255 236 247
255 236 247
255 236 247
255 236 247
255 236 247
255 236 247
255 236 247
255 236 247
255 236 247
255 236 247
255 236 247
255 236 247
255 236 247
255 236 247
255 236 247
255 236 247
255 236 247
255 236 247
255 236 247
255 236 247
255 236 247
255 236 247
255 236 247
255 236 247
255 236 247
255 236 247
255 236 247
255 236 247
255 236 247
255 236 247
255 236 247
255 248 255
255 236 247
255 236 247
255 236 247
255 236 247
255 236 247
255 236 247
255 236 247
255 236 247
255 236 247
255 236 247
255 236 247
255 236 247
255 236 247
255 236 247
255 236 247
255 236 247
255 236 247
255 236 247
255 236 247
255 236 247
255 236 247
255 236 247
255 236 247
255 236 247
255 236 247
255 236 247
255 236 247
255 236 247
255 236 247
255 236 247
255 236 247
255 236 247
255 236 247
255 236 247
255 236 247
255 236 247
255 248 255
255 236 247
255 236 247
255 236 247
255 236 247
255 236 247
255 236 247
255 236 247
255 236 247
255 236 247
255 236 247
255 236 247
255 236 247
255 236 247
255 236 247
255 236 247
255 236 247
255 236 247
255 236 247
255 236 247
255 236 247
255 236 247
255 236 247
255 248 255
255 236 247
255 236 247
255 236 247
255 236 247
255 236 247
255 236 247
255 236 247
255 236 247
255 236 247
255 236 247
255 236 247
255 236 247
255 236 247
255 236 247
255 236 247
255 236 247
255 236 247
255 236 247
255 236 247
255 236 247
255 236 247
255 236 247
255 236 247
255 236 247
255 236 247
255 236 247
255 236 247
255 236 247
255 236 247
255 236 247
255 236 247
255 236 247
255 236 247
255 236 247
255 236 247
255 236 247
255 248 255
255 236 247
255 236 247
255 236 247
255 236 247
255 236 247
255 236 247
255 236 247
255 236 247
255 236 247
255 236 247
255 236 247
255 236 247
255 236 247
255 236 247
255 236 247
255 236 247
255 236 247
255 236 247
255 236 247
255 236 247
255 236 247
255 236 247
255 236 247
255 236 247
255 236 247
255 236 247
255 236 247
255 236 247
255 236 247
255 236 247
255 236 247
255 236 247
255 236 247
255 236 247
255 236 247
255 236 247
255 248 255
255 236 247
255 236 247
255 236 247
255 236 247
255 236 247
255 236 247
255 236 247
255 236 247
255 236 247
255 236 247
255 236 247
255 236 247
255 236 247
255 236 247
255 236 247
255 236 247
255 236 247
255 236 247
255 236 247
255 236 247
255 236 247
255 236 247
255 236 247
255 236 247
255 236 247
255 236 247
255 236 247
255 236 247
255 236 247
255 236 247
255 236 247
255 236 247
255 236 247
255 236 247
255 236 247
255 236 247
255 248 255
255 236 247
255 236 247
255 236 247
255 236 247
255 236 247
255 236 247
255 236 247
255 236 247
255 236 247
255 236 247
255 236 247
255 236 247
255 236 247
255 236 247
255 236 247
255 236 247
255 236 247
255 236 247
255 236 247
255 236 247
255 236 247
255 236 247
255 236 247
255 236 247
255 236 247
255 236 247
255 236 247
255 236 247
255 236 247
255 236 247
255 236 247
255 236 247
255 236 247
255 236 247
255 236 247
255 236 247
255 248 255
255 236 247
255 236 247
255 236 247
255 236 247
255 236 247
255 236 247
255 236 247
255 236 247
255 236 247
255 236 247
255 236 247
255 236 247
255 236 247
255 236 247
255 236 247
255 236 247
255 236 247
255 236 247
255 236 247
255 236 247
255 236 247
255 236 247
255 236 247
255 236 247
255 236 247
255 236 247
255 236 247
255 236 247
255 236 247
255 236 247
255 236 247
255 236 247
255 236 247
255 236 247
255 236 247
255 236 247
255 248 255
255 236 247
255 236 247
255 236 247
255 236 247
255 236 247
255 236 247
255 236 247
255 236 247
255 236 247
255 236 247
255 236 247
255 236 247
255 236 247
255 236 247
255 236 247
255 236 247
255 236 247
255 236 247
255 236 247
255 236 247
255 236 247
255 236 247
255 236 247
255 236 247
255 236 247
255 236 247
255 236 247
255 236 247
255 236 247
255 236 247
255 236 247
255 236 247
255 236 247
255 236 247
255 236 247
255 236 247
255 248 255
255 236 247
255 236 247
255 236 247
255 236 247
255 236 247
255 236 247
255 236 247
255 236 247
255 236 247
255 236 247
255 236 247
255 236 247
255 236 247
255 236 247
255 236 247
255 236 247
255 236 247
255 236 247
255 236 247
255 236 247
255 236 247
255 236 247
255 236 247
255 236 247
255 236 247
255 236 247
255 236 247
255 236 247
255 236 247
255 236 247
255 236 247
255 236 247
255 236 247
255 236 247
255 236 247
255 236 247
255 248 255
255 236 247
255 236 247
255 236 247
255 236 247
255 236 247
255 236 247
255 236 247
255 236 247
255 236 247
255 236 247
255 236 247
255 236 247
255 236 247
255 236 247
255 236 247
255 236 247
255 236 247
255 236 247
255 236 247
255 236 247
255 236 247
255 236 247
255 236 247
255 236 247
255 236 247
255 236 247
255 236 247
255 236 247
255 236 247
255 236 247
255 236 247
255 236 247
255 236 247
255 236 247
255 236 247
255 236 247
255 248 255
255 236 247
255 236 247
255 236 247
255 236 247
255 236 247
255 236 247
255 236 247
255 236 247
255 236 247
255 236 247
255 236 247
255 236 247
255 236 247
255 236 247
255 236 247
255 236 247
255 236 247
255 236 247
255 236 247
255 236 247
255 236 247
255 236 247
255 248 255
255 236 247
255 236 247
255 236 247
255 236 247
255 236 247
255 236 247
255 236 247
255 236 247
255 236 247
255 236 247
255 236 247
255 236 247
255 236 247
255 236 247
255 236 247
255 236 247
255 236 247
255 236 247
255 236 247
255 236 247
255 236 247
255 236 247
255 236 247
255 236 247
255 236 247
255 236 247
255 236 247
255 236 247
255 236 247
255 236 247
255 236 247
255 236 247
255 236 247
255 236 247
255 236 247
255 236 247
255 248 255
255 236 247
255 236 247
255 236 247
255 236 247
255 236 247
255 236 247
255 236 247
255 236 247
255 236 247
255 236 247
255 236 247
255 236 247
255 236 247
255 236 247
255 236 247
255 236 247
255 236 247
255 236 247
255 236 247
255 236 247
255 236 247
255 236 247
255 236 247
255 236 247
255 236 247
255 236 247
255 236 247
255 236 247
255 236 247
255 236 247
255 236 247
255 236 247
255 236 247
255 236 247
255 236 247
255 236 247
255 248 255
255 236 247
255 236 247
255 236 247
255 236 247
255 236 247
255 236 247
255 236 247
255 236 247
255 236 247
255 236 247
255 236 247
255 236 247
255 236 247
255 236 247
255 236 247
255 236 247
255 236 247
255 236 247
255 236 247
255 236 247
255 236 247
255 236 247
255 236 247
255 236 247
255 236 247
255 236 247
255 236 247
255 236 247
255 236 247
255 236 247
255 236 247
255 236 247
255 236 247
255 236 247
255 236 247
255 236 247
255 248 255
255 236 247
255 236 247
255 236 247
255 236 247
255 236 247
255 236 247
255 236 247
255 236 247
255 236 247
255 236 247
255 236 247
255 236 247
255 236 247
255 236 247
255 236 247
255 236 247
255 236 247
255 236 247
255 236 247
255 236 247
255 236 247
255 236 247
255 236 247
255 236 247
255 236 247
255 236 247
255 236 247
255 236 247
255 236 247
255 236 247
255 236 247
255 236 247
255 236 247
255 236 247
255 236 247
255 236 247
255 248 255
255 236 247
255 236 247
255 236 247
255 236 247
255 236 247
255 236 247
255 236 247
255 236 247
255 236 247
255 236 247
255 236 247
255 236 247
255 236 247
255 236 247
255 236 247
255 236 247
255 236 247
255 236 247
255 236 247
255 236 247
255 236 247
255 236 247
255 236 247
255 236 247
255 236 247
255 236 247
255 236 247
255 236 247
255 236 247
255 236 247
255 236 247
255 236 247
255 236 247
255 236 247
255 236 247
255 236 247
255 248 255
255 236 247
255 236 247
255 236 247
255 236 247
255 236 247
255 236 247
255 236 247
255 236 247
255 236 247
255 236 247
255 236 247
255 236 247
255 236 247
255 236 247
255 236 247
255 236 247
255 236 247
255 236 247
255 236 247
255 236 247
255 236 247
255 236 247
255 236 247
255 236 247
255 236 247
255 236 247
255 236 247
255 236 247
255 236 247
255 236 247
255 236 247
255 236 247
255 236 247
255 236 247
255 236 247
255 236 247
255 248 255
255 236 247
255 236 247
255 236 247
255 236 247
255 236 247
255 236 247
255 236 247
255 236 247
255 236 247
255 236 247
255 236 247
255 236 247
255 236 247
255 236 247
255 236 247
255 236 247
255 236 247
255 236 247
255 236 247
255 236 247
255 236 247
255 236 247
255 236 247
255 236 247
255 236 247
255 236 247
255 236 247
255 236 247
255 236 247
255 236 247
255 236 247
255 236 247
255 236 247
255 236 247
255 236 247
255 236 247
255 248 255
255 236 247
255 236 247
255 236 247
255 236 247
255 236 247
255 236 247
255 236 247
255 236 247
255 236 247
255 236 247
255 236 247
255 236 247
255 236 247
255 236 247
255 236 247
255 236 247
255 236 247
255 236 247
255 236 247
255 236 247
255 236 247
255 236 247
255 236 247
255 236 247
255 236 247
255 236 247
255 236 247
255 236 247
255 236 247
255 236 247
255 236 247
255 236 247
255 236 247
255 236 247
255 236 247
255 236 247
255 248 255
255 236 247
255 236 247
255 236 247
255 236 247
255 236 247
255 236 247
255 236 247
255 236 247
255 236 247
255 236 247
255 236 247
255 236 247
255 236 247
255 236 247
255 236 247
255 236 247
255 236 247
255 236 247
255 236 247
255 236 247
255 236 247
255 236 247
255 248 255
255 236 247
255 236 247
255 236 247
255 236 247
255 236 247
255 236 247
255 236 247
255 236 247
255 236 247
255 236 247
255 236 247
255 236 247
255 236 247
255 236 247
255 236 247
255 236 247
255 236 247
255 236 247
255 236 247
255 236 247
255 236 247
255 236 247
255 236 247
255 236 247
255 236 247
255 236 247
255 236 247
255 236 247
255 236 247
255 236 247
255 236 247
255 236 247
255 236 247
255 236 247
255 236 247
255 236 247
255 248 255
255 236 247
255 236 247
255 236 247
255 236 247
255 236 247
255 236 247
255 236 247
255 236 247
255 236 247
255 236 247
255 236 247
255 236 247
255 236 247
255 236 247
255 236 247
255 236 247
255 236 247
255 236 247
255 236 247
255 236 247
255 236 247
255 236 247
255 236 247
255 236 247
255 236 247
255 236 247
255 236 247
255 236 247
255 236 247
255 236 247
255 236 247
255 236 247
255 236 247
255 236 247
255 236 247
255 236 247
255 248 255
255 236 247
255 236 247
255 236 247
255 236 247
255 236 247
255 236 247
255 236 247
255 236 247
255 236 247
255 236 247
255 236 247
255 236 247
255 236 247
255 236 247
255 236 247
255 236 247
255 236 247
255 236 247
255 236 247
255 236 247
255 236 247
255 236 247
255 236 247
255 236 247
255 236 247
255 236 247
255 236 247
255 236 247
255 236 247
255 236 247
255 236 247
255 236 247
255 236 247
255 236 247
255 236 247
255 236 247
255 248 255
255 236 247
255 236 247
255 236 247
255 236 247
255 236 247
255 236 247
255 236 247
255 236 247
255 236 247
255 236 247
255 236 247
255 236 247
255 236 247
255 236 247
255 236 247
255 236 247
255 236 247
255 236 247
255 236 247
255 236 247
255 236 247
255 236 247
255 236 247
255 236 247
255 236 247
255 236 247
255 236 247
255 236 247
255 236 247
255 236 247
255 236 247
255 236 247
255 236 247
255 236 247
255 236 247
255 236 247
255 248 255
255 236 247
255 236 247
255 236 247
255 236 247
255 236 247
255 236 247
255 236 247
255 236 247
255 236 247
255 236 247
255 236 247
255 236 247
255 236 247
255 236 247
255 236 247
255 236 247
255 236 247
255 236 247
255 236 247
255 236 247
255 236 247
255 236 247
255 236 247
255 236 247
255 236 247
255 236 247
255 236 247
255 236 247
255 236 247
255 236 247
255 236 247
255 236 247
255 236 247
255 236 247
255 236 247
255 236 247
255 248 255
255 236 247
255 236 247
255 236 247
255 236 247
255 236 247
255 236 247
255 236 247
255 236 247
255 236 247
255 236 247
255 236 247
255 236 247
255 236 247
255 236 247
255 236 247
255 236 247
255 236 247
255 236 247
255 236 247
255 236 247
255 236 247
255 236 247
255 236 247
255 236 247
255 236 247
255 236 247
255 236 247
255 236 247
255 236 247
255 236 247
255 236 247
255 236 247
255 236 247
255 236 247
255 236 247
255 236 247
255 248 255
255 236 247
255 236 247
255 236 247
255 236 247
255 236 247
255 236 247
255 236 247
255 236 247
255 236 247
255 236 247
255 236 247
255 236 247
255 236 247
255 236 247
255 236 247
255 236 247
255 236 247
255 236 247
255 236 247
255 236 247
255 236 247
255 236 247
255 236 247
255 236 247
255 236 247
255 236 247
255 236 247
255 236 247
255 236 247
255 236 247
255 236 247
255 236 247
255 236 247
255 236 247
255 236 247
255 236 247
255 248 255
255 236 247
255 236 247
255 236 247
255 236 247
255 236 247
255 236 247
255 236 247
255 236 247
255 236 247
255 236 247
255 236 247
255 236 247
255 236 247
255 236 247
255 236 247
255 236 247
255 236 247
255 236 247
255 236 247
255 236 247
255 236 247
255 236 247
255 236 247
255 236 247
255 236 247
255 236 247
255 236 247
255 236 247
255 236 247
255 236 247
255 236 247
255 236 247
255 236 247
255 236 247
255 236 247
255 236 247
255 248 255
255 236 247
255 236 247
255 236 247
255 236 247
255 236 247
255 236 247
255 236 247
255 236 247
255 236 247
255 236 247
255 236 247
255 236 247
255 236 247
255 236 247
255 236 247
255 236 247
255 236 247
255 236 247
255 236 247
255 236 247
255 236 247
255 236 247
255 248 255
255 236 247
255 236 247
255 236 247
255 236 247
255 236 247
255 236 247
255 236 247
255 236 247
255 236 247
255 236 247
255 236 247
255 236 247
255 236 247
255 236 247
255 236 247
255 236 247
255 236 247
255 236 247
255 236 247
255 236 247
255 236 247
255 236 247
255 236 247
255 236 247
255 236 247
255 236 247
255 236 247
255 236 247
255 236 247
255 236 247
255 236 247
255 236 247
255 236 247
255 236 247
255 236 247
255 236 247
255 248 255
255 236 247
255 236 247
255 236 247
255 236 247
255 236 247
255 236 247
255 236 247
255 236 247
255 236 247
255 236 247
255 236 247
255 236 247
255 236 247
255 236 247
255 236 247
255 236 247
255 236 247
255 236 247
255 236 247
255 236 247
255 236 247
255 236 247
255 236 247
255 236 247
255 236 247
255 236 247
255 236 247
255 236 247
255 236 247
255 236 247
255 236 247
255 236 247
255 236 247
255 236 247
255 236 247
255 236 247
255 248 255
255 236 247
255 236 247
255 236 247
255 236 247
255 236 247
255 236 247
255 236 247
255 236 247
255 236 247
255 236 247
255 236 247
255 236 247
255 236 247
255 236 247
255 236 247
255 236 247
255 236 247
255 236 247
255 236 247
255 236 247
255 236 247
255 236 247
255 236 247
255 236 247
255 236 247
255 236 247
255 236 247
255 236 247
255 236 247
255 236 247
255 236 247
255 236 247
255 236 247
255 236 247
255 236 247
255 236 247
255 248 255
255 236 247
255 236 247
255 236 247
255 236 247
255 236 247
255 236 247
255 236 247
255 236 247
255 236 247
255 236 247
255 236 247
255 236 247
255 236 247
255 236 247
255 236 247
255 236 247
255 236 247
255 236 247
255 236 247
255 236 247
255 236 247
255 236 247
255 236 247
255 236 247
255 236 247
255 236 247
255 236 247
255 236 247
255 236 247
255 236 247
255 236 247
255 236 247
255 236 247
255 236 247
255 236 247
255 236 247
255 248 255
255 236 247
255 236 247
255 236 247
255 236 247
255 236 247
255 236 247
255 236 247
255 236 247
255 236 247
255 236 247
255 236 247
255 236 247
255 236 247
255 236 247
255 236 247
255 236 247
255 236 247
255 236 247
255 236 247
255 236 247
255 236 247
255 236 247
255 236 247
255 236 247
255 236 247
255 236 247
255 236 247
255 236 247
255 236 247
255 236 247
255 236 247
255 236 247
255 236 247
255 236 247
255 236 247
255 236 247
255 248 255
255 236 247
255 236 247
255 236 247
255 236 247
255 236 247
255 236 247
255 236 247
255 236 247
255 236 247
255 236 247
255 236 247
255 236 247
255 236 247
255 236 247
255 236 247
255 236 247
255 236 247
255 236 247
255 236 247
255 236 247
255 236 247
255 236 247
255 236 247
255 236 247
255 236 247
255 236 247
255 236 247
255 236 247
255 236 247
255 236 247
255 236 247
255 236 247
255 236 247
255 236 247
255 236 247
255 236 247
255 248 255
255 236 247
255 236 247
255 236 247
255 236 247
255 236 247
255 236 247
255 236 247
255 236 247
255 236 247
255 236 247
255 236 247
255 236 247
255 236 247
255 236 247
255 236 247
255 236 247
255 236 247
255 236 247
255 236 247
255 236 247
255 236 247
255 236 247
255 236 247
255 236 247
255 236 247
255 236 247
255 236 247
255 236 247
255 236 247
255 236 247
255 236 247
255 236 247
255 236 247
255 236 247
255 236 247
255 236 247
255 248 255
255 236 247
255 236 247
255 236 247
255 236 247
255 236 247
255 236 247
255 236 247
255 236 247
255 236 247
255 236 247
255 236 247
255 236 247
255 236 247
255 236 247
255 236 247
255 236 247
255 236 247
255 236 247
255 236 247
255 236 247
255 236 247
255 236 247
255 236 247
255 236 247
255 236 247
255 236 247
255 236 247
255 236 247
255 236 247
255 236 247
255 236 247
255 236 247
255 236 247
255 236 247
255 236 247
255 236 247
255 248 255
255 236 247
255 236 247
255 236 247
255 236 247
255 236 247
255 236 247
255 236 247
255 236 247
255 236 247
255 236 247
255 236 247
255 236 247
255 236 247
255 236 247
255 236 247
255 236 247
255 236 247
255 236 247
255 236 247
255 236 247
255 236 247
255 236 247
255 248 255
255 236 247
255 236 247
255 236 247
255 236 247
255 236 247
255 236 247
255 236 247
255 236 247
255 236 247
255 236 247
255 236 247
255 236 247
255 236 247
255 236 247
255 236 247
255 236 247
255 236 247
255 236 247
255 236 247
255 236 247
255 236 247
255 236 247
255 236 247
255 236 247
255 236 247
255 236 247
255 236 247
255 236 247
255 236 247
255 236 247
255 236 247
255 236 247
255 236 247
255 236 247
255 236 247
255 236 247
255 248 255
255 236 247
255 236 247
255 236 247
255 236 247
255 236 247
255 236 247
255 236 247
255 236 247
255 236 247
255 236 247
255 236 247
255 236 247
255 236 247
255 236 247
255 236 247
255 236 247
255 236 247
255 236 247
255 236 247
255 236 247
255 236 247
255 236 247
255 236 247
255 236 247
255 236 247
255 236 247
255 236 247
255 236 247
255 236 247
255 236 247
255 236 247
255 236 247
255 236 247
255 236 247
255 236 247
255 236 247
255 248 255
255 236 247
255 236 247
255 236 247
255 236 247
255 236 247
255 236 247
255 236 247
255 236 247
255 236 247
255 236 247
255 236 247
255 236 247
255 236 247
255 236 247
255 236 247
255 236 247
255 236 247
255 236 247
255 236 247
255 236 247
255 236 247
255 236 247
255 236 247
255 236 247
255 236 247
255 236 247
255 236 247
255 236 247
255 236 247
255 236 247
255 236 247
255 236 247
255 236 247
255 236 247
255 236 247
255 236 247
255 248 255
255 236 247
255 236 247
255 236 247
255 236 247
255 236 247
255 236 247
255 236 247
255 236 247
255 236 247
255 236 247
255 236 247
255 236 247
255 236 247
255 236 247
255 236 247
255 236 247
255 236 247
255 236 247
255 236 247
255 236 247
255 236 247
255 236 247
255 236 247
255 236 247
255 236 247
255 236 247
255 236 247
255 236 247
255 236 247
255 236 247
255 236 247
255 236 247
255 236 247
255 236 247
255 236 247
255 236 247
255 248 255
255 236 247
255 236 247
255 236 247
255 236 247
255 236 247
255 236 247
255 236 247
255 236 247
255 236 247
255 236 247
255 236 247
255 236 247
255 236 247
255 236 247
255 236 247
255 236 247
255 236 247
255 236 247
255 236 247
255 236 247
255 236 247
255 236 247
255 236 247
255 236 247
255 236 247
255 236 247
255 236 247
255 236 247
255 236 247
255 236 247
255 236 247
255 236 247
255 236 247
255 236 247
255 236 247
255 236 247
255 248 255
255 236 247
255 236 247
255 236 247
255 236 247
255 236 247
255 236 247
255 236 247
255 236 247
255 236 247
255 236 247
255 236 247
255 236 247
255 236 247
255 236 247
255 236 247
255 236 247
255 236 247
255 236 247
255 236 247
255 236 247
255 236 247
255 236 247
255 236 247
255 236 247
255 236 247
255 236 247
255 236 247
255 236 247
255 236 247
255 236 247
255 236 247
255 236 247
255 236 247
255 236 247
255 236 247
255 236 247
255 248 255
255 236 247
255 236 247
255 236 247
255 236 247
255 236 247
255 236 247
255 236 247
255 236 247
255 236 247
255 236 247
255 236 247
255 236 247
255 236 247
255 236 247
255 236 247
255 236 247
255 236 247
255 236 247
255 236 247
255 236 247
255 236 247
255 236 247
255 236 247
255 236 247
255 236 247
255 236 247
255 236 247
255 236 247
255 236 247
255 236 247
255 236 247
255 236 247
255 236 247
255 236 247
255 236 247
255 236 247
255 248 255
255 236 247
255 236 247
255 236 247
255 236 247
255 236 247
255 236 247
255 236 247
255 236 247
255 236 247
255 236 247
255 236 247
255 236 247
255 236 247
255 236 247
255 236 247
255 236 247
255 236 247
255 236 247
255 236 247
255 236 247
255 236 247
255 236 247
255 236 247
255 236 247
255 236 247
255 236 247
255 236 247
255 236 247
255 236 247
255 236 247
255 236 247
255 236 247
255 236 247
255 236 247
255 236 247
255 236 247
255 248 255
255 236 247
255 236 247
255 236 247
255 236 247
255 236 247
255 236 247
255 236 247
255 236 247
255 236 247
255 236 247
255 236 247
255 236 247
255 236 247
255 236 247
255 236 247
255 236 247
255 236 247
255 236 247
255 236 247
255 236 247
255 236 247
255 236 247
255 248 255
255 236 247
255 236 247
255 236 247
255 236 247
255 236 247
255 236 247
255 236 247
255 236 247
255 236 247
255 236 247
255 236 247
255 236 247
255 236 247
255 236 247
255 236 247
255 236 247
255 236 247
255 236 247
255 236 247
255 236 247
255 236 247
255 236 247
255 236 247
255 236 247
255 236 247
255 236 247
255 236 247
255 236 247
255 236 247
255 236 247
255 236 247
255 236 247
255 236 247
255 236 247
255 236 247
255 236 247
255 248 255
255 236 247
255 236 247
255 236 247
255 236 247
255 236 247
255 236 247
255 236 247
255 236 247
255 236 247
255 236 247
255 236 247
255 236 247
255 236 247
255 236 247
255 236 247
255 236 247
255 236 247
255 236 247
255 236 247
255 236 247
255 236 247
255 236 247
255 236 247
255 236 247
255 236 247
255 236 247
255 236 247
255 236 247
255 236 247
255 236 247
255 236 247
255 236 247
255 236 247
255 236 247
255 236 247
255 236 247
255 248 255
255 236 247
255 236 247
255 236 247
255 236 247
255 236 247
255 236 247
255 236 247
255 236 247
255 236 247
255 236 247
255 236 247
255 236 247
255 236 247
255 236 247
255 236 247
255 236 247
255 236 247
255 236 247
255 236 247
255 236 247
255 236 247
255 236 247
255 236 247
255 236 247
255 236 247
255 236 247
255 236 247
255 236 247
255 236 247
255 236 247
255 236 247
255 236 247
255 236 247
255 236 247
255 236 247
255 236 247
255 248 255
255 236 247
255 236 247
255 236 247
255 236 247
255 236 247
255 236 247
255 236 247
255 236 247
255 236 247
255 236 247
255 236 247
255 236 247
255 236 247
255 236 247
255 236 247
255 236 247
255 236 247
255 236 247
255 236 247
255 236 247
255 236 247
255 236 247
255 236 247
255 236 247
255 236 247
255 236 247
255 236 247
255 236 247
255 236 247
255 236 247
255 236 247
255 236 247
255 236 247
255 236 247
255 236 247
255 236 247
255 248 255
255 236 247
255 236 247
255 236 247
255 236 247
255 236 247
255 236 247
255 236 247
255 236 247
255 236 247
255 236 247
255 236 247
255 236 247
255 236 247
255 236 247
255 236 247
255 236 247
255 236 247
255 236 247
255 236 247
255 236 247
255 236 247
255 236 247
255 236 247
255 236 247
255 236 247
255 236 247
255 236 247
255 236 247
255 236 247
255 236 247
255 236 247
255 236 247
255 236 247
255 236 247
255 236 247
255 236 247
255 248 255
255 236 247
255 236 247
255 236 247
255 236 247
255 236 247
255 236 247
255 236 247
255 236 247
255 236 247
255 236 247
255 236 247
255 236 247
255 236 247
255 236 247
255 236 247
255 236 247
255 236 247
255 236 247
255 236 247
255 236 247
255 236 247
255 236 247
255 236 247
255 236 247
255 236 247
255 236 247
255 236 247
255 236 247
255 236 247
255 236 247
255 236 247
255 236 247
255 236 247
255 236 247
255 236 247
255 236 247
255 248 255
255 236 247
255 236 247
255 236 247
255 236 247
255 236 247
255 236 247
255 236 247
255 236 247
255 236 247
255 236 247
255 236 247
255 236 247
255 236 247
255 236 247
255 236 247
255 236 247
255 236 247
255 236 247
255 236 247
255 236 247
255 236 247
255 236 247
255 236 247
255 236 247
255 236 247
255 236 247
255 236 247
255 236 247
255 236 247
255 236 247
255 236 247
255 236 247
255 236 247
255 236 247
255 236 247
255 236 247
255 248 255
255 236 247
255 236 247
255 236 247
255 236 247
255 236 247
255 236 247
255 236 247
255 236 247
255 236 247
255 236 247
255 236 247
255 236 247
255 236 247
255 236 247
255 236 247
255 236 247
255 236 247
255 236 247
255 236 247
255 236 247
255 236 247
255 236 247
255 236 247
255 236 247
255 236 247
255 236 247
255 236 247
255 236 247
255 236 247
255 236 247
255 236 247
255 236 247
255 236 247
255 236 247
255 236 247
255 236 247
255 248 255
255 236 247
255 236 247
255 236 247
255 236 247
255 236 247
255 236 247
255 236 247
255 236 247
255 236 247
255 236 247
255 236 247
255 236 247
255 236 247
255 236 247
255 236 247
255 236 247
255 236 247
255 236 247
255 236 247
255 236 247
255 236 247
255 236 247
255 248 255
255 236 247
255 236 247
255 236 247
255 236 247
255 236 247
255 236 247
255 236 247
255 236 247
255 236 247
255 236 247
255 236 247
255 236 247
255 236 247
255 236 247
255 236 247
255 236 247
255 236 247
255 236 247
255 236 247
255 236 247
255 236 247
255 236 247
255 236 247
255 236 247
255 236 247
255 236 247
255 236 247
255 236 247
255 236 247
255 236 247
255 236 247
255 236 247
255 236 247
255 236 247
255 236 247
255 236 247
255 248 255
255 236 247
255 236 247
255 236 247
255 236 247
255 236 247
255 236 247
255 236 247
255 236 247
255 236 247
255 236 247
255 236 247
255 236 247
255 236 247
255 236 247
255 236 247
255 236 247
255 236 247
255 236 247
255 236 247
255 236 247
255 236 247
255 236 247
255 236 247
255 236 247
255 236 247
255 236 247
255 236 247
255 236 247
255 236 247
255 236 247
255 236 247
255 236 247
255 236 247
255 236 247
255 236 247
255 236 247
255 248 255
255 236 247
255 236 247
255 236 247
255 236 247
255 236 247
255 236 247
255 236 247
255 236 247
255 236 247
255 236 247
255 236 247
255 236 247
255 236 247
255 236 247
255 236 247
255 236 247
255 236 247
255 236 247
255 236 247
255 236 247
255 236 247
255 236 247
255 236 247
255 236 247
255 236 247
255 236 247
255 236 247
255 236 247
255 236 247
255 236 247
255 236 247
255 236 247
255 236 247
255 236 247
255 236 247
255 236 247
255 248 255
255 236 247
255 236 247
255 236 247
255 236 247
255 236 247
255 236 247
255 236 247
255 236 247
255 236 247
255 236 247
255 236 247
255 236 247
255 236 247
255 236 247
255 236 247
255 236 247
255 236 247
255 236 247
255 236 247
255 236 247
255 236 247
255 236 247
255 236 247
255 236 247
255 236 247
255 236 247
255 236 247
255 236 247
255 236 247
255 236 247
255 236 247
255 236 247
255 236 247
255 236 247
255 236 247
255 236 247
255 248 255
255 236 247
255 236 247
255 236 247
255 236 247
255 236 247
255 236 247
255 236 247
255 236 247
255 236 247
255 236 247
255 236 247
255 236 247
255 236 247
255 236 247
255 236 247
255 236 247
255 236 247
255 236 247
255 236 247
255 236 247
255 236 247
255 236 247
255 236 247
255 236 247
255 236 247
255 236 247
255 236 247
255 236 247
255 236 247
255 236 247
255 236 247
255 236 247
255 236 247
255 236 247
255 236 247
255 236 247
255 248 255
255 236 247
255 236 247
255 236 247
255 236 247
255 236 247
255 236 247
255 236 247
255 236 247
255 236 247
255 236 247
255 236 247
255 236 247
255 236 247
255 236 247
255 236 247
255 236 247
255 236 247
255 236 247
255 236 247
255 236 247
255 236 247
255 236 247
255 236 247
255 236 247
255 236 247
255 236 247
255 236 247
255 236 247
255 236 247
255 236 247
255 236 247
255 236 247
255 236 247
255 236 247
255 236 247
255 236 247
255 248 255
255 236 247
255 236 247
255 236 247
255 236 247
255 236 247
255 236 247
255 236 247
255 236 247
255 236 247
255 236 247
255 236 247
255 236 247
255 236 247
255 236 247
255 236 247
255 236 247
255 236 247
255 236 247
255 236 247
255 236 247
255 236 247
255 236 247
255 236 247
255 236 247
255 236 247
255 236 247
255 236 247
255 236 247
255 236 247
255 236 247
255 236 247
255 236 247
255 236 247
255 236 247
255 236 247
255 236 247
255 248 255
255 236 247
255 236 247
255 236 247
255 236 247
255 236 247
255 236 247
255 236 247
255 236 247
255 236 247
255 236 247
255 236 247
255 236 247
255 236 247
255 236 247
255 236 247
255 236 247
255 236 247
255 236 247
255 236 247
255 236 247
255 236 247
255 236 247
255 236 247
255 236 247
255 236 247
255 236 247
255 236 247
255 236 247
255 236 247
255 236 247
255 236 247
255 236 247
255 236 247
255 236 247
255 236 247
255 236 247
255 248 255
255 236 247
255 236 247
255 236 247
255 236 247
255 236 247
255 236 247
255 236 247
255 236 247
255 236 247
255 236 247
255 236 247
255 236 247
255 236 247
255 236 247
255 236 247
255 236 247
255 236 247
255 236 247
255 236 247
255 236 247
255 236 247
255 236 247
255 248 255
255 236 247
255 236 247
255 236 247
255 236 247
255 236 247
255 236 247
255 236 247
255 236 247
255 236 247
255 236 247
255 236 247
255 236 247
255 236 247
255 236 247
255 236 247
255 236 247
255 236 247
255 236 247
255 236 247
255 236 247
255 236 247
255 236 247
255 236 247
255 236 247
255 236 247
255 236 247
255 236 247
255 236 247
255 236 247
255 236 247
255 236 247
255 236 247
255 236 247
255 236 247
255 236 247
255 236 247
255 248 255
255 236 247
255 236 247
255 236 247
255 236 247
255 236 247
255 236 247
255 236 247
255 236 247
255 236 247
255 236 247
255 236 247
255 236 247
255 236 247
255 236 247
255 236 247
255 236 247
255 236 247
255 236 247
255 236 247
255 236 247
255 236 247
255 236 247
255 236 247
255 236 247
255 236 247
255 236 247
255 236 247
255 236 247
255 236 247
255 236 247
255 236 247
255 236 247
255 236 247
255 236 247
255 236 247
255 236 247
255 248 255
255 236 247
255 236 247
255 236 247
255 236 247
255 236 247
255 236 247
255 236 247
255 236 247
255 236 247
255 236 247
255 236 247
255 236 247
255 236 247
255 236 247
255 236 247
255 236 247
255 236 247
255 236 247
255 236 247
255 236 247
255 236 247
255 236 247
255 236 247
255 236 247
255 236 247
255 236 247
255 236 247
255 236 247
255 236 247
255 236 247
255 236 247
255 236 247
255 236 247
255 236 247
255 236 247
255 236 247
255 248 255
255 236 247
255 236 247
255 236 247
255 236 247
255 236 247
255 236 247
255 236 247
255 236 247
255 236 247
255 236 247
255 236 247
255 236 247
255 236 247
255 236 247
255 236 247
255 236 247
255 236 247
255 236 247
255 236 247
255 236 247
255 236 247
255 236 247
255 236 247
255 236 247
255 236 247
255 236 247
255 236 247
255 236 247
255 236 247
255 236 247
255 236 247
255 236 247
255 236 247
255 236 247
255 236 247
255 236 247
255 248 255
255 236 247
255 236 247
255 236 247
255 236 247
255 236 247
255 236 247
255 236 247
255 236 247
255 236 247
255 236 247
255 236 247
255 236 247
255 236 247
255 236 247
255 236 247
255 236 247
255 236 247
255 236 247
255 236 247
255 236 247
255 236 247
255 236 247
255 236 247
255 236 247
255 236 247
255 236 247
255 236 247
255 236 247
255 236 247
255 236 247
255 236 247
255 236 247
255 236 247
255 236 247
255 236 247
255 236 247
255 248 255
255 236 247
255 236 247
255 236 247
255 236 247
255 236 247
255 236 247
255 236 247
255 236 247
255 236 247
255 236 247
255 236 247
255 236 247
255 236 247
255 236 247
255 236 247
255 236 247
255 236 247
255 236 247
255 236 247
255 236 247
255 236 247
255 236 247
255 236 247
255 236 247
255 236 247
255 236 247
255 236 247
255 236 247
255 236 247
255 236 247
255 236 247
255 236 247
255 236 247
255 236 247
255 236 247
255 236 247
255 248 255
255 236 247
255 236 247
255 236 247
255 236 247
255 236 247
255 236 247
255 236 247
255 236 247
255 236 247
255 236 247
255 236 247
255 236 247
255 236 247
255 236 247
255 236 247
255 236 247
255 236 247
255 236 247
255 236 247
255 236 247
255 236 247
255 236 247
255 236 247
255 236 247
255 236 247
255 236 247
255 236 247
255 236 247
255 236 247
255 236 247
255 236 247
255 236 247
255 236 247
255 236 247
255 236 247
255 236 247
255 248 255
255 236 247
255 236 247
255 236 247
255 236 247
255 236 247
255 236 247
255 236 247
255 236 247
255 236 247
255 236 247
255 236 247
255 236 247
255 236 247
255 236 247
255 236 247
255 236 247
255 236 247
255 236 247
255 236 247
255 236 247
255 236 247
255 236 247
255 236 247
255 236 247
255 236 247
255 236 247
255 236 247
255 236 247
255 236 247
255 236 247
255 236 247
255 236 247
255 236 247
255 236 247
255 236 247
255 236 247
255 248 255
255 236 247
255 236 247
255 236 247
255 236 247
255 236 247
255 236 247
255 236 247
255 236 247
255 236 247
255 236 247
255 236 247
255 236 247
255 236 247
255 236 247
255 236 247
255 236 247
255 236 247
255 236 247
255 236 247
255 236 247
255 236 247
255 236 247
255 248 255
255 236 247
255 236 247
255 236 247
255 236 247
255 236 247
255 236 247
255 236 247
255 236 247
255 236 247
255 236 247
255 236 247
255 236 247
255 236 247
255 236 247
255 236 247
255 236 247
255 236 247
255 236 247
255 236 247
255 236 247
255 236 247
255 236 247
255 236 247
255 236 247
255 236 247
255 236 247
255 236 247
255 236 247
255 236 247
255 236 247
255 236 247
255 236 247
255 236 247
255 236 247
255 236 247
255 236 247
255 248 255
255 236 247
255 236 247
255 236 247
255 236 247
255 236 247
255 236 247
255 236 247
255 236 247
255 236 247
255 236 247
255 236 247
255 236 247
255 236 247
255 236 247
255 236 247
255 236 247
255 236 247
255 236 247
255 236 247
255 236 247
255 236 247
255 236 247
255 236 247
255 236 247
255 236 247
255 236 247
255 236 247
255 236 247
255 236 247
255 236 247
255 236 247
255 236 247
255 236 247
255 236 247
255 236 247
255 236 247
255 248 255
255 236 247
255 236 247
255 236 247
255 236 247
255 236 247
255 236 247
255 236 247
255 236 247
255 236 247
255 236 247
255 236 247
255 236 247
255 236 247
255 236 247
255 236 247
255 236 247
255 236 247
255 236 247
255 236 247
255 236 247
255 236 247
255 236 247
255 236 247
255 236 247
255 236 247
255 236 247
255 236 247
255 236 247
255 236 247
255 236 247
255 236 247
255 236 247
255 236 247
255 236 247
255 236 247
255 236 247
255 248 255
255 236 247
255 236 247
255 236 247
255 236 247
255 236 247
255 236 247
255 236 247
255 236 247
255 236 247
255 236 247
255 236 247
255 236 247
255 236 247
255 236 247
255 236 247
255 236 247
255 236 247
255 236 247
255 236 247
255 236 247
255 236 247
255 236 247
255 236 247
255 236 247
255 236 247
255 236 247
255 236 247
255 236 247
255 236 247
255 236 247
255 236 247
255 236 247
255 236 247
255 236 247
255 236 247
255 236 247
255 248 255
255 236 247
255 236 247
255 236 247
255 236 247
255 236 247
255 236 247
255 236 247
255 236 247
255 236 247
255 236 247
255 236 247
255 236 247
255 236 247
255 236 247
255 236 247
255 236 247
255 236 247
255 236 247
255 236 247
255 236 247
255 236 247
255 236 247
255 236 247
255 236 247
255 236 247
255 236 247
255 236 247
255 236 247
255 236 247
255 236 247
255 236 247
255 236 247
255 236 247
255 236 247
255 236 247
255 236 247
255 248 255
255 236 247
255 236 247
255 236 247
255 236 247
255 236 247
255 236 247
255 236 247
255 236 247
255 236 247
255 236 247
255 236 247
255 236 247
255 236 247
255 236 247
255 236 247
255 236 247
255 236 247
255 236 247
255 236 247
255 236 247
255 236 247
255 236 247
255 236 247
255 236 247
255 236 247
255 236 247
255 236 247
255 236 247
255 236 247
255 236 247
255 236 247
255 236 247
255 236 247
255 236 247
255 236 247
255 236 247
255 248 255
255 236 247
255 236 247
255 236 247
255 236 247
255 236 247
255 236 247
255 236 247
255 236 247
255 236 247
255 236 247
255 236 247
255 236 247
255 236 247
255 236 247
255 236 247
255 236 247
255 236 247
255 236 247
255 236 247
255 236 247
255 236 247
255 236 247
255 236 247
255 236 247
255 236 247
255 236 247
255 236 247
255 236 247
255 236 247
255 236 247
255 236 247
255 236 247
255 236 247
255 236 247
255 236 247
255 236 247
255 248 255
255 236 247
255 236 247
255 236 247
255 236 247
255 236 247
255 236 247
255 236 247
255 236 247
255 236 247
255 236 247
255 236 247
255 236 247
255 236 247
255 236 247
255 236 247
255 236 247
255 236 247
255 236 247
255 236 247
255 236 247
255 236 247
255 236 247
255 236 247
255 236 247
255 236 247
255 236 247
255 236 247
255 236 247
255 236 247
255 236 247
255 236 247
255 236 247
255 236 247
255 236 247
255 236 247
255 236 247
255 248 255
255 236 247
255 236 247
255 236 247
255 236 247
255 236 247
255 236 247
255 236 247
255 236 247
255 236 247
255 236 247
255 236 247
255 236 247
255 236 247
255 236 247
255 236 247
255 236 247
255 236 247
255 236 247
255 236 247
255 236 247
255 236 247
255 236 247
255 248 255
255 236 247
255 236 247
255 236 247
255 236 247
255 236 247
255 236 247
255 236 247
255 236 247
255 236 247
255 236 247
255 236 247
255 236 247
255 236 247
255 236 247
255 236 247
255 236 247
255 236 247
255 236 247
255 236 247
255 236 247
255 236 247
255 236 247
255 236 247
255 236 247
255 236 247
255 236 247
255 236 247
255 236 247
255 236 247
255 236 247
255 236 247
255 236 247
255 236 247
255 236 247
255 236 247
255 236 247
255 248 255
255 236 247
255 236 247
255 236 247
255 236 247
255 236 247
255 236 247
255 236 247
255 236 247
255 236 247
255 236 247
255 236 247
255 236 247
255 236 247
255 236 247
255 236 247
255 236 247
255 236 247
255 236 247
255 236 247
255 236 247
255 236 247
255 236 247
255 236 247
255 236 247
255 236 247
255 236 247
255 236 247
255 236 247
255 236 247
255 236 247
255 236 247
255 236 247
255 236 247
255 236 247
255 236 247
255 236 247
255 248 255
255 236 247
255 236 247
255 236 247
255 236 247
255 236 247
255 236 247
255 236 247
255 236 247
255 236 247
255 236 247
255 236 247
255 236 247
255 236 247
255 236 247
255 236 247
255 236 247
255 236 247
255 236 247
255 236 247
255 236 247
255 236 247
255 236 247
255 236 247
255 236 247
255 236 247
255 236 247
255 236 247
255 236 247
255 236 247
255 236 247
255 236 247
255 236 247
255 236 247
255 236 247
255 236 247
255 236 247
255 248 255
255 236 247
255 236 247
255 236 247
255 236 247
255 236 247
255 236 247
255 236 247
255 236 247
255 236 247
255 236 247
255 236 247
255 236 247
255 236 247
255 236 247
255 236 247
255 236 247
255 236 247
255 236 247
255 236 247
255 236 247
255 236 247
255 236 247
255 236 247
255 236 247
255 236 247
255 236 247
255 236 247
255 236 247
255 236 247
255 236 247
255 236 247
255 236 247
255 236 247
255 236 247
255 236 247
255 236 247
255 248 255
255 236 247
255 236 247
255 236 247
255 236 247
255 236 247
255 236 247
255 236 247
255 236 247
255 236 247
255 236 247
255 236 247
255 236 247
255 236 247
255 236 247
255 236 247
255 236 247
255 236 247
255 236 247
255 236 247
255 236 247
255 236 247
255 236 247
255 236 247
255 236 247
255 236 247
255 236 247
255 236 247
255 236 247
255 236 247
255 236 247
255 236 247
255 236 247
255 236 247
255 236 247
255 236 247
255 236 247
255 248 255
255 236 247
255 236 247
255 236 247
255 236 247
255 236 247
255 236 247
255 236 247
255 236 247
255 236 247
255 236 247
255 236 247
255 236 247
255 236 247
255 236 247
255 236 247
255 236 247
255 236 247
255 236 247
255 236 247
255 236 247
255 236 247
255 236 247
255 236 247
255 236 247
255 236 247
255 236 247
255 236 247
255 236 247
255 236 247
255 236 247
255 236 247
255 236 247
255 236 247
255 236 247
255 236 247
255 236 247
255 248 255
255 236 247
255 236 247
255 236 247
255 236 247
255 236 247
255 236 247
255 236 247
255 236 247
255 236 247
255 236 247
255 236 247
255 236 247
255 236 247
255 236 247
255 236 247
255 236 247
255 236 247
255 236 247
255 236 247
255 236 247
255 236 247
255 236 247
255 236 247
255 236 247
255 236 247
255 236 247
255 236 247
255 236 247
255 236 247
255 236 247
255 236 247
255 236 247
255 236 247
255 236 247
255 236 247
255 236 247
255 248 255
255 236 247
255 236 247
255 236 247
255 236 247
255 236 247
255 236 247
255 236 247
255 236 247
255 236 247
255 236 247
255 236 247
255 236 247
255 236 247
255 236 247
255 236 247
255 236 247
255 236 247
255 236 247
255 236 247
255 236 247
255 236 247
255 236 247
255 236 247
255 236 247
255 236 247
255 236 247
255 236 247
255 236 247
255 236 247
255 236 247
255 236 247
255 236 247
255 236 247
255 236 247
255 236 247
255 236 247
255 248 255
255 236 247
255 236 247
255 236 247
255 236 247
255 236 247
255 236 247
255 236 247
255 236 247
255 236 247
255 236 247
255 236 247
255 236 247
255 236 247
255 236 247
255 236 247
255 236 247
255 236 247
255 236 247
255 236 247
255 236 247
255 236 247
255 236 247
255 248 255
255 236 247
255 236 247
255 236 247
255 236 247
255 236 247
255 236 247
255 236 247
255 236 247
255 236 247
255 236 247
255 236 247
255 236 247
255 236 247
255 236 247
255 236 247
255 236 247
255 236 247
255 236 247
255 236 247
255 236 247
255 236 247
255 236 247
255 236 247
255 236 247
255 236 247
255 236 247
255 236 247
255 236 247
255 236 247
255 236 247
255 236 247
255 236 247
255 236 247
255 236 247
255 236 247
255 236 247
255 248 255
255 236 247
255 236 247
255 236 247
255 236 247
255 236 247
255 236 247
255 236 247
255 236 247
255 236 247
255 236 247
255 236 247
255 236 247
255 236 247
255 236 247
255 236 247
255 236 247
255 236 247
255 236 247
255 236 247
255 236 247
255 236 247
255 236 247
255 236 247
255 236 247
255 236 247
255 236 247
255 236 247
255 236 247
255 236 247
255 236 247
255 236 247
255 236 247
255 236 247
255 236 247
255 236 247
255 236 247
255 248 255
255 236 247
255 236 247
255 236 247
255 236 247
255 236 247
255 236 247
255 236 247
255 236 247
255 236 247
255 236 247
255 236 247
255 236 247
255 236 247
255 236 247
255 236 247
255 236 247
255 236 247
255 236 247
255 236 247
255 236 247
255 236 247
255 236 247
255 236 247
255 236 247
255 236 247
255 236 247
255 236 247
255 236 247
255 236 247
255 236 247
255 236 247
255 236 247
255 236 247
255 236 247
255 236 247
255 236 247
255 248 255
255 236 247
255 236 247
255 236 247
255 236 247
255 236 247
255 236 247
255 236 247
255 236 247
255 236 247
255 236 247
255 236 247
255 236 247
255 236 247
255 236 247
255 236 247
255 236 247
255 236 247
255 236 247
255 236 247
255 236 247
255 236 247
255 236 247
255 236 247
255 236 247
255 236 247
255 236 247
255 236 247
255 236 247
255 236 247
255 236 247
255 236 247
255 236 247
255 236 247
255 236 247
255 236 247
255 236 247
255 248 255
255 236 247
255 236 247
255 236 247
255 236 247
255 236 247
255 236 247
255 236 247
255 236 247
255 236 247
255 236 247
255 236 247
255 236 247
255 236 247
255 236 247
255 236 247
255 236 247
255 236 247
255 236 247
255 236 247
255 236 247
255 236 247
255 236 247
255 236 247
255 236 247
255 236 247
255 236 247
255 236 247
255 236 247
255 236 247
255 236 247
255 236 247
255 236 247
255 236 247
255 236 247
255 236 247
255 236 247
255 248 255
255 236 247
255 236 247
255 236 247
255 236 247
255 236 247
255 236 247
255 236 247
255 236 247
255 236 247
255 236 247
255 236 247
255 236 247
255 236 247
255 236 247
255 236 247
255 236 247
255 236 247
255 236 247
255 236 247
255 236 247
255 236 247
255 236 247
255 236 247
255 236 247
255 236 247
255 236 247
255 236 247
255 236 247
255 236 247
255 236 247
255 236 247
255 236 247
255 236 247
255 236 247
255 236 247
255 236 247
255 248 255
255 236 247
255 236 247
255 236 247
255 236 247
255 236 247
255 236 247
255 236 247
255 236 247
255 236 247
255 236 247
255 236 247
255 236 247
255 236 247
255 236 247
255 236 247
255 236 247
255 236 247
255 236 247
255 236 247
255 236 247
255 236 247
255 236 247
255 236 247
255 236 247
255 236 247
255 236 247
255 236 247
255 236 247
255 236 247
255 236 247
255 236 247
255 236 247
255 236 247
255 236 247
255 236 247
255 236 247
255 248 255
255 236 247
255 236 247
255 236 247
255 236 247
255 236 247
255 236 247
255 236 247
255 236 247
255 236 247
255 236 247
255 236 247
255 236 247
255 236 247
255 236 247
255 236 247
255 236 247
255 236 247
255 236 247
255 236 247
255 236 247
255 236 247
255 236 247
255 236 247
255 236 247
255 236 247
255 236 247
255 236 247
255 236 247
255 236 247
255 236 247
255 236 247
255 236 247
255 236 247
255 236 247
255 236 247
255 236 247
255 248 255
255 236 247
255 236 247
255 236 247
255 236 247
255 236 247
255 236 247
255 236 247
255 236 247
255 236 247
255 236 247
255 236 247
255 236 247
255 236 247
255 236 247
255 236 247
255 236 247
255 236 247
255 236 247
255 236 247
255 236 247
255 236 247
255 236 247
255 248 255
255 236 247
255 236 247
255 236 247
255 236 247
255 236 247
255 236 247
255 236 247
255 236 247
255 236 247
255 236 247
255 236 247
255 236 247
255 236 247
255 236 247
255 236 247
255 236 247
255 236 247
255 236 247
255 236 247
255 236 247
255 236 247
255 236 247
255 236 247
255 236 247
255 236 247
255 236 247
255 236 247
255 236 247
255 236 247
255 236 247
255 236 247
255 236 247
255 236 247
255 236 247
255 236 247
255 236 247
255 248 255
255 236 247
255 236 247
255 236 247
255 236 247
255 236 247
255 236 247
255 236 247
255 236 247
255 236 247
255 236 247
255 236 247
255 236 247
255 236 247
255 236 247
255 236 247
255 236 247
255 236 247
255 236 247
255 236 247
255 236 247
255 236 247
255 236 247
255 236 247
255 236 247
255 236 247
255 236 247
255 236 247
255 236 247
255 236 247
255 236 247
255 236 247
255 236 247
255 236 247
255 236 247
255 236 247
255 236 247
255 248 255
255 236 247
255 236 247
255 236 247
255 236 247
255 236 247
255 236 247
255 236 247
255 236 247
255 236 247
255 236 247
255 236 247
255 236 247
255 236 247
255 236 247
255 236 247
255 236 247
255 236 247
255 236 247
255 236 247
255 236 247
255 236 247
255 236 247
255 236 247
255 236 247
255 236 247
255 236 247
255 236 247
255 236 247
255 236 247
255 236 247
255 236 247
255 236 247
255 236 247
255 236 247
255 236 247
255 236 247
255 248 255
255 236 247
255 236 247
255 236 247
255 236 247
255 236 247
255 236 247
255 236 247
255 236 247
255 236 247
255 236 247
255 236 247
255 236 247
255 236 247
255 236 247
255 236 247
255 236 247
255 236 247
255 236 247
255 236 247
255 236 247
255 236 247
255 236 247
255 236 247
255 236 247
255 236 247
255 236 247
255 236 247
255 236 247
255 236 247
255 236 247
255 236 247
255 236 247
255 236 247
255 236 247
255 236 247
255 236 247
255 248 255
255 236 247
255 236 247
255 236 247
255 236 247
255 236 247
255 236 247
255 236 247
255 236 247
255 236 247
255 236 247
255 236 247
255 236 247
255 236 247
255 236 247
255 236 247
255 236 247
255 236 247
255 236 247
255 236 247
255 236 247
255 236 247
255 236 247
255 236 247
255 236 247
255 236 247
255 236 247
255 236 247
255 236 247
255 236 247
255 236 247
255 236 247
255 236 247
255 236 247
255 236 247
255 236 247
255 236 247
255 248 255
255 236 247
255 236 247
255 236 247
255 236 247
255 236 247
255 236 247
255 236 247
255 236 247
255 236 247
255 236 247
255 236 247
255 236 247
255 236 247
255 236 247
255 236 247
255 236 247
255 236 247
255 236 247
255 236 247
255 236 247
255 236 247
255 236 247
255 236 247
255 236 247
255 236 247
255 236 247
255 236 247
255 236 247
255 236 247
255 236 247
255 236 247
255 236 247
255 236 247
255 236 247
255 236 247
255 236 247
255 248 255
255 236 247
255 236 247
255 236 247
255 236 247
255 236 247
255 236 247
255 236 247
255 236 247
255 236 247
255 236 247
255 236 247
255 236 247
255 236 247
255 236 247
255 236 247
255 236 247
255 236 247
255 236 247
255 236 247
255 236 247
255 236 247
255 236 247
255 236 247
255 236 247
255 236 247
255 236 247
255 236 247
255 236 247
255 236 247
255 236 247
255 236 247
255 236 247
255 236 247
255 236 247
255 236 247
255 236 247
255 248 255
255 236 247
255 236 247
255 236 247
255 236 247
255 236 247
255 236 247
255 236 247
255 236 247
255 236 247
255 236 247
255 236 247
255 236 247
255 236 247
255 236 247
255 236 247
255 236 247
255 236 247
255 236 247
255 236 247
255 236 247
255 236 247
255 236 247
255 236 247
255 236 247
255 236 247
255 236 247
255 236 247
255 236 247
255 236 247
255 236 247
255 236 247
255 236 247
255 236 247
255 236 247
255 236 247
255 236 247
255 248 255
255 236 247
255 236 247
255 236 247
255 236 247
255 236 247
255 236 247
255 236 247
255 236 247
255 236 247
255 236 247
255 236 247
255 236 247
255 236 247
255 236 247
255 236 247
255 236 247
255 236 247
255 236 247
255 236 247
255 236 247
255 236 247
255 236 247
255 248 255
255 236 247
255 236 247
255 236 247
255 236 247
255 236 247
255 236 247
255 236 247
255 236 247
255 236 247
255 236 247
255 236 247
255 236 247
255 236 247
255 236 247
255 236 247
255 236 247
255 236 247
255 236 247
255 236 247
255 236 247
255 236 247
255 236 247
255 236 247
255 236 247
255 236 247
255 236 247
255 236 247
255 236 247
255 236 247
255 236 247
255 236 247
255 236 247
255 236 247
255 236 247
255 236 247
255 236 247
255 248 255
255 236 247
255 236 247
255 236 247
255 236 247
255 236 247
255 236 247
255 236 247
255 236 247
255 236 247
255 236 247
255 236 247
255 236 247
255 236 247
255 236 247
255 236 247
255 236 247
255 236 247
255 236 247
255 236 247
255 236 247
255 236 247
255 236 247
255 236 247
255 236 247
255 236 247
255 236 247
255 236 247
255 236 247
255 236 247
255 236 247
255 236 247
255 236 247
255 236 247
255 236 247
255 236 247
255 236 247
255 248 255
255 236 247
255 236 247
255 236 247
255 236 247
255 236 247
255 236 247
255 236 247
255 236 247
255 236 247
255 236 247
255 236 247
255 236 247
255 236 247
255 236 247
255 236 247
255 236 247
255 236 247
255 236 247
255 236 247
255 236 247
255 236 247
255 236 247
255 236 247
255 236 247
255 236 247
255 236 247
255 236 247
255 236 247
255 236 247
255 236 247
255 236 247
255 236 247
255 236 247
255 236 247
255 236 247
255 236 247
255 248 255
255 236 247
255 236 247
255 236 247
255 236 247
255 236 247
255 236 247
255 236 247
255 236 247
255 236 247
255 236 247
255 236 247
255 236 247
255 236 247
255 236 247
255 236 247
255 236 247
255 236 247
255 236 247
255 236 247
255 236 247
255 236 247
255 236 247
255 236 247
255 236 247
255 236 247
255 236 247
255 236 247
255 236 247
255 236 247
255 236 247
255 236 247
255 236 247
255 236 247
255 236 247
255 236 247
255 236 247
255 248 255
255 236 247
255 236 247
255 236 247
255 236 247
255 236 247
255 236 247
255 236 247
255 236 247
255 236 247
255 236 247
255 236 247
255 236 247
255 236 247
255 236 247
255 236 247
255 236 247
255 236 247
255 236 247
255 236 247
255 236 247
255 236 247
255 236 247
255 236 247
255 236 247
255 236 247
255 236 247
255 236 247
255 236 247
255 236 247
255 236 247
255 236 247
255 236 247
255 236 247
255 236 247
255 236 247
255 236 247
255 248 255
255 236 247
255 236 247
255 236 247
255 236 247
255 236 247
255 236 247
255 236 247
255 236 247
255 236 247
255 236 247
255 236 247
255 236 247
255 236 247
255 236 247
255 236 247
255 236 247
255 236 247
255 236 247
255 236 247
255 236 247
255 236 247
255 236 247
255 236 247
255 236 247
255 236 247
255 236 247
255 236 247
255 236 247
255 236 247
255 236 247
255 236 247
255 236 247
255 236 247
255 236 247
255 236 247
255 236 247
255 248 255
255 236 247
255 236 247
255 236 247
255 236 247
255 236 247
255 236 247
255 236 247
255 236 247
255 236 247
255 236 247
255 236 247
255 236 247
255 236 247
255 236 247
255 236 247
255 236 247
255 236 247
255 236 247
255 236 247
255 236 247
255 236 247
255 236 247
255 236 247
255 236 247
255 236 247
255 236 247
255 236 247
255 236 247
255 236 247
255 236 247
255 236 247
255 236 247
255 236 247
255 236 247
255 236 247
255 236 247
255 248 255
255 236 247
255 236 247
255 236 247
255 236 247
255 236 247
255 236 247
255 236 247
255 236 247
255 236 247
255 236 247
255 236 247
255 236 247
255 236 247
255 236 247
255 236 247
255 236 247
255 236 247
255 236 247
255 236 247
255 236 247
255 236 247
255 236 247
255 236 247
255 236 247
255 236 247
255 236 247
255 236 247
255 236 247
255 236 247
255 236 247
255 236 247
255 236 247
255 236 247
255 236 247
255 236 247
255 236 247
255 248 255
255 236 247
255 236 247
255 236 247
255 236 247
255 236 247
255 236 247
255 236 247
255 236 247
255 236 247
255 236 247
255 236 247
255 236 247
255 236 247
255 236 247
255 236 247
255 236 247
255 236 247
255 236 247
255 236 247
255 236 247
255 236 247
255 236 247
255 248 255
255 236 247
255 236 247
255 236 247
255 236 247
255 236 247
255 236 247
255 236 247
255 236 247
255 236 247
255 236 247
255 236 247
255 236 247
255 236 247
255 236 247
255 236 247
255 236 247
255 236 247
255 236 247
255 236 247
255 236 247
255 236 247
255 236 247
255 236 247
255 236 247
255 236 247
255 236 247
255 236 247
255 236 247
255 236 247
255 236 247
255 236 247
255 236 247
255 236 247
255 236 247
255 236 247
255 236 247
255 248 255
255 236 247
255 236 247
255 236 247
255 236 247
255 236 247
255 236 247
255 236 247
255 236 247
255 236 247
255 236 247
255 236 247
255 236 247
255 236 247
255 236 247
255 236 247
255 236 247
255 236 247
255 236 247
255 236 247
255 236 247
255 236 247
255 236 247
255 236 247
255 236 247
255 236 247
255 236 247
255 236 247
255 236 247
255 236 247
255 236 247
255 236 247
255 236 247
255 236 247
255 236 247
255 236 247
255 236 247
255 248 255
255 236 247
255 236 247
255 236 247
255 236 247
255 236 247
255 236 247
255 236 247
255 236 247
255 236 247
255 236 247
255 236 247
255 236 247
255 236 247
255 236 247
255 236 247
255 236 247
255 236 247
255 236 247
255 236 247
255 236 247
255 236 247
255 236 247
255 236 247
255 236 247
255 236 247
255 236 247
255 236 247
255 236 247
255 236 247
255 236 247
255 236 247
255 236 247
255 236 247
255 236 247
255 236 247
255 236 247
255 248 255
255 236 247
255 236 247
255 236 247
255 236 247
255 236 247
255 236 247
255 236 247
255 236 247
255 236 247
255 236 247
255 236 247
255 236 247
255 236 247
255 236 247
255 236 247
255 236 247
255 236 247
255 236 247
255 236 247
255 236 247
255 236 247
255 236 247
255 236 247
255 236 247
255 236 247
255 236 247
255 236 247
255 236 247
255 236 247
255 236 247
255 236 247
255 236 247
255 236 247
255 236 247
255 236 247
255 236 247
255 248 255
255 236 247
255 236 247
255 236 247
255 236 247
255 236 247
255 236 247
255 236 247
255 236 247
255 236 247
255 236 247
255 236 247
255 236 247
255 236 247
255 236 247
255 236 247
255 236 247
255 236 247
255 236 247
255 236 247
255 236 247
255 236 247
255 236 247
255 236 247
255 236 247
255 236 247
255 236 247
255 236 247
255 236 247
255 236 247
255 236 247
255 236 247
255 236 247
255 236 247
255 236 247
255 236 247
255 236 247
255 248 255
255 236 247
255 236 247
255 236 247
255 236 247
255 236 247
255 236 247
255 236 247
255 236 247
255 236 247
255 236 247
255 236 247
255 236 247
255 236 247
255 236 247
255 236 247
255 236 247
255 236 247
255 236 247
255 236 247
255 236 247
255 236 247
255 236 247
255 236 247
255 236 247
255 236 247
255 236 247
255 236 247
255 236 247
255 236 247
255 236 247
255 236 247
255 236 247
255 236 247
255 236 247
255 236 247
255 236 247
255 248 255
255 236 247
255 236 247
255 236 247
255 236 247
255 236 247
255 236 247
255 236 247
255 236 247
255 236 247
255 236 247
255 236 247
255 236 247
255 236 247
255 236 247
255 236 247
255 236 247
255 236 247
255 236 247
255 236 247
255 236 247
255 236 247
255 236 247
255 236 247
255 236 247
255 236 247
255 236 247
255 236 247
255 236 247
255 236 247
255 236 247
255 236 247
255 236 247
255 236 247
255 236 247
255 236 247
255 236 247
255 248 255
255 236 247
255 236 247
255 236 247
255 236 247
255 236 247
255 236 247
255 236 247
255 236 247
255 236 247
255 236 247
255 236 247
255 236 247
255 236 247
255 236 247
255 236 247
255 236 247
255 236 247
255 236 247
255 236 247
255 236 247
255 236 247
255 236 247
255 236 247
255 236 247
255 236 247
255 236 247
255 236 247
255 236 247
255 236 247
255 236 247
255 236 247
255 236 247
255 236 247
255 236 247
255 236 247
255 236 247
255 248 255
255 236 247
255 236 247
255 236 247
255 236 247
255 236 247
255 236 247
255 236 247
255 236 247
255 236 247
255 236 247
255 236 247
255 236 247
255 236 247
255 236 247
255 236 247
255 236 247
255 236 247
255 236 247
255 236 247
255 236 247
255 236 247
255 236 247
255 248 255
255 236 247
255 236 247
255 236 247
255 236 247
255 236 247
255 236 247
255 236 247
255 236 247
255 236 247
255 236 247
255 236 247
255 236 247
255 236 247
255 236 247
255 236 247
255 236 247
255 236 247
255 236 247
255 236 247
255 236 247
255 236 247
255 236 247
255 236 247
255 236 247
255 236 247
255 236 247
255 236 247
255 236 247
255 236 247
255 236 247
255 236 247
255 236 247
255 236 247
255 236 247
255 236 247
255 236 247
255 248 255
255 236 247
255 236 247
255 236 247
255 236 247
255 236 247
255 236 247
255 236 247
255 236 247
255 236 247
255 236 247
255 236 247
255 236 247
255 236 247
255 236 247
255 236 247
255 236 247
255 236 247
255 236 247
255 236 247
255 236 247
255 236 247
255 236 247
255 236 247
255 236 247
255 236 247
255 236 247
255 236 247
255 236 247
255 236 247
255 236 247
255 236 247
255 236 247
255 236 247
255 236 247
255 236 247
255 236 247
255 248 255
255 236 247
255 236 247
255 236 247
255 236 247
255 236 247
255 236 247
255 236 247
255 236 247
255 236 247
255 236 247
255 236 247
255 236 247
255 236 247
255 236 247
255 236 247
255 236 247
255 236 247
255 236 247
255 236 247
255 236 247
255 236 247
255 236 247
255 236 247
255 236 247
255 236 247
255 236 247
255 236 247
255 236 247
255 236 247
255 236 247
255 236 247
255 236 247
255 236 247
255 236 247
255 236 247
255 236 247
255 248 255
255 236 247
255 236 247
255 236 247
255 236 247
255 236 247
255 236 247
255 236 247
255 236 247
255 236 247
255 236 247
255 236 247
255 236 247
255 236 247
255 236 247
255 236 247
255 236 247
255 236 247
255 236 247
255 236 247
255 236 247
255 236 247
255 236 247
255 236 247
255 236 247
255 236 247
255 236 247
255 236 247
255 236 247
255 236 247
255 236 247
255 236 247
255 236 247
255 236 247
255 236 247
255 236 247
255 236 247
255 248 255
255 236 247
255 236 247
255 236 247
255 236 247
255 236 247
255 236 247
255 236 247
255 236 247
255 236 247
255 236 247
255 236 247
255 236 247
255 236 247
255 236 247
255 236 247
255 236 247
255 236 247
255 236 247
255 236 247
255 236 247
255 236 247
255 236 247
255 236 247
255 236 247
255 236 247
255 236 247
255 236 247
255 236 247
255 236 247
255 236 247
255 236 247
255 236 247
255 236 247
255 236 247
255 236 247
255 236 247
255 248 255
255 236 247
255 236 247
255 236 247
255 236 247
255 236 247
255 236 247
255 236 247
255 236 247
255 236 247
255 236 247
255 236 247
255 236 247
255 236 247
255 236 247
255 236 247
255 236 247
255 236 247
255 236 247
255 236 247
255 236 247
255 236 247
255 236 247
255 236 247
255 236 247
255 236 247
255 236 247
255 236 247
255 236 247
255 236 247
255 236 247
255 236 247
255 236 247
255 236 247
255 236 247
255 236 247
255 236 247
255 248 255
255 236 247
255 236 247
255 236 247
255 236 247
255 236 247
255 236 247
255 236 247
255 236 247
255 236 247
255 236 247
255 236 247
255 236 247
255 236 247
255 236 247
255 236 247
255 236 247
255 236 247
255 236 247
255 236 247
255 236 247
255 236 247
255 236 247
255 236 247
255 236 247
255 236 247
255 236 247
255 236 247
255 236 247
255 236 247
255 236 247
255 236 247
255 236 247
255 236 247
255 236 247
255 236 247
255 236 247
255 248 255
255 236 247
255 236 247
255 236 247
255 236 247
255 236 247
255 236 247
255 236 247
255 236 247
255 236 247
255 236 247
255 236 247
255 236 247
255 236 247
255 236 247
255 236 247
255 236 247
255 236 247
255 236 247
255 236 247
255 236 247
255 236 247
255 236 247
255 236 247
255 236 247
255 236 247
255 236 247
255 236 247
255 236 247
255 236 247
255 236 247
255 236 247
255 236 247
255 236 247
255 236 247
255 236 247
255 236 247
255 248 255
255 236 247
255 236 247
255 236 247
255 236 247
255 236 247
255 236 247
255 236 247
255 236 247
255 236 247
255 236 247
255 236 247
255 236 247
255 236 247
255 236 247
255 236 247
255 236 247
255 236 247
255 236 247
255 236 247
255 236 247
255 236 247
255 236 247
255 248 255
255 236 247
255 236 247
255 236 247
255 236 247
255 236 247
255 236 247
255 236 247
255 236 247
255 236 247
255 236 247
255 236 247
255 236 247
255 236 247
255 236 247
255 236 247
255 236 247
255 236 247
255 236 247
255 236 247
255 236 247
255 236 247
255 236 247
255 236 247
255 236 247
255 236 247
255 236 247
255 236 247
255 236 247
255 236 247
255 236 247
255 236 247
255 236 247
255 236 247
255 236 247
255 236 247
255 236 247
255 248 255
255 236 247
255 236 247
255 236 247
255 236 247
255 236 247
255 236 247
255 236 247
255 236 247
255 236 247
255 236 247
255 236 247
255 236 247
255 236 247
255 236 247
255 236 247
255 236 247
255 236 247
255 236 247
255 236 247
255 236 247
255 236 247
255 236 247
255 236 247
255 236 247
255 236 247
255 236 247
255 236 247
255 236 247
255 236 247
255 236 247
255 236 247
255 236 247
255 236 247
255 236 247
255 236 247
255 236 247
255 248 255
255 236 247
255 236 247
255 236 247
255 236 247
255 236 247
255 236 247
255 236 247
255 236 247
255 236 247
255 236 247
255 236 247
255 236 247
255 236 247
255 236 247
255 236 247
255 236 247
255 236 247
255 236 247
255 236 247
255 236 247
255 236 247
255 236 247
255 236 247
255 236 247
255 236 247
255 236 247
255 236 247
255 236 247
255 236 247
255 236 247
255 236 247
255 236 247
255 236 247
255 236 247
255 236 247
255 236 247
255 248 255
255 236 247
255 236 247
255 236 247
255 236 247
255 236 247
255 236 247
255 236 247
255 236 247
255 236 247
255 236 247
255 236 247
255 236 247
255 236 247
255 236 247
255 236 247
255 236 247
255 236 247
255 236 247
255 236 247
255 236 247
255 236 247
255 236 247
255 236 247
255 236 247
255 236 247
255 236 247
255 236 247
255 236 247
255 236 247
255 236 247
255 236 247
255 236 247
255 236 247
255 236 247
255 236 247
255 236 247
255 248 255
255 236 247
255 236 247
255 236 247
255 236 247
255 236 247
255 236 247
255 236 247
255 236 247
255 236 247
255 236 247
255 236 247
255 236 247
255 236 247
255 236 247
255 236 247
255 236 247
255 236 247
255 236 247
255 236 247
255 236 247
255 236 247
255 236 247
255 236 247
255 236 247
255 236 247
255 236 247
255 236 247
255 236 247
255 236 247
255 236 247
255 236 247
255 236 247
255 236 247
255 236 247
255 236 247
255 236 247
255 248 255
255 236 247
255 236 247
255 236 247
255 236 247
255 236 247
255 236 247
255 236 247
255 236 247
255 236 247
255 236 247
255 236 247
255 236 247
255 236 247
255 236 247
255 236 247
255 236 247
255 236 247
255 236 247
255 236 247
255 236 247
255 236 247
255 236 247
255 236 247
255 236 247
255 236 247
255 236 247
255 236 247
255 236 247
255 236 247
255 236 247
255 236 247
255 236 247
255 236 247
255 236 247
255 236 247
255 236 247
255 248 255
255 236 247
255 236 247
255 236 247
255 236 247
255 236 247
255 236 247
255 236 247
255 236 247
255 236 247
255 236 247
255 236 247
255 236 247
255 236 247
255 236 247
255 236 247
255 236 247
255 236 247
255 236 247
255 236 247
255 236 247
255 236 247
255 236 247
255 236 247
255 236 247
255 236 247
255 236 247
255 236 247
255 236 247
255 236 247
255 236 247
255 236 247
255 236 247
255 236 247
255 236 247
255 236 247
255 236 247
255 248 255
255 236 247
255 236 247
255 236 247
255 236 247
255 236 247
255 236 247
255 236 247
255 236 247
255 236 247
255 236 247
255 236 247
255 236 247
255 236 247
255 236 247
255 236 247
255 236 247
255 236 247
255 236 247
255 236 247
255 236 247
255 236 247
255 236 247
255 236 247
255 236 247
255 236 247
255 236 247
255 236 247
255 236 247
255 236 247
255 236 247
255 236 247
255 236 247
255 236 247
255 236 247
255 236 247
255 236 247
255 248 255
255 236 247
255 236 247
255 236 247
255 236 247
255 236 247
255 236 247
255 236 247
255 236 247
255 236 247
255 236 247
255 236 247
255 236 247
255 236 247
255 236 247
255 236 247
255 236 247
255 236 247
255 236 247
255 236 247
255 236 247
255 236 247
255 236 247
255 248 255
255 236 247
255 236 247
255 236 247
255 236 247
255 236 247
255 236 247
255 236 247
255 236 247
255 236 247
255 236 247
255 236 247
255 236 247
255 236 247
255 236 247
255 236 247
255 236 247
255 236 247
255 236 247
255 236 247
255 236 247
255 236 247
255 236 247
255 236 247
255 236 247
255 236 247
255 236 247
255 236 247
255 236 247
255 236 247
255 236 247
255 236 247
255 236 247
255 236 247
255 236 247
255 236 247
255 236 247
255 248 255
255 236 247
255 236 247
255 236 247
255 236 247
255 236 247
255 236 247
255 236 247
255 236 247
255 236 247
255 236 247
255 236 247
255 236 247
255 236 247
255 236 247
255 236 247
255 236 247
255 236 247
255 236 247
255 236 247
255 236 247
255 236 247
255 236 247
255 236 247
255 236 247
255 236 247
255 236 247
255 236 247
255 236 247
255 236 247
255 236 247
255 236 247
255 236 247
255 236 247
255 236 247
255 236 247
255 236 247
255 248 255
255 236 247
255 236 247
255 236 247
255 236 247
255 236 247
255 236 247
255 236 247
255 236 247
255 236 247
255 236 247
255 236 247
255 236 247
255 236 247
255 236 247
255 236 247
255 236 247
255 236 247
255 236 247
255 236 247
255 236 247
255 236 247
255 236 247
255 236 247
255 236 247
255 236 247
255 236 247
255 236 247
255 236 247
255 236 247
255 236 247
255 236 247
255 236 247
255 236 247
255 236 247
255 236 247
255 236 247
255 248 255
255 236 247
255 236 247
255 236 247
255 236 247
255 236 247
255 236 247
255 236 247
255 236 247
255 236 247
255 236 247
255 236 247
255 236 247
255 236 247
255 236 247
255 236 247
255 236 247
255 236 247
255 236 247
255 236 247
255 236 247
255 236 247
255 236 247
255 236 247
255 236 247
255 236 247
255 236 247
255 236 247
255 236 247
255 236 247
255 236 247
255 236 247
255 236 247
255 236 247
255 236 247
255 236 247
255 236 247
255 248 255
255 236 247
255 236 247
255 236 247
255 236 247
255 236 247
255 236 247
255 236 247
255 236 247
255 236 247
255 236 247
255 236 247
255 236 247
255 236 247
255 236 247
255 236 247
255 236 247
255 236 247
255 236 247
255 236 247
255 236 247
255 236 247
255 236 247
255 236 247
255 236 247
255 236 247
255 236 247
255 236 247
255 236 247
255 236 247
255 236 247
255 236 247
255 236 247
255 236 247
255 236 247
255 236 247
255 236 247
255 248 255
255 236 247
255 236 247
255 236 247
255 236 247
255 236 247
255 236 247
255 236 247
255 236 247
255 236 247
255 236 247
255 236 247
255 236 247
255 236 247
255 236 247
255 236 247
255 236 247
255 236 247
255 236 247
255 236 247
255 236 247
255 236 247
255 236 247
255 236 247
255 236 247
255 236 247
255 236 247
255 236 247
255 236 247
255 236 247
255 236 247
255 236 247
255 236 247
255 236 247
255 236 247
255 236 247
255 236 247
255 248 255
255 236 247
255 236 247
255 236 247
255 236 247
255 236 247
255 236 247
255 236 247
255 236 247
255 236 247
255 236 247
255 236 247
255 236 247
255 236 247
255 236 247
255 236 247
255 236 247
255 236 247
255 236 247
255 236 247
255 236 247
255 236 247
255 236 247
255 236 247
255 236 247
255 236 247
255 236 247
255 236 247
255 236 247
255 236 247
255 236 247
255 236 247
255 236 247
255 236 247
255 236 247
255 236 247
255 236 247
255 248 255
255 236 247
255 236 247
255 236 247
255 236 247
255 236 247
255 236 247
255 236 247
255 236 247
255 236 247
255 236 247
255 236 247
255 236 247
255 236 247
255 236 247
255 236 247
255 236 247
255 236 247
255 236 247
255 236 247
255 236 247
255 236 247
255 236 247
255 236 247
255 236 247
255 236 247
255 236 247
255 236 247
255 236 247
255 236 247
255 236 247
255 236 247
255 236 247
255 236 247
255 236 247
255 236 247
255 236 247
255 248 255
255 236 247
255 236 247
255 236 247
255 236 247
255 236 247
255 236 247
255 236 247
255 236 247
255 236 247
255 236 247
255 236 247
255 236 247
255 236 247
255 236 247
255 236 247
255 236 247
255 236 247
255 236 247
255 236 247
255 236 247
255 236 247
255 236 247
255 248 255
255 236 247
255 236 247
255 236 247
255 236 247
255 236 247
255 236 247
255 236 247
255 236 247
255 236 247
255 236 247
255 236 247
255 236 247
255 236 247
255 236 247
255 236 247
255 236 247
255 236 247
255 236 247
255 236 247
255 236 247
255 236 247
255 236 247
255 236 247
255 236 247
255 236 247
255 236 247
255 236 247
255 236 247
255 236 247
255 236 247
255 236 247
255 236 247
255 236 247
255 236 247
255 236 247
255 236 247
255 248 255
255 236 247
255 236 247
255 236 247
255 236 247
255 236 247
255 236 247
255 236 247
255 236 247
255 236 247
255 236 247
255 236 247
255 236 247
255 236 247
255 236 247
255 236 247
255 236 247
255 236 247
255 236 247
255 236 247
255 236 247
255 236 247
255 236 247
255 236 247
255 236 247
255 236 247
255 236 247
255 236 247
255 236 247
255 236 247
255 236 247
255 236 247
255 236 247
255 236 247
255 236 247
255 236 247
255 236 247
255 248 255
255 236 247
255 236 247
255 236 247
255 236 247
255 236 247
255 236 247
255 236 247
255 236 247
255 236 247
255 236 247
255 236 247
255 236 247
255 236 247
255 236 247
255 236 247
255 236 247
255 236 247
255 236 247
255 236 247
255 236 247
255 236 247
255 236 247
255 236 247
255 236 247
255 236 247
255 236 247
255 236 247
255 236 247
255 236 247
255 236 247
255 236 247
255 236 247
255 236 247
255 236 247
255 236 247
255 236 247
255 248 255
255 236 247
255 236 247
255 236 247
255 236 247
255 236 247
255 236 247
255 236 247
255 236 247
255 236 247
255 236 247
255 236 247
255 236 247
255 236 247
255 236 247
255 236 247
255 236 247
255 236 247
255 236 247
255 236 247
255 236 247
255 236 247
255 236 247
255 236 247
255 236 247
255 236 247
255 236 247
255 236 247
255 236 247
255 236 247
255 236 247
255 236 247
255 236 247
255 236 247
255 236 247
255 236 247
255 236 247
255 248 255
255 236 247
255 236 247
255 236 247
255 236 247
255 236 247
255 236 247
255 236 247
255 236 247
255 236 247
255 236 247
255 236 247
255 236 247
255 236 247
255 236 247
255 236 247
255 236 247
255 236 247
255 236 247
255 236 247
255 236 247
255 236 247
255 236 247
255 236 247
255 236 247
255 236 247
255 236 247
255 236 247
255 236 247
255 236 247
255 236 247
255 236 247
255 236 247
255 236 247
255 236 247
255 236 247
255 236 247
255 248 255
255 236 247
255 236 247
255 236 247
255 236 247
255 236 247
255 236 247
255 236 247
255 236 247
255 236 247
255 236 247
255 236 247
255 236 247
255 236 247
255 236 247
255 236 247
255 236 247
255 236 247
255 236 247
255 236 247
255 236 247
255 236 247
255 236 247
255 236 247
255 236 247
255 236 247
255 236 247
255 236 247
255 236 247
255 236 247
255 236 247
255 236 247
255 236 247
255 236 247
255 236 247
255 236 247
255 236 247
255 248 255
255 236 247
255 236 247
255 236 247
255 236 247
255 236 247
255 236 247
255 236 247
255 236 247
255 236 247
255 236 247
255 236 247
255 236 247
255 236 247
255 236 247
255 236 247
255 236 247
255 236 247
255 236 247
255 236 247
255 236 247
255 236 247
255 236 247
255 236 247
255 236 247
255 236 247
255 236 247
255 236 247
255 236 247
255 236 247
255 236 247
255 236 247
255 236 247
255 236 247
255 236 247
255 236 247
255 236 247
255 248 255
255 236 247
255 236 247
255 236 247
255 236 247
255 236 247
255 236 247
255 236 247
255 236 247
255 236 247
255 236 247
255 236 247
255 236 247
255 236 247
255 236 247
255 236 247
255 236 247
255 236 247
255 236 247
255 236 247
255 236 247
255 236 247
255 236 247
255 236 247
255 236 247
255 236 247
255 236 247
255 236 247
255 236 247
255 236 247
255 236 247
255 236 247
255 236 247
255 236 247
255 236 247
255 236 247
255 236 247
255 248 255
255 236 247
255 236 247
255 236 247
255 236 247
255 236 247
255 236 247
255 236 247
255 236 247
255 236 247
255 236 247
255 236 247
255 236 247
255 236 247
255 236 247
255 236 247
255 236 247
255 236 247
255 236 247
255 236 247
255 236 247
255 236 247
255 236 247
255 248 255
255 236 247
255 236 247
255 236 247
255 236 247
255 236 247
255 236 247
255 236 247
255 236 247
255 236 247
255 236 247
255 236 247
255 236 247
255 236 247
255 236 247
255 236 247
255 236 247
255 236 247
255 236 247
255 236 247
255 236 247
255 236 247
255 236 247
255 236 247
255 236 247
255 236 247
255 236 247
255 236 247
255 236 247
255 236 247
255 236 247
255 236 247
255 236 247
255 236 247
255 236 247
255 236 247
255 236 247
255 248 255
255 236 247
255 236 247
255 236 247
255 236 247
255 236 247
255 236 247
255 236 247
255 236 247
255 236 247
255 236 247
255 236 247
255 236 247
255 236 247
255 236 247
255 236 247
255 236 247
255 236 247
255 236 247
255 236 247
255 236 247
255 236 247
255 236 247
255 236 247
255 236 247
255 236 247
255 236 247
255 236 247
255 236 247
255 236 247
255 236 247
255 236 247
255 236 247
255 236 247
255 236 247
255 236 247
255 236 247
255 248 255
255 236 247
255 236 247
255 236 247
255 236 247
255 236 247
255 236 247
255 236 247
255 236 247
255 236 247
255 236 247
255 236 247
255 236 247
255 236 247
255 236 247
255 236 247
255 236 247
255 236 247
255 236 247
255 236 247
255 236 247
255 236 247
255 236 247
255 236 247
255 236 247
255 236 247
255 236 247
255 236 247
255 236 247
255 236 247
255 236 247
255 236 247
255 236 247
255 236 247
255 236 247
255 236 247
255 236 247
255 248 255
255 236 247
255 236 247
255 236 247
255 236 247
255 236 247
255 236 247
255 236 247
255 236 247
255 236 247
255 236 247
255 236 247
255 236 247
255 236 247
255 236 247
255 236 247
255 236 247
255 236 247
255 236 247
255 236 247
255 236 247
255 236 247
255 236 247
255 236 247
255 236 247
255 236 247
255 236 247
255 236 247
255 236 247
255 236 247
255 236 247
255 236 247
255 236 247
255 236 247
255 236 247
255 236 247
255 236 247
255 248 255
255 236 247
255 236 247
255 236 247
255 236 247
255 236 247
255 236 247
255 236 247
255 236 247
255 236 247
255 236 247
255 236 247
255 236 247
255 236 247
255 236 247
255 236 247
255 236 247
255 236 247
255 236 247
255 236 247
255 236 247
255 236 247
255 236 247
255 236 247
255 236 247
255 236 247
255 236 247
255 236 247
255 236 247
255 236 247
255 236 247
255 236 247
255 236 247
255 236 247
255 236 247
255 236 247
255 236 247
255 248 255
255 236 247
255 236 247
255 236 247
255 236 247
255 236 247
255 236 247
255 236 247
255 236 247
255 236 247
255 236 247
255 236 247
255 236 247
255 236 247
255 236 247
255 236 247
255 236 247
255 236 247
255 236 247
255 236 247
255 236 247
255 236 247
255 236 247
255 236 247
255 236 247
255 236 247
255 236 247
255 236 247
255 236 247
255 236 247
255 236 247
255 236 247
255 236 247
255 236 247
255 236 247
255 236 247
255 236 247
255 248 255
255 236 247
255 236 247
255 236 247
255 236 247
255 236 247
255 236 247
255 236 247
255 236 247
255 236 247
255 236 247
255 236 247
255 236 247
255 236 247
255 236 247
255 236 247
255 236 247
255 236 247
255 236 247
255 236 247
255 236 247
255 236 247
255 236 247
255 236 247
255 236 247
255 236 247
255 236 247
255 236 247
255 236 247
255 236 247
255 236 247
255 236 247
255 236 247
255 236 247
255 236 247
255 236 247
255 236 247
255 248 255
255 236 247
255 236 247
255 236 247
255 236 247
255 236 247
255 236 247
255 236 247
255 236 247
255 236 247
255 236 247
255 236 247
255 236 247
255 236 247
255 236 247
255 236 247
255 236 247
255 236 247
255 236 247
255 236 247
255 236 247
255 236 247
255 236 247
255 236 247
255 236 247
255 236 247
255 236 247
255 236 247
255 236 247
255 236 247
255 236 247
255 236 247
255 236 247
255 236 247
255 236 247
255 236 247
255 236 247
255 248 255
255 236 247
255 236 247
255 236 247
255 236 247
255 236 247
255 236 247
255 236 247
255 236 247
255 236 247
255 236 247
255 236 247
255 236 247
255 236 247
255 236 247
255 236 247
255 236 247
255 236 247
255 236 247
255 236 247
255 236 247
255 236 247
255 236 247
255 248 255
255 236 247
255 236 247
255 236 247
255 236 247
255 236 247
255 236 247
255 236 247
255 236 247
255 236 247
255 236 247
255 236 247
255 236 247
255 236 247
255 236 247
255 236 247
255 236 247
255 236 247
255 236 247
255 236 247
255 236 247
255 236 247
255 236 247
255 236 247
255 236 247
255 236 247
255 236 247
255 236 247
255 236 247
255 236 247
255 236 247
255 236 247
255 236 247
255 236 247
255 236 247
255 236 247
255 236 247
255 248 255
255 236 247
255 236 247
255 236 247
255 236 247
255 236 247
255 236 247
255 236 247
255 236 247
255 236 247
255 236 247
255 236 247
255 236 247
255 236 247
255 236 247
255 236 247
255 236 247
255 236 247
255 236 247
255 236 247
255 236 247
255 236 247
255 236 247
255 236 247
255 236 247
255 236 247
255 236 247
255 236 247
255 236 247
255 236 247
255 236 247
255 236 247
255 236 247
255 236 247
255 236 247
255 236 247
255 236 247
255 248 255
255 236 247
255 236 247
255 236 247
255 236 247
255 236 247
255 236 247
255 236 247
255 236 247
255 236 247
255 236 247
255 236 247
255 236 247
255 236 247
255 236 247
255 236 247
255 236 247
255 236 247
255 236 247
255 236 247
255 236 247
255 236 247
255 236 247
255 236 247
255 236 247
255 236 247
255 236 247
255 236 247
255 236 247
255 236 247
255 236 247
255 236 247
255 236 247
255 236 247
255 236 247
255 236 247
255 236 247
255 248 255
255 236 247
255 236 247
255 236 247
255 236 247
255 236 247
255 236 247
255 236 247
255 236 247
255 236 247
255 236 247
255 236 247
255 236 247
255 236 247
255 236 247
255 236 247
255 236 247
255 236 247
255 236 247
255 236 247
255 236 247
255 236 247
255 236 247
255 236 247
255 236 247
255 236 247
255 236 247
255 236 247
255 236 247
255 236 247
255 236 247
255 236 247
255 236 247
255 236 247
255 236 247
255 236 247
255 236 247
255 248 255
255 236 247
255 236 247
255 236 247
255 236 247
255 236 247
255 236 247
255 236 247
255 236 247
255 236 247
255 236 247
255 236 247
255 236 247
255 236 247
255 236 247
255 236 247
255 236 247
255 236 247
255 236 247
255 236 247
255 236 247
255 236 247
255 236 247
255 236 247
255 236 247
255 236 247
255 236 247
255 236 247
255 236 247
255 236 247
255 236 247
255 236 247
255 236 247
255 236 247
255 236 247
255 236 247
255 236 247
255 248 255
255 236 247
255 236 247
255 236 247
255 236 247
255 236 247
255 236 247
255 236 247
255 236 247
255 236 247
255 236 247
255 236 247
255 236 247
255 236 247
255 236 247
255 236 247
255 236 247
255 236 247
255 236 247
255 236 247
255 236 247
255 236 247
255 236 247
255 236 247
255 236 247
255 236 247
255 236 247
255 236 247
255 236 247
255 236 247
255 236 247
255 236 247
255 236 247
255 236 247
255 236 247
255 236 247
255 236 247
255 248 255
255 236 247
255 236 247
255 236 247
255 236 247
255 236 247
255 236 247
255 236 247
255 236 247
255 236 247
255 236 247
255 236 247
255 236 247
255 236 247
255 236 247
255 236 247
255 236 247
255 236 247
255 236 247
255 236 247
255 236 247
255 236 247
255 236 247
255 236 247
255 236 247
255 236 247
255 236 247
255 236 247
255 236 247
255 236 247
255 236 247
255 236 247
255 236 247
255 236 247
255 236 247
255 236 247
255 236 247
255 248 255
255 236 247
255 236 247
255 236 247
255 236 247
255 236 247
255 236 247
255 236 247
255 236 247
255 236 247
255 236 247
255 236 247
255 236 247
255 236 247
255 236 247
255 236 247
255 236 247
255 236 247
255 236 247
255 236 247
255 236 247
255 236 247
255 236 247
255 236 247
255 236 247
255 236 247
255 236 247
255 236 247
255 236 247
255 236 247
255 236 247
255 236 247
255 236 247
255 236 247
255 236 247
255 236 247
255 236 247
255 248 255
255 236 247
255 236 247
255 236 247
255 236 247
255 236 247
255 236 247
255 236 247
255 236 247
255 236 247
255 236 247
255 236 247
255 236 247
255 236 247
255 236 247
255 236 247
255 236 247
255 236 247
255 236 247
255 236 247
255 236 247
255 236 247
255 236 247
255 236 247
255 236 247
255 236 247
255 236 247
255 236 247
255 236 247
255 236 247
255 236 247
255 236 247
255 236 247
255 236 247
255 236 247
255 236 247
255 236 247
255 236 247
255 236 247
255 236 247
255 236 247
255 236 247
255 236 247
255 236 247
255 236 247
255 236 247
255 236 247
255 236 247
255 236 247
255 236 247
255 236 247
255 236 247
255 236 247
255 236 247
255 236 247
255 236 247
255 236 247
255 236 247
255 236 247
255 236 247
255 248 255
255 236 247
255 236 247
255 236 247
255 236 247
255 236 247
255 236 247
255 236 247
255 236 247
255 236 247
255 236 247
255 236 247
255 236 247
255 236 247
255 236 247
255 236 247
255 236 247
255 236 247
255 236 247
255 236 247
255 236 247
255 236 247
255 236 247
255 236 247
255 236 247
255 236 247
255 236 247
255 236 247
255 236 247
255 236 247
255 236 247
255 236 247
255 236 247
255 236 247
255 236 247
255 236 247
255 236 247
255 248 255
255 236 247
255 236 247
255 236 247
255 236 247
255 236 247
255 236 247
255 236 247
255 236 247
255 236 247
255 236 247
255 236 247
255 236 247
255 236 247
255 236 247
255 236 247
255 236 247
255 236 247
255 236 247
255 236 247
255 236 247
255 236 247
255 236 247
255 236 247
255 236 247
255 236 247
255 236 247
255 236 247
255 236 247
255 236 247
255 236 247
255 236 247
255 236 247
255 236 247
255 236 247
255 236 247
255 236 247
255 248 255
255 236 247
255 236 247
255 236 247
255 236 247
255 236 247
255 236 247
255 236 247
255 236 247
255 236 247
255 236 247
255 236 247
255 236 247
255 236 247
255 236 247
255 236 247
255 236 247
255 236 247
255 236 247
255 236 247
255 236 247
255 236 247
255 236 247
255 236 247
255 236 247
255 236 247
255 236 247
255 236 247
255 236 247
255 236 247
255 236 247
255 236 247
255 236 247
255 236 247
255 236 247
255 236 247
255 236 247
255 248 255
255 236 247
255 236 247
255 236 247
255 236 247
255 236 247
255 236 247
255 236 247
255 236 247
255 236 247
255 236 247
255 236 247
255 236 247
255 236 247
255 236 247
255 236 247
255 236 247
255 236 247
255 236 247
255 236 247
255 236 247
255 236 247
255 236 247
255 236 247
255 236 247
255 236 247
255 236 247
255 236 247
255 236 247
255 236 247
255 236 247
255 236 247
255 236 247
255 236 247
255 236 247
255 236 247
255 236 247
255 248 255
255 236 247
255 236 247
255 236 247
255 236 247
255 236 247
255 236 247
255 236 247
255 236 247
255 236 247
255 236 247
255 236 247
255 236 247
255 236 247
255 236 247
255 236 247
255 236 247
255 236 247
255 236 247
255 236 247
255 236 247
255 236 247
255 236 247
255 236 247
255 236 247
255 236 247
255 236 247
255 236 247
255 236 247
255 236 247
255 236 247
255 236 247
255 236 247
255 236 247
255 236 247
255 236 247
255 236 247
255 248 255
255 236 247
255 236 247
255 236 247
255 236 247
255 236 247
255 236 247
255 236 247
255 236 247
255 236 247
255 236 247
255 236 247
255 236 247
255 236 247
255 236 247
255 236 247
255 236 247
255 236 247
255 236 247
255 236 247
255 236 247
255 236 247
255 236 247
255 236 247
255 236 247
255 236 247
255 236 247
255 236 247
255 236 247
255 236 247
255 236 247
255 236 247
255 236 247
255 236 247
255 236 247
255 236 247
255 236 247
255 248 255
255 236 247
255 236 247
255 236 247
255 236 247
255 236 247
255 236 247
255 236 247
255 236 247
255 236 247
255 236 247
255 236 247
255 236 247
255 236 247
255 236 247
255 236 247
255 236 247
255 236 247
255 236 247
255 236 247
255 236 247
255 236 247
255 236 247
255 236 247
255 236 247
255 236 247
255 236 247
255 236 247
255 236 247
255 236 247
255 236 247
255 236 247
255 236 247
255 236 247
255 236 247
255 236 247
255 236 247
255 248 255
255 236 247
255 236 247
255 236 247
255 236 247
255 236 247
255 236 247
255 236 247
255 236 247
255 236 247
255 236 247
255 236 247
255 236 247
255 236 247
255 236 247
255 236 247
255 236 247
255 236 247
255 236 247
255 236 247
255 236 247
255 236 247
255 236 247
255 236 247
255 236 247
255 236 247
255 236 247
255 236 247
255 236 247
255 236 247
255 236 247
255 236 247
255 236 247
255 236 247
255 236 247
255 236 247
255 236 247
255 236 247
255 236 247
255 236 247
255 236 247
255 236 247
255 236 247
255 236 247
255 236 247
255 236 247
255 236 247
255 236 247
255 236 247
255 236 247
255 236 247
255 236 247
255 236 247
255 236 247
255 236 247
255 236 247
255 236 247
255 236 247
255 236 247
255 236 247
255 248 255
255 236 247
255 236 247
255 236 247
255 236 247
255 236 247
255 236 247
255 236 247
255 236 247
255 236 247
255 236 247
255 236 247
255 236 247
255 236 247
255 236 247
255 236 247
255 236 247
255 236 247
255 236 247
255 236 247
255 236 247
255 236 247
255 236 247
255 236 247
255 236 247
255 236 247
255 236 247
255 236 247
255 236 247
255 236 247
255 236 247
255 236 247
255 236 247
255 236 247
255 236 247
255 236 247
255 236 247
255 248 255
255 236 247
255 236 247
255 236 247
255 236 247
255 236 247
255 236 247
255 236 247
255 236 247
255 236 247
255 236 247
255 236 247
255 236 247
255 236 247
255 236 247
255 236 247
255 236 247
255 236 247
255 236 247
255 236 247
255 236 247
255 236 247
255 236 247
255 236 247
255 236 247
255 236 247
255 236 247
255 236 247
255 236 247
255 236 247
255 236 247
255 236 247
255 236 247
255 236 247
255 236 247
255 236 247
255 236 247
255 248 255
255 236 247
255 236 247
255 236 247
255 236 247
255 236 247
255 236 247
255 236 247
255 236 247
255 236 247
255 236 247
255 236 247
255 236 247
255 236 247
255 236 247
255 236 247
255 236 247
255 236 247
255 236 247
255 236 247
255 236 247
255 236 247
255 236 247
255 236 247
255 236 247
255 236 247
255 236 247
255 236 247
255 236 247
255 236 247
255 236 247
255 236 247
255 236 247
255 236 247
255 236 247
255 236 247
255 236 247
255 248 255
255 236 247
255 236 247
255 236 247
255 236 247
255 236 247
255 236 247
255 236 247
255 236 247
255 236 247
255 236 247
255 236 247
255 236 247
255 236 247
255 236 247
255 236 247
255 236 247
255 236 247
255 236 247
255 236 247
255 236 247
255 236 247
255 236 247
255 236 247
255 236 247
255 236 247
255 236 247
255 236 247
255 236 247
255 236 247
255 236 247
255 236 247
255 236 247
255 236 247
255 236 247
255 236 247
255 236 247
255 248 255
255 236 247
255 236 247
255 236 247
255 236 247
255 236 247
255 236 247
255 236 247
255 236 247
255 236 247
255 236 247
255 236 247
255 236 247
255 236 247
255 236 247
255 236 247
255 236 247
255 236 247
255 236 247
255 236 247
255 236 247
255 236 247
255 236 247
255 236 247
255 236 247
255 236 247
255 236 247
255 236 247
255 236 247
255 236 247
255 236 247
255 236 247
255 236 247
255 236 247
255 236 247
255 236 247
255 236 247
255 248 255
255 236 247
255 236 247
255 236 247
255 236 247
255 236 247
255 236 247
255 236 247
255 236 247
255 236 247
255 236 247
255 236 247
255 236 247
255 236 247
255 236 247
255 236 247
255 236 247
255 236 247
255 236 247
255 236 247
255 236 247
255 236 247
255 236 247
255 236 247
255 236 247
255 236 247
255 236 247
255 236 247
255 236 247
255 236 247
255 236 247
255 236 247
255 236 247
255 236 247
255 236 247
255 236 247
255 236 247
255 248 255
255 236 247
255 236 247
255 236 247
255 236 247
255 236 247
255 236 247
255 236 247
255 236 247
255 236 247
255 236 247
255 236 247
255 236 247
255 236 247
255 236 247
255 236 247
255 236 247
255 236 247
255 236 247
255 236 247
255 236 247
255 236 247
255 236 247
255 236 247
255 236 247
255 236 247
255 236 247
255 236 247
255 236 247
255 236 247
255 236 247
255 236 247
255 236 247
255 236 247
255 236 247
255 236 247
255 236 247
255 248 255
255 236 247
255 236 247
255 236 247
255 236 247
255 236 247
255 236 247
255 236 247
255 236 247
255 236 247
255 236 247
255 236 247
255 236 247
255 236 247
255 236 247
255 236 247
255 236 247
255 236 247
255 236 247
255 236 247
255 236 247
255 236 247
255 236 247
255 236 247
255 236 247
255 236 247
255 236 247
255 236 247
255 236 247
255 236 247
255 236 247
255 236 247
255 236 247
255 236 247
255 236 247
255 236 247
255 236 247
255 236 247
255 236 247
255 236 247
255 236 247
255 236 247
255 236 247
255 236 247
255 236 247
255 236 247
255 236 247
255 236 247
255 236 247
255 236 247
255 236 247
255 236 247
255 236 247
255 236 247
255 236 247
255 236 247
255 236 247
255 236 247
255 236 247
255 236 247
255 248 255
255 236 247
255 236 247
255 236 247
255 236 247
255 236 247
255 236 247
255 236 247
255 236 247
255 236 247
255 236 247
255 236 247
255 236 247
255 236 247
255 236 247
255 236 247
255 236 247
255 236 247
255 236 247
255 236 247
255 236 247
255 236 247
255 236 247
255 236 247
255 236 247
255 236 247
255 236 247
255 236 247
255 236 247
255 236 247
255 236 247
255 236 247
255 236 247
255 236 247
255 236 247
255 236 247
255 236 247
255 248 255
255 236 247
255 236 247
255 236 247
255 236 247
255 236 247
255 236 247
255 236 247
255 236 247
255 236 247
255 236 247
255 236 247
255 236 247
255 236 247
255 236 247
255 236 247
255 236 247
255 236 247
255 236 247
255 236 247
255 236 247
255 236 247
255 236 247
255 236 247
255 236 247
255 236 247
255 236 247
255 236 247
255 236 247
255 236 247
255 236 247
255 236 247
255 236 247
255 236 247
255 236 247
255 236 247
255 236 247
255 248 255
255 236 247
255 236 247
255 236 247
255 236 247
255 236 247
255 236 247
255 236 247
255 236 247
255 236 247
255 236 247
255 236 247
255 236 247
255 236 247
255 236 247
255 236 247
255 236 247
255 236 247
255 236 247
255 236 247
255 236 247
255 236 247
255 236 247
255 236 247
255 236 247
255 236 247
255 236 247
255 236 247
255 236 247
255 236 247
255 236 247
255 236 247
255 236 247
255 236 247
255 236 247
255 236 247
255 236 247
255 248 255
255 236 247
255 236 247
255 236 247
255 236 247
255 236 247
255 236 247
255 236 247
255 236 247
255 236 247
255 236 247
255 236 247
255 236 247
255 236 247
255 236 247
255 236 247
255 236 247
255 236 247
255 236 247
255 236 247
255 236 247
255 236 247
255 236 247
255 236 247
255 236 247
255 236 247
255 236 247
255 236 247
255 236 247
255 236 247
255 236 247
255 236 247
255 236 247
255 236 247
255 236 247
255 236 247
255 236 247
255 248 255
255 236 247
255 236 247
255 236 247
255 236 247
255 236 247
255 236 247
255 236 247
255 236 247
255 236 247
255 236 247
255 236 247
255 236 247
255 236 247
255 236 247
255 236 247
255 236 247
255 236 247
255 236 247
255 236 247
255 236 247
255 236 247
255 236 247
255 236 247
255 236 247
255 236 247
255 236 247
255 236 247
255 236 247
255 236 247
255 236 247
255 236 247
255 236 247
255 236 247
255 236 247
255 236 247
255 236 247
255 248 255
255 236 247
255 236 247
255 236 247
255 236 247
255 236 247
255 236 247
255 236 247
255 236 247
255 236 247
255 236 247
255 236 247
255 236 247
255 236 247
255 236 247
255 236 247
255 236 247
255 236 247
255 236 247
255 236 247
255 236 247
255 236 247
255 236 247
255 236 247
255 236 247
255 236 247
255 236 247
255 236 247
255 236 247
255 236 247
255 236 247
255 236 247
255 236 247
255 236 247
255 236 247
255 236 247
255 236 247
255 248 255
255 236 247
255 236 247
255 236 247
255 236 247
255 236 247
255 236 247
255 236 247
255 236 247
255 236 247
255 236 247
255 236 247
255 236 247
255 236 247
255 236 247
255 236 247
255 236 247
255 236 247
255 236 247
255 236 247
255 236 247
255 236 247
255 236 247
255 236 247
255 236 247
255 236 247
255 236 247
255 236 247
255 236 247
255 236 247
255 236 247
255 236 247
255 236 247
255 236 247
255 236 247
255 236 247
255 236 247
255 248 255
255 236 247
255 236 247
255 236 247
255 236 247
255 236 247
255 236 247
255 236 247
255 236 247
255 236 247
255 236 247
255 236 247
255 236 247
255 236 247
255 236 247
255 236 247
255 236 247
255 236 247
255 236 247
255 236 247
255 236 247
255 236 247
255 236 247
255 236 247
255 236 247
255 236 247
255 236 247
255 236 247
255 236 247
255 236 247
255 236 247
255 236 247
255 236 247
255 236 247
255 236 247
255 236 247
255 236 247
255 236 247
255 236 247
255 236 247
255 236 247
255 236 247
255 236 247
255 236 247
255 236 247
255 236 247
255 236 247
255 236 247
255 236 247
255 236 247
255 236 247
255 236 247
255 236 247
255 236 247
255 236 247
255 236 247
255 236 247
255 236 247
255 236 247
255 236 247
255 248 255
255 236 247
255 236 247
255 236 247
255 236 247
255 236 247
255 236 247
255 236 247
255 236 247
255 236 247
255 236 247
255 236 247
255 236 247
255 236 247
255 236 247
255 236 247
255 236 247
255 236 247
255 236 247
255 236 247
255 236 247
255 236 247
255 236 247
255 236 247
255 236 247
255 236 247
255 236 247
255 236 247
255 236 247
255 236 247
255 236 247
255 236 247
255 236 247
255 236 247
255 236 247
255 236 247
255 236 247
255 248 255
255 236 247
255 236 247
255 236 247
255 236 247
255 236 247
255 236 247
255 236 247
255 236 247
255 236 247
255 236 247
255 236 247
255 236 247
255 236 247
255 236 247
255 236 247
255 236 247
255 236 247
255 236 247
255 236 247
255 236 247
255 236 247
255 236 247
255 236 247
255 236 247
255 236 247
255 236 247
255 236 247
255 236 247
255 236 247
255 236 247
255 236 247
255 236 247
255 236 247
255 236 247
255 236 247
255 236 247
255 248 255
255 236 247
255 236 247
255 236 247
255 236 247
255 236 247
255 236 247
255 236 247
255 236 247
255 236 247
255 236 247
255 236 247
255 236 247
255 236 247
255 236 247
255 236 247
255 236 247
255 236 247
255 236 247
255 236 247
255 236 247
255 236 247
255 236 247
255 236 247
255 236 247
255 236 247
255 236 247
255 236 247
255 236 247
255 236 247
255 236 247
255 236 247
255 236 247
255 236 247
255 236 247
255 236 247
255 236 247
255 248 255
255 236 247
255 236 247
255 236 247
255 236 247
255 236 247
255 236 247
255 236 247
255 236 247
255 236 247
255 236 247
255 236 247
255 236 247
255 236 247
255 236 247
255 236 247
255 236 247
255 236 247
255 236 247
255 236 247
255 236 247
255 236 247
255 236 247
255 236 247
255 236 247
255 236 247
255 236 247
255 236 247
255 236 247
255 236 247
255 236 247
255 236 247
255 236 247
255 236 247
255 236 247
255 236 247
255 236 247
255 248 255
255 236 247
255 236 247
255 236 247
255 236 247
255 236 247
255 236 247
255 236 247
255 236 247
255 236 247
255 236 247
255 236 247
255 236 247
255 236 247
255 236 247
255 236 247
255 236 247
255 236 247
255 236 247
255 236 247
255 236 247
255 236 247
255 236 247
255 236 247
255 236 247
255 236 247
255 236 247
255 236 247
255 236 247
255 236 247
255 236 247
255 236 247
255 236 247
255 236 247
255 236 247
255 236 247
255 236 247
255 248 255
255 236 247
255 236 247
255 236 247
255 236 247
255 236 247
255 236 247
255 236 247
255 236 247
255 236 247
255 236 247
255 236 247
255 236 247
255 236 247
255 236 247
255 236 247
255 236 247
255 236 247
255 236 247
255 236 247
255 236 247
255 236 247
255 236 247
255 236 247
255 236 247
255 236 247
255 236 247
255 236 247
255 236 247
255 236 247
255 236 247
255 236 247
255 236 247
255 236 247
255 236 247
255 236 247
255 236 247
255 248 255
255 236 247
255 236 247
255 236 247
255 236 247
255 236 247
255 236 247
255 236 247
255 236 247
255 236 247
255 236 247
255 236 247
255 236 247
255 236 247
255 236 247
255 236 247
255 236 247
255 236 247
255 236 247
255 236 247
255 236 247
255 236 247
255 236 247
255 236 247
255 236 247
255 236 247
255 236 247
255 236 247
255 236 247
255 236 247
255 236 247
255 236 247
255 236 247
255 236 247
255 236 247
255 236 247
255 236 247
255 248 255
255 236 247
255 236 247
255 236 247
255 236 247
255 236 247
255 236 247
255 236 247
255 236 247
255 236 247
255 236 247
255 236 247
255 236 247
255 236 247
255 236 247
255 236 247
255 236 247
255 236 247
255 236 247
255 236 247
255 236 247
255 236 247
255 236 247
255 236 247
255 236 247
255 236 247
255 236 247
255 236 247
255 236 247
255 236 247
255 236 247
255 236 247
255 236 247
255 236 247
255 236 247
255 236 247
255 236 247
255 236 247
255 236 247
255 236 247
255 236 247
255 236 247
255 236 247
255 236 247
255 236 247
255 236 247
255 236 247
255 236 247
255 236 247
255 236 247
255 236 247
255 236 247
255 236 247
255 236 247
255 236 247
255 236 247
255 236 247
255 236 247
255 236 247
255 236 247
255 248 255
255 236 247
255 236 247
255 236 247
255 236 247
255 236 247
255 236 247
255 236 247
255 236 247
255 236 247
255 236 247
255 236 247
255 236 247
255 236 247
255 236 247
255 236 247
255 236 247
255 236 247
255 236 247
255 236 247
255 236 247
255 236 247
255 236 247
255 236 247
255 236 247
255 236 247
255 236 247
255 236 247
255 236 247
255 236 247
255 236 247
255 236 247
255 236 247
255 236 247
255 236 247
255 236 247
255 236 247
255 248 255
255 236 247
255 236 247
255 236 247
255 236 247
255 236 247
255 236 247
255 236 247
255 236 247
255 236 247
255 236 247
255 236 247
255 236 247
255 236 247
255 236 247
255 236 247
255 236 247
255 236 247
255 236 247
255 236 247
255 236 247
255 236 247
255 236 247
255 236 247
255 236 247
255 236 247
255 236 247
255 236 247
255 236 247
255 236 247
255 236 247
255 236 247
255 236 247
255 236 247
255 236 247
255 236 247
255 236 247
255 248 255
255 236 247
255 236 247
255 236 247
255 236 247
255 236 247
255 236 247
255 236 247
255 236 247
255 236 247
255 236 247
255 236 247
255 236 247
255 236 247
255 236 247
255 236 247
255 236 247
255 236 247
255 236 247
255 236 247
255 236 247
255 236 247
255 236 247
255 236 247
255 236 247
255 236 247
255 236 247
255 236 247
255 236 247
255 236 247
255 236 247
255 236 247
255 236 247
255 236 247
255 236 247
255 236 247
255 236 247
255 248 255
255 236 247
255 236 247
255 236 247
255 236 247
255 236 247
255 236 247
255 236 247
255 236 247
255 236 247
255 236 247
255 236 247
255 236 247
255 236 247
255 236 247
255 236 247
255 236 247
255 236 247
255 236 247
255 236 247
255 236 247
255 236 247
255 236 247
255 236 247
255 236 247
255 236 247
255 236 247
255 236 247
255 236 247
255 236 247
255 236 247
255 236 247
255 236 247
255 236 247
255 236 247
255 236 247
255 236 247
255 248 255
255 236 247
255 236 247
255 236 247
255 236 247
255 236 247
255 236 247
255 236 247
255 236 247
255 236 247
255 236 247
255 236 247
255 236 247
255 236 247
255 236 247
255 236 247
255 236 247
255 236 247
255 236 247
255 236 247
255 236 247
255 236 247
255 236 247
255 236 247
255 236 247
255 236 247
255 236 247
255 236 247
255 236 247
255 236 247
255 236 247
255 236 247
255 236 247
255 236 247
255 236 247
255 236 247
255 236 247
255 248 255
255 236 247
255 236 247
255 236 247
255 236 247
255 236 247
255 236 247
255 236 247
255 236 247
255 236 247
255 236 247
255 236 247
255 236 247
255 236 247
255 236 247
255 236 247
255 236 247
255 236 247
255 236 247
255 236 247
255 236 247
255 236 247
255 236 247
255 236 247
255 236 247
255 236 247
255 236 247
255 236 247
255 236 247
255 236 247
255 236 247
255 236 247
255 236 247
255 236 247
255 236 247
255 236 247
255 236 247
255 248 255
255 236 247
255 236 247
255 236 247
255 236 247
255 236 247
255 236 247
255 236 247
255 236 247
255 236 247
255 236 247
255 236 247
255 236 247
255 236 247
255 236 247
255 236 247
255 236 247
255 236 247
255 236 247
255 236 247
255 236 247
255 236 247
255 236 247
255 236 247
255 236 247
255 236 247
255 236 247
255 236 247
255 236 247
255 236 247
255 236 247
255 236 247
255 236 247
255 236 247
255 236 247
255 236 247
255 236 247
255 248 255
255 236 247
255 236 247
255 236 247
255 236 247
255 236 247
255 236 247
255 236 247
255 236 247
255 236 247
255 236 247
255 236 247
255 236 247
255 236 247
255 236 247
255 236 247
255 236 247
255 236 247
255 236 247
255 236 247
255 236 247
255 236 247
255 236 247
255 236 247
255 236 247
255 236 247
255 236 247
255 236 247
255 236 247
255 236 247
255 236 247
255 236 247
255 236 247
255 236 247
255 236 247
255 236 247
255 236 247
255 236 247
255 236 247
255 236 247
255 236 247
255 236 247
255 236 247
255 236 247
255 236 247
255 236 247
255 236 247
255 236 247
255 236 247
255 236 247
255 236 247
255 236 247
255 236 247
255 236 247
255 236 247
255 236 247
255 236 247
255 236 247
255 236 247
255 236 247
255 248 255
255 236 247
255 236 247
255 236 247
255 236 247
255 236 247
255 236 247
255 236 247
255 236 247
255 236 247
255 236 247
255 236 247
255 236 247
255 236 247
255 236 247
255 236 247
255 236 247
255 236 247
255 236 247
255 236 247
255 236 247
255 236 247
255 236 247
255 236 247
255 236 247
255 236 247
255 236 247
255 236 247
255 236 247
255 236 247
255 236 247
255 236 247
255 236 247
255 236 247
255 236 247
255 236 247
255 236 247
255 248 255
255 236 247
255 236 247
255 236 247
255 236 247
255 236 247
255 236 247
255 236 247
255 236 247
255 236 247
255 236 247
255 236 247
255 236 247
255 236 247
255 236 247
255 236 247
255 236 247
255 236 247
255 236 247
255 236 247
255 236 247
255 236 247
255 236 247
255 236 247
255 236 247
255 236 247
255 236 247
255 236 247
255 236 247
255 236 247
255 236 247
255 236 247
255 236 247
255 236 247
255 236 247
255 236 247
255 236 247
255 248 255
255 236 247
255 236 247
255 236 247
255 236 247
255 236 247
255 236 247
255 236 247
255 236 247
255 236 247
255 236 247
255 236 247
255 236 247
255 236 247
255 236 247
255 236 247
255 236 247
255 236 247
255 236 247
255 236 247
255 236 247
255 236 247
255 236 247
255 236 247
255 236 247
255 236 247
255 236 247
255 236 247
255 236 247
255 236 247
255 236 247
255 236 247
255 236 247
255 236 247
255 236 247
255 236 247
255 236 247
255 248 255
255 236 247
255 236 247
255 236 247
255 236 247
255 236 247
255 236 247
255 236 247
255 236 247
255 236 247
255 236 247
255 236 247
255 236 247
255 236 247
255 236 247
255 236 247
255 236 247
255 236 247
255 236 247
255 236 247
255 236 247
255 236 247
255 236 247
255 236 247
255 236 247
255 236 247
255 236 247
255 236 247
255 236 247
255 236 247
255 236 247
255 236 247
255 236 247
255 236 247
255 236 247
255 236 247
255 236 247
255 248 255
255 236 247
255 236 247
255 236 247
255 236 247
255 236 247
255 236 247
255 236 247
255 236 247
255 236 247
255 236 247
255 236 247
255 236 247
255 236 247
255 236 247
255 236 247
255 236 247
255 236 247
255 236 247
255 236 247
255 236 247
255 236 247
255 236 247
255 236 247
255 236 247
255 236 247
255 236 247
255 236 247
255 236 247
255 236 247
255 236 247
255 236 247
255 236 247
255 236 247
255 236 247
255 236 247
255 236 247
255 248 255
255 236 247
255 236 247
255 236 247
255 236 247
255 236 247
255 236 247
255 236 247
255 236 247
255 236 247
255 236 247
255 236 247
255 236 247
255 236 247
255 236 247
255 236 247
255 236 247
255 236 247
255 236 247
255 236 247
255 236 247
255 236 247
255 236 247
255 236 247
255 236 247
255 236 247
255 236 247
255 236 247
255 236 247
255 236 247
255 236 247
255 236 247
255 236 247
255 236 247
255 236 247
255 236 247
255 236 247
255 248 255
255 236 247
255 236 247
255 236 247
255 236 247
255 236 247
255 236 247
255 236 247
255 236 247
255 236 247
255 236 247
255 236 247
255 236 247
255 236 247
255 236 247
255 236 247
255 236 247
255 236 247
255 236 247
255 236 247
255 236 247
255 236 247
255 236 247
255 236 247
255 236 247
255 236 247
255 236 247
255 236 247
255 236 247
255 236 247
255 236 247
255 236 247
255 236 247
255 236 247
255 236 247
255 236 247
255 236 247
255 248 255
255 236 247
255 236 247
255 236 247
255 236 247
255 236 247
255 236 247
255 236 247
255 236 247
255 236 247
255 236 247
255 236 247
255 236 247
255 236 247
255 236 247
255 236 247
255 236 247
255 236 247
255 236 247
255 236 247
255 236 247
255 236 247
255 236 247
255 236 247
255 236 247
255 236 247
255 236 247
255 236 247
255 236 247
255 236 247
255 236 247
255 236 247
255 236 247
255 236 247
255 236 247
255 236 247
255 236 247
255 236 247
255 236 247
255 236 247
255 236 247
255 236 247
255 236 247
255 236 247
255 236 247
255 236 247
255 236 247
255 236 247
255 236 247
255 236 247
255 236 247
255 236 247
255 236 247
255 236 247
255 236 247
255 236 247
255 236 247
255 236 247
255 236 247
255 236 247
255 248 255
255 236 247
255 236 247
255 236 247
255 236 247
255 236 247
255 236 247
255 236 247
255 236 247
255 236 247
255 236 247
255 236 247
255 236 247
255 236 247
255 236 247
255 236 247
255 236 247
255 236 247
255 236 247
255 236 247
255 236 247
255 236 247
255 236 247
255 236 247
255 236 247
255 236 247
255 236 247
255 236 247
255 236 247
255 236 247
255 236 247
255 236 247
255 236 247
255 236 247
255 236 247
255 236 247
255 236 247
255 248 255
255 236 247
255 236 247
255 236 247
255 236 247
255 236 247
255 236 247
255 236 247
255 236 247
255 236 247
255 236 247
255 236 247
255 236 247
255 236 247
255 236 247
255 236 247
255 236 247
255 236 247
255 236 247
255 236 247
255 236 247
255 236 247
255 236 247
255 236 247
255 236 247
255 236 247
255 236 247
255 236 247
255 236 247
255 236 247
255 236 247
255 236 247
255 236 247
255 236 247
255 236 247
255 236 247
255 236 247
255 248 255
255 236 247
255 236 247
255 236 247
255 236 247
255 236 247
255 236 247
255 236 247
255 236 247
255 236 247
255 236 247
255 236 247
255 236 247
255 236 247
255 236 247
255 236 247
255 236 247
255 236 247
255 236 247
255 236 247
255 236 247
255 236 247
255 236 247
255 236 247
255 236 247
255 236 247
255 236 247
255 236 247
255 236 247
255 236 247
255 236 247
255 236 247
255 236 247
255 236 247
255 236 247
255 236 247
255 236 247
255 248 255
255 236 247
255 236 247
255 236 247
255 236 247
255 236 247
255 236 247
255 236 247
255 236 247
255 236 247
255 236 247
255 236 247
255 236 247
255 236 247
255 236 247
255 236 247
255 236 247
255 236 247
255 236 247
255 236 247
255 236 247
255 236 247
255 236 247
255 236 247
255 236 247
255 236 247
255 236 247
255 236 247
255 236 247
255 236 247
255 236 247
255 236 247
255 236 247
255 236 247
255 236 247
255 236 247
255 236 247
255 248 255
255 236 247
255 236 247
255 236 247
255 236 247
255 236 247
255 236 247
255 236 247
255 236 247
255 236 247
255 236 247
255 236 247
255 236 247
255 236 247
255 236 247
255 236 247
255 236 247
255 236 247
255 236 247
255 236 247
255 236 247
255 236 247
255 236 247
255 236 247
255 236 247
255 236 247
255 236 247
255 236 247
255 236 247
255 236 247
255 236 247
255 236 247
255 236 247
255 236 247
255 236 247
255 236 247
255 236 247
255 248 255
255 236 247
255 236 247
255 236 247
255 236 247
255 236 247
255 236 247
255 236 247
255 236 247
255 236 247
255 236 247
255 236 247
255 236 247
255 236 247
255 236 247
255 236 247
255 236 247
255 236 247
255 236 247
255 236 247
255 236 247
255 236 247
255 236 247
255 236 247
255 236 247
255 236 247
255 236 247
255 236 247
255 236 247
255 236 247
255 236 247
255 236 247
255 236 247
255 236 247
255 236 247
255 236 247
255 236 247
255 248 255
255 236 247
255 236 247
255 236 247
255 236 247
255 236 247
255 236 247
255 236 247
255 236 247
255 236 247
255 236 247
255 236 247
255 236 247
255 236 247
255 236 247
255 236 247
255 236 247
255 236 247
255 236 247
255 236 247
255 236 247
255 236 247
255 236 247
255 236 247
255 236 247
255 236 247
255 236 247
255 236 247
255 236 247
255 236 247
255 236 247
255 236 247
255 236 247
255 236 247
255 236 247
255 236 247
255 236 247
255 248 255
255 236 247
255 236 247
255 236 247
255 236 247
255 236 247
255 236 247
255 236 247
255 236 247
255 236 247
255 236 247
255 236 247
255 236 247
255 236 247
255 236 247
255 236 247
255 236 247
255 236 247
255 236 247
255 236 247
255 236 247
255 236 247
255 236 247
255 236 247
255 236 247
255 236 247
255 236 247
255 236 247
255 236 247
255 236 247
255 236 247
255 236 247
255 236 247
255 236 247
255 236 247
255 236 247
255 236 247
255 236 247
255 236 247
255 236 247
255 236 247
255 236 247
255 236 247
255 236 247
255 236 247
255 236 247
255 236 247
255 236 247
255 236 247
255 236 247
255 236 247
255 236 247
255 236 247
255 236 247
255 236 247
255 236 247
255 236 247
255 236 247
255 236 247
255 236 247
255 248 255
255 236 247
255 236 247
255 236 247
255 236 247
255 236 247
255 236 247
255 236 247
255 236 247
255 236 247
255 236 247
255 236 247
255 236 247
255 236 247
255 236 247
255 236 247
255 236 247
255 236 247
255 236 247
255 236 247
255 236 247
255 236 247
255 236 247
255 236 247
255 236 247
255 236 247
255 236 247
255 236 247
255 236 247
255 236 247
255 236 247
255 236 247
255 236 247
255 236 247
255 236 247
255 236 247
255 236 247
255 248 255
255 236 247
255 236 247
255 236 247
255 236 247
255 236 247
255 236 247
255 236 247
255 236 247
255 236 247
255 236 247
255 236 247
255 236 247
255 236 247
255 236 247
255 236 247
255 236 247
255 236 247
255 236 247
255 236 247
255 236 247
255 236 247
255 236 247
255 236 247
255 236 247
255 236 247
255 236 247
255 236 247
255 236 247
255 236 247
255 236 247
255 236 247
255 236 247
255 236 247
255 236 247
255 236 247
255 236 247
255 248 255
255 236 247
255 236 247
255 236 247
255 236 247
255 236 247
255 236 247
255 236 247
255 236 247
255 236 247
255 236 247
255 236 247
255 236 247
255 236 247
255 236 247
255 236 247
255 236 247
255 236 247
255 236 247
255 236 247
255 236 247
255 236 247
255 236 247
255 236 247
255 236 247
255 236 247
255 236 247
255 236 247
255 236 247
255 236 247
255 236 247
255 236 247
255 236 247
255 236 247
255 236 247
255 236 247
255 236 247
255 248 255
255 236 247
255 236 247
255 236 247
255 236 247
255 236 247
255 236 247
255 236 247
255 236 247
255 236 247
255 236 247
255 236 247
255 236 247
255 236 247
255 236 247
255 236 247
255 236 247
255 236 247
255 236 247
255 236 247
255 236 247
255 236 247
255 236 247
255 236 247
255 236 247
255 236 247
255 236 247
255 236 247
255 236 247
255 236 247
255 236 247
255 236 247
255 236 247
255 236 247
255 236 247
255 236 247
255 236 247
255 248 255
255 236 247
255 236 247
255 236 247
255 236 247
255 236 247
255 236 247
255 236 247
255 236 247
255 236 247
255 236 247
255 236 247
255 236 247
255 236 247
255 236 247
255 236 247
255 236 247
255 236 247
255 236 247
255 236 247
255 236 247
255 236 247
255 236 247
255 236 247
255 236 247
255 236 247
255 236 247
255 236 247
255 236 247
255 236 247
255 236 247
255 236 247
255 236 247
255 236 247
255 236 247
255 236 247
255 236 247
255 248 255
255 236 247
255 236 247
255 236 247
255 236 247
255 236 247
255 236 247
255 236 247
255 236 247
255 236 247
255 236 247
255 236 247
255 236 247
255 236 247
255 236 247
255 236 247
255 236 247
255 236 247
255 236 247
255 236 247
255 236 247
255 236 247
255 236 247
255 236 247
255 236 247
255 236 247
255 236 247
255 236 247
255 236 247
255 236 247
255 236 247
255 236 247
255 236 247
255 236 247
255 236 247
255 236 247
255 236 247
255 248 255
255 236 247
255 236 247
255 236 247
255 236 247
255 236 247
255 236 247
255 236 247
255 236 247
255 236 247
255 236 247
255 236 247
255 236 247
255 236 247
255 236 247
255 236 247
255 236 247
255 236 247
255 236 247
255 236 247
255 236 247
255 236 247
255 236 247
255 236 247
255 236 247
255 236 247
255 236 247
255 236 247
255 236 247
255 236 247
255 236 247
255 236 247
255 236 247
255 236 247
255 236 247
255 236 247
255 236 247
255 248 255
255 236 247
255 236 247
255 236 247
255 236 247
255 236 247
255 236 247
255 236 247
255 236 247
255 236 247
255 236 247
255 236 247
255 236 247
255 236 247
255 236 247
255 236 247
255 236 247
255 236 247
255 236 247
255 236 247
255 236 247
255 236 247
255 236 247
255 236 247
255 236 247
255 236 247
255 236 247
255 236 247
255 236 247
255 236 247
255 236 247
255 236 247
255 236 247
255 236 247
255 236 247
255 236 247
255 236 247
255 236 247
255 236 247
255 236 247
255 236 247
255 236 247
255 236 247
255 236 247
255 236 247
255 236 247
255 236 247
255 236 247
255 236 247
255 236 247
255 236 247
255 236 247
255 236 247
255 236 247
255 236 247
255 236 247
255 236 247
255 236 247
255 236 247
255 236 247
255 248 255
255 236 247
255 236 247
255 236 247
255 236 247
255 236 247
255 236 247
255 236 247
255 236 247
255 236 247
255 236 247
255 236 247
255 236 247
255 236 247
255 236 247
255 236 247
255 236 247
255 236 247
255 236 247
255 236 247
255 236 247
255 236 247
255 236 247
255 236 247
255 236 247
255 236 247
255 236 247
255 236 247
255 236 247
255 236 247
255 236 247
255 236 247
255 236 247
255 236 247
255 236 247
255 236 247
255 236 247
255 248 255
255 236 247
255 236 247
255 236 247
255 236 247
255 236 247
255 236 247
255 236 247
255 236 247
255 236 247
255 236 247
255 236 247
255 236 247
255 236 247
255 236 247
255 236 247
255 236 247
255 236 247
255 236 247
255 236 247
255 236 247
255 236 247
255 236 247
255 236 247
255 236 247
255 236 247
255 236 247
255 236 247
255 236 247
255 236 247
255 236 247
255 236 247
255 236 247
255 236 247
255 236 247
255 236 247
255 236 247
255 248 255
255 236 247
255 236 247
255 236 247
255 236 247
255 236 247
255 236 247
255 236 247
255 236 247
255 236 247
255 236 247
255 236 247
255 236 247
255 236 247
255 236 247
255 236 247
255 236 247
255 236 247
255 236 247
255 236 247
255 236 247
255 236 247
255 236 247
255 236 247
255 236 247
255 236 247
255 236 247
255 236 247
255 236 247
255 236 247
255 236 247
255 236 247
255 236 247
255 236 247
255 236 247
255 236 247
255 236 247
255 248 255
255 236 247
255 236 247
255 236 247
255 236 247
255 236 247
255 236 247
255 236 247
255 236 247
255 236 247
255 236 247
255 236 247
255 236 247
255 236 247
255 236 247
255 236 247
255 236 247
255 236 247
255 236 247
255 236 247
255 236 247
255 236 247
255 236 247
255 236 247
255 236 247
255 236 247
255 236 247
255 236 247
255 236 247
255 236 247
255 236 247
255 236 247
255 236 247
255 236 247
255 236 247
255 236 247
255 236 247
255 248 255
255 236 247
255 236 247
255 236 247
255 236 247
255 236 247
255 236 247
255 236 247
255 236 247
255 236 247
255 236 247
255 236 247
255 236 247
255 236 247
255 236 247
255 236 247
255 236 247
255 236 247
255 236 247
255 236 247
255 236 247
255 236 247
255 236 247
255 236 247
255 236 247
255 236 247
255 236 247
255 236 247
255 236 247
255 236 247
255 236 247
255 236 247
255 236 247
255 236 247
255 236 247
255 236 247
255 236 247
255 248 255
255 236 247
255 236 247
255 236 247
255 236 247
255 236 247
255 236 247
255 236 247
255 236 247
255 236 247
255 236 247
255 236 247
255 236 247
255 236 247
255 236 247
255 236 247
255 236 247
255 236 247
255 236 247
255 236 247
255 236 247
255 236 247
255 236 247
255 236 247
255 236 247
255 236 247
255 236 247
255 236 247
255 236 247
255 236 247
255 236 247
255 236 247
255 236 247
255 236 247
255 236 247
255 236 247
255 236 247
255 248 255
255 236 247
255 236 247
255 236 247
255 236 247
255 236 247
255 236 247
255 236 247
255 236 247
255 236 247
255 236 247
255 236 247
255 236 247
255 236 247
255 236 247
255 236 247
255 236 247
255 236 247
255 236 247
255 236 247
255 236 247
255 236 247
255 236 247
255 236 247
255 236 247
255 236 247
255 236 247
255 236 247
255 236 247
255 236 247
255 236 247
255 236 247
255 236 247
255 236 247
255 236 247
255 236 247
255 236 247
255 248 255
255 236 247
255 236 247
255 236 247
255 236 247
255 236 247
255 236 247
255 236 247
255 236 247
255 236 247
255 236 247
255 236 247
255 236 247
255 236 247
255 236 247
255 236 247
255 236 247
255 236 247
255 236 247
255 236 247
255 236 247
255 236 247
255 236 247
255 236 247
255 236 247
255 236 247
255 236 247
255 236 247
255 236 247
255 236 247
255 236 247
255 236 247
255 236 247
255 236 247
255 236 247
255 236 247
255 236 247
255 236 247
255 236 247
255 236 247
255 236 247
255 236 247
255 236 247
255 236 247
255 236 247
255 236 247
255 236 247
255 236 247
255 236 247
255 236 247
255 236 247
255 236 247
255 236 247
255 236 247
255 236 247
255 236 247
255 236 247
255 236 247
255 236 247
255 236 247
255 248 255
255 236 247
255 236 247
255 236 247
255 236 247
255 236 247
255 236 247
255 236 247
255 236 247
255 236 247
255 236 247
255 236 247
255 236 247
255 236 247
255 236 247
255 236 247
255 236 247
255 236 247
255 236 247
255 236 247
255 236 247
255 236 247
255 236 247
255 236 247
255 236 247
255 236 247
255 236 247
255 236 247
255 236 247
255 236 247
255 236 247
255 236 247
255 236 247
255 236 247
255 236 247
255 236 247
255 236 247
255 248 255
255 236 247
255 236 247
255 236 247
255 236 247
255 236 247
255 236 247
255 236 247
255 236 247
255 236 247
255 236 247
255 236 247
255 236 247
255 236 247
255 236 247
255 236 247
255 236 247
255 236 247
255 236 247
255 236 247
255 236 247
255 236 247
255 236 247
255 236 247
255 236 247
255 236 247
255 236 247
255 236 247
255 236 247
255 236 247
255 236 247
255 236 247
255 236 247
255 236 247
255 236 247
255 236 247
255 236 247
255 248 255
255 236 247
255 236 247
255 236 247
255 236 247
255 236 247
255 236 247
255 236 247
255 236 247
255 236 247
255 236 247
255 236 247
255 236 247
255 236 247
255 236 247
255 236 247
255 236 247
255 236 247
255 236 247
255 236 247
255 236 247
255 236 247
255 236 247
255 236 247
255 236 247
255 236 247
255 236 247
255 236 247
255 236 247
255 236 247
255 236 247
255 236 247
255 236 247
255 236 247
255 236 247
255 236 247
255 236 247
255 248 255
255 236 247
255 236 247
255 236 247
255 236 247
255 236 247
255 236 247
255 236 247
255 236 247
255 236 247
255 236 247
255 236 247
255 236 247
255 236 247
255 236 247
255 236 247
255 236 247
255 236 247
255 236 247
255 236 247
255 236 247
255 236 247
255 236 247
255 236 247
255 236 247
255 236 247
255 236 247
255 236 247
255 236 247
255 236 247
255 236 247
255 236 247
255 236 247
255 236 247
255 236 247
255 236 247
255 236 247
255 248 255
255 236 247
255 236 247
255 236 247
255 236 247
255 236 247
255 236 247
255 236 247
255 236 247
255 236 247
255 236 247
255 236 247
255 236 247
255 236 247
255 236 247
255 236 247
255 236 247
255 236 247
255 236 247
255 236 247
255 236 247
255 236 247
255 236 247
255 236 247
255 236 247
255 236 247
255 236 247
255 236 247
255 236 247
255 236 247
255 236 247
255 236 247
255 236 247
255 236 247
255 236 247
255 236 247
255 236 247
255 248 255
255 236 247
255 236 247
255 236 247
255 236 247
255 236 247
255 236 247
255 236 247
255 236 247
255 236 247
255 236 247
255 236 247
255 236 247
255 236 247
255 236 247
255 236 247
255 236 247
255 236 247
255 236 247
255 236 247
255 236 247
255 236 247
255 236 247
255 236 247
255 236 247
255 236 247
255 236 247
255 236 247
255 236 247
255 236 247
255 236 247
255 236 247
255 236 247
255 236 247
255 236 247
255 236 247
255 236 247
255 248 255
255 236 247
255 236 247
255 236 247
255 236 247
255 236 247
255 236 247
255 236 247
255 236 247
255 236 247
255 236 247
255 236 247
255 236 247
255 236 247
255 236 247
255 236 247
255 236 247
255 236 247
255 236 247
255 236 247
255 236 247
255 236 247
255 236 247
255 236 247
255 236 247
255 236 247
255 236 247
255 236 247
255 236 247
255 236 247
255 236 247
255 236 247
255 236 247
255 236 247
255 236 247
255 236 247
255 236 247
255 248 255
255 236 247
255 236 247
255 236 247
255 236 247
255 236 247
255 236 247
255 236 247
255 236 247
255 236 247
255 236 247
255 236 247
255 236 247
255 236 247
255 236 247
255 236 247
255 236 247
255 236 247
255 236 247
255 236 247
255 236 247
255 236 247
255 236 247
255 236 247
255 236 247
255 236 247
255 236 247
255 236 247
255 236 247
255 236 247
255 236 247
255 236 247
255 236 247
255 236 247
255 236 247
255 236 247
255 236 247
255 236 247
255 236 247
255 236 247
255 236 247
255 236 247
255 236 247
255 236 247
255 236 247
255 236 247
255 236 247
255 236 247
255 236 247
255 236 247
255 236 247
255 236 247
255 236 247
255 236 247
255 236 247
255 236 247
255 236 247
255 236 247
255 236 247
255 236 247
255 248 255
255 236 247
255 236 247
255 236 247
255 236 247
255 236 247
255 236 247
255 236 247
255 236 247
255 236 247
255 236 247
255 236 247
255 236 247
255 236 247
255 236 247
255 236 247
255 236 247
255 236 247
255 236 247
255 236 247
255 236 247
255 236 247
255 236 247
255 236 247
255 236 247
255 236 247
255 236 247
255 236 247
255 236 247
255 236 247
255 236 247
255 236 247
255 236 247
255 236 247
255 236 247
255 236 247
255 236 247
255 248 255
255 236 247
255 236 247
255 236 247
255 236 247
255 236 247
255 236 247
255 236 247
255 236 247
255 236 247
255 236 247
255 236 247
255 236 247
255 236 247
255 236 247
255 236 247
255 236 247
255 236 247
255 236 247
255 236 247
255 236 247
255 236 247
255 236 247
255 236 247
255 236 247
255 236 247
255 236 247
255 236 247
255 236 247
255 236 247
255 236 247
255 236 247
255 236 247
255 236 247
255 236 247
255 236 247
255 236 247
255 248 255
255 236 247
255 236 247
255 236 247
255 236 247
255 236 247
255 236 247
255 236 247
255 236 247
255 236 247
255 236 247
255 236 247
255 236 247
255 236 247
255 236 247
255 236 247
255 236 247
255 236 247
255 236 247
255 236 247
255 236 247
255 236 247
255 236 247
255 236 247
255 236 247
255 236 247
255 236 247
255 236 247
255 236 247
255 236 247
255 236 247
255 236 247
255 236 247
255 236 247
255 236 247
255 236 247
255 236 247
255 248 255
255 236 247
255 236 247
255 236 247
255 236 247
255 236 247
255 236 247
255 236 247
255 236 247
255 236 247
255 236 247
255 236 247
255 236 247
255 236 247
255 236 247
255 236 247
255 236 247
255 236 247
255 236 247
255 236 247
255 236 247
255 236 247
255 236 247
255 236 247
255 236 247
255 236 247
255 236 247
255 236 247
255 236 247
255 236 247
255 236 247
255 236 247
255 236 247
255 236 247
255 236 247
255 236 247
255 236 247
255 248 255
255 236 247
255 236 247
255 236 247
255 236 247
255 236 247
255 236 247
255 236 247
255 236 247
255 236 247
255 236 247
255 236 247
255 236 247
255 236 247
255 236 247
255 236 247
255 236 247
255 236 247
255 236 247
255 236 247
255 236 247
255 236 247
255 236 247
255 236 247
255 236 247
255 236 247
255 236 247
255 236 247
255 236 247
255 236 247
255 236 247
255 236 247
255 236 247
255 236 247
255 236 247
255 236 247
255 236 247
255 248 255
255 236 247
255 236 247
255 236 247
255 236 247
255 236 247
255 236 247
255 236 247
255 236 247
255 236 247
255 236 247
255 236 247
255 236 247
255 236 247
255 236 247
255 236 247
255 236 247
255 236 247
255 236 247
255 236 247
255 236 247
255 236 247
255 236 247
255 236 247
255 236 247
255 236 247
255 236 247
255 236 247
255 236 247
255 236 247
255 236 247
255 236 247
255 236 247
255 236 247
255 236 247
255 236 247
255 236 247
255 248 255
255 236 247
255 236 247
255 236 247
255 236 247
255 236 247
255 236 247
255 236 247
255 236 247
255 236 247
255 236 247
255 236 247
255 236 247
255 236 247
255 236 247
255 236 247
255 236 247
255 236 247
255 236 247
255 236 247
255 236 247
255 236 247
255 236 247
255 236 247
255 236 247
255 236 247
255 236 247
255 236 247
255 236 247
255 236 247
255 236 247
255 236 247
255 236 247
255 236 247
255 236 247
255 236 247
255 236 247
255 248 255
255 236 247
255 236 247
255 236 247
255 236 247
255 236 247
255 236 247
255 236 247
255 236 247
255 236 247
255 236 247
255 236 247
255 236 247
255 236 247
255 236 247
255 236 247
255 236 247
255 236 247
255 236 247
255 236 247
255 236 247
255 236 247
255 236 247
255 236 247
255 236 247
255 236 247
255 236 247
255 236 247
255 236 247
255 236 247
255 236 247
255 236 247
255 236 247
255 236 247
255 236 247
255 236 247
255 236 247
255 236 247
255 236 247
255 236 247
255 236 247
255 236 247
255 236 247
255 236 247
255 236 247
255 236 247
255 236 247
255 236 247
255 236 247
255 236 247
255 236 247
255 236 247
255 236 247
255 236 247
255 236 247
255 236 247
255 236 247
255 236 247
255 236 247
255 236 247
255 248 255
255 236 247
255 236 247
255 236 247
255 236 247
255 236 247
255 236 247
255 236 247
255 236 247
255 236 247
255 236 247
255 236 247
255 236 247
255 236 247
255 236 247
255 236 247
255 236 247
255 236 247
255 236 247
255 236 247
255 236 247
255 236 247
255 236 247
255 236 247
255 236 247
255 236 247
255 236 247
255 236 247
255 236 247
255 236 247
255 236 247
255 236 247
255 236 247
255 236 247
255 236 247
255 236 247
255 236 247
255 248 255
255 236 247
255 236 247
255 236 247
255 236 247
255 236 247
255 236 247
255 236 247
255 236 247
255 236 247
255 236 247
255 236 247
255 236 247
255 236 247
255 236 247
255 236 247
255 236 247
255 236 247
255 236 247
255 236 247
255 236 247
255 236 247
255 236 247
255 236 247
255 236 247
255 236 247
255 236 247
255 236 247
255 236 247
255 236 247
255 236 247
255 236 247
255 236 247
255 236 247
255 236 247
255 236 247
255 236 247
255 248 255
255 236 247
255 236 247
255 236 247
255 236 247
255 236 247
255 236 247
255 236 247
255 236 247
255 236 247
255 236 247
255 236 247
255 236 247
255 236 247
255 236 247
255 236 247
255 236 247
255 236 247
255 236 247
255 236 247
255 236 247
255 236 247
255 236 247
255 236 247
255 236 247
255 236 247
255 236 247
255 236 247
255 236 247
255 236 247
255 236 247
255 236 247
255 236 247
255 236 247
255 236 247
255 236 247
255 236 247
255 248 255
255 236 247
255 236 247
255 236 247
255 236 247
255 236 247
255 236 247
255 236 247
255 236 247
255 236 247
255 236 247
255 236 247
255 236 247
255 236 247
255 236 247
255 236 247
255 236 247
255 236 247
255 236 247
255 236 247
255 236 247
255 236 247
255 236 247
255 236 247
255 236 247
255 236 247
255 236 247
255 236 247
255 236 247
255 236 247
255 236 247
255 236 247
255 236 247
255 236 247
255 236 247
255 236 247
255 236 247
255 248 255
255 236 247
255 236 247
255 236 247
255 236 247
255 236 247
255 236 247
255 236 247
255 236 247
255 236 247
255 236 247
255 236 247
255 236 247
255 236 247
255 236 247
255 236 247
255 236 247
255 236 247
255 236 247
255 236 247
255 236 247
255 236 247
255 236 247
255 236 247
255 236 247
255 236 247
255 236 247
255 236 247
255 236 247
255 236 247
255 236 247
255 236 247
255 236 247
255 236 247
255 236 247
255 236 247
255 236 247
255 248 255
255 236 247
255 236 247
255 236 247
255 236 247
255 236 247
255 236 247
255 236 247
255 236 247
255 236 247
255 236 247
255 236 247
255 236 247
255 236 247
255 236 247
255 236 247
255 236 247
255 236 247
255 236 247
255 236 247
255 236 247
255 236 247
255 236 247
255 236 247
255 236 247
255 236 247
255 236 247
255 236 247
255 236 247
255 236 247
255 236 247
255 236 247
255 236 247
255 236 247
255 236 247
255 236 247
255 236 247
255 248 255
255 236 247
255 236 247
255 236 247
255 236 247
255 236 247
255 236 247
255 236 247
255 236 247
255 236 247
255 236 247
255 236 247
255 236 247
255 236 247
255 236 247
255 236 247
255 236 247
255 236 247
255 236 247
255 236 247
255 236 247
255 236 247
255 236 247
255 236 247
255 236 247
255 236 247
255 236 247
255 236 247
255 236 247
255 236 247
255 236 247
255 236 247
255 236 247
255 236 247
255 236 247
255 236 247
255 236 247
255 248 255
255 236 247
255 236 247
255 236 247
255 236 247
255 236 247
255 236 247
255 236 247
255 236 247
255 236 247
255 236 247
255 236 247
255 236 247
255 236 247
255 236 247
255 236 247
255 236 247
255 236 247
255 236 247
255 236 247
255 236 247
255 236 247
255 236 247
255 236 247
255 236 247
255 236 247
255 236 247
255 236 247
255 236 247
255 236 247
255 236 247
255 236 247
255 236 247
255 236 247
255 236 247
255 236 247
255 236 247
255 236 247
255 236 247
255 236 247
255 236 247
255 236 247
255 236 247
255 236 247
255 236 247
255 236 247
255 236 247
255 236 247
255 236 247
255 236 247
255 236 247
255 236 247
255 236 247
255 236 247
255 236 247
255 236 247
255 236 247
255 236 247
255 236 247
255 236 247
255 248 255
255 236 247
255 236 247
255 236 247
255 236 247
255 236 247
255 236 247
255 236 247
255 236 247
255 236 247
255 236 247
255 236 247
255 236 247
255 236 247
255 236 247
255 236 247
255 236 247
255 236 247
255 236 247
255 236 247
255 236 247
255 236 247
255 236 247
255 236 247
255 236 247
255 236 247
255 236 247
255 236 247
255 236 247
255 236 247
255 236 247
255 236 247
255 236 247
255 236 247
255 236 247
255 236 247
255 236 247
255 248 255
255 236 247
255 236 247
255 236 247
255 236 247
255 236 247
255 236 247
255 236 247
255 236 247
255 236 247
255 236 247
255 236 247
255 236 247
255 236 247
255 236 247
255 236 247
255 236 247
255 236 247
255 236 247
255 236 247
255 236 247
255 236 247
255 236 247
255 236 247
255 236 247
255 236 247
255 236 247
255 236 247
255 236 247
255 236 247
255 236 247
255 236 247
255 236 247
255 236 247
255 236 247
255 236 247
255 236 247
255 248 255
255 236 247
255 236 247
255 236 247
255 236 247
255 236 247
255 236 247
255 236 247
255 236 247
255 236 247
255 236 247
255 236 247
255 236 247
255 236 247
255 236 247
255 236 247
255 236 247
255 236 247
255 236 247
255 236 247
255 236 247
255 236 247
255 236 247
255 236 247
255 236 247
255 236 247
255 236 247
255 236 247
255 236 247
255 236 247
255 236 247
255 236 247
255 236 247
255 236 247
255 236 247
255 236 247
255 236 247
255 248 255
255 236 247
255 236 247
255 236 247
255 236 247
255 236 247
255 236 247
255 236 247
255 236 247
255 236 247
255 236 247
255 236 247
255 236 247
255 236 247
255 236 247
255 236 247
255 236 247
255 236 247
255 236 247
255 236 247
255 236 247
255 236 247
255 236 247
255 236 247
255 236 247
255 236 247
255 236 247
255 236 247
255 236 247
255 236 247
255 236 247
255 236 247
255 236 247
255 236 247
255 236 247
255 236 247
255 236 247
255 248 255
255 236 247
255 236 247
255 236 247
255 236 247
255 236 247
255 236 247
255 236 247
255 236 247
255 236 247
255 236 247
255 236 247
255 236 247
255 236 247
255 236 247
255 236 247
255 236 247
255 236 247
255 236 247
255 236 247
255 236 247
255 236 247
255 236 247
255 236 247
255 236 247
255 236 247
255 236 247
255 236 247
255 236 247
255 236 247
255 236 247
255 236 247
255 236 247
255 236 247
255 236 247
255 236 247
255 236 247
255 248 255
255 236 247
255 236 247
255 236 247
255 236 247
255 236 247
255 236 247
255 236 247
255 236 247
255 236 247
255 236 247
255 236 247
255 236 247
255 236 247
255 236 247
255 236 247
255 236 247
255 236 247
255 236 247
255 236 247
255 236 247
255 236 247
255 236 247
255 236 247
255 236 247
255 236 247
255 236 247
255 236 247
255 236 247
255 236 247
255 236 247
255 236 247
255 236 247
255 236 247
255 236 247
255 236 247
255 236 247
255 248 255
255 236 247
255 236 247
255 236 247
255 236 247
255 236 247
255 236 247
255 236 247
255 236 247
255 236 247
255 236 247
255 236 247
255 236 247
255 236 247
255 236 247
255 236 247
255 236 247
255 236 247
255 236 247
255 236 247
255 236 247
255 236 247
255 236 247
255 236 247
255 236 247
255 236 247
255 236 247
255 236 247
255 236 247
255 236 247
255 236 247
255 236 247
255 236 247
255 236 247
255 236 247
255 236 247
255 236 247
255 248 255
255 236 247
255 236 247
255 236 247
255 236 247
255 236 247
255 236 247
255 236 247
255 236 247
255 236 247
255 236 247
255 236 247
255 236 247
255 236 247
255 236 247
255 236 247
255 236 247
255 236 247
255 236 247
255 236 247
255 236 247
255 236 247
255 236 247
255 236 247
255 236 247
255 236 247
255 236 247
255 236 247
255 236 247
255 236 247
255 236 247
255 236 247
255 236 247
255 236 247
255 236 247
255 236 247
255 236 247
255 236 247
255 236 247
255 236 247
255 236 247
255 236 247
255 236 247
255 236 247
255 236 247
255 236 247
255 236 247
255 236 247
255 236 247
255 236 247
255 236 247
255 236 247
255 236 247
255 236 247
255 236 247
255 236 247
255 236 247
255 236 247
255 236 247
255 236 247
255 248 255
255 236 247
255 236 247
255 236 247
255 236 247
255 236 247
255 236 247
255 236 247
255 236 247
255 236 247
255 236 247
255 236 247
255 236 247
255 236 247
255 236 247
255 236 247
255 236 247
255 236 247
255 236 247
255 236 247
255 236 247
255 236 247
255 236 247
255 236 247
255 236 247
255 236 247
255 236 247
255 236 247
255 236 247
255 236 247
255 236 247
255 236 247
255 236 247
255 236 247
255 236 247
255 236 247
255 236 247
255 248 255
255 236 247
255 236 247
255 236 247
255 236 247
255 236 247
255 236 247
255 236 247
255 236 247
255 236 247
255 236 247
255 236 247
255 236 247
255 236 247
255 236 247
255 236 247
255 236 247
255 236 247
255 236 247
255 236 247
255 236 247
255 236 247
255 236 247
255 236 247
255 236 247
255 236 247
255 236 247
255 236 247
255 236 247
255 236 247
255 236 247
255 236 247
255 236 247
255 236 247
255 236 247
255 236 247
255 236 247
255 248 255
255 236 247
255 236 247
255 236 247
255 236 247
255 236 247
255 236 247
255 236 247
255 236 247
255 236 247
255 236 247
255 236 247
255 236 247
255 236 247
255 236 247
255 236 247
255 236 247
255 236 247
255 236 247
255 236 247
255 236 247
255 236 247
255 236 247
255 236 247
255 236 247
255 236 247
255 236 247
255 236 247
255 236 247
255 236 247
255 236 247
255 236 247
255 236 247
255 236 247
255 236 247
255 236 247
255 236 247
255 248 255
255 236 247
255 236 247
255 236 247
255 236 247
255 236 247
255 236 247
255 236 247
255 236 247
255 236 247
255 236 247
255 236 247
255 236 247
255 236 247
255 236 247
255 236 247
255 236 247
255 236 247
255 236 247
255 236 247
255 236 247
255 236 247
255 236 247
255 236 247
255 236 247
255 236 247
255 236 247
255 236 247
255 236 247
255 236 247
255 236 247
255 236 247
255 236 247
255 236 247
255 236 247
255 236 247
255 236 247
255 248 255
255 236 247
255 236 247
255 236 247
255 236 247
255 236 247
255 236 247
255 236 247
255 236 247
255 236 247
255 236 247
255 236 247
255 236 247
255 236 247
255 236 247
255 236 247
255 236 247
255 236 247
255 236 247
255 236 247
255 236 247
255 236 247
255 236 247
255 236 247
255 236 247
255 236 247
255 236 247
255 236 247
255 236 247
255 236 247
255 236 247
255 236 247
255 236 247
255 236 247
255 236 247
255 236 247
255 236 247
255 248 255
255 236 247
255 236 247
255 236 247
255 236 247
255 236 247
255 236 247
255 236 247
255 236 247
255 236 247
255 236 247
255 236 247
255 236 247
255 236 247
255 236 247
255 236 247
255 236 247
255 236 247
255 236 247
255 236 247
255 236 247
255 236 247
255 236 247
255 236 247
255 236 247
255 236 247
255 236 247
255 236 247
255 236 247
255 236 247
255 236 247
255 236 247
255 236 247
255 236 247
255 236 247
255 236 247
255 236 247
255 248 255
255 236 247
255 236 247
255 236 247
255 236 247
255 236 247
255 236 247
255 236 247
255 236 247
255 236 247
255 236 247
255 236 247
255 236 247
255 236 247
255 236 247
255 236 247
255 236 247
255 236 247
255 236 247
255 236 247
255 236 247
255 236 247
255 236 247
255 236 247
255 236 247
255 236 247
255 236 247
255 236 247
255 236 247
255 236 247
255 236 247
255 236 247
255 236 247
255 236 247
255 236 247
255 236 247
255 236 247
255 248 255
255 236 247
255 236 247
255 236 247
255 236 247
255 236 247
255 236 247
255 236 247
255 236 247
255 236 247
255 236 247
255 236 247
255 236 247
255 236 247
255 236 247
255 236 247
255 236 247
255 236 247
255 236 247
255 236 247
255 236 247
255 236 247
255 236 247
255 236 247
255 236 247
255 236 247
255 236 247
255 236 247
255 236 247
255 236 247
255 236 247
255 236 247
255 236 247
255 236 247
255 236 247
255 236 247
255 236 247
255 248 255
255 236 247
255 236 247
255 236 247
255 236 247
255 236 247
255 236 247
255 236 247
255 236 247
255 236 247
255 236 247
255 236 247
255 236 247
255 236 247
255 236 247
255 236 247
255 236 247
255 236 247
255 236 247
255 236 247
255 236 247
255 236 247
255 236 247
255 248 255
255 236 247
255 236 247
255 236 247
255 236 247
255 236 247
255 236 247
255 236 247
255 236 247
255 236 247
255 236 247
255 236 247
255 236 247
255 236 247
255 236 247
255 236 247
255 236 247
255 236 247
255 236 247
255 236 247
255 236 247
255 236 247
255 236 247
255 236 247
255 236 247
255 236 247
255 236 247
255 236 247
255 236 247
255 236 247
255 236 247
255 236 247
255 236 247
255 236 247
255 236 247
255 236 247
255 236 247
255 248 255
255 236 247
255 236 247
255 236 247
255 236 247
255 236 247
255 236 247
255 236 247
255 236 247
255 236 247
255 236 247
255 236 247
255 236 247
255 236 247
255 236 247
255 236 247
255 236 247
255 236 247
255 236 247
255 236 247
255 236 247
255 236 247
255 236 247
255 236 247
255 236 247
255 236 247
255 236 247
255 236 247
255 236 247
255 236 247
255 236 247
255 236 247
255 236 247
255 236 247
255 236 247
255 236 247
255 236 247
255 248 255
255 236 247
255 236 247
255 236 247
255 236 247
255 236 247
255 236 247
255 236 247
255 236 247
255 236 247
255 236 247
255 236 247
255 236 247
255 236 247
255 236 247
255 236 247
255 236 247
255 236 247
255 236 247
255 236 247
255 236 247
255 236 247
255 236 247
255 236 247
255 236 247
255 236 247
255 236 247
255 236 247
255 236 247
255 236 247
255 236 247
255 236 247
255 236 247
255 236 247
255 236 247
255 236 247
255 236 247
255 248 255
255 236 247
255 236 247
255 236 247
255 236 247
255 236 247
255 236 247
255 236 247
255 236 247
255 236 247
255 236 247
255 236 247
255 236 247
255 236 247
255 236 247
255 236 247
255 236 247
255 236 247
255 236 247
255 236 247
255 236 247
255 236 247
255 236 247
255 236 247
255 236 247
255 236 247
255 236 247
255 236 247
255 236 247
255 236 247
255 236 247
255 236 247
255 236 247
255 236 247
255 236 247
255 236 247
255 236 247
255 248 255
255 236 247
255 236 247
255 236 247
255 236 247
255 236 247
255 236 247
255 236 247
255 236 247
255 236 247
255 236 247
255 236 247
255 236 247
255 236 247
255 236 247
255 236 247
255 236 247
255 236 247
255 236 247
255 236 247
255 236 247
255 236 247
255 236 247
255 236 247
255 236 247
255 236 247
255 236 247
255 236 247
255 236 247
255 236 247
255 236 247
255 236 247
255 236 247
255 236 247
255 236 247
255 236 247
255 236 247
255 248 255
255 236 247
255 236 247
255 236 247
255 236 247
255 236 247
255 236 247
255 236 247
255 236 247
255 236 247
255 236 247
255 236 247
255 236 247
255 236 247
255 236 247
255 236 247
255 236 247
255 236 247
255 236 247
255 236 247
255 236 247
255 236 247
255 236 247
255 236 247
255 236 247
255 236 247
255 236 247
255 236 247
255 236 247
255 236 247
255 236 247
255 236 247
255 236 247
255 236 247
255 236 247
255 236 247
255 236 247
255 248 255
255 236 247
255 236 247
255 236 247
255 236 247
255 236 247
255 236 247
255 236 247
255 236 247
255 236 247
255 236 247
255 236 247
255 236 247
255 236 247
255 236 247
255 236 247
255 236 247
255 236 247
255 236 247
255 236 247
255 236 247
255 236 247
255 236 247
255 236 247
255 236 247
255 236 247
255 236 247
255 236 247
255 236 247
255 236 247
255 236 247
255 236 247
255 236 247
255 236 247
255 236 247
255 236 247
255 236 247
255 248 255
255 236 247
255 236 247
255 236 247
255 236 247
255 236 247
255 236 247
255 236 247
255 236 247
255 236 247
255 236 247
255 236 247
255 236 247
255 236 247
255 236 247
255 236 247
255 236 247
255 236 247
255 236 247
255 236 247
255 236 247
255 236 247
255 236 247
255 236 247
255 236 247
255 236 247
255 236 247
255 236 247
255 236 247
255 236 247
255 236 247
255 236 247
255 236 247
255 236 247
255 236 247
255 236 247
255 236 247
255 248 255
255 236 247
255 236 247
255 236 247
255 236 247
255 236 247
255 236 247
255 236 247
255 236 247
255 236 247
255 236 247
255 236 247
255 236 247
255 236 247
255 236 247
255 236 247
255 236 247
255 236 247
255 236 247
255 236 247
255 236 247
255 236 247
255 236 247
255 248 255
255 236 247
255 236 247
255 236 247
255 236 247
255 236 247
255 236 247
255 236 247
255 236 247
255 236 247
255 236 247
255 236 247
255 236 247
255 236 247
255 236 247
255 236 247
255 236 247
255 236 247
255 236 247
255 236 247
255 236 247
255 236 247
255 236 247
255 236 247
255 236 247
255 236 247
255 236 247
255 236 247
255 236 247
255 236 247
255 236 247
255 236 247
255 236 247
255 236 247
255 236 247
255 236 247
255 236 247
255 248 255
255 236 247
255 236 247
255 236 247
255 236 247
255 236 247
255 236 247
255 236 247
255 236 247
255 236 247
255 236 247
255 236 247
255 236 247
255 236 247
255 236 247
255 236 247
255 236 247
255 236 247
255 236 247
255 236 247
255 236 247
255 236 247
255 236 247
255 236 247
255 236 247
255 236 247
255 236 247
255 236 247
255 236 247
255 236 247
255 236 247
255 236 247
255 236 247
255 236 247
255 236 247
255 236 247
255 236 247
255 248 255
255 236 247
255 236 247
255 236 247
255 236 247
255 236 247
255 236 247
255 236 247
255 236 247
255 236 247
255 236 247
255 236 247
255 236 247
255 236 247
255 236 247
255 236 247
255 236 247
255 236 247
255 236 247
255 236 247
255 236 247
255 236 247
255 236 247
255 236 247
255 236 247
255 236 247
255 236 247
255 236 247
255 236 247
255 236 247
255 236 247
255 236 247
255 236 247
255 236 247
255 236 247
255 236 247
255 236 247
255 248 255
255 236 247
255 236 247
255 236 247
255 236 247
255 236 247
255 236 247
255 236 247
255 236 247
255 236 247
255 236 247
255 236 247
255 236 247
255 236 247
255 236 247
255 236 247
255 236 247
255 236 247
255 236 247
255 236 247
255 236 247
255 236 247
255 236 247
255 236 247
255 236 247
255 236 247
255 236 247
255 236 247
255 236 247
255 236 247
255 236 247
255 236 247
255 236 247
255 236 247
255 236 247
255 236 247
255 236 247
255 248 255
255 236 247
255 236 247
255 236 247
255 236 247
255 236 247
255 236 247
255 236 247
255 236 247
255 236 247
255 236 247
255 236 247
255 236 247
255 236 247
255 236 247
255 236 247
255 236 247
255 236 247
255 236 247
255 236 247
255 236 247
255 236 247
255 236 247
255 236 247
255 236 247
255 236 247
255 236 247
255 236 247
255 236 247
255 236 247
255 236 247
255 236 247
255 236 247
255 236 247
255 236 247
255 236 247
255 236 247
255 248 255
255 236 247
255 236 247
255 236 247
255 236 247
255 236 247
255 236 247
255 236 247
255 236 247
255 236 247
255 236 247
255 236 247
255 236 247
255 236 247
255 236 247
255 236 247
255 236 247
255 236 247
255 236 247
255 236 247
255 236 247
255 236 247
255 236 247
255 236 247
255 236 247
255 236 247
255 236 247
255 236 247
255 236 247
255 236 247
255 236 247
255 236 247
255 236 247
255 236 247
255 236 247
255 236 247
255 236 247
255 248 255
255 236 247
255 236 247
255 236 247
255 236 247
255 236 247
255 236 247
255 236 247
255 236 247
255 236 247
255 236 247
255 236 247
255 236 247
255 236 247
255 236 247
255 236 247
255 236 247
255 236 247
255 236 247
255 236 247
255 236 247
255 236 247
255 236 247
255 236 247
255 236 247
255 236 247
255 236 247
255 236 247
255 236 247
255 236 247
255 236 247
255 236 247
255 236 247
255 236 247
255 236 247
255 236 247
255 236 247
255 248 255
255 236 247
255 236 247
255 236 247
255 236 247
255 236 247
255 236 247
255 236 247
255 236 247
255 236 247
255 236 247
255 236 247
255 236 247
255 236 247
255 236 247
255 236 247
255 236 247
255 236 247
255 236 247
255 236 247
255 236 247
255 236 247
255 236 247
255 236 247
255 236 247
255 236 247
255 236 247
255 236 247
255 236 247
255 236 247
255 236 247
255 236 247
255 236 247
255 236 247
255 236 247
255 236 247
255 236 247
255 248 255
255 236 247
255 236 247
255 236 247
255 236 247
255 236 247
255 236 247
255 236 247
255 236 247
255 236 247
255 236 247
255 236 247
255 236 247
255 236 247
255 236 247
255 236 247
255 236 247
255 236 247
255 236 247
255 236 247
255 236 247
255 236 247
255 236 247
255 248 255
255 236 247
255 236 247
255 236 247
255 236 247
255 236 247
255 236 247
255 236 247
255 236 247
255 236 247
255 236 247
255 236 247
255 236 247
255 236 247
255 236 247
255 236 247
255 236 247
255 236 247
255 236 247
255 236 247
255 236 247
255 236 247
255 236 247
255 236 247
255 236 247
255 236 247
255 236 247
255 236 247
255 236 247
255 236 247
255 236 247
255 236 247
255 236 247
255 236 247
255 236 247
255 236 247
255 236 247
255 248 255
255 236 247
255 236 247
255 236 247
255 236 247
255 236 247
255 236 247
255 236 247
255 236 247
255 236 247
255 236 247
255 236 247
255 236 247
255 236 247
255 236 247
255 236 247
255 236 247
255 236 247
255 236 247
255 236 247
255 236 247
255 236 247
255 236 247
255 236 247
255 236 247
255 236 247
255 236 247
255 236 247
255 236 247
255 236 247
255 236 247
255 236 247
255 236 247
255 236 247
255 236 247
255 236 247
255 236 247
255 248 255
255 236 247
255 236 247
255 236 247
255 236 247
255 236 247
255 236 247
255 236 247
255 236 247
255 236 247
255 236 247
255 236 247
255 236 247
255 236 247
255 236 247
255 236 247
255 236 247
255 236 247
255 236 247
255 236 247
255 236 247
255 236 247
255 236 247
255 236 247
255 236 247
255 236 247
255 236 247
255 236 247
255 236 247
255 236 247
255 236 247
255 236 247
255 236 247
255 236 247
255 236 247
255 236 247
255 236 247
255 248 255
255 236 247
255 236 247
255 236 247
255 236 247
255 236 247
255 236 247
255 236 247
255 236 247
255 236 247
255 236 247
255 236 247
255 236 247
255 236 247
255 236 247
255 236 247
255 236 247
255 236 247
255 236 247
255 236 247
255 236 247
255 236 247
255 236 247
255 236 247
255 236 247
255 236 247
255 236 247
255 236 247
255 236 247
255 236 247
255 236 247
255 236 247
255 236 247
255 236 247
255 236 247
255 236 247
255 236 247
255 248 255
255 236 247
255 236 247
255 236 247
255 236 247
255 236 247
255 236 247
255 236 247
255 236 247
255 236 247
255 236 247
255 236 247
255 236 247
255 236 247
255 236 247
255 236 247
255 236 247
255 236 247
255 236 247
255 236 247
255 236 247
255 236 247
255 236 247
255 236 247
255 236 247
255 236 247
255 236 247
255 236 247
255 236 247
255 236 247
255 236 247
255 236 247
255 236 247
255 236 247
255 236 247
255 236 247
255 236 247
255 248 255
255 236 247
255 236 247
255 236 247
255 236 247
255 236 247
255 236 247
255 236 247
255 236 247
255 236 247
255 236 247
255 236 247
255 236 247
255 236 247
255 236 247
255 236 247
255 236 247
255 236 247
255 236 247
255 236 247
255 236 247
255 236 247
255 236 247
255 236 247
255 236 247
255 236 247
255 236 247
255 236 247
255 236 247
255 236 247
255 236 247
255 236 247
255 236 247
255 236 247
255 236 247
255 236 247
255 236 247
255 248 255
255 236 247
255 236 247
255 236 247
255 236 247
255 236 247
255 236 247
255 236 247
255 236 247
255 236 247
255 236 247
255 236 247
255 236 247
255 236 247
255 236 247
255 236 247
255 236 247
255 236 247
255 236 247
255 236 247
255 236 247
255 236 247
255 236 247
255 236 247
255 236 247
255 236 247
255 236 247
255 236 247
255 236 247
255 236 247
255 236 247
255 236 247
255 236 247
255 236 247
255 236 247
255 236 247
255 236 247
255 248 255
255 236 247
255 236 247
255 236 247
255 236 247
255 236 247
255 236 247
255 236 247
255 236 247
255 236 247
255 236 247
255 236 247
255 236 247
255 236 247
255 236 247
255 236 247
255 236 247
255 236 247
255 236 247
255 236 247
255 236 247
255 236 247
255 236 247
255 236 247
255 236 247
255 236 247
255 236 247
255 236 247
255 236 247
255 236 247
255 236 247
255 236 247
255 236 247
255 236 247
255 236 247
255 236 247
255 236 247
255 248 255
255 236 247
255 236 247
255 236 247
255 236 247
255 236 247
255 236 247
255 236 247
255 236 247
255 236 247
255 236 247
255 236 247
255 236 247
255 236 247
255 236 247
255 236 247
255 236 247
255 236 247
255 236 247
255 236 247
255 236 247
255 236 247
255 236 247
255 248 255
255 236 247
255 236 247
255 236 247
255 236 247
255 236 247
255 236 247
255 236 247
255 236 247
255 236 247
255 236 247
255 236 247
255 236 247
255 236 247
255 236 247
255 236 247
255 236 247
255 236 247
255 236 247
255 236 247
255 236 247
255 236 247
255 236 247
255 236 247
255 236 247
255 236 247
255 236 247
255 236 247
255 236 247
255 236 247
255 236 247
255 236 247
255 236 247
255 236 247
255 236 247
255 236 247
255 236 247
255 248 255
255 236 247
255 236 247
255 236 247
255 236 247
255 236 247
255 236 247
255 236 247
255 236 247
255 236 247
255 236 247
255 236 247
255 236 247
255 236 247
255 236 247
255 236 247
255 236 247
255 236 247
255 236 247
255 236 247
255 236 247
255 236 247
255 236 247
255 236 247
255 236 247
255 236 247
255 236 247
255 236 247
255 236 247
255 236 247
255 236 247
255 236 247
255 236 247
255 236 247
255 236 247
255 236 247
255 236 247
255 248 255
255 236 247
255 236 247
255 236 247
255 236 247
255 236 247
255 236 247
255 236 247
255 236 247
255 236 247
255 236 247
255 236 247
255 236 247
255 236 247
255 236 247
255 236 247
255 236 247
255 236 247
255 236 247
255 236 247
255 236 247
255 236 247
255 236 247
255 236 247
255 236 247
255 236 247
255 236 247
255 236 247
255 236 247
255 236 247
255 236 247
255 236 247
255 236 247
255 236 247
255 236 247
255 236 247
255 236 247
255 248 255
255 236 247
255 236 247
255 236 247
255 236 247
255 236 247
255 236 247
255 236 247
255 236 247
255 236 247
255 236 247
255 236 247
255 236 247
255 236 247
255 236 247
255 236 247
255 236 247
255 236 247
255 236 247
255 236 247
255 236 247
255 236 247
255 236 247
255 236 247
255 236 247
255 236 247
255 236 247
255 236 247
255 236 247
255 236 247
255 236 247
255 236 247
255 236 247
255 236 247
255 236 247
255 236 247
255 236 247
255 248 255
255 236 247
255 236 247
255 236 247
255 236 247
255 236 247
255 236 247
255 236 247
255 236 247
255 236 247
255 236 247
255 236 247
255 236 247
255 236 247
255 236 247
255 236 247
255 236 247
255 236 247
255 236 247
255 236 247
255 236 247
255 236 247
255 236 247
255 236 247
255 236 247
255 236 247
255 236 247
255 236 247
255 236 247
255 236 247
255 236 247
255 236 247
255 236 247
255 236 247
255 236 247
255 236 247
255 236 247
255 248 255
255 236 247
255 236 247
255 236 247
255 236 247
255 236 247
255 236 247
255 236 247
255 236 247
255 236 247
255 236 247
255 236 247
255 236 247
255 236 247
255 236 247
255 236 247
255 236 247
255 236 247
255 236 247
255 236 247
255 236 247
255 236 247
255 236 247
255 236 247
255 236 247
255 236 247
255 236 247
255 236 247
255 236 247
255 236 247
255 236 247
255 236 247
255 236 247
255 236 247
255 236 247
255 236 247
255 236 247
255 248 255
255 236 247
255 236 247
255 236 247
255 236 247
255 236 247
255 236 247
255 236 247
255 236 247
255 236 247
255 236 247
255 236 247
255 236 247
255 236 247
255 236 247
255 236 247
255 236 247
255 236 247
255 236 247
255 236 247
255 236 247
255 236 247
255 236 247
255 236 247
255 236 247
255 236 247
255 236 247
255 236 247
255 236 247
255 236 247
255 236 247
255 236 247
255 236 247
255 236 247
255 236 247
255 236 247
255 236 247
255 248 255
255 236 247
255 236 247
255 236 247
255 236 247
255 236 247
255 236 247
255 236 247
255 236 247
255 236 247
255 236 247
255 236 247
255 236 247
255 236 247
255 236 247
255 236 247
255 236 247
255 236 247
255 236 247
255 236 247
255 236 247
255 236 247
255 236 247
255 236 247
255 236 247
255 236 247
255 236 247
255 236 247
255 236 247
255 236 247
255 236 247
255 236 247
255 236 247
255 236 247
255 236 247
255 236 247
255 236 247
255 248 255
255 236 247
255 236 247
255 236 247
255 236 247
255 236 247
255 236 247
255 236 247
255 236 247
255 236 247
255 236 247
255 236 247
255 236 247
255 236 247
255 236 247
255 236 247
255 236 247
255 236 247
255 236 247
255 236 247
255 236 247
255 236 247
255 236 247
255 248 255
255 236 247
255 236 247
255 236 247
255 236 247
255 236 247
255 236 247
255 236 247
255 236 247
255 236 247
255 236 247
255 236 247
255 236 247
255 236 247
255 236 247
255 236 247
255 236 247
255 236 247
255 236 247
255 236 247
255 236 247
255 236 247
255 236 247
255 236 247
255 236 247
255 236 247
255 236 247
255 236 247
255 236 247
255 236 247
255 236 247
255 236 247
255 236 247
255 236 247
255 236 247
255 236 247
255 236 247
255 248 255
255 236 247
255 236 247
255 236 247
255 236 247
255 236 247
255 236 247
255 236 247
255 236 247
255 236 247
255 236 247
255 236 247
255 236 247
255 236 247
255 236 247
255 236 247
255 236 247
255 236 247
255 236 247
255 236 247
255 236 247
255 236 247
255 236 247
255 236 247
255 236 247
255 236 247
255 236 247
255 236 247
255 236 247
255 236 247
255 236 247
255 236 247
255 236 247
255 236 247
255 236 247
255 236 247
255 236 247
255 248 255
255 236 247
255 236 247
255 236 247
255 236 247
255 236 247
255 236 247
255 236 247
255 236 247
255 236 247
255 236 247
255 236 247
255 236 247
255 236 247
255 236 247
255 236 247
255 236 247
255 236 247
255 236 247
255 236 247
255 236 247
255 236 247
255 236 247
255 236 247
255 236 247
255 236 247
255 236 247
255 236 247
255 236 247
255 236 247
255 236 247
255 236 247
255 236 247
255 236 247
255 236 247
255 236 247
255 236 247
255 248 255
255 236 247
255 236 247
255 236 247
255 236 247
255 236 247
255 236 247
255 236 247
255 236 247
255 236 247
255 236 247
255 236 247
255 236 247
255 236 247
255 236 247
255 236 247
255 236 247
255 236 247
255 236 247
255 236 247
255 236 247
255 236 247
255 236 247
255 236 247
255 236 247
255 236 247
255 236 247
255 236 247
255 236 247
255 236 247
255 236 247
255 236 247
255 236 247
255 236 247
255 236 247
255 236 247
255 236 247
255 248 255
255 236 247
255 236 247
255 236 247
255 236 247
255 236 247
255 236 247
255 236 247
255 236 247
255 236 247
255 236 247
255 236 247
255 236 247
255 236 247
255 236 247
255 236 247
255 236 247
255 236 247
255 236 247
255 236 247
255 236 247
255 236 247
255 236 247
255 236 247
255 236 247
255 236 247
255 236 247
255 236 247
255 236 247
255 236 247
255 236 247
255 236 247
255 236 247
255 236 247
255 236 247
255 236 247
255 236 247
255 248 255
255 236 247
255 236 247
255 236 247
255 236 247
255 236 247
255 236 247
255 236 247
255 236 247
255 236 247
255 236 247
255 236 247
255 236 247
255 236 247
255 236 247
255 236 247
255 236 247
255 236 247
255 236 247
255 236 247
255 236 247
255 236 247
255 236 247
255 236 247
255 236 247
255 236 247
255 236 247
255 236 247
255 236 247
255 236 247
255 236 247
255 236 247
255 236 247
255 236 247
255 236 247
255 236 247
255 236 247
255 248 255
255 236 247
255 236 247
255 236 247
255 236 247
255 236 247
255 236 247
255 236 247
255 236 247
255 236 247
255 236 247
255 236 247
255 236 247
255 236 247
255 236 247
255 236 247
255 236 247
255 236 247
255 236 247
255 236 247
255 236 247
255 236 247
255 236 247
255 236 247
255 236 247
255 236 247
255 236 247
255 236 247
255 236 247
255 236 247
255 236 247
255 236 247
255 236 247
255 236 247
255 236 247
255 236 247
255 236 247
255 248 255
255 236 247
255 236 247
255 236 247
255 236 247
255 236 247
255 236 247
255 236 247
255 236 247
255 236 247
255 236 247
255 236 247
255 236 247
255 236 247
255 236 247
255 236 247
255 236 247
255 236 247
255 236 247
255 236 247
255 236 247
255 236 247
255 236 247
255 236 247
255 236 247
255 236 247
255 236 247
255 236 247
255 236 247
255 236 247
255 236 247
255 236 247
255 236 247
255 236 247
255 236 247
255 236 247
255 236 247
255 248 255
255 236 247
255 236 247
255 236 247
255 236 247
255 236 247
255 236 247
255 236 247
255 236 247
255 236 247
255 236 247
255 236 247
255 236 247
255 236 247
255 236 247
255 236 247
255 236 247
255 236 247
255 236 247
255 236 247
255 236 247
255 236 247
255 236 247
255 248 255
255 236 247
255 236 247
255 236 247
255 236 247
255 236 247
255 236 247
255 236 247
255 236 247
255 236 247
255 236 247
255 236 247
255 236 247
255 236 247
255 236 247
255 236 247
255 236 247
255 236 247
255 236 247
255 236 247
255 236 247
255 236 247
255 236 247
255 236 247
255 236 247
255 236 247
255 236 247
255 236 247
255 236 247
255 236 247
255 236 247
255 236 247
255 236 247
255 236 247
255 236 247
255 236 247
255 236 247
255 248 255
255 236 247
255 236 247
255 236 247
255 236 247
255 236 247
255 236 247
255 236 247
255 236 247
255 236 247
255 236 247
255 236 247
255 236 247
255 236 247
255 236 247
255 236 247
255 236 247
255 236 247
255 236 247
255 236 247
255 236 247
255 236 247
255 236 247
255 236 247
255 236 247
255 236 247
255 236 247
255 236 247
255 236 247
255 236 247
255 236 247
255 236 247
255 236 247
255 236 247
255 236 247
255 236 247
255 236 247
255 248 255
255 236 247
255 236 247
255 236 247
255 236 247
255 236 247
255 236 247
255 236 247
255 236 247
255 236 247
255 236 247
255 236 247
255 236 247
255 236 247
255 236 247
255 236 247
255 236 247
255 236 247
255 236 247
255 236 247
255 236 247
255 236 247
255 236 247
255 236 247
255 236 247
255 236 247
255 236 247
255 236 247
255 236 247
255 236 247
255 236 247
255 236 247
255 236 247
255 236 247
255 236 247
255 236 247
255 236 247
255 248 255
255 236 247
255 236 247
255 236 247
255 236 247
255 236 247
255 236 247
255 236 247
255 236 247
255 236 247
255 236 247
255 236 247
255 236 247
255 236 247
255 236 247
255 236 247
255 236 247
255 236 247
255 236 247
255 236 247
255 236 247
255 236 247
255 236 247
255 236 247
255 236 247
255 236 247
255 236 247
255 236 247
255 236 247
255 236 247
255 236 247
255 236 247
255 236 247
255 236 247
255 236 247
255 236 247
255 236 247
255 248 255
255 236 247
255 236 247
255 236 247
255 236 247
255 236 247
255 236 247
255 236 247
255 236 247
255 236 247
255 236 247
255 236 247
255 236 247
255 236 247
255 236 247
255 236 247
255 236 247
255 236 247
255 236 247
255 236 247
255 236 247
255 236 247
255 236 247
255 236 247
255 236 247
255 236 247
255 236 247
255 236 247
255 236 247
255 236 247
255 236 247
255 236 247
255 236 247
255 236 247
255 236 247
255 236 247
255 236 247
255 248 255
255 236 247
255 236 247
255 236 247
255 236 247
255 236 247
255 236 247
255 236 247
255 236 247
255 236 247
255 236 247
255 236 247
255 236 247
255 236 247
255 236 247
255 236 247
255 236 247
255 236 247
255 236 247
255 236 247
255 236 247
255 236 247
255 236 247
255 236 247
255 236 247
255 236 247
255 236 247
255 236 247
255 236 247
255 236 247
255 236 247
255 236 247
255 236 247
255 236 247
255 236 247
255 236 247
255 236 247
255 248 255
255 236 247
255 236 247
255 236 247
255 236 247
255 236 247
255 236 247
255 236 247
255 236 247
255 236 247
255 236 247
255 236 247
255 236 247
255 236 247
255 236 247
255 236 247
255 236 247
255 236 247
255 236 247
255 236 247
255 236 247
255 236 247
255 236 247
255 236 247
255 236 247
255 236 247
255 236 247
255 236 247
255 236 247
255 236 247
255 236 247
255 236 247
255 236 247
255 236 247
255 236 247
255 236 247
255 236 247
255 248 255
255 236 247
255 236 247
255 236 247
255 236 247
255 236 247
255 236 247
255 236 247
255 236 247
255 236 247
255 236 247
255 236 247
255 236 247
255 236 247
255 236 247
255 236 247
255 236 247
255 236 247
255 236 247
255 236 247
255 236 247
255 236 247
255 236 247
255 236 247
255 236 247
255 236 247
255 236 247
255 236 247
255 236 247
255 236 247
255 236 247
255 236 247
255 236 247
255 236 247
255 236 247
255 236 247
255 236 247
255 248 255
255 236 247
255 236 247
255 236 247
255 236 247
255 236 247
255 236 247
255 236 247
255 236 247
255 236 247
255 236 247
255 236 247
255 236 247
255 236 247
255 236 247
255 236 247
255 236 247
255 236 247
255 236 247
255 236 247
255 236 247
255 236 247
255 236 247
255 248 255
255 236 247
255 236 247
255 236 247
255 236 247
255 236 247
255 236 247
255 236 247
255 236 247
255 236 247
255 236 247
255 236 247
255 236 247
255 236 247
255 236 247
255 236 247
255 236 247
255 236 247
255 236 247
255 236 247
255 236 247
255 236 247
255 236 247
255 236 247
255 236 247
255 236 247
255 236 247
255 236 247
255 236 247
255 236 247
255 236 247
255 236 247
255 236 247
255 236 247
255 236 247
255 236 247
255 236 247
255 248 255
255 236 247
255 236 247
255 236 247
255 236 247
255 236 247
255 236 247
255 236 247
255 236 247
255 236 247
255 236 247
255 236 247
255 236 247
255 236 247
255 236 247
255 236 247
255 236 247
255 236 247
255 236 247
255 236 247
255 236 247
255 236 247
255 236 247
255 236 247
255 236 247
255 236 247
255 236 247
255 236 247
255 236 247
255 236 247
255 236 247
255 236 247
255 236 247
255 236 247
255 236 247
255 236 247
255 236 247
255 248 255
255 236 247
255 236 247
255 236 247
255 236 247
255 236 247
255 236 247
255 236 247
255 236 247
255 236 247
255 236 247
255 236 247
255 236 247
255 236 247
255 236 247
255 236 247
255 236 247
255 236 247
255 236 247
255 236 247
255 236 247
255 236 247
255 236 247
255 236 247
255 236 247
255 236 247
255 236 247
255 236 247
255 236 247
255 236 247
255 236 247
255 236 247
255 236 247
255 236 247
255 236 247
255 236 247
255 236 247
255 248 255
255 236 247
255 236 247
255 236 247
255 236 247
255 236 247
255 236 247
255 236 247
255 236 247
255 236 247
255 236 247
255 236 247
255 236 247
255 236 247
255 236 247
255 236 247
255 236 247
255 236 247
255 236 247
255 236 247
255 236 247
255 236 247
255 236 247
255 236 247
255 236 247
255 236 247
255 236 247
255 236 247
255 236 247
255 236 247
255 236 247
255 236 247
255 236 247
255 236 247
255 236 247
255 236 247
255 236 247
255 248 255
255 236 247
255 236 247
255 236 247
255 236 247
255 236 247
255 236 247
255 236 247
255 236 247
255 236 247
255 236 247
255 236 247
255 236 247
255 236 247
255 236 247
255 236 247
255 236 247
255 236 247
255 236 247
255 236 247
255 236 247
255 236 247
255 236 247
255 236 247
255 236 247
255 236 247
255 236 247
255 236 247
255 236 247
255 236 247
255 236 247
255 236 247
255 236 247
255 236 247
255 236 247
255 236 247
255 236 247
255 248 255
255 236 247
255 236 247
255 236 247
255 236 247
255 236 247
255 236 247
255 236 247
255 236 247
255 236 247
255 236 247
255 236 247
255 236 247
255 236 247
255 236 247
255 236 247
255 236 247
255 236 247
255 236 247
255 236 247
255 236 247
255 236 247
255 236 247
255 236 247
255 236 247
255 236 247
255 236 247
255 236 247
255 236 247
255 236 247
255 236 247
255 236 247
255 236 247
255 236 247
255 236 247
255 236 247
255 236 247
255 248 255
255 236 247
255 236 247
255 236 247
255 236 247
255 236 247
255 236 247
255 236 247
255 236 247
255 236 247
255 236 247
255 236 247
255 236 247
255 236 247
255 236 247
255 236 247
255 236 247
255 236 247
255 236 247
255 236 247
255 236 247
255 236 247
255 236 247
255 236 247
255 236 247
255 236 247
255 236 247
255 236 247
255 236 247
255 236 247
255 236 247
255 236 247
255 236 247
255 236 247
255 236 247
255 236 247
255 236 247
255 248 255
255 236 247
255 236 247
255 236 247
255 236 247
255 236 247
255 236 247
255 236 247
255 236 247
255 236 247
255 236 247
255 236 247
255 236 247
255 236 247
255 236 247
255 236 247
255 236 247
255 236 247
255 236 247
255 236 247
255 236 247
255 236 247
255 236 247
255 236 247
255 236 247
255 236 247
255 236 247
255 236 247
255 236 247
255 236 247
255 236 247
255 236 247
255 236 247
255 236 247
255 236 247
255 236 247
255 236 247
255 248 255
255 236 247
255 236 247
255 236 247
255 236 247
255 236 247
255 236 247
255 236 247
255 236 247
255 236 247
255 236 247
255 236 247
255 236 247
255 236 247
255 236 247
255 236 247
255 236 247
255 236 247
255 236 247
255 236 247
255 236 247
255 236 247
255 236 247
255 248 255
255 236 247
255 236 247
255 236 247
255 236 247
255 236 247
255 236 247
255 236 247
255 236 247
255 236 247
255 236 247
255 236 247
255 236 247
255 236 247
255 236 247
255 236 247
255 236 247
255 236 247
255 236 247
255 236 247
255 236 247
255 236 247
255 236 247
255 236 247
255 236 247
255 236 247
255 236 247
255 236 247
255 236 247
255 236 247
255 236 247
255 236 247
255 236 247
255 236 247
255 236 247
255 236 247
255 236 247
255 248 255
255 236 247
255 236 247
255 236 247
255 236 247
255 236 247
255 236 247
255 236 247
255 236 247
255 236 247
255 236 247
255 236 247
255 236 247
255 236 247
255 236 247
255 236 247
255 236 247
255 236 247
255 236 247
255 236 247
255 236 247
255 236 247
255 236 247
255 236 247
255 236 247
255 236 247
255 236 247
255 236 247
255 236 247
255 236 247
255 236 247
255 236 247
255 236 247
255 236 247
255 236 247
255 236 247
255 236 247
255 248 255
255 236 247
255 236 247
255 236 247
255 236 247
255 236 247
255 236 247
255 236 247
255 236 247
255 236 247
255 236 247
255 236 247
255 236 247
255 236 247
255 236 247
255 236 247
255 236 247
255 236 247
255 236 247
255 236 247
255 236 247
255 236 247
255 236 247
255 236 247
255 236 247
255 236 247
255 236 247
255 236 247
255 236 247
255 236 247
255 236 247
255 236 247
255 236 247
255 236 247
255 236 247
255 236 247
255 236 247
255 248 255
255 236 247
255 236 247
255 236 247
255 236 247
255 236 247
255 236 247
255 236 247
255 236 247
255 236 247
255 236 247
255 236 247
255 236 247
255 236 247
255 236 247
255 236 247
255 236 247
255 236 247
255 236 247
255 236 247
255 236 247
255 236 247
255 236 247
255 236 247
255 236 247
255 236 247
255 236 247
255 236 247
255 236 247
255 236 247
255 236 247
255 236 247
255 236 247
255 236 247
255 236 247
255 236 247
255 236 247
255 248 255
255 236 247
255 236 247
255 236 247
255 236 247
255 236 247
255 236 247
255 236 247
255 236 247
255 236 247
255 236 247
255 236 247
255 236 247
255 236 247
255 236 247
255 236 247
255 236 247
255 236 247
255 236 247
255 236 247
255 236 247
255 236 247
255 236 247
255 236 247
255 236 247
255 236 247
255 236 247
255 236 247
255 236 247
255 236 247
255 236 247
255 236 247
255 236 247
255 236 247
255 236 247
255 236 247
255 236 247
255 248 255
255 236 247
255 236 247
255 236 247
255 236 247
255 236 247
255 236 247
255 236 247
255 236 247
255 236 247
255 236 247
255 236 247
255 236 247
255 236 247
255 236 247
255 236 247
255 236 247
255 236 247
255 236 247
255 236 247
255 236 247
255 236 247
255 236 247
255 236 247
255 236 247
255 236 247
255 236 247
255 236 247
255 236 247
255 236 247
255 236 247
255 236 247
255 236 247
255 236 247
255 236 247
255 236 247
255 236 247
255 248 255
255 236 247
255 236 247
255 236 247
255 236 247
255 236 247
255 236 247
255 236 247
255 236 247
255 236 247
255 236 247
255 236 247
255 236 247
255 236 247
255 236 247
255 236 247
255 236 247
255 236 247
255 236 247
255 236 247
255 236 247
255 236 247
255 236 247
255 236 247
255 236 247
255 236 247
255 236 247
255 236 247
255 236 247
255 236 247
255 236 247
255 236 247
255 236 247
255 236 247
255 236 247
255 236 247
255 236 247
255 248 255
255 236 247
255 236 247
255 236 247
255 236 247
255 236 247
255 236 247
255 236 247
255 236 247
255 236 247
255 236 247
255 236 247
255 236 247
255 236 247
255 236 247
255 236 247
255 236 247
255 236 247
255 236 247
255 236 247
255 236 247
255 236 247
255 236 247
255 236 247
255 236 247
255 236 247
255 236 247
255 236 247
255 236 247
255 236 247
255 236 247
255 236 247
255 236 247
255 236 247
255 236 247
255 236 247
255 236 247
255 248 255
255 236 247
255 236 247
255 236 247
255 236 247
255 236 247
255 236 247
255 236 247
255 236 247
255 236 247
255 236 247
255 236 247
255 236 247
255 236 247
255 236 247
255 236 247
255 236 247
255 236 247
255 236 247
255 236 247
255 236 247
255 236 247
255 236 247
255 248 255
255 236 247
255 236 247
255 236 247
255 236 247
255 236 247
255 236 247
255 236 247
255 236 247
255 236 247
255 236 247
255 236 247
255 236 247
255 236 247
255 236 247
255 236 247
255 236 247
255 236 247
255 236 247
255 236 247
255 236 247
255 236 247
255 236 247
255 236 247
255 236 247
255 236 247
255 236 247
255 236 247
255 236 247
255 236 247
255 236 247
255 236 247
255 236 247
255 236 247
255 236 247
255 236 247
255 236 247
255 248 255
255 236 247
255 236 247
255 236 247
255 236 247
255 236 247
255 236 247
255 236 247
255 236 247
255 236 247
255 236 247
255 236 247
255 236 247
255 236 247
255 236 247
255 236 247
255 236 247
255 236 247
255 236 247
255 236 247
255 236 247
255 236 247
255 236 247
255 236 247
255 236 247
255 236 247
255 236 247
255 236 247
255 236 247
255 236 247
255 236 247
255 236 247
255 236 247
255 236 247
255 236 247
255 236 247
255 236 247
255 248 255
255 236 247
255 236 247
255 236 247
255 236 247
255 236 247
255 236 247
255 236 247
255 236 247
255 236 247
255 236 247
255 236 247
255 236 247
255 236 247
255 236 247
255 236 247
255 236 247
255 236 247
255 236 247
255 236 247
255 236 247
255 236 247
255 236 247
255 236 247
255 236 247
255 236 247
255 236 247
255 236 247
255 236 247
255 236 247
255 236 247
255 236 247
255 236 247
255 236 247
255 236 247
255 236 247
255 236 247
255 248 255
255 236 247
255 236 247
255 236 247
255 236 247
255 236 247
255 236 247
255 236 247
255 236 247
255 236 247
255 236 247
255 236 247
255 236 247
255 236 247
255 236 247
255 236 247
255 236 247
255 236 247
255 236 247
255 236 247
255 236 247
255 236 247
255 236 247
255 236 247
255 236 247
255 236 247
255 236 247
255 236 247
255 236 247
255 236 247
255 236 247
255 236 247
255 236 247
255 236 247
255 236 247
255 236 247
255 236 247
255 248 255
255 236 247
255 236 247
255 236 247
255 236 247
255 236 247
255 236 247
255 236 247
255 236 247
255 236 247
255 236 247
255 236 247
255 236 247
255 236 247
255 236 247
255 236 247
255 236 247
255 236 247
255 236 247
255 236 247
255 236 247
255 236 247
255 236 247
255 236 247
255 236 247
255 236 247
255 236 247
255 236 247
255 236 247
255 236 247
255 236 247
255 236 247
255 236 247
255 236 247
255 236 247
255 236 247
255 236 247
255 248 255
255 236 247
255 236 247
255 236 247
255 236 247
255 236 247
255 236 247
255 236 247
255 236 247
255 236 247
255 236 247
255 236 247
255 236 247
255 236 247
255 236 247
255 236 247
255 236 247
255 236 247
255 236 247
255 236 247
255 236 247
255 236 247
255 236 247
255 236 247
255 236 247
255 236 247
255 236 247
255 236 247
255 236 247
255 236 247
255 236 247
255 236 247
255 236 247
255 236 247
255 236 247
255 236 247
255 236 247
255 248 255
255 236 247
255 236 247
255 236 247
255 236 247
255 236 247
255 236 247
255 236 247
255 236 247
255 236 247
255 236 247
255 236 247
255 236 247
255 236 247
255 236 247
255 236 247
255 236 247
255 236 247
255 236 247
255 236 247
255 236 247
255 236 247
255 236 247
255 236 247
255 236 247
255 236 247
255 236 247
255 236 247
255 236 247
255 236 247
255 236 247
255 236 247
255 236 247
255 236 247
255 236 247
255 236 247
255 236 247
255 248 255
255 236 247
255 236 247
255 236 247
255 236 247
255 236 247
255 236 247
255 236 247
255 236 247
255 236 247
255 236 247
255 236 247
255 236 247
255 236 247
255 236 247
255 236 247
255 236 247
255 236 247
255 236 247
255 236 247
255 236 247
255 236 247
255 236 247
255 236 247
255 236 247
255 236 247
255 236 247
255 236 247
255 236 247
255 236 247
255 236 247
255 236 247
255 236 247
255 236 247
255 236 247
255 236 247
255 236 247
255 248 255
255 236 247
255 236 247
255 236 247
255 236 247
255 236 247
255 236 247
255 236 247
255 236 247
255 236 247
255 236 247
255 236 247
255 236 247
255 236 247
255 236 247
255 236 247
255 236 247
255 236 247
255 236 247
255 236 247
255 236 247
255 236 247
255 236 247
255 248 255
255 236 247
255 236 247
255 236 247
255 236 247
255 236 247
255 236 247
255 236 247
255 236 247
255 236 247
255 236 247
255 236 247
255 236 247
255 236 247
255 236 247
255 236 247
255 236 247
255 236 247
255 236 247
255 236 247
255 236 247
255 236 247
255 236 247
255 236 247
255 236 247
255 236 247
255 236 247
255 236 247
255 236 247
255 236 247
255 236 247
255 236 247
255 236 247
255 236 247
255 236 247
255 236 247
255 236 247
255 248 255
255 236 247
255 236 247
255 236 247
255 236 247
255 236 247
255 236 247
255 236 247
255 236 247
255 236 247
255 236 247
255 236 247
255 236 247
255 236 247
255 236 247
255 236 247
255 236 247
255 236 247
255 236 247
255 236 247
255 236 247
255 236 247
255 236 247
255 236 247
255 236 247
255 236 247
255 236 247
255 236 247
255 236 247
255 236 247
255 236 247
255 236 247
255 236 247
255 236 247
255 236 247
255 236 247
255 236 247
255 248 255
255 236 247
255 236 247
255 236 247
255 236 247
255 236 247
255 236 247
255 236 247
255 236 247
255 236 247
255 236 247
255 236 247
255 236 247
255 236 247
255 236 247
255 236 247
255 236 247
255 236 247
255 236 247
255 236 247
255 236 247
255 236 247
255 236 247
255 236 247
255 236 247
255 236 247
255 236 247
255 236 247
255 236 247
255 236 247
255 236 247
255 236 247
255 236 247
255 236 247
255 236 247
255 236 247
255 236 247
255 248 255
255 236 247
255 236 247
255 236 247
255 236 247
255 236 247
255 236 247
255 236 247
255 236 247
255 236 247
255 236 247
255 236 247
255 236 247
255 236 247
255 236 247
255 236 247
255 236 247
255 236 247
255 236 247
255 236 247
255 236 247
255 236 247
255 236 247
255 236 247
255 236 247
255 236 247
255 236 247
255 236 247
255 236 247
255 236 247
255 236 247
255 236 247
255 236 247
255 236 247
255 236 247
255 236 247
255 236 247
255 248 255
255 236 247
255 236 247
255 236 247
255 236 247
255 236 247
255 236 247
255 236 247
255 236 247
255 236 247
255 236 247
255 236 247
255 236 247
255 236 247
255 236 247
255 236 247
255 236 247
255 236 247
255 236 247
255 236 247
255 236 247
255 236 247
255 236 247
255 236 247
255 236 247
255 236 247
255 236 247
255 236 247
255 236 247
255 236 247
255 236 247
255 236 247
255 236 247
255 236 247
255 236 247
255 236 247
255 236 247
255 248 255
255 236 247
255 236 247
255 236 247
255 236 247
255 236 247
255 236 247
255 236 247
255 236 247
255 236 247
255 236 247
255 236 247
255 236 247
255 236 247
255 236 247
255 236 247
255 236 247
255 236 247
255 236 247
255 236 247
255 236 247
255 236 247
255 236 247
255 236 247
255 236 247
255 236 247
255 236 247
255 236 247
255 236 247
255 236 247
255 236 247
255 236 247
255 236 247
255 236 247
255 236 247
255 236 247
255 236 247
255 248 255
255 236 247
255 236 247
255 236 247
255 236 247
255 236 247
255 236 247
255 236 247
255 236 247
255 236 247
255 236 247
255 236 247
255 236 247
255 236 247
255 236 247
255 236 247
255 236 247
255 236 247
255 236 247
255 236 247
255 236 247
255 236 247
255 236 247
255 236 247
255 236 247
255 236 247
255 236 247
255 236 247
255 236 247
255 236 247
255 236 247
255 236 247
255 236 247
255 236 247
255 236 247
255 236 247
255 236 247
255 248 255
255 236 247
255 236 247
255 236 247
255 236 247
255 236 247
255 236 247
255 236 247
255 236 247
255 236 247
255 236 247
255 236 247
255 236 247
255 236 247
255 236 247
255 236 247
255 236 247
255 236 247
255 236 247
255 236 247
255 236 247
255 236 247
255 236 247
255 236 247
255 236 247
255 236 247
255 236 247
255 236 247
255 236 247
255 236 247
255 236 247
255 236 247
255 236 247
255 236 247
255 236 247
255 236 247
255 236 247
255 248 255
255 236 247
255 236 247
255 236 247
255 236 247
255 236 247
255 236 247
255 236 247
255 236 247
255 236 247
255 236 247
255 236 247
255 236 247
255 236 247
255 236 247
255 236 247
255 236 247
255 236 247
255 236 247
255 236 247
255 236 247
255 236 247
255 236 247
255 248 255
255 236 247
255 236 247
255 236 247
255 236 247
255 236 247
255 236 247
255 236 247
255 236 247
255 236 247
255 236 247
255 236 247
255 236 247
255 236 247
255 236 247
255 236 247
255 236 247
255 236 247
255 236 247
255 236 247
255 236 247
255 236 247
255 236 247
255 236 247
255 236 247
255 236 247
255 236 247
255 236 247
255 236 247
255 236 247
255 236 247
255 236 247
255 236 247
255 236 247
255 236 247
255 236 247
255 236 247
255 248 255
255 236 247
255 236 247
255 236 247
255 236 247
255 236 247
255 236 247
255 236 247
255 236 247
255 236 247
255 236 247
255 236 247
255 236 247
255 236 247
255 236 247
255 236 247
255 236 247
255 236 247
255 236 247
255 236 247
255 236 247
255 236 247
255 236 247
255 236 247
255 236 247
255 236 247
255 236 247
255 236 247
255 236 247
255 236 247
255 236 247
255 236 247
255 236 247
255 236 247
255 236 247
255 236 247
255 236 247
255 248 255
255 236 247
255 236 247
255 236 247
255 236 247
255 236 247
255 236 247
255 236 247
255 236 247
255 236 247
255 236 247
255 236 247
255 236 247
255 236 247
255 236 247
255 236 247
255 236 247
255 236 247
255 236 247
255 236 247
255 236 247
255 236 247
255 236 247
255 236 247
255 236 247
255 236 247
255 236 247
255 236 247
255 236 247
255 236 247
255 236 247
255 236 247
255 236 247
255 236 247
255 236 247
255 236 247
255 236 247
255 248 255
255 236 247
255 236 247
255 236 247
255 236 247
255 236 247
255 236 247
255 236 247
255 236 247
255 236 247
255 236 247
255 236 247
255 236 247
255 236 247
255 236 247
255 236 247
255 236 247
255 236 247
255 236 247
255 236 247
255 236 247
255 236 247
255 236 247
255 236 247
255 236 247
255 236 247
255 236 247
255 236 247
255 236 247
255 236 247
255 236 247
255 236 247
255 236 247
255 236 247
255 236 247
255 236 247
255 236 247
255 248 255
255 236 247
255 236 247
255 236 247
255 236 247
255 236 247
255 236 247
255 236 247
255 236 247
255 236 247
255 236 247
255 236 247
255 236 247
255 236 247
255 236 247
255 236 247
255 236 247
255 236 247
255 236 247
255 236 247
255 236 247
255 236 247
255 236 247
255 236 247
255 236 247
255 236 247
255 236 247
255 236 247
255 236 247
255 236 247
255 236 247
255 236 247
255 236 247
255 236 247
255 236 247
255 236 247
255 236 247
255 248 255
255 236 247
255 236 247
255 236 247
255 236 247
255 236 247
255 236 247
255 236 247
255 236 247
255 236 247
255 236 247
255 236 247
255 236 247
255 236 247
255 236 247
255 236 247
255 236 247
255 236 247
255 236 247
255 236 247
255 236 247
255 236 247
255 236 247
255 236 247
255 236 247
255 236 247
255 236 247
255 236 247
255 236 247
255 236 247
255 236 247
255 236 247
255 236 247
255 236 247
255 236 247
255 236 247
255 236 247
255 248 255
255 236 247
255 236 247
255 236 247
255 236 247
255 236 247
255 236 247
255 236 247
255 236 247
255 236 247
255 236 247
255 236 247
255 236 247
255 236 247
255 236 247
255 236 247
255 236 247
255 236 247
255 236 247
255 236 247
255 236 247
255 236 247
255 236 247
255 236 247
255 236 247
255 236 247
255 236 247
255 236 247
255 236 247
255 236 247
255 236 247
255 236 247
255 236 247
255 236 247
255 236 247
255 236 247
255 236 247
255 248 255
255 236 247
255 236 247
255 236 247
255 236 247
255 236 247
255 236 247
255 236 247
255 236 247
255 236 247
255 236 247
255 236 247
255 236 247
255 236 247
255 236 247
255 236 247
255 236 247
255 236 247
255 236 247
255 236 247
255 236 247
255 236 247
255 236 247
255 236 247
255 236 247
255 236 247
255 236 247
255 236 247
255 236 247
255 236 247
255 236 247
255 236 247
255 236 247
255 236 247
255 236 247
255 236 247
255 236 247
255 248 255
255 236 247
255 236 247
255 236 247
255 236 247
255 236 247
255 236 247
255 236 247
255 236 247
255 236 247
255 236 247
255 236 247
255 236 247
255 236 247
255 236 247
255 236 247
255 236 247
255 236 247
255 236 247
255 236 247
255 236 247
255 236 247
255 236 247
255 248 255
255 236 247
255 236 247
255 236 247
255 236 247
255 236 247
255 236 247
255 236 247
255 236 247
255 236 247
255 236 247
255 236 247
255 236 247
255 236 247
255 236 247
255 236 247
255 236 247
255 236 247
255 236 247
255 236 247
255 236 247
255 236 247
255 236 247
255 236 247
255 236 247
255 236 247
255 236 247
255 236 247
255 236 247
255 236 247
255 236 247
255 236 247
255 236 247
255 236 247
255 236 247
255 236 247
255 236 247
255 248 255
255 236 247
255 236 247
255 236 247
255 236 247
255 236 247
255 236 247
255 236 247
255 236 247
255 236 247
255 236 247
255 236 247
255 236 247
255 236 247
255 236 247
255 236 247
255 236 247
255 236 247
255 236 247
255 236 247
255 236 247
255 236 247
255 236 247
255 236 247
255 236 247
255 236 247
255 236 247
255 236 247
255 236 247
255 236 247
255 236 247
255 236 247
255 236 247
255 236 247
255 236 247
255 236 247
255 236 247
255 248 255
255 236 247
255 236 247
255 236 247
255 236 247
255 236 247
255 236 247
255 236 247
255 236 247
255 236 247
255 236 247
255 236 247
255 236 247
255 236 247
255 236 247
255 236 247
255 236 247
255 236 247
255 236 247
255 236 247
255 236 247
255 236 247
255 236 247
255 236 247
255 236 247
255 236 247
255 236 247
255 236 247
255 236 247
255 236 247
255 236 247
255 236 247
255 236 247
255 236 247
255 236 247
255 236 247
255 236 247
255 248 255
255 236 247
255 236 247
255 236 247
255 236 247
255 236 247
255 236 247
255 236 247
255 236 247
255 236 247
255 236 247
255 236 247
255 236 247
255 236 247
255 236 247
255 236 247
255 236 247
255 236 247
255 236 247
255 236 247
255 236 247
255 236 247
255 236 247
255 236 247
255 236 247
255 236 247
255 236 247
255 236 247
255 236 247
255 236 247
255 236 247
255 236 247
255 236 247
255 236 247
255 236 247
255 236 247
255 236 247
255 248 255
255 236 247
255 236 247
255 236 247
255 236 247
255 236 247
255 236 247
255 236 247
255 236 247
255 236 247
255 236 247
255 236 247
255 236 247
255 236 247
255 236 247
255 236 247
255 236 247
255 236 247
255 236 247
255 236 247
255 236 247
255 236 247
255 236 247
255 236 247
255 236 247
255 236 247
255 236 247
255 236 247
255 236 247
255 236 247
255 236 247
255 236 247
255 236 247
255 236 247
255 236 247
255 236 247
255 236 247
255 248 255
255 236 247
255 236 247
255 236 247
255 236 247
255 236 247
255 236 247
255 236 247
255 236 247
255 236 247
255 236 247
255 236 247
255 236 247
255 236 247
255 236 247
255 236 247
255 236 247
255 236 247
255 236 247
255 236 247
255 236 247
255 236 247
255 236 247
255 236 247
255 236 247
255 236 247
255 236 247
255 236 247
255 236 247
255 236 247
255 236 247
255 236 247
255 236 247
255 236 247
255 236 247
255 236 247
255 236 247
255 248 255
255 236 247
255 236 247
255 236 247
255 236 247
255 236 247
255 236 247
255 236 247
255 236 247
255 236 247
255 236 247
255 236 247
255 236 247
255 236 247
255 236 247
255 236 247
255 236 247
255 236 247
255 236 247
255 236 247
255 236 247
255 236 247
255 236 247
255 236 247
255 236 247
255 236 247
255 236 247
255 236 247
255 236 247
255 236 247
255 236 247
255 236 247
255 236 247
255 236 247
255 236 247
255 236 247
255 236 247
255 248 255
255 236 247
255 236 247
255 236 247
255 236 247
255 236 247
255 236 247
255 236 247
255 236 247
255 236 247
255 236 247
255 236 247
255 236 247
255 236 247
255 236 247
255 236 247
255 236 247
255 236 247
255 236 247
255 236 247
255 236 247
255 236 247
255 236 247
255 236 247
255 236 247
255 236 247
255 236 247
255 236 247
255 236 247
255 236 247
255 236 247
255 236 247
255 236 247
255 236 247
255 236 247
255 236 247
255 236 247
255 248 255
255 236 247
255 236 247
255 236 247
255 236 247
255 236 247
255 236 247
255 236 247
255 236 247
255 236 247
255 236 247
255 236 247
255 236 247
255 236 247
255 236 247
255 236 247
255 236 247
255 236 247
255 236 247
255 236 247
255 236 247
255 236 247
255 236 247
255 248 255
255 236 247
255 236 247
255 236 247
255 236 247
255 236 247
255 236 247
255 236 247
255 236 247
255 236 247
255 236 247
255 236 247
255 236 247
255 236 247
255 236 247
255 236 247
255 236 247
255 236 247
255 236 247
255 236 247
255 236 247
255 236 247
255 236 247
255 236 247
255 236 247
255 236 247
255 236 247
255 236 247
255 236 247
255 236 247
255 236 247
255 236 247
255 236 247
255 236 247
255 236 247
255 236 247
255 236 247
255 248 255
255 236 247
255 236 247
255 236 247
255 236 247
255 236 247
255 236 247
255 236 247
255 236 247
255 236 247
255 236 247
255 236 247
255 236 247
255 236 247
255 236 247
255 236 247
255 236 247
255 236 247
255 236 247
255 236 247
255 236 247
255 236 247
255 236 247
255 236 247
255 236 247
255 236 247
255 236 247
255 236 247
255 236 247
255 236 247
255 236 247
255 236 247
255 236 247
255 236 247
255 236 247
255 236 247
255 236 247
255 248 255
255 236 247
255 236 247
255 236 247
255 236 247
255 236 247
255 236 247
255 236 247
255 236 247
255 236 247
255 236 247
255 236 247
255 236 247
255 236 247
255 236 247
255 236 247
255 236 247
255 236 247
255 236 247
255 236 247
255 236 247
255 236 247
255 236 247
255 236 247
255 236 247
255 236 247
255 236 247
255 236 247
255 236 247
255 236 247
255 236 247
255 236 247
255 236 247
255 236 247
255 236 247
255 236 247
255 236 247
255 248 255
255 236 247
255 236 247
255 236 247
255 236 247
255 236 247
255 236 247
255 236 247
255 236 247
255 236 247
255 236 247
255 236 247
255 236 247
255 236 247
255 236 247
255 236 247
255 236 247
255 236 247
255 236 247
255 236 247
255 236 247
255 236 247
255 236 247
255 236 247
255 236 247
255 236 247
255 236 247
255 236 247
255 236 247
255 236 247
255 236 247
255 236 247
255 236 247
255 236 247
255 236 247
255 236 247
255 236 247
255 248 255
255 236 247
255 236 247
255 236 247
255 236 247
255 236 247
255 236 247
255 236 247
255 236 247
255 236 247
255 236 247
255 236 247
255 236 247
255 236 247
255 236 247
255 236 247
255 236 247
255 236 247
255 236 247
255 236 247
255 236 247
255 236 247
255 236 247
255 236 247
255 236 247
255 236 247
255 236 247
255 236 247
255 236 247
255 236 247
255 236 247
255 236 247
255 236 247
255 236 247
255 236 247
255 236 247
255 236 247
255 248 255
255 236 247
255 236 247
255 236 247
255 236 247
255 236 247
255 236 247
255 236 247
255 236 247
255 236 247
255 236 247
255 236 247
255 236 247
255 236 247
255 236 247
255 236 247
255 236 247
255 236 247
255 236 247
255 236 247
255 236 247
255 236 247
255 236 247
255 236 247
255 236 247
255 236 247
255 236 247
255 236 247
255 236 247
255 236 247
255 236 247
255 236 247
255 236 247
255 236 247
255 236 247
255 236 247
255 236 247
255 248 255
255 236 247
255 236 247
255 236 247
255 236 247
255 236 247
255 236 247
255 236 247
255 236 247
255 236 247
255 236 247
255 236 247
255 236 247
255 236 247
255 236 247
255 236 247
255 236 247
255 236 247
255 236 247
255 236 247
255 236 247
255 236 247
255 236 247
255 236 247
255 236 247
255 236 247
255 236 247
255 236 247
255 236 247
255 236 247
255 236 247
255 236 247
255 236 247
255 236 247
255 236 247
255 236 247
255 236 247
255 248 255
255 236 247
255 236 247
255 236 247
255 236 247
255 236 247
255 236 247
255 236 247
255 236 247
255 236 247
255 236 247
255 236 247
255 236 247
255 236 247
255 236 247
255 236 247
255 236 247
255 236 247
255 236 247
255 236 247
255 236 247
255 236 247
255 236 247
255 236 247
255 236 247
255 236 247
255 236 247
255 236 247
255 236 247
255 236 247
255 236 247
255 236 247
255 236 247
255 236 247
255 236 247
255 236 247
255 236 247
255 248 255
255 236 247
255 236 247
255 236 247
255 236 247
255 236 247
255 236 247
255 236 247
255 236 247
255 236 247
255 236 247
255 236 247
255 236 247
255 236 247
255 236 247
255 236 247
255 236 247
255 236 247
255 236 247
255 236 247
255 236 247
255 236 247
255 236 247
255 248 255
255 236 247
255 236 247
255 236 247
255 236 247
255 236 247
255 236 247
255 236 247
255 236 247
255 236 247
255 236 247
255 236 247
255 236 247
255 236 247
255 236 247
255 236 247
255 236 247
255 236 247
255 236 247
255 236 247
255 236 247
255 236 247
255 236 247
255 236 247
255 236 247
255 236 247
255 236 247
255 236 247
255 236 247
255 236 247
255 236 247
255 236 247
255 236 247
255 236 247
255 236 247
255 236 247
255 236 247
255 248 255
255 236 247
255 236 247
255 236 247
255 236 247
255 236 247
255 236 247
255 236 247
255 236 247
255 236 247
255 236 247
255 236 247
255 236 247
255 236 247
255 236 247
255 236 247
255 236 247
255 236 247
255 236 247
255 236 247
255 236 247
255 236 247
255 236 247
255 236 247
255 236 247
255 236 247
255 236 247
255 236 247
255 236 247
255 236 247
255 236 247
255 236 247
255 236 247
255 236 247
255 236 247
255 236 247
255 236 247
255 248 255
255 236 247
255 236 247
255 236 247
255 236 247
255 236 247
255 236 247
255 236 247
255 236 247
255 236 247
255 236 247
255 236 247
255 236 247
255 236 247
255 236 247
255 236 247
255 236 247
255 236 247
255 236 247
255 236 247
255 236 247
255 236 247
255 236 247
255 236 247
255 236 247
255 236 247
255 236 247
255 236 247
255 236 247
255 236 247
255 236 247
255 236 247
255 236 247
255 236 247
255 236 247
255 236 247
255 236 247
255 248 255
255 236 247
255 236 247
255 236 247
255 236 247
255 236 247
255 236 247
255 236 247
255 236 247
255 236 247
255 236 247
255 236 247
255 236 247
255 236 247
255 236 247
255 236 247
255 236 247
255 236 247
255 236 247
255 236 247
255 236 247
255 236 247
255 236 247
255 236 247
255 236 247
255 236 247
255 236 247
255 236 247
255 236 247
255 236 247
255 236 247
255 236 247
255 236 247
255 236 247
255 236 247
255 236 247
255 236 247
255 248 255
255 236 247
255 236 247
255 236 247
255 236 247
255 236 247
255 236 247
255 236 247
255 236 247
255 236 247
255 236 247
255 236 247
255 236 247
255 236 247
255 236 247
255 236 247
255 236 247
255 236 247
255 236 247
255 236 247
255 236 247
255 236 247
255 236 247
255 236 247
255 236 247
255 236 247
255 236 247
255 236 247
255 236 247
255 236 247
255 236 247
255 236 247
255 236 247
255 236 247
255 236 247
255 236 247
255 236 247
255 248 255
255 236 247
255 236 247
255 236 247
255 236 247
255 236 247
255 236 247
255 236 247
255 236 247
255 236 247
255 236 247
255 236 247
255 236 247
255 236 247
255 236 247
255 236 247
255 236 247
255 236 247
255 236 247
255 236 247
255 236 247
255 236 247
255 236 247
255 236 247
255 236 247
255 236 247
255 236 247
255 236 247
255 236 247
255 236 247
255 236 247
255 236 247
255 236 247
255 236 247
255 236 247
255 236 247
255 236 247
255 248 255
255 236 247
255 236 247
255 236 247
255 236 247
255 236 247
255 236 247
255 236 247
255 236 247
255 236 247
255 236 247
255 236 247
255 236 247
255 236 247
255 236 247
255 236 247
255 236 247
255 236 247
255 236 247
255 236 247
255 236 247
255 236 247
255 236 247
255 236 247
255 236 247
255 236 247
255 236 247
255 236 247
255 236 247
255 236 247
255 236 247
255 236 247
255 236 247
255 236 247
255 236 247
255 236 247
255 236 247
255 248 255
255 236 247
255 236 247
255 236 247
255 236 247
255 236 247
255 236 247
255 236 247
255 236 247
255 236 247
255 236 247
255 236 247
255 236 247
255 236 247
255 236 247
255 236 247
255 236 247
255 236 247
255 236 247
255 236 247
255 236 247
255 236 247
255 236 247
255 236 247
255 236 247
255 236 247
255 236 247
255 236 247
255 236 247
255 236 247
255 236 247
255 236 247
255 236 247
255 236 247
255 236 247
255 236 247
255 236 247
255 248 255
255 236 247
255 236 247
255 236 247
255 236 247
255 236 247
255 236 247
255 236 247
255 236 247
255 236 247
255 236 247
255 236 247
255 236 247
255 236 247
255 236 247
255 236 247
255 236 247
255 236 247
255 236 247
255 236 247
255 236 247
255 236 247
255 236 247
255 248 255
255 236 247
255 236 247
255 236 247
255 236 247
255 236 247
255 236 247
255 236 247
255 236 247
255 236 247
255 236 247
255 236 247
255 236 247
255 236 247
255 236 247
255 236 247
255 236 247
255 236 247
255 236 247
255 236 247
255 236 247
255 236 247
255 236 247
255 236 247
255 236 247
255 236 247
255 236 247
255 236 247
255 236 247
255 236 247
255 236 247
255 236 247
255 236 247
255 236 247
255 236 247
255 236 247
255 236 247
255 248 255
255 236 247
255 236 247
255 236 247
255 236 247
255 236 247
255 236 247
255 236 247
255 236 247
255 236 247
255 236 247
255 236 247
255 236 247
255 236 247
255 236 247
255 236 247
255 236 247
255 236 247
255 236 247
255 236 247
255 236 247
255 236 247
255 236 247
255 236 247
255 236 247
255 236 247
255 236 247
255 236 247
255 236 247
255 236 247
255 236 247
255 236 247
255 236 247
255 236 247
255 236 247
255 236 247
255 236 247
255 248 255
255 236 247
255 236 247
255 236 247
255 236 247
255 236 247
255 236 247
255 236 247
255 236 247
255 236 247
255 236 247
255 236 247
255 236 247
255 236 247
255 236 247
255 236 247
255 236 247
255 236 247
255 236 247
255 236 247
255 236 247
255 236 247
255 236 247
255 236 247
255 236 247
255 236 247
255 236 247
255 236 247
255 236 247
255 236 247
255 236 247
255 236 247
255 236 247
255 236 247
255 236 247
255 236 247
255 236 247
255 248 255
255 236 247
255 236 247
255 236 247
255 236 247
255 236 247
255 236 247
255 236 247
255 236 247
255 236 247
255 236 247
255 236 247
255 236 247
255 236 247
255 236 247
255 236 247
255 236 247
255 236 247
255 236 247
255 236 247
255 236 247
255 236 247
255 236 247
255 236 247
255 236 247
255 236 247
255 236 247
255 236 247
255 236 247
255 236 247
255 236 247
255 236 247
255 236 247
255 236 247
255 236 247
255 236 247
255 236 247
255 248 255
255 236 247
255 236 247
255 236 247
255 236 247
255 236 247
255 236 247
255 236 247
255 236 247
255 236 247
255 236 247
255 236 247
255 236 247
255 236 247
255 236 247
255 236 247
255 236 247
255 236 247
255 236 247
255 236 247
255 236 247
255 236 247
255 236 247
255 236 247
255 236 247
255 236 247
255 236 247
255 236 247
255 236 247
255 236 247
255 236 247
255 236 247
255 236 247
255 236 247
255 236 247
255 236 247
255 236 247
255 248 255
255 236 247
255 236 247
255 236 247
255 236 247
255 236 247
255 236 247
255 236 247
255 236 247
255 236 247
255 236 247
255 236 247
255 236 247
255 236 247
255 236 247
255 236 247
255 236 247
255 236 247
255 236 247
255 236 247
255 236 247
255 236 247
255 236 247
255 236 247
255 236 247
255 236 247
255 236 247
255 236 247
255 236 247
255 236 247
255 236 247
255 236 247
255 236 247
255 236 247
255 236 247
255 236 247
255 236 247
255 248 255
255 236 247
255 236 247
255 236 247
255 236 247
255 236 247
255 236 247
255 236 247
255 236 247
255 236 247
255 236 247
255 236 247
255 236 247
255 236 247
255 236 247
255 236 247
255 236 247
255 236 247
255 236 247
255 236 247
255 236 247
255 236 247
255 236 247
255 236 247
255 236 247
255 236 247
255 236 247
255 236 247
255 236 247
255 236 247
255 236 247
255 236 247
255 236 247
255 236 247
255 236 247
255 236 247
255 236 247
255 248 255
255 236 247
255 236 247
255 236 247
255 236 247
255 236 247
255 236 247
255 236 247
255 236 247
255 236 247
255 236 247
255 236 247
255 236 247
255 236 247
255 236 247
255 236 247
255 236 247
255 236 247
255 236 247
255 236 247
255 236 247
255 236 247
255 236 247
255 236 247
255 236 247
255 236 247
255 236 247
255 236 247
255 236 247
255 236 247
255 236 247
255 236 247
255 236 247
255 236 247
255 236 247
255 236 247
255 236 247
255 248 255
255 236 247
255 236 247
255 236 247
255 236 247
255 236 247
255 236 247
255 236 247
255 236 247
255 236 247
255 236 247
255 236 247
255 236 247
255 236 247
255 236 247
255 236 247
255 236 247
255 236 247
255 236 247
255 236 247
255 236 247
255 236 247
255 236 247
255 248 255
255 236 247
255 236 247
255 236 247
255 236 247
255 236 247
255 236 247
255 236 247
255 236 247
255 236 247
255 236 247
255 236 247
255 236 247
255 236 247
255 236 247
255 236 247
255 236 247
255 236 247
255 236 247
255 236 247
255 236 247
255 236 247
255 236 247
255 236 247
255 236 247
255 236 247
255 236 247
255 236 247
255 236 247
255 236 247
255 236 247
255 236 247
255 236 247
255 236 247
255 236 247
255 236 247
255 236 247
255 248 255
255 236 247
255 236 247
255 236 247
255 236 247
255 236 247
255 236 247
255 236 247
255 236 247
255 236 247
255 236 247
255 236 247
255 236 247
255 236 247
255 236 247
255 236 247
255 236 247
255 236 247
255 236 247
255 236 247
255 236 247
255 236 247
255 236 247
255 236 247
255 236 247
255 236 247
255 236 247
255 236 247
255 236 247
255 236 247
255 236 247
255 236 247
255 236 247
255 236 247
255 236 247
255 236 247
255 236 247
255 248 255
255 236 247
255 236 247
255 236 247
255 236 247
255 236 247
255 236 247
255 236 247
255 236 247
255 236 247
255 236 247
255 236 247
255 236 247
255 236 247
255 236 247
255 236 247
255 236 247
255 236 247
255 236 247
255 236 247
255 236 247
255 236 247
255 236 247
255 236 247
255 236 247
255 236 247
255 236 247
255 236 247
255 236 247
255 236 247
255 236 247
255 236 247
255 236 247
255 236 247
255 236 247
255 236 247
255 236 247
255 248 255
255 236 247
255 236 247
255 236 247
255 236 247
255 236 247
255 236 247
255 236 247
255 236 247
255 236 247
255 236 247
255 236 247
255 236 247
255 236 247
255 236 247
255 236 247
255 236 247
255 236 247
255 236 247
255 236 247
255 236 247
255 236 247
255 236 247
255 236 247
255 236 247
255 236 247
255 236 247
255 236 247
255 236 247
255 236 247
255 236 247
255 236 247
255 236 247
255 236 247
255 236 247
255 236 247
255 236 247
255 248 255
255 236 247
255 236 247
255 236 247
255 236 247
255 236 247
255 236 247
255 236 247
255 236 247
255 236 247
255 236 247
255 236 247
255 236 247
255 236 247
255 236 247
255 236 247
255 236 247
255 236 247
255 236 247
255 236 247
255 236 247
255 236 247
255 236 247
255 236 247
255 236 247
255 236 247
255 236 247
255 236 247
255 236 247
255 236 247
255 236 247
255 236 247
255 236 247
255 236 247
255 236 247
255 236 247
255 236 247
255 248 255
255 236 247
255 236 247
255 236 247
255 236 247
255 236 247
255 236 247
255 236 247
255 236 247
255 236 247
255 236 247
255 236 247
255 236 247
255 236 247
255 236 247
255 236 247
255 236 247
255 236 247
255 236 247
255 236 247
255 236 247
255 236 247
255 236 247
255 236 247
255 236 247
255 236 247
255 236 247
255 236 247
255 236 247
255 236 247
255 236 247
255 236 247
255 236 247
255 236 247
255 236 247
255 236 247
255 236 247
255 248 255
255 236 247
255 236 247
255 236 247
255 236 247
255 236 247
255 236 247
255 236 247
255 236 247
255 236 247
255 236 247
255 236 247
255 236 247
255 236 247
255 236 247
255 236 247
255 236 247
255 236 247
255 236 247
255 236 247
255 236 247
255 236 247
255 236 247
255 236 247
255 236 247
255 236 247
255 236 247
255 236 247
255 236 247
255 236 247
255 236 247
255 236 247
255 236 247
255 236 247
255 236 247
255 236 247
255 236 247
255 248 255
255 236 247
255 236 247
255 236 247
255 236 247
255 236 247
255 236 247
255 236 247
255 236 247
255 236 247
255 236 247
255 236 247
255 236 247
255 236 247
255 236 247
255 236 247
255 236 247
255 236 247
255 236 247
255 236 247
255 236 247
255 236 247
255 236 247
255 236 247
255 236 247
255 236 247
255 236 247
255 236 247
255 236 247
255 236 247
255 236 247
255 236 247
255 236 247
255 236 247
255 236 247
255 236 247
255 236 247
255 248 255
255 236 247
255 236 247
255 236 247
255 236 247
255 236 247
255 236 247
255 236 247
255 236 247
255 236 247
255 236 247
255 236 247
255 236 247
255 236 247
255 236 247
255 236 247
255 236 247
255 236 247
255 236 247
255 236 247
255 236 247
255 236 247
255 236 247
255 248 255
255 236 247
255 236 247
255 236 247
255 236 247
255 236 247
255 236 247
255 236 247
255 236 247
255 236 247
255 236 247
255 236 247
255 236 247
255 236 247
255 236 247
255 236 247
255 236 247
255 236 247
255 236 247
255 236 247
255 236 247
255 236 247
255 236 247
255 236 247
255 236 247
255 236 247
255 236 247
255 236 247
255 236 247
255 236 247
255 236 247
255 236 247
255 236 247
255 236 247
255 236 247
255 236 247
255 236 247
255 248 255
255 236 247
255 236 247
255 236 247
255 236 247
255 236 247
255 236 247
255 236 247
255 236 247
255 236 247
255 236 247
255 236 247
255 236 247
255 236 247
255 236 247
255 236 247
255 236 247
255 236 247
255 236 247
255 236 247
255 236 247
255 236 247
255 236 247
255 236 247
255 236 247
255 236 247
255 236 247
255 236 247
255 236 247
255 236 247
255 236 247
255 236 247
255 236 247
255 236 247
255 236 247
255 236 247
255 236 247
255 248 255
255 236 247
255 236 247
255 236 247
255 236 247
255 236 247
255 236 247
255 236 247
255 236 247
255 236 247
255 236 247
255 236 247
255 236 247
255 236 247
255 236 247
255 236 247
255 236 247
255 236 247
255 236 247
255 236 247
255 236 247
255 236 247
255 236 247
255 236 247
255 236 247
255 236 247
255 236 247
255 236 247
255 236 247
255 236 247
255 236 247
255 236 247
255 236 247
255 236 247
255 236 247
255 236 247
255 236 247
255 248 255
255 236 247
255 236 247
255 236 247
255 236 247
255 236 247
255 236 247
255 236 247
255 236 247
255 236 247
255 236 247
255 236 247
255 236 247
255 236 247
255 236 247
255 236 247
255 236 247
255 236 247
255 236 247
255 236 247
255 236 247
255 236 247
255 236 247
255 236 247
255 236 247
255 236 247
255 236 247
255 236 247
255 236 247
255 236 247
255 236 247
255 236 247
255 236 247
255 236 247
255 236 247
255 236 247
255 236 247
255 248 255
255 236 247
255 236 247
255 236 247
255 236 247
255 236 247
255 236 247
255 236 247
255 236 247
255 236 247
255 236 247
255 236 247
255 236 247
255 236 247
255 236 247
255 236 247
255 236 247
255 236 247
255 236 247
255 236 247
255 236 247
255 236 247
255 236 247
255 236 247
255 236 247
255 236 247
255 236 247
255 236 247
255 236 247
255 236 247
255 236 247
255 236 247
255 236 247
255 236 247
255 236 247
255 236 247
255 236 247
255 248 255
255 236 247
255 236 247
255 236 247
255 236 247
255 236 247
255 236 247
255 236 247
255 236 247
255 236 247
255 236 247
255 236 247
255 236 247
255 236 247
255 236 247
255 236 247
255 236 247
255 236 247
255 236 247
255 236 247
255 236 247
255 236 247
255 236 247
255 236 247
255 236 247
255 236 247
255 236 247
255 236 247
255 236 247
255 236 247
255 236 247
255 236 247
255 236 247
255 236 247
255 236 247
255 236 247
255 236 247
255 248 255
255 236 247
255 236 247
255 236 247
255 236 247
255 236 247
255 236 247
255 236 247
255 236 247
255 236 247
255 236 247
255 236 247
255 236 247
255 236 247
255 236 247
255 236 247
255 236 247
255 236 247
255 236 247
255 236 247
255 236 247
255 236 247
255 236 247
255 236 247
255 236 247
255 236 247
255 236 247
255 236 247
255 236 247
255 236 247
255 236 247
255 236 247
255 236 247
255 236 247
255 236 247
255 236 247
255 236 247
255 248 255
255 236 247
255 236 247
255 236 247
255 236 247
255 236 247
255 236 247
255 236 247
255 236 247
255 236 247
255 236 247
255 236 247
255 236 247
255 236 247
255 236 247
255 236 247
255 236 247
255 236 247
255 236 247
255 236 247
255 236 247
255 236 247
255 236 247
255 236 247
255 236 247
255 236 247
255 236 247
255 236 247
255 236 247
255 236 247
255 236 247
255 236 247
255 236 247
255 236 247
255 236 247
255 236 247
255 236 247
255 248 255
255 236 247
255 236 247
255 236 247
255 236 247
255 236 247
255 236 247
255 236 247
255 236 247
255 236 247
255 236 247
255 236 247
255 236 247
255 236 247
255 236 247
255 236 247
255 236 247
255 236 247
255 236 247
255 236 247
255 236 247
255 236 247
255 236 247
255 248 255
255 236 247
255 236 247
255 236 247
255 236 247
255 236 247
255 236 247
255 236 247
255 236 247
255 236 247
255 236 247
255 236 247
255 236 247
255 236 247
255 236 247
255 236 247
255 236 247
255 236 247
255 236 247
255 236 247
255 236 247
255 236 247
255 236 247
255 236 247
255 236 247
255 236 247
255 236 247
255 236 247
255 236 247
255 236 247
255 236 247
255 236 247
255 236 247
255 236 247
255 236 247
255 236 247
255 236 247
255 248 255
255 236 247
255 236 247
255 236 247
255 236 247
255 236 247
255 236 247
255 236 247
255 236 247
255 236 247
255 236 247
255 236 247
255 236 247
255 236 247
255 236 247
255 236 247
255 236 247
255 236 247
255 236 247
255 236 247
255 236 247
255 236 247
255 236 247
255 236 247
255 236 247
255 236 247
255 236 247
255 236 247
255 236 247
255 236 247
255 236 247
255 236 247
255 236 247
255 236 247
255 236 247
255 236 247
255 236 247
255 248 255
255 236 247
255 236 247
255 236 247
255 236 247
255 236 247
255 236 247
255 236 247
255 236 247
255 236 247
255 236 247
255 236 247
255 236 247
255 236 247
255 236 247
255 236 247
255 236 247
255 236 247
255 236 247
255 236 247
255 236 247
255 236 247
255 236 247
255 236 247
255 236 247
255 236 247
255 236 247
255 236 247
255 236 247
255 236 247
255 236 247
255 236 247
255 236 247
255 236 247
255 236 247
255 236 247
255 236 247
255 248 255
255 236 247
255 236 247
255 236 247
255 236 247
255 236 247
255 236 247
255 236 247
255 236 247
255 236 247
255 236 247
255 236 247
255 236 247
255 236 247
255 236 247
255 236 247
255 236 247
255 236 247
255 236 247
255 236 247
255 236 247
255 236 247
255 236 247
255 236 247
255 236 247
255 236 247
255 236 247
255 236 247
255 236 247
255 236 247
255 236 247
255 236 247
255 236 247
255 236 247
255 236 247
255 236 247
255 236 247
255 248 255
255 236 247
255 236 247
255 236 247
255 236 247
255 236 247
255 236 247
255 236 247
255 236 247
255 236 247
255 236 247
255 236 247
255 236 247
255 236 247
255 236 247
255 236 247
255 236 247
255 236 247
255 236 247
255 236 247
255 236 247
255 236 247
255 236 247
255 236 247
255 236 247
255 236 247
255 236 247
255 236 247
255 236 247
255 236 247
255 236 247
255 236 247
255 236 247
255 236 247
255 236 247
255 236 247
255 236 247
255 248 255
255 236 247
255 236 247
255 236 247
255 236 247
255 236 247
255 236 247
255 236 247
255 236 247
255 236 247
255 236 247
255 236 247
255 236 247
255 236 247
255 236 247
255 236 247
255 236 247
255 236 247
255 236 247
255 236 247
255 236 247
255 236 247
255 236 247
255 236 247
255 236 247
255 236 247
255 236 247
255 236 247
255 236 247
255 236 247
255 236 247
255 236 247
255 236 247
255 236 247
255 236 247
255 236 247
255 236 247
255 248 255
255 236 247
255 236 247
255 236 247
255 236 247
255 236 247
255 236 247
255 236 247
255 236 247
255 236 247
255 236 247
255 236 247
255 236 247
255 236 247
255 236 247
255 236 247
255 236 247
255 236 247
255 236 247
255 236 247
255 236 247
255 236 247
255 236 247
255 236 247
255 236 247
255 236 247
255 236 247
255 236 247
255 236 247
255 236 247
255 236 247
255 236 247
255 236 247
255 236 247
255 236 247
255 236 247
255 236 247
255 248 255
255 236 247
255 236 247
255 236 247
255 236 247
255 236 247
255 236 247
255 236 247
255 236 247
255 236 247
255 236 247
255 236 247
255 236 247
255 236 247
255 236 247
255 236 247
255 236 247
255 236 247
255 236 247
255 236 247
255 236 247
255 236 247
255 236 247
255 236 247
255 236 247
255 236 247
255 236 247
255 236 247
255 236 247
255 236 247
255 236 247
255 236 247
255 236 247
255 236 247
255 236 247
255 236 247
255 236 247
255 248 255
255 236 247
255 236 247
255 236 247
255 236 247
255 236 247
255 236 247
255 236 247
255 236 247
255 236 247
255 236 247
255 236 247
255 236 247
255 236 247
255 236 247
255 236 247
255 236 247
255 236 247
255 236 247
255 236 247
255 236 247
255 236 247
255 236 247
255 248 255
255 236 247
255 236 247
255 236 247
255 236 247
255 236 247
255 236 247
255 236 247
255 236 247
255 236 247
255 236 247
255 236 247
255 236 247
255 236 247
255 236 247
255 236 247
255 236 247
255 236 247
255 236 247
255 236 247
255 236 247
255 236 247
255 236 247
255 236 247
255 236 247
255 236 247
255 236 247
255 236 247
255 236 247
255 236 247
255 236 247
255 236 247
255 236 247
255 236 247
255 236 247
255 236 247
255 236 247
255 248 255
255 236 247
255 236 247
255 236 247
255 236 247
255 236 247
255 236 247
255 236 247
255 236 247
255 236 247
255 236 247
255 236 247
255 236 247
255 236 247
255 236 247
255 236 247
255 236 247
255 236 247
255 236 247
255 236 247
255 236 247
255 236 247
255 236 247
255 236 247
255 236 247
255 236 247
255 236 247
255 236 247
255 236 247
255 236 247
255 236 247
255 236 247
255 236 247
255 236 247
255 236 247
255 236 247
255 236 247
255 248 255
255 236 247
255 236 247
255 236 247
255 236 247
255 236 247
255 236 247
255 236 247
255 236 247
255 236 247
255 236 247
255 236 247
255 236 247
255 236 247
255 236 247
255 236 247
255 236 247
255 236 247
255 236 247
255 236 247
255 236 247
255 236 247
255 236 247
255 236 247
255 236 247
255 236 247
255 236 247
255 236 247
255 236 247
255 236 247
255 236 247
255 236 247
255 236 247
255 236 247
255 236 247
255 236 247
255 236 247
255 248 255
255 236 247
255 236 247
255 236 247
255 236 247
255 236 247
255 236 247
255 236 247
255 236 247
255 236 247
255 236 247
255 236 247
255 236 247
255 236 247
255 236 247
255 236 247
255 236 247
255 236 247
255 236 247
255 236 247
255 236 247
255 236 247
255 236 247
255 236 247
255 236 247
255 236 247
255 236 247
255 236 247
255 236 247
255 236 247
255 236 247
255 236 247
255 236 247
255 236 247
255 236 247
255 236 247
255 236 247
255 248 255
255 236 247
255 236 247
255 236 247
255 236 247
255 236 247
255 236 247
255 236 247
255 236 247
255 236 247
255 236 247
255 236 247
255 236 247
255 236 247
255 236 247
255 236 247
255 236 247
255 236 247
255 236 247
255 236 247
255 236 247
255 236 247
255 236 247
255 236 247
255 236 247
255 236 247
255 236 247
255 236 247
255 236 247
255 236 247
255 236 247
255 236 247
255 236 247
255 236 247
255 236 247
255 236 247
255 236 247
255 248 255
255 236 247
255 236 247
255 236 247
255 236 247
255 236 247
255 236 247
255 236 247
255 236 247
255 236 247
255 236 247
255 236 247
255 236 247
255 236 247
255 236 247
255 236 247
255 236 247
255 236 247
255 236 247
255 236 247
255 236 247
255 236 247
255 236 247
255 236 247
255 236 247
255 236 247
255 236 247
255 236 247
255 236 247
255 236 247
255 236 247
255 236 247
255 236 247
255 236 247
255 236 247
255 236 247
255 236 247
255 248 255
255 236 247
255 236 247
255 236 247
255 236 247
255 236 247
255 236 247
255 236 247
255 236 247
255 236 247
255 236 247
255 236 247
255 236 247
255 236 247
255 236 247
255 236 247
255 236 247
255 236 247
255 236 247
255 236 247
255 236 247
255 236 247
255 236 247
255 236 247
255 236 247
255 236 247
255 236 247
255 236 247
255 236 247
255 236 247
255 236 247
255 236 247
255 236 247
255 236 247
255 236 247
255 236 247
255 236 247
255 248 255
255 236 247
255 236 247
255 236 247
255 236 247
255 236 247
255 236 247
255 236 247
255 236 247
255 236 247
255 236 247
255 236 247
255 236 247
255 236 247
255 236 247
255 236 247
255 236 247
255 236 247
255 236 247
255 236 247
255 236 247
255 236 247
255 236 247
255 236 247
255 236 247
255 236 247
255 236 247
255 236 247
255 236 247
255 236 247
255 236 247
255 236 247
255 236 247
255 236 247
255 236 247
255 236 247
255 236 247
255 248 255
255 236 247
255 236 247
255 236 247
255 236 247
255 236 247
255 236 247
255 236 247
255 236 247
255 236 247
255 236 247
255 236 247
255 236 247
255 236 247
255 236 247
255 236 247
255 236 247
255 236 247
255 236 247
255 236 247
255 236 247
255 236 247
255 236 247
255 248 255
255 236 247
255 236 247
255 236 247
255 236 247
255 236 247
255 236 247
255 236 247
255 236 247
255 236 247
255 236 247
255 236 247
255 236 247
255 236 247
255 236 247
255 236 247
255 236 247
255 236 247
255 236 247
255 236 247
255 236 247
255 236 247
255 236 247
255 236 247
255 236 247
255 236 247
255 236 247
255 236 247
255 236 247
255 236 247
255 236 247
255 236 247
255 236 247
255 236 247
255 236 247
255 236 247
255 236 247
255 248 255
255 236 247
255 236 247
255 236 247
255 236 247
255 236 247
255 236 247
255 236 247
255 236 247
255 236 247
255 236 247
255 236 247
255 236 247
255 236 247
255 236 247
255 236 247
255 236 247
255 236 247
255 236 247
255 236 247
255 236 247
255 236 247
255 236 247
255 236 247
255 236 247
255 236 247
255 236 247
255 236 247
255 236 247
255 236 247
255 236 247
255 236 247
255 236 247
255 236 247
255 236 247
255 236 247
255 236 247
255 248 255
255 236 247
255 236 247
255 236 247
255 236 247
255 236 247
255 236 247
255 236 247
255 236 247
255 236 247
255 236 247
255 236 247
255 236 247
255 236 247
255 236 247
255 236 247
255 236 247
255 236 247
255 236 247
255 236 247
255 236 247
255 236 247
255 236 247
255 236 247
255 236 247
255 236 247
255 236 247
255 236 247
255 236 247
255 236 247
255 236 247
255 236 247
255 236 247
255 236 247
255 236 247
255 236 247
255 236 247
255 248 255
255 236 247
255 236 247
255 236 247
255 236 247
255 236 247
255 236 247
255 236 247
255 236 247
255 236 247
255 236 247
255 236 247
255 236 247
255 236 247
255 236 247
255 236 247
255 236 247
255 236 247
255 236 247
255 236 247
255 236 247
255 236 247
255 236 247
255 236 247
255 236 247
255 236 247
255 236 247
255 236 247
255 236 247
255 236 247
255 236 247
255 236 247
255 236 247
255 236 247
255 236 247
255 236 247
255 236 247
255 248 255
255 236 247
255 236 247
255 236 247
255 236 247
255 236 247
255 236 247
255 236 247
255 236 247
255 236 247
255 236 247
255 236 247
255 236 247
255 236 247
255 236 247
255 236 247
255 236 247
255 236 247
255 236 247
255 236 247
255 236 247
255 236 247
255 236 247
255 236 247
255 236 247
255 236 247
255 236 247
255 236 247
255 236 247
255 236 247
255 236 247
255 236 247
255 236 247
255 236 247
255 236 247
255 236 247
255 236 247
255 248 255
255 236 247
255 236 247
255 236 247
255 236 247
255 236 247
255 236 247
255 236 247
255 236 247
255 236 247
255 236 247
255 236 247
255 236 247
255 236 247
255 236 247
255 236 247
255 236 247
255 236 247
255 236 247
255 236 247
255 236 247
255 236 247
255 236 247
255 236 247
255 236 247
255 236 247
255 236 247
255 236 247
255 236 247
255 236 247
255 236 247
255 236 247
255 236 247
255 236 247
255 236 247
255 236 247
255 236 247
255 248 255
255 236 247
255 236 247
255 236 247
255 236 247
255 236 247
255 236 247
255 236 247
255 236 247
255 236 247
255 236 247
255 236 247
255 236 247
255 236 247
255 236 247
255 236 247
255 236 247
255 236 247
255 236 247
255 236 247
255 236 247
255 236 247
255 236 247
255 236 247
255 236 247
255 236 247
255 236 247
255 236 247
255 236 247
255 236 247
255 236 247
255 236 247
255 236 247
255 236 247
255 236 247
255 236 247
255 236 247
255 248 255
255 236 247
255 236 247
255 236 247
255 236 247
255 236 247
255 236 247
255 236 247
255 236 247
255 236 247
255 236 247
255 236 247
255 236 247
255 236 247
255 236 247
255 236 247
255 236 247
255 236 247
255 236 247
255 236 247
255 236 247
255 236 247
255 236 247
255 236 247
255 236 247
255 236 247
255 236 247
255 236 247
255 236 247
255 236 247
255 236 247
255 236 247
255 236 247
255 236 247
255 236 247
255 236 247
255 236 247
255 248 255
255 236 247
255 236 247
255 236 247
255 236 247
255 236 247
255 236 247
255 236 247
255 236 247
255 236 247
255 236 247
255 236 247
255 236 247
255 236 247
255 236 247
255 236 247
255 236 247
255 236 247
255 236 247
255 236 247
255 236 247
255 236 247
255 236 247
255 248 255
255 236 247
255 236 247
255 236 247
255 236 247
255 236 247
255 236 247
255 236 247
255 236 247
255 236 247
255 236 247
255 236 247
255 236 247
255 236 247
255 236 247
255 236 247
255 236 247
255 236 247
255 236 247
255 236 247
255 236 247
255 236 247
255 236 247
255 236 247
255 236 247
255 236 247
255 236 247
255 236 247
255 236 247
255 236 247
255 236 247
255 236 247
255 236 247
255 236 247
255 236 247
255 236 247
255 236 247
255 248 255
255 236 247
255 236 247
255 236 247
255 236 247
255 236 247
255 236 247
255 236 247
255 236 247
255 236 247
255 236 247
255 236 247
255 236 247
255 236 247
255 236 247
255 236 247
255 236 247
255 236 247
255 236 247
255 236 247
255 236 247
255 236 247
255 236 247
255 236 247
255 236 247
255 236 247
255 236 247
255 236 247
255 236 247
255 236 247
255 236 247
255 236 247
255 236 247
255 236 247
255 236 247
255 236 247
255 236 247
255 248 255
255 236 247
255 236 247
255 236 247
255 236 247
255 236 247
255 236 247
255 236 247
255 236 247
255 236 247
255 236 247
255 236 247
255 236 247
255 236 247
255 236 247
255 236 247
255 236 247
255 236 247
255 236 247
255 236 247
255 236 247
255 236 247
255 236 247
255 236 247
255 236 247
255 236 247
255 236 247
255 236 247
255 236 247
255 236 247
255 236 247
255 236 247
255 236 247
255 236 247
255 236 247
255 236 247
255 236 247
255 248 255
255 236 247
255 236 247
255 236 247
255 236 247
255 236 247
255 236 247
255 236 247
255 236 247
255 236 247
255 236 247
255 236 247
255 236 247
255 236 247
255 236 247
255 236 247
255 236 247
255 236 247
255 236 247
255 236 247
255 236 247
255 236 247
255 236 247
255 236 247
255 236 247
255 236 247
255 236 247
255 236 247
255 236 247
255 236 247
255 236 247
255 236 247
255 236 247
255 236 247
255 236 247
255 236 247
255 236 247
255 248 255
255 236 247
255 236 247
255 236 247
255 236 247
255 236 247
255 236 247
255 236 247
255 236 247
255 236 247
255 236 247
255 236 247
255 236 247
255 236 247
255 236 247
255 236 247
255 236 247
255 236 247
255 236 247
255 236 247
255 236 247
255 236 247
255 236 247
255 236 247
255 236 247
255 236 247
255 236 247
255 236 247
255 236 247
255 236 247
255 236 247
255 236 247
255 236 247
255 236 247
255 236 247
255 236 247
255 236 247
255 248 255
255 236 247
255 236 247
255 236 247
255 236 247
255 236 247
255 236 247
255 236 247
255 236 247
255 236 247
255 236 247
255 236 247
255 236 247
255 236 247
255 236 247
255 236 247
255 236 247
255 236 247
255 236 247
255 236 247
255 236 247
255 236 247
255 236 247
255 236 247
255 236 247
255 236 247
255 236 247
255 236 247
255 236 247
255 236 247
255 236 247
255 236 247
255 236 247
255 236 247
255 236 247
255 236 247
255 236 247
255 248 255
255 236 247
255 236 247
255 236 247
255 236 247
255 236 247
255 236 247
255 236 247
255 236 247
255 236 247
255 236 247
255 236 247
255 236 247
255 236 247
255 236 247
255 236 247
255 236 247
255 236 247
255 236 247
255 236 247
255 236 247
255 236 247
255 236 247
255 236 247
255 236 247
255 236 247
255 236 247
255 236 247
255 236 247
255 236 247
255 236 247
255 236 247
255 236 247
255 236 247
255 236 247
255 236 247
255 236 247
255 248 255
255 236 247
255 236 247
255 236 247
255 236 247
255 236 247
255 236 247
255 236 247
255 236 247
255 236 247
255 236 247
255 236 247
255 236 247
255 236 247
255 236 247
255 236 247
255 236 247
255 236 247
255 236 247
255 236 247
255 236 247
255 236 247
255 236 247
255 236 247
255 236 247
255 236 247
255 236 247
255 236 247
255 236 247
255 236 247
255 236 247
255 236 247
255 236 247
255 236 247
255 236 247
255 236 247
255 236 247
255 248 255
255 236 247
255 236 247
255 236 247
255 236 247
255 236 247
255 236 247
255 236 247
255 236 247
255 236 247
255 236 247
255 236 247
255 236 247
255 236 247
255 236 247
255 236 247
255 236 247
255 236 247
255 236 247
255 236 247
255 236 247
255 236 247
255 236 247
255 248 255
255 236 247
255 236 247
255 236 247
255 236 247
255 236 247
255 236 247
255 236 247
255 236 247
255 236 247
255 236 247
255 236 247
255 236 247
255 236 247
255 236 247
255 236 247
255 236 247
255 236 247
255 236 247
255 236 247
255 236 247
255 236 247
255 236 247
255 236 247
255 236 247
255 236 247
255 236 247
255 236 247
255 236 247
255 236 247
255 236 247
255 236 247
255 236 247
255 236 247
255 236 247
255 236 247
255 236 247
255 248 255
255 236 247
255 236 247
255 236 247
255 236 247
255 236 247
255 236 247
255 236 247
255 236 247
255 236 247
255 236 247
255 236 247
255 236 247
255 236 247
255 236 247
255 236 247
255 236 247
255 236 247
255 236 247
255 236 247
255 236 247
255 236 247
255 236 247
255 236 247
255 236 247
255 236 247
255 236 247
255 236 247
255 236 247
255 236 247
255 236 247
255 236 247
255 236 247
255 236 247
255 236 247
255 236 247
255 236 247
255 248 255
255 236 247
255 236 247
255 236 247
255 236 247
255 236 247
255 236 247
255 236 247
255 236 247
255 236 247
255 236 247
255 236 247
255 236 247
255 236 247
255 236 247
255 236 247
255 236 247
255 236 247
255 236 247
255 236 247
255 236 247
255 236 247
255 236 247
255 236 247
255 236 247
255 236 247
255 236 247
255 236 247
255 236 247
255 236 247
255 236 247
255 236 247
255 236 247
255 236 247
255 236 247
255 236 247
255 236 247
255 248 255
255 236 247
255 236 247
255 236 247
255 236 247
255 236 247
255 236 247
255 236 247
255 236 247
255 236 247
255 236 247
255 236 247
255 236 247
255 236 247
255 236 247
255 236 247
255 236 247
255 236 247
255 236 247
255 236 247
255 236 247
255 236 247
255 236 247
255 236 247
255 236 247
255 236 247
255 236 247
255 236 247
255 236 247
255 236 247
255 236 247
255 236 247
255 236 247
255 236 247
255 236 247
255 236 247
255 236 247
255 248 255
255 236 247
255 236 247
255 236 247
255 236 247
255 236 247
255 236 247
255 236 247
255 236 247
255 236 247
255 236 247
255 236 247
255 236 247
255 236 247
255 236 247
255 236 247
255 236 247
255 236 247
255 236 247
255 236 247
255 236 247
255 236 247
255 236 247
255 236 247
255 236 247
255 236 247
255 236 247
255 236 247
255 236 247
255 236 247
255 236 247
255 236 247
255 236 247
255 236 247
255 236 247
255 236 247
255 236 247
255 248 255
255 236 247
255 236 247
255 236 247
255 236 247
255 236 247
255 236 247
255 236 247
255 236 247
255 236 247
255 236 247
255 236 247
255 236 247
255 236 247
255 236 247
255 236 247
255 236 247
255 236 247
255 236 247
255 236 247
255 236 247
255 236 247
255 236 247
255 236 247
255 236 247
255 236 247
255 236 247
255 236 247
255 236 247
255 236 247
255 236 247
255 236 247
255 236 247
255 236 247
255 236 247
255 236 247
255 236 247
255 248 255
255 236 247
255 236 247
255 236 247
255 236 247
255 236 247
255 236 247
255 236 247
255 236 247
255 236 247
255 236 247
255 236 247
255 236 247
255 236 247
255 236 247
255 236 247
255 236 247
255 236 247
255 236 247
255 236 247
255 236 247
255 236 247
255 236 247
255 236 247
255 236 247
255 236 247
255 236 247
255 236 247
255 236 247
255 236 247
255 236 247
255 236 247
255 236 247
255 236 247
255 236 247
255 236 247
255 236 247
255 248 255
255 236 247
255 236 247
255 236 247
255 236 247
255 236 247
255 236 247
255 236 247
255 236 247
255 236 247
255 236 247
255 236 247
255 236 247
255 236 247
255 236 247
255 236 247
255 236 247
255 236 247
255 236 247
255 236 247
255 236 247
255 236 247
255 236 247
255 236 247
255 236 247
255 236 247
255 236 247
255 236 247
255 236 247
255 236 247
255 236 247
255 236 247
255 236 247
255 236 247
255 236 247
255 236 247
255 236 247
255 248 255
255 236 247
255 236 247
255 236 247
255 236 247
255 236 247
255 236 247
255 236 247
255 236 247
255 236 247
255 236 247
255 236 247
255 236 247
255 236 247
255 236 247
255 236 247
255 236 247
255 236 247
255 236 247
255 236 247
255 236 247
255 236 247
255 236 247
255 248 255
255 236 247
255 236 247
255 236 247
255 236 247
255 236 247
255 236 247
255 236 247
255 236 247
255 236 247
255 236 247
255 236 247
255 236 247
255 236 247
255 236 247
255 236 247
255 236 247
255 236 247
255 236 247
255 236 247
255 236 247
255 236 247
255 236 247
255 236 247
255 236 247
255 236 247
255 236 247
255 236 247
255 236 247
255 236 247
255 236 247
255 236 247
255 236 247
255 236 247
255 236 247
255 236 247
255 236 247
255 248 255
255 236 247
255 236 247
255 236 247
255 236 247
255 236 247
255 236 247
255 236 247
255 236 247
255 236 247
255 236 247
255 236 247
255 236 247
255 236 247
255 236 247
255 236 247
255 236 247
255 236 247
255 236 247
255 236 247
255 236 247
255 236 247
255 236 247
255 236 247
255 236 247
255 236 247
255 236 247
255 236 247
255 236 247
255 236 247
255 236 247
255 236 247
255 236 247
255 236 247
255 236 247
255 236 247
255 236 247
255 248 255
255 236 247
255 236 247
255 236 247
255 236 247
255 236 247
255 236 247
255 236 247
255 236 247
255 236 247
255 236 247
255 236 247
255 236 247
255 236 247
255 236 247
255 236 247
255 236 247
255 236 247
255 236 247
255 236 247
255 236 247
255 236 247
255 236 247
255 236 247
255 236 247
255 236 247
255 236 247
255 236 247
255 236 247
255 236 247
255 236 247
255 236 247
255 236 247
255 236 247
255 236 247
255 236 247
255 236 247
255 248 255
255 236 247
255 236 247
255 236 247
255 236 247
255 236 247
255 236 247
255 236 247
255 236 247
255 236 247
255 236 247
255 236 247
255 236 247
255 236 247
255 236 247
255 236 247
255 236 247
255 236 247
255 236 247
255 236 247
255 236 247
255 236 247
255 236 247
255 236 247
255 236 247
255 236 247
255 236 247
255 236 247
255 236 247
255 236 247
255 236 247
255 236 247
255 236 247
255 236 247
255 236 247
255 236 247
255 236 247
255 248 255
255 236 247
255 236 247
255 236 247
255 236 247
255 236 247
255 236 247
255 236 247
255 236 247
255 236 247
255 236 247
255 236 247
255 236 247
255 236 247
255 236 247
255 236 247
255 236 247
255 236 247
255 236 247
255 236 247
255 236 247
255 236 247
255 236 247
255 236 247
255 236 247
255 236 247
255 236 247
255 236 247
255 236 247
255 236 247
255 236 247
255 236 247
255 236 247
255 236 247
255 236 247
255 236 247
255 236 247
255 248 255
255 236 247
255 236 247
255 236 247
255 236 247
255 236 247
255 236 247
255 236 247
255 236 247
255 236 247
255 236 247
255 236 247
255 236 247
255 236 247
255 236 247
255 236 247
255 236 247
255 236 247
255 236 247
255 236 247
255 236 247
255 236 247
255 236 247
255 236 247
255 236 247
255 236 247
255 236 247
255 236 247
255 236 247
255 236 247
255 236 247
255 236 247
255 236 247
255 236 247
255 236 247
255 236 247
255 236 247
255 248 255
255 236 247
255 236 247
255 236 247
255 236 247
255 236 247
255 236 247
255 236 247
255 236 247
255 236 247
255 236 247
255 236 247
255 236 247
255 236 247
255 236 247
255 236 247
255 236 247
255 236 247
255 236 247
255 236 247
255 236 247
255 236 247
255 236 247
255 236 247
255 236 247
255 236 247
255 236 247
255 236 247
255 236 247
255 236 247
255 236 247
255 236 247
255 236 247
255 236 247
255 236 247
255 236 247
255 236 247
255 248 255
255 236 247
255 236 247
255 236 247
255 236 247
255 236 247
255 236 247
255 236 247
255 236 247
255 236 247
255 236 247
255 236 247
255 236 247
255 236 247
255 236 247
255 236 247
255 236 247
255 236 247
255 236 247
255 236 247
255 236 247
255 236 247
255 236 247
255 236 247
255 236 247
255 236 247
255 236 247
255 236 247
255 236 247
255 236 247
255 236 247
255 236 247
255 236 247
255 236 247
255 236 247
255 236 247
255 236 247
255 248 255
255 236 247
255 236 247
255 236 247
255 236 247
255 236 247
255 236 247
255 236 247
255 236 247
255 236 247
255 236 247
255 236 247
255 236 247
255 236 247
255 236 247
255 236 247
255 236 247
255 236 247
255 236 247
255 236 247
255 236 247
255 236 247
255 236 247
255 236 247
255 236 247
255 236 247
255 236 247
255 236 247
255 236 247
255 236 247
255 236 247
255 236 247
255 236 247
255 236 247
255 236 247
255 236 247
255 236 247
255 236 247
255 236 247
255 236 247
255 236 247
255 236 247
255 236 247
255 236 247
255 236 247
255 236 247
255 236 247
255 236 247
255 236 247
255 236 247
255 236 247
255 236 247
255 236 247
255 236 247
255 236 247
255 236 247
255 236 247
255 236 247
255 236 247
255 236 247
255 248 255
255 236 247
255 236 247
255 236 247
255 236 247
255 236 247
255 236 247
255 236 247
255 236 247
255 236 247
255 236 247
255 236 247
255 236 247
255 236 247
255 236 247
255 236 247
255 236 247
255 236 247
255 236 247
255 236 247
255 236 247
255 236 247
255 236 247
255 236 247
255 236 247
255 236 247
255 236 247
255 236 247
255 236 247
255 236 247
255 236 247
255 236 247
255 236 247
255 236 247
255 236 247
255 236 247
255 236 247
255 248 255
255 236 247
255 236 247
255 236 247
255 236 247
255 236 247
255 236 247
255 236 247
255 236 247
255 236 247
255 236 247
255 236 247
255 236 247
255 236 247
255 236 247
255 236 247
255 236 247
255 236 247
255 236 247
255 236 247
255 236 247
255 236 247
255 236 247
255 236 247
255 236 247
255 236 247
255 236 247
255 236 247
255 236 247
255 236 247
255 236 247
255 236 247
255 236 247
255 236 247
255 236 247
255 236 247
255 236 247
255 248 255
255 236 247
255 236 247
255 236 247
255 236 247
255 236 247
255 236 247
255 236 247
255 236 247
255 236 247
255 236 247
255 236 247
255 236 247
255 236 247
255 236 247
255 236 247
255 236 247
255 236 247
255 236 247
255 236 247
255 236 247
255 236 247
255 236 247
255 236 247
255 236 247
255 236 247
255 236 247
255 236 247
255 236 247
255 236 247
255 236 247
255 236 247
255 236 247
255 236 247
255 236 247
255 236 247
255 236 247
255 248 255
255 236 247
255 236 247
255 236 247
255 236 247
255 236 247
255 236 247
255 236 247
255 236 247
255 236 247
255 236 247
255 236 247
255 236 247
255 236 247
255 236 247
255 236 247
255 236 247
255 236 247
255 236 247
255 236 247
255 236 247
255 236 247
255 236 247
255 236 247
255 236 247
255 236 247
255 236 247
255 236 247
255 236 247
255 236 247
255 236 247
255 236 247
255 236 247
255 236 247
255 236 247
255 236 247
255 236 247
255 248 255
255 236 247
255 236 247
255 236 247
255 236 247
255 236 247
255 236 247
255 236 247
255 236 247
255 236 247
255 236 247
255 236 247
255 236 247
255 236 247
255 236 247
255 236 247
255 236 247
255 236 247
255 236 247
255 236 247
255 236 247
255 236 247
255 236 247
255 236 247
255 236 247
255 236 247
255 236 247
255 236 247
255 236 247
255 236 247
255 236 247
255 236 247
255 236 247
255 236 247
255 236 247
255 236 247
255 236 247
255 248 255
255 236 247
255 236 247
255 236 247
255 236 247
255 236 247
255 236 247
255 236 247
255 236 247
255 236 247
255 236 247
255 236 247
255 236 247
255 236 247
255 236 247
255 236 247
255 236 247
255 236 247
255 236 247
255 236 247
255 236 247
255 236 247
255 236 247
255 236 247
255 236 247
255 236 247
255 236 247
255 236 247
255 236 247
255 236 247
255 236 247
255 236 247
255 236 247
255 236 247
255 236 247
255 236 247
255 236 247
255 248 255
255 236 247
255 236 247
255 236 247
255 236 247
255 236 247
255 236 247
255 236 247
255 236 247
255 236 247
255 236 247
255 236 247
255 236 247
255 236 247
255 236 247
255 236 247
255 236 247
255 236 247
255 236 247
255 236 247
255 236 247
255 236 247
255 236 247
255 236 247
255 236 247
255 236 247
255 236 247
255 236 247
255 236 247
255 236 247
255 236 247
255 236 247
255 236 247
255 236 247
255 236 247
255 236 247
255 236 247
255 248 255
255 236 247
255 236 247
255 236 247
255 236 247
255 236 247
255 236 247
255 236 247
255 236 247
255 236 247
255 236 247
255 236 247
255 236 247
255 236 247
255 236 247
255 236 247
255 236 247
255 236 247
255 236 247
255 236 247
255 236 247
255 236 247
255 236 247
255 236 247
255 236 247
255 236 247
255 236 247
255 236 247
255 236 247
255 236 247
255 236 247
255 236 247
255 236 247
255 236 247
255 236 247
255 236 247
255 236 247
255 236 247
255 236 247
255 236 247
255 236 247
255 236 247
255 236 247
255 236 247
255 236 247
255 236 247
255 236 247
255 236 247
255 236 247
255 236 247
255 236 247
255 236 247
255 236 247
255 236 247
255 236 247
255 236 247
255 236 247
255 236 247
255 236 247
255 236 247
255 248 255
255 236 247
255 236 247
255 236 247
255 236 247
255 236 247
255 236 247
255 236 247
255 236 247
255 236 247
255 236 247
255 236 247
255 236 247
255 236 247
255 236 247
255 236 247
255 236 247
255 236 247
255 236 247
255 236 247
255 236 247
255 236 247
255 236 247
255 236 247
255 236 247
255 236 247
255 236 247
255 236 247
255 236 247
255 236 247
255 236 247
255 236 247
255 236 247
255 236 247
255 236 247
255 236 247
255 236 247
255 248 255
255 236 247
255 236 247
255 236 247
255 236 247
255 236 247
255 236 247
255 236 247
255 236 247
255 236 247
255 236 247
255 236 247
255 236 247
255 236 247
255 236 247
255 236 247
255 236 247
255 236 247
255 236 247
255 236 247
255 236 247
255 236 247
255 236 247
255 236 247
255 236 247
255 236 247
255 236 247
255 236 247
255 236 247
255 236 247
255 236 247
255 236 247
255 236 247
255 236 247
255 236 247
255 236 247
255 236 247
255 248 255
255 236 247
255 236 247
255 236 247
255 236 247
255 236 247
255 236 247
255 236 247
255 236 247
255 236 247
255 236 247
255 236 247
255 236 247
255 236 247
255 236 247
255 236 247
255 236 247
255 236 247
255 236 247
255 236 247
255 236 247
255 236 247
255 236 247
255 236 247
255 236 247
255 236 247
255 236 247
255 236 247
255 236 247
255 236 247
255 236 247
255 236 247
255 236 247
255 236 247
255 236 247
255 236 247
255 236 247
255 248 255
255 236 247
255 236 247
255 236 247
255 236 247
255 236 247
255 236 247
255 236 247
255 236 247
255 236 247
255 236 247
255 236 247
255 236 247
255 236 247
255 236 247
255 236 247
255 236 247
255 236 247
255 236 247
255 236 247
255 236 247
255 236 247
255 236 247
255 236 247
255 236 247
255 236 247
255 236 247
255 236 247
255 236 247
255 236 247
255 236 247
255 236 247
255 236 247
255 236 247
255 236 247
255 236 247
255 236 247
255 248 255
255 236 247
255 236 247
255 236 247
255 236 247
255 236 247
255 236 247
255 236 247
255 236 247
255 236 247
255 236 247
255 236 247
255 236 247
255 236 247
255 236 247
255 236 247
255 236 247
255 236 247
255 236 247
255 236 247
255 236 247
255 236 247
255 236 247
255 236 247
255 236 247
255 236 247
255 236 247
255 236 247
255 236 247
255 236 247
255 236 247
255 236 247
255 236 247
255 236 247
255 236 247
255 236 247
255 236 247
255 248 255
255 236 247
255 236 247
255 236 247
255 236 247
255 236 247
255 236 247
255 236 247
255 236 247
255 236 247
255 236 247
255 236 247
255 236 247
255 236 247
255 236 247
255 236 247
255 236 247
255 236 247
255 236 247
255 236 247
255 236 247
255 236 247
255 236 247
255 236 247
255 236 247
255 236 247
255 236 247
255 236 247
255 236 247
255 236 247
255 236 247
255 236 247
255 236 247
255 236 247
255 236 247
255 236 247
255 236 247
255 248 255
255 236 247
255 236 247
255 236 247
255 236 247
255 236 247
255 236 247
255 236 247
255 236 247
255 236 247
255 236 247
255 236 247
255 236 247
255 236 247
255 236 247
255 236 247
255 236 247
255 236 247
255 236 247
255 236 247
255 236 247
255 236 247
255 236 247
255 236 247
255 236 247
255 236 247
255 236 247
255 236 247
255 236 247
255 236 247
255 236 247
255 236 247
255 236 247
255 236 247
255 236 247
255 236 247
255 236 247
255 248 255
255 236 247
255 236 247
255 236 247
255 236 247
255 236 247
255 236 247
255 236 247
255 236 247
255 236 247
255 236 247
255 236 247
255 236 247
255 236 247
255 236 247
255 236 247
255 236 247
255 236 247
255 236 247
255 236 247
255 236 247
255 236 247
255 236 247
255 236 247
255 236 247
255 236 247
255 236 247
255 236 247
255 236 247
255 236 247
255 236 247
255 236 247
255 236 247
255 236 247
255 236 247
255 236 247
255 236 247
255 236 247
255 236 247
255 236 247
255 236 247
255 236 247
255 236 247
255 236 247
255 236 247
255 236 247
255 236 247
255 236 247
255 236 247
255 236 247
255 236 247
255 236 247
255 236 247
255 236 247
255 236 247
255 236 247
255 236 247
255 236 247
255 236 247
255 236 247
255 248 255
255 236 247
255 236 247
255 236 247
255 236 247
255 236 247
255 236 247
255 236 247
255 236 247
255 236 247
255 236 247
255 236 247
255 236 247
255 236 247
255 236 247
255 236 247
255 236 247
255 236 247
255 236 247
255 236 247
255 236 247
255 236 247
255 236 247
255 236 247
255 236 247
255 236 247
255 236 247
255 236 247
255 236 247
255 236 247
255 236 247
255 236 247
255 236 247
255 236 247
255 236 247
255 236 247
255 236 247
255 248 255
255 236 247
255 236 247
255 236 247
255 236 247
255 236 247
255 236 247
255 236 247
255 236 247
255 236 247
255 236 247
255 236 247
255 236 247
255 236 247
255 236 247
255 236 247
255 236 247
255 236 247
255 236 247
255 236 247
255 236 247
255 236 247
255 236 247
255 236 247
255 236 247
255 236 247
255 236 247
255 236 247
255 236 247
255 236 247
255 236 247
255 236 247
255 236 247
255 236 247
255 236 247
255 236 247
255 236 247
255 248 255
255 236 247
255 236 247
255 236 247
255 236 247
255 236 247
255 236 247
255 236 247
255 236 247
255 236 247
255 236 247
255 236 247
255 236 247
255 236 247
255 236 247
255 236 247
255 236 247
255 236 247
255 236 247
255 236 247
255 236 247
255 236 247
255 236 247
255 236 247
255 236 247
255 236 247
255 236 247
255 236 247
255 236 247
255 236 247
255 236 247
255 236 247
255 236 247
255 236 247
255 236 247
255 236 247
255 236 247
255 248 255
255 236 247
255 236 247
255 236 247
255 236 247
255 236 247
255 236 247
255 236 247
255 236 247
255 236 247
255 236 247
255 236 247
255 236 247
255 236 247
255 236 247
255 236 247
255 236 247
255 236 247
255 236 247
255 236 247
255 236 247
255 236 247
255 236 247
255 236 247
255 236 247
255 236 247
255 236 247
255 236 247
255 236 247
255 236 247
255 236 247
255 236 247
255 236 247
255 236 247
255 236 247
255 236 247
255 236 247
255 248 255
255 236 247
255 236 247
255 236 247
255 236 247
255 236 247
255 236 247
255 236 247
255 236 247
255 236 247
255 236 247
255 236 247
255 236 247
255 236 247
255 236 247
255 236 247
255 236 247
255 236 247
255 236 247
255 236 247
255 236 247
255 236 247
255 236 247
255 236 247
255 236 247
255 236 247
255 236 247
255 236 247
255 236 247
255 236 247
255 236 247
255 236 247
255 236 247
255 236 247
255 236 247
255 236 247
255 236 247
255 248 255
255 236 247
255 236 247
255 236 247
255 236 247
255 236 247
255 236 247
255 236 247
255 236 247
255 236 247
255 236 247
255 236 247
255 236 247
255 236 247
255 236 247
255 236 247
255 236 247
255 236 247
255 236 247
255 236 247
255 236 247
255 236 247
255 236 247
255 236 247
255 236 247
255 236 247
255 236 247
255 236 247
255 236 247
255 236 247
255 236 247
255 236 247
255 236 247
255 236 247
255 236 247
255 236 247
255 236 247
255 248 255
255 236 247
255 236 247
255 236 247
255 236 247
255 236 247
255 236 247
255 236 247
255 236 247
255 236 247
255 236 247
255 236 247
255 236 247
255 236 247
255 236 247
255 236 247
255 236 247
255 236 247
255 236 247
255 236 247
255 236 247
255 236 247
255 236 247
255 236 247
255 236 247
255 236 247
255 236 247
255 236 247
255 236 247
255 236 247
255 236 247
255 236 247
255 236 247
255 236 247
255 236 247
255 236 247
255 236 247
255 248 255
255 236 247
255 236 247
255 236 247
255 236 247
255 236 247
255 236 247
255 236 247
255 236 247
255 236 247
255 236 247
255 236 247
255 236 247
255 236 247
255 236 247
255 236 247
255 236 247
255 236 247
255 236 247
255 236 247
255 236 247
255 236 247
255 236 247
255 236 247
255 236 247
255 236 247
255 236 247
255 236 247
255 236 247
255 236 247
255 236 247
255 236 247
255 236 247
255 236 247
255 236 247
255 236 247
255 236 247
255 236 247
255 236 247
255 236 247
255 236 247
255 236 247
255 236 247
255 236 247
255 236 247
255 236 247
255 236 247
255 236 247
255 236 247
255 236 247
255 236 247
255 236 247
255 236 247
255 236 247
255 236 247
255 236 247
255 236 247
255 236 247
255 236 247
255 236 247
255 248 255
255 236 247
255 236 247
255 236 247
255 236 247
255 236 247
255 236 247
255 236 247
255 236 247
255 236 247
255 236 247
255 236 247
255 236 247
255 236 247
255 236 247
255 236 247
255 236 247
255 236 247
255 236 247
255 236 247
255 236 247
255 236 247
255 236 247
255 236 247
255 236 247
255 236 247
255 236 247
255 236 247
255 236 247
255 236 247
255 236 247
255 236 247
255 236 247
255 236 247
255 236 247
255 236 247
255 236 247
255 248 255
255 236 247
255 236 247
255 236 247
255 236 247
255 236 247
255 236 247
255 236 247
255 236 247
255 236 247
255 236 247
255 236 247
255 236 247
255 236 247
255 236 247
255 236 247
255 236 247
255 236 247
255 236 247
255 236 247
255 236 247
255 236 247
255 236 247
255 236 247
255 236 247
255 236 247
255 236 247
255 236 247
255 236 247
255 236 247
255 236 247
255 236 247
255 236 247
255 236 247
255 236 247
255 236 247
255 236 247
255 248 255
255 236 247
255 236 247
255 236 247
255 236 247
255 236 247
255 236 247
255 236 247
255 236 247
255 236 247
255 236 247
255 236 247
255 236 247
255 236 247
255 236 247
255 236 247
255 236 247
255 236 247
255 236 247
255 236 247
255 236 247
255 236 247
255 236 247
255 236 247
255 236 247
255 236 247
255 236 247
255 236 247
255 236 247
255 236 247
255 236 247
255 236 247
255 236 247
255 236 247
255 236 247
255 236 247
255 236 247
255 248 255
255 236 247
255 236 247
255 236 247
255 236 247
255 236 247
255 236 247
255 236 247
255 236 247
255 236 247
255 236 247
255 236 247
255 236 247
255 236 247
255 236 247
255 236 247
255 236 247
255 236 247
255 236 247
255 236 247
255 236 247
255 236 247
255 236 247
255 236 247
255 236 247
255 236 247
255 236 247
255 236 247
255 236 247
255 236 247
255 236 247
255 236 247
255 236 247
255 236 247
255 236 247
255 236 247
255 236 247
255 248 255
255 236 247
255 236 247
255 236 247
255 236 247
255 236 247
255 236 247
255 236 247
255 236 247
255 236 247
255 236 247
255 236 247
255 236 247
255 236 247
255 236 247
255 236 247
255 236 247
255 236 247
255 236 247
255 236 247
255 236 247
255 236 247
255 236 247
255 236 247
255 236 247
255 236 247
255 236 247
255 236 247
255 236 247
255 236 247
255 236 247
255 236 247
255 236 247
255 236 247
255 236 247
255 236 247
255 236 247
255 248 255
255 236 247
255 236 247
255 236 247
255 236 247
255 236 247
255 236 247
255 236 247
255 236 247
255 236 247
255 236 247
255 236 247
255 236 247
255 236 247
255 236 247
255 236 247
255 236 247
255 236 247
255 236 247
255 236 247
255 236 247
255 236 247
255 236 247
255 236 247
255 236 247
255 236 247
255 236 247
255 236 247
255 236 247
255 236 247
255 236 247
255 236 247
255 236 247
255 236 247
255 236 247
255 236 247
255 236 247
255 248 255
255 236 247
255 236 247
255 236 247
255 236 247
255 236 247
255 236 247
255 236 247
255 236 247
255 236 247
255 236 247
255 236 247
255 236 247
255 236 247
255 236 247
255 236 247
255 236 247
255 236 247
255 236 247
255 236 247
255 236 247
255 236 247
255 236 247
255 236 247
255 236 247
255 236 247
255 236 247
255 236 247
255 236 247
255 236 247
255 236 247
255 236 247
255 236 247
255 236 247
255 236 247
255 236 247
255 236 247
255 248 255
255 236 247
255 236 247
255 236 247
255 236 247
255 236 247
255 236 247
255 236 247
255 236 247
255 236 247
255 236 247
255 236 247
255 236 247
255 236 247
255 236 247
255 236 247
255 236 247
255 236 247
255 236 247
255 236 247
255 236 247
255 236 247
255 236 247
255 236 247
255 236 247
255 236 247
255 236 247
255 236 247
255 236 247
255 236 247
255 236 247
255 236 247
255 236 247
255 236 247
255 236 247
255 236 247
255 236 247
255 236 247
255 236 247
255 236 247
255 236 247
255 236 247
255 236 247
255 236 247
255 236 247
255 236 247
255 236 247
255 236 247
255 236 247
255 236 247
255 236 247
255 236 247
255 236 247
255 236 247
255 236 247
255 236 247
255 236 247
255 236 247
255 236 247
255 236 247
255 248 255
255 236 247
255 236 247
255 236 247
255 236 247
255 236 247
255 236 247
255 236 247
255 236 247
255 236 247
255 236 247
255 236 247
255 236 247
255 236 247
255 236 247
255 236 247
255 236 247
255 236 247
255 236 247
255 236 247
255 236 247
255 236 247
255 236 247
255 236 247
255 236 247
255 236 247
255 236 247
255 236 247
255 236 247
255 236 247
255 236 247
255 236 247
255 236 247
255 236 247
255 236 247
255 236 247
255 236 247
255 248 255
255 236 247
255 236 247
255 236 247
255 236 247
255 236 247
255 236 247
255 236 247
255 236 247
255 236 247
255 236 247
255 236 247
255 236 247
255 236 247
255 236 247
255 236 247
255 236 247
255 236 247
255 236 247
255 236 247
255 236 247
255 236 247
255 236 247
255 236 247
255 236 247
255 236 247
255 236 247
255 236 247
255 236 247
255 236 247
255 236 247
255 236 247
255 236 247
255 236 247
255 236 247
255 236 247
255 236 247
255 248 255
255 236 247
255 236 247
255 236 247
255 236 247
255 236 247
255 236 247
255 236 247
255 236 247
255 236 247
255 236 247
255 236 247
255 236 247
255 236 247
255 236 247
255 236 247
255 236 247
255 236 247
255 236 247
255 236 247
255 236 247
255 236 247
255 236 247
255 236 247
255 236 247
255 236 247
255 236 247
255 236 247
255 236 247
255 236 247
255 236 247
255 236 247
255 236 247
255 236 247
255 236 247
255 236 247
255 236 247
255 248 255
255 236 247
255 236 247
255 236 247
255 236 247
255 236 247
255 236 247
255 236 247
255 236 247
255 236 247
255 236 247
255 236 247
255 236 247
255 236 247
255 236 247
255 236 247
255 236 247
255 236 247
255 236 247
255 236 247
255 236 247
255 236 247
255 236 247
255 236 247
255 236 247
255 236 247
255 236 247
255 236 247
255 236 247
255 236 247
255 236 247
255 236 247
255 236 247
255 236 247
255 236 247
255 236 247
255 236 247
255 248 255
255 236 247
255 236 247
255 236 247
255 236 247
255 236 247
255 236 247
255 236 247
255 236 247
255 236 247
255 236 247
255 236 247
255 236 247
255 236 247
255 236 247
255 236 247
255 236 247
255 236 247
255 236 247
255 236 247
255 236 247
255 236 247
255 236 247
255 236 247
255 236 247
255 236 247
255 236 247
255 236 247
255 236 247
255 236 247
255 236 247
255 236 247
255 236 247
255 236 247
255 236 247
255 236 247
255 236 247
255 248 255
255 236 247
255 236 247
255 236 247
255 236 247
255 236 247
255 236 247
255 236 247
255 236 247
255 236 247
255 236 247
255 236 247
255 236 247
255 236 247
255 236 247
255 236 247
255 236 247
255 236 247
255 236 247
255 236 247
255 236 247
255 236 247
255 236 247
255 236 247
255 236 247
255 236 247
255 236 247
255 236 247
255 236 247
255 236 247
255 236 247
255 236 247
255 236 247
255 236 247
255 236 247
255 236 247
255 236 247
255 248 255
255 236 247
255 236 247
255 236 247
255 236 247
255 236 247
255 236 247
255 236 247
255 236 247
255 236 247
255 236 247
255 236 247
255 236 247
255 236 247
255 236 247
255 236 247
255 236 247
255 236 247
255 236 247
255 236 247
255 236 247
255 236 247
255 236 247
255 236 247
255 236 247
255 236 247
255 236 247
255 236 247
255 236 247
255 236 247
255 236 247
255 236 247
255 236 247
255 236 247
255 236 247
255 236 247
255 236 247
255 248 255
255 236 247
255 236 247
255 236 247
255 236 247
255 236 247
255 236 247
255 236 247
255 236 247
255 236 247
255 236 247
255 236 247
255 236 247
255 236 247
255 236 247
255 236 247
255 236 247
255 236 247
255 236 247
255 236 247
255 236 247
255 236 247
255 236 247
255 236 247
255 236 247
255 236 247
255 236 247
255 236 247
255 236 247
255 214 238
255 214 238
255 214 238
255 214 238
255 214 238
255 214 238
255 214 238
255 214 238
255 214 238
255 214 238
255 214 238
255 214 238
255 214 238
255 214 238
255 214 238
255 214 238
255 214 238
255 214 238
255 214 238
255 214 238
255 214 238
255 214 238
255 214 238
255 214 238
255 214 238
255 214 238
255 214 238
255 214 238
255 214 238
255 214 238
255 214 238
255 226 250
255 214 238
255 214 238
255 214 238
255 214 238
255 214 238
255 214 238
255 214 238
255 214 238
255 214 238
255 214 238
255 214 238
255 214 238
255 214 238
255 214 238
255 214 238
255 214 238
255 214 238
255 214 238
255 214 238
255 214 238
255 214 238
255 214 238
255 214 238
255 214 238
255 214 238
255 214 238
255 214 238
255 214 238
255 214 238
255 214 238
255 214 238
255 214 238
255 214 238
255 214 238
255 214 238
255 214 238
255 226 250
255 214 238
255 214 238
255 214 238
255 214 238
255 214 238
255 214 238
255 214 238
255 214 238
255 214 238
255 214 238
255 214 238
255 214 238
255 214 238
255 214 238
255 214 238
255 214 238
255 214 238
255 214 238
255 214 238
255 214 238
255 214 238
255 214 238
255 214 238
255 214 238
255 214 238
255 214 238
255 214 238
255 214 238
255 214 238
255 214 238
255 214 238
255 214 238
255 214 238
255 214 238
255 214 238
255 214 238
255 226 250
255 214 238
255 214 238
255 214 238
255 214 238
255 214 238
255 214 238
255 214 238
255 214 238
255 214 238
255 214 238
255 214 238
255 214 238
255 214 238
255 214 238
255 214 238
255 214 238
255 214 238
255 214 238
255 214 238
255 214 238
255 214 238
255 214 238
255 214 238
255 214 238
255 214 238
255 214 238
255 214 238
255 214 238
255 214 238
255 214 238
255 214 238
255 214 238
255 214 238
255 214 238
255 214 238
255 214 238
255 226 250
255 214 238
255 214 238
255 214 238
255 214 238
255 214 238
255 214 238
255 214 238
255 214 238
255 214 238
255 214 238
255 214 238
255 214 238
255 214 238
255 214 238
255 214 238
255 214 238
255 214 238
255 214 238
255 214 238
255 214 238
255 214 238
255 214 238
255 214 238
255 214 238
255 214 238
255 214 238
255 214 238
255 214 238
255 214 238
255 214 238
255 214 238
255 214 238
255 214 238
255 214 238
255 214 238
255 214 238
255 226 250
255 214 238
255 214 238
255 214 238
255 214 238
255 214 238
255 214 238
255 214 238
255 214 238
255 214 238
255 214 238
255 214 238
255 214 238
255 214 238
255 214 238
255 214 238
255 214 238
255 214 238
255 214 238
255 214 238
255 214 238
255 214 238
255 214 238
255 214 238
255 214 238
255 214 238
255 214 238
255 214 238
255 214 238
255 214 238
255 214 238
255 214 238
255 214 238
255 214 238
255 214 238
255 214 238
255 214 238
255 226 250
255 214 238
255 214 238
255 214 238
255 214 238
255 214 238
255 214 238
255 214 238
255 214 238
255 214 238
255 214 238
255 214 238
255 214 238
255 214 238
255 214 238
255 214 238
255 214 238
255 214 238
255 214 238
255 214 238
255 214 238
255 214 238
255 214 238
255 214 238
255 214 238
255 214 238
255 214 238
255 214 238
255 214 238
255 214 238
255 214 238
255 214 238
255 214 238
255 214 238
255 214 238
255 214 238
255 214 238
255 226 250
255 214 238
255 214 238
255 214 238
255 214 238
255 214 238
255 214 238
255 214 238
255 214 238
255 214 238
255 214 238
255 214 238
255 214 238
255 214 238
255 214 238
255 214 238
255 214 238
255 214 238
255 214 238
255 214 238
255 214 238
255 214 238
255 214 238
255 214 238
255 214 238
255 214 238
255 214 238
255 214 238
255 214 238
255 214 238
255 214 238
255 214 238
255 214 238
255 214 238
255 214 238
255 214 238
255 214 238
255 226 250
255 214 238
255 214 238
255 214 238
255 214 238
255 214 238
255 214 238
255 214 238
255 214 238
255 214 238
255 214 238
255 214 238
255 214 238
255 214 238
255 214 238
255 214 238
255 214 238
255 214 238
255 214 238
255 214 238
255 214 238
255 214 238
255 214 238
255 214 238
255 214 238
255 214 238
255 214 238
255 214 238
255 214 238
255 214 238
255 214 238
255 214 238
255 214 238
255 214 238
255 214 238
255 214 238
255 214 238
255 214 238
255 214 238
255 214 238
255 214 238
255 214 238
255 214 238
255 214 238
255 214 238
255 214 238
255 214 238
255 214 238
255 214 238
255 214 238
255 214 238
255 214 238
255 214 238
255 214 238
255 214 238
255 214 238
255 214 238
255 214 238
255 214 238
255 214 238
255 226 250
255 214 238
255 214 238
255 214 238
255 214 238
255 214 238
255 214 238
255 214 238
255 214 238
255 214 238
255 214 238
255 214 238
255 214 238
255 214 238
255 214 238
255 214 238
255 214 238
255 214 238
255 214 238
255 214 238
255 214 238
255 214 238
255 214 238
255 214 238
255 214 238
255 214 238
255 214 238
255 214 238
255 214 238
255 214 238
255 214 238
255 214 238
255 214 238
255 214 238
255 214 238
255 214 238
255 214 238
255 226 250
255 214 238
255 214 238
255 214 238
255 214 238
255 214 238
255 214 238
255 214 238
255 214 238
255 214 238
255 214 238
255 214 238
255 214 238
255 214 238
255 214 238
255 214 238
255 214 238
255 214 238
255 214 238
255 214 238
255 214 238
255 214 238
255 214 238
255 214 238
255 214 238
255 214 238
255 214 238
255 214 238
255 214 238
255 214 238
255 214 238
255 214 238
255 214 238
255 214 238
255 214 238
255 214 238
255 214 238
255 226 250
255 214 238
255 214 238
255 214 238
255 214 238
255 214 238
255 214 238
255 214 238
255 214 238
255 214 238
255 214 238
255 214 238
255 214 238
255 214 238
255 214 238
255 214 238
255 214 238
255 214 238
255 214 238
255 214 238
255 214 238
255 214 238
255 214 238
255 214 238
255 214 238
255 214 238
255 214 238
255 214 238
255 214 238
255 214 238
255 214 238
255 214 238
255 214 238
255 214 238
255 214 238
255 214 238
255 214 238
255 226 250
255 214 238
255 214 238
255 214 238
255 214 238
255 214 238
255 214 238
255 214 238
255 214 238
255 214 238
255 214 238
255 214 238
255 214 238
255 214 238
255 214 238
255 214 238
255 214 238
255 214 238
255 214 238
255 214 238
255 214 238
255 214 238
255 214 238
255 214 238
255 214 238
255 214 238
255 214 238
255 214 238
255 214 238
255 214 238
255 214 238
255 214 238
255 214 238
255 214 238
255 214 238
255 214 238
255 214 238
255 226 250
255 214 238
255 214 238
255 214 238
255 214 238
255 214 238
255 214 238
255 214 238
255 214 238
255 214 238
255 214 238
255 214 238
255 214 238
255 214 238
255 214 238
255 214 238
255 214 238
255 214 238
255 214 238
255 214 238
255 214 238
255 214 238
255 214 238
255 214 238
255 214 238
255 214 238
255 214 238
255 214 238
255 214 238
255 214 238
255 214 238
255 214 238
255 214 238
255 214 238
255 214 238
255 214 238
255 214 238
255 226 250
255 214 238
255 214 238
255 214 238
255 214 238
255 214 238
255 214 238
255 214 238
255 214 238
255 214 238
255 214 238
255 214 238
255 214 238
255 214 238
255 214 238
255 214 238
255 214 238
255 214 238
255 214 238
255 214 238
255 214 238
255 214 238
255 214 238
255 214 238
255 214 238
255 214 238
255 214 238
255 214 238
255 214 238
255 214 238
255 214 238
255 214 238
255 214 238
255 214 238
255 214 238
255 214 238
255 214 238
255 226 250
255 214 238
255 214 238
255 214 238
255 214 238
255 214 238
255 214 238
255 214 238
255 214 238
255 214 238
255 214 238
255 214 238
255 214 238
255 214 238
255 214 238
255 214 238
255 214 238
255 214 238
255 214 238
255 214 238
255 214 238
255 214 238
255 214 238
255 214 238
255 214 238
255 214 238
255 214 238
255 214 238
255 214 238
255 214 238
255 214 238
255 214 238
255 214 238
255 214 238
255 214 238
255 214 238
255 214 238
255 226 250
255 214 238
255 214 238
255 214 238
255 214 238
255 214 238
255 214 238
255 214 238
255 214 238
255 214 238
255 214 238
255 214 238
255 214 238
255 214 238
255 214 238
255 214 238
255 214 238
255 214 238
255 214 238
255 214 238
255 214 238
255 214 238
255 214 238
255 214 238
255 214 238
255 214 238
255 214 238
255 214 238
255 214 238
255 214 238
255 214 238
255 214 238
255 214 238
255 214 238
255 214 238
255 214 238
255 214 238
255 214 238
255 214 238
255 214 238
255 214 238
255 214 238
255 214 238
255 214 238
255 214 238
255 214 238
255 214 238
255 214 238
255 214 238
255 214 238
255 214 238
255 214 238
255 214 238
255 214 238
255 214 238
255 214 238
255 214 238
255 214 238
255 214 238
255 214 238
255 226 250
255 214 238
255 214 238
255 214 238
255 214 238
255 214 238
255 214 238
255 214 238
255 214 238
255 214 238
255 214 238
255 214 238
255 214 238
255 214 238
255 214 238
255 214 238
255 214 238
255 214 238
255 214 238
255 214 238
255 214 238
255 214 238
255 214 238
255 214 238
255 214 238
255 214 238
255 214 238
255 214 238
255 214 238
255 214 238
255 214 238
255 214 238
255 214 238
255 214 238
255 214 238
255 214 238
255 214 238
255 226 250
255 214 238
255 214 238
255 214 238
255 214 238
255 214 238
255 214 238
255 214 238
255 214 238
255 214 238
255 214 238
255 214 238
255 214 238
255 214 238
255 214 238
255 214 238
255 214 238
255 214 238
255 214 238
255 214 238
255 214 238
255 214 238
255 214 238
255 214 238
255 214 238
255 214 238
255 214 238
255 214 238
255 214 238
255 214 238
255 214 238
255 214 238
255 214 238
255 214 238
255 214 238
255 214 238
255 214 238
255 226 250
255 214 238
255 214 238
255 214 238
255 214 238
255 214 238
255 214 238
255 214 238
255 214 238
255 214 238
255 214 238
255 214 238
255 214 238
255 214 238
255 214 238
255 214 238
255 214 238
255 214 238
255 214 238
255 214 238
255 214 238
255 214 238
255 214 238
255 214 238
255 214 238
255 214 238
255 214 238
255 214 238
255 214 238
255 214 238
255 214 238
255 214 238
255 214 238
255 214 238
255 214 238
255 214 238
255 214 238
255 226 250
255 214 238
255 214 238
255 214 238
255 214 238
255 214 238
255 214 238
255 214 238
255 214 238
255 214 238
255 214 238
255 214 238
255 214 238
255 214 238
255 214 238
255 214 238
255 214 238
255 214 238
255 214 238
255 214 238
255 214 238
255 214 238
255 214 238
255 214 238
255 214 238
255 214 238
255 214 238
255 214 238
255 214 238
255 214 238
255 214 238
255 214 238
255 214 238
255 214 238
255 214 238
255 214 238
255 214 238
255 226 250
255 214 238
255 214 238
255 214 238
255 214 238
255 214 238
255 214 238
255 214 238
255 214 238
255 214 238
255 214 238
255 214 238
255 214 238
255 214 238
255 214 238
255 214 238
255 214 238
255 214 238
255 214 238
255 214 238
255 214 238
255 214 238
255 214 238
255 214 238
255 214 238
255 214 238
255 214 238
255 214 238
255 214 238
255 214 238
255 214 238
255 214 238
255 214 238
255 214 238
255 214 238
255 214 238
255 214 238
255 226 250
255 214 238
255 214 238
255 214 238
255 214 238
255 214 238
255 214 238
255 214 238
255 214 238
255 214 238
255 214 238
255 214 238
255 214 238
255 214 238
255 214 238
255 214 238
255 214 238
255 214 238
255 214 238
255 214 238
255 214 238
255 214 238
255 214 238
255 214 238
255 214 238
255 214 238
255 214 238
255 214 238
255 214 238
255 214 238
255 214 238
255 214 238
255 214 238
255 214 238
255 214 238
255 214 238
255 214 238
255 226 250
255 214 238
255 214 238
255 214 238
255 214 238
255 214 238
255 214 238
255 214 238
255 214 238
255 214 238
255 214 238
255 214 238
255 214 238
255 214 238
255 214 238
255 214 238
255 214 238
255 214 238
255 214 238
255 214 238
255 214 238
255 214 238
255 214 238
255 214 238
255 214 238
255 214 238
255 214 238
255 214 238
255 214 238
255 214 238
255 214 238
255 214 238
255 214 238
255 214 238
255 214 238
255 214 238
255 214 238
255 226 250
255 214 238
255 214 238
255 214 238
255 214 238
255 214 238
255 214 238
255 214 238
255 214 238
255 214 238
255 214 238
255 214 238
255 214 238
255 214 238
255 214 238
255 214 238
255 214 238
255 214 238
255 214 238
255 214 238
255 214 238
255 214 238
255 214 238
255 214 238
255 214 238
255 214 238
255 214 238
255 214 238
255 214 238
255 214 238
255 214 238
255 214 238
255 214 238
255 214 238
255 214 238
255 214 238
255 214 238
255 214 238
255 214 238
255 214 238
255 214 238
255 214 238
255 214 238
255 214 238
255 214 238
255 214 238
255 214 238
255 214 238
255 214 238
255 214 238
255 214 238
255 214 238
255 214 238
255 214 238
255 214 238
255 214 238
255 214 238
255 214 238
255 214 238
255 214 238
255 226 250
255 214 238
255 214 238
255 214 238
255 214 238
255 214 238
255 214 238
255 214 238
255 214 238
255 214 238
255 214 238
255 214 238
255 214 238
255 214 238
255 214 238
255 214 238
255 214 238
255 214 238
255 214 238
255 214 238
255 214 238
255 214 238
255 214 238
255 214 238
255 214 238
255 214 238
255 214 238
255 214 238
255 214 238
255 214 238
255 214 238
255 214 238
255 214 238
255 214 238
255 214 238
255 214 238
255 214 238
255 226 250
255 214 238
255 214 238
255 214 238
255 214 238
255 214 238
255 214 238
255 214 238
255 214 238
255 214 238
255 214 238
255 214 238
255 214 238
255 214 238
255 214 238
255 214 238
255 214 238
255 214 238
255 214 238
255 214 238
255 214 238
255 214 238
255 214 238
255 214 238
255 214 238
255 214 238
255 214 238
255 214 238
255 214 238
255 214 238
255 214 238
255 214 238
255 214 238
255 214 238
255 214 238
255 214 238
255 214 238
255 226 250
255 214 238
255 214 238
255 214 238
255 214 238
255 214 238
255 214 238
255 214 238
255 214 238
255 214 238
255 214 238
255 214 238
255 214 238
255 214 238
255 214 238
255 214 238
255 214 238
255 214 238
255 214 238
255 214 238
255 214 238
255 214 238
255 214 238
255 214 238
255 214 238
255 214 238
255 214 238
255 214 238
255 214 238
255 214 238
255 214 238
255 214 238
255 214 238
255 214 238
255 214 238
255 214 238
255 214 238
255 226 250
255 214 238
255 214 238
255 214 238
255 214 238
255 214 238
255 214 238
255 214 238
255 214 238
255 214 238
255 214 238
255 214 238
255 214 238
255 214 238
255 214 238
255 214 238
255 214 238
255 214 238
255 214 238
255 214 238
255 214 238
255 214 238
255 214 238
255 214 238
255 214 238
255 214 238
255 214 238
255 214 238
255 214 238
255 214 238
255 214 238
255 214 238
255 214 238
255 214 238
255 214 238
255 214 238
255 214 238
255 226 250
255 214 238
255 214 238
255 214 238
255 214 238
255 214 238
255 214 238
255 214 238
255 214 238
255 214 238
255 214 238
255 214 238
255 214 238
255 214 238
255 214 238
255 214 238
255 214 238
255 214 238
255 214 238
255 214 238
255 214 238
255 214 238
255 214 238
255 214 238
255 214 238
255 214 238
255 214 238
255 214 238
255 214 238
255 214 238
255 214 238
255 214 238
255 214 238
255 214 238
255 214 238
255 214 238
255 214 238
255 226 250
255 214 238
255 214 238
255 214 238
255 214 238
255 214 238
255 214 238
255 214 238
255 214 238
255 214 238
255 214 238
255 214 238
255 214 238
255 214 238
255 214 238
255 214 238
255 214 238
255 214 238
255 214 238
255 214 238
255 214 238
255 214 238
255 214 238
255 214 238
255 214 238
255 214 238
255 214 238
255 214 238
255 214 238
255 214 238
255 214 238
255 214 238
255 214 238
255 214 238
255 214 238
255 214 238
255 214 238
255 226 250
255 214 238
255 214 238
255 214 238
255 214 238
255 214 238
255 214 238
255 214 238
255 214 238
255 214 238
255 214 238
255 214 238
255 214 238
255 214 238
255 214 238
255 214 238
255 214 238
255 214 238
255 214 238
255 214 238
255 214 238
255 214 238
255 214 238
255 214 238
255 214 238
255 214 238
255 214 238
255 214 238
255 214 238
255 214 238
255 214 238
255 214 238
255 214 238
255 214 238
255 214 238
255 214 238
255 214 238
255 226 250
255 214 238
255 214 238
255 214 238
255 214 238
255 214 238
255 214 238
255 214 238
255 214 238
255 214 238
255 214 238
255 214 238
255 214 238
255 214 238
255 214 238
255 214 238
255 214 238
255 214 238
255 214 238
255 214 238
255 214 238
255 214 238
255 214 238
255 214 238
255 214 238
255 214 238
255 214 238
255 214 238
255 214 238
255 214 238
255 214 238
255 214 238
255 214 238
255 214 238
255 214 238
255 214 238
255 214 238
255 214 238
255 214 238
255 214 238
255 214 238
255 214 238
255 214 238
255 214 238
255 214 238
255 214 238
255 214 238
255 214 238
255 214 238
255 214 238
255 214 238
255 214 238
255 214 238
255 214 238
255 214 238
255 214 238
255 214 238
255 214 238
255 214 238
255 214 238
255 226 250
255 214 238
255 214 238
255 214 238
255 214 238
255 214 238
255 214 238
255 214 238
255 214 238
255 214 238
255 214 238
255 214 238
255 214 238
255 214 238
255 214 238
255 214 238
255 214 238
255 214 238
255 214 238
255 214 238
255 214 238
255 214 238
255 214 238
255 214 238
255 214 238
255 214 238
255 214 238
255 214 238
255 214 238
255 214 238
255 214 238
255 214 238
255 214 238
255 214 238
255 214 238
255 214 238
255 214 238
255 226 250
255 214 238
255 214 238
255 214 238
255 214 238
255 214 238
255 214 238
255 214 238
255 214 238
255 214 238
255 214 238
255 214 238
255 214 238
255 214 238
255 214 238
255 214 238
255 214 238
255 214 238
255 214 238
255 214 238
255 214 238
255 214 238
255 214 238
255 214 238
255 214 238
255 214 238
255 214 238
255 214 238
255 214 238
255 214 238
255 214 238
255 214 238
255 214 238
255 214 238
255 214 238
255 214 238
255 214 238
255 226 250
255 214 238
255 214 238
255 214 238
255 214 238
255 214 238
255 214 238
255 214 238
255 214 238
255 214 238
255 214 238
255 214 238
255 214 238
255 214 238
255 214 238
255 214 238
255 214 238
255 214 238
255 214 238
255 214 238
255 214 238
255 214 238
255 214 238
255 214 238
255 214 238
255 214 238
255 214 238
255 214 238
255 214 238
255 214 238
255 214 238
255 214 238
255 214 238
255 214 238
255 214 238
255 214 238
255 214 238
255 226 250
255 214 238
255 214 238
255 214 238
255 214 238
255 214 238
255 214 238
255 214 238
255 214 238
255 214 238
255 214 238
255 214 238
255 214 238
255 214 238
255 214 238
255 214 238
255 214 238
255 214 238
255 214 238
255 214 238
255 214 238
255 214 238
255 214 238
255 214 238
255 214 238
255 214 238
255 214 238
255 214 238
255 214 238
255 214 238
255 214 238
255 214 238
255 214 238
255 214 238
255 214 238
255 214 238
255 214 238
255 226 250
255 214 238
255 214 238
255 214 238
255 214 238
255 214 238
255 214 238
255 214 238
255 214 238
255 214 238
255 214 238
255 214 238
255 214 238
255 214 238
255 214 238
255 214 238
255 214 238
255 214 238
255 214 238
255 214 238
255 214 238
255 214 238
255 214 238
255 214 238
255 214 238
255 214 238
255 214 238
255 214 238
255 214 238
255 214 238
255 214 238
255 214 238
255 214 238
255 214 238
255 214 238
255 214 238
255 214 238
255 226 250
255 214 238
255 214 238
255 214 238
255 214 238
255 214 238
255 214 238
255 214 238
255 214 238
255 214 238
255 214 238
255 214 238
255 214 238
255 214 238
255 214 238
255 214 238
255 214 238
255 214 238
255 214 238
255 214 238
255 214 238
255 214 238
255 214 238
255 214 238
255 214 238
255 214 238
255 214 238
255 214 238
255 214 238
255 214 238
255 214 238
255 214 238
255 214 238
255 214 238
255 214 238
255 214 238
255 214 238
255 226 250
255 214 238
255 214 238
255 214 238
255 214 238
255 214 238
255 214 238
255 214 238
255 214 238
255 214 238
255 214 238
255 214 238
255 214 238
255 214 238
255 214 238
255 214 238
255 214 238
255 214 238
255 214 238
255 214 238
255 214 238
255 214 238
255 214 238
255 214 238
255 214 238
255 214 238
255 214 238
255 214 238
255 214 238
255 214 238
255 214 238
255 214 238
255 214 238
255 214 238
255 214 238
255 214 238
255 214 238
255 226 250
255 214 238
255 214 238
255 214 238
255 214 238
255 214 238
255 214 238
255 214 238
255 214 238
255 214 238
255 214 238
255 214 238
255 214 238
255 214 238
255 214 238
255 214 238
255 214 238
255 214 238
255 214 238
255 214 238
255 214 238
255 214 238
255 214 238
255 214 238
255 214 238
255 214 238
255 214 238
255 214 238
255 214 238
255 214 238
255 214 238
255 214 238
255 214 238
255 214 238
255 214 238
255 214 238
255 214 238
255 214 238
255 214 238
255 214 238
255 214 238
255 214 238
255 214 238
255 214 238
255 214 238
255 214 238
255 214 238
255 214 238
255 214 238
255 214 238
255 214 238
255 214 238
255 214 238
255 214 238
255 214 238
255 214 238
255 214 238
255 214 238
255 214 238
255 214 238
255 226 250
255 214 238
255 214 238
255 214 238
255 214 238
255 214 238
255 214 238
255 214 238
255 214 238
255 214 238
255 214 238
255 214 238
255 214 238
255 214 238
255 214 238
255 214 238
255 214 238
255 214 238
255 214 238
255 214 238
255 214 238
255 214 238
255 214 238
255 214 238
255 214 238
255 214 238
255 214 238
255 214 238
255 214 238
255 214 238
255 214 238
255 214 238
255 214 238
255 214 238
255 214 238
255 214 238
255 214 238
255 226 250
255 214 238
255 214 238
255 214 238
255 214 238
255 214 238
255 214 238
255 214 238
255 214 238
255 214 238
255 214 238
255 214 238
255 214 238
255 214 238
255 214 238
255 214 238
255 214 238
255 214 238
255 214 238
255 214 238
255 214 238
255 214 238
255 214 238
255 214 238
255 214 238
255 214 238
255 214 238
255 214 238
255 214 238
255 214 238
255 214 238
255 214 238
255 214 238
255 214 238
255 214 238
255 214 238
255 214 238
255 226 250
255 214 238
255 214 238
255 214 238
255 214 238
255 214 238
255 214 238
255 214 238
255 214 238
255 214 238
255 214 238
255 214 238
255 214 238
255 214 238
255 214 238
255 214 238
255 214 238
255 214 238
255 214 238
255 214 238
255 214 238
255 214 238
255 214 238
255 214 238
255 214 238
255 214 238
255 214 238
255 214 238
255 214 238
255 214 238
255 214 238
255 214 238
255 214 238
255 214 238
255 214 238
255 214 238
255 214 238
255 226 250
255 214 238
255 214 238
255 214 238
255 214 238
255 214 238
255 214 238
255 214 238
255 214 238
255 214 238
255 214 238
255 214 238
255 214 238
255 214 238
255 214 238
255 214 238
255 214 238
255 214 238
255 214 238
255 214 238
255 214 238
255 214 238
255 214 238
255 214 238
255 214 238
255 214 238
255 214 238
255 214 238
255 214 238
255 214 238
255 214 238
255 214 238
255 214 238
255 214 238
255 214 238
255 214 238
255 214 238
255 226 250
255 214 238
255 214 238
255 214 238
255 214 238
255 214 238
255 214 238
255 214 238
255 214 238
255 214 238
255 214 238
255 214 238
255 214 238
255 214 238
255 214 238
255 214 238
255 214 238
255 214 238
255 214 238
255 214 238
255 214 238
255 214 238
255 214 238
255 214 238
255 214 238
255 214 238
255 214 238
255 214 238
255 214 238
255 214 238
255 214 238
255 214 238
255 214 238
255 214 238
255 214 238
255 214 238
255 214 238
255 226 250
255 214 238
255 214 238
255 214 238
255 214 238
255 214 238
255 214 238
255 214 238
255 214 238
255 214 238
255 214 238
255 214 238
255 214 238
255 214 238
255 214 238
255 214 238
255 214 238
255 214 238
255 214 238
255 214 238
255 214 238
255 214 238
255 214 238
255 214 238
255 214 238
255 214 238
255 214 238
255 214 238
255 214 238
255 214 238
255 214 238
255 214 238
255 214 238
255 214 238
255 214 238
255 214 238
255 214 238
255 226 250
255 214 238
255 214 238
255 214 238
255 214 238
255 214 238
255 214 238
255 214 238
255 214 238
255 214 238
255 214 238
255 214 238
255 214 238
255 214 238
255 214 238
255 214 238
255 214 238
255 214 238
255 214 238
255 214 238
255 214 238
255 214 238
255 214 238
255 214 238
255 214 238
255 214 238
255 214 238
255 214 238
255 214 238
255 214 238
255 214 238
255 214 238
255 214 238
255 214 238
255 214 238
255 214 238
255 214 238
255 226 250
255 214 238
255 214 238
255 214 238
255 214 238
255 214 238
255 214 238
255 214 238
255 214 238
255 214 238
255 214 238
255 214 238
255 214 238
255 214 238
255 214 238
255 214 238
255 214 238
255 214 238
255 214 238
255 214 238
255 214 238
255 214 238
255 214 238
255 214 238
255 214 238
255 214 238
255 214 238
255 214 238
255 214 238
255 214 238
255 214 238
255 214 238
255 214 238
255 214 238
255 214 238
255 214 238
255 214 238
255 214 238
255 214 238
255 214 238
255 214 238
255 214 238
255 214 238
255 214 238
255 214 238
255 214 238
255 214 238
255 214 238
255 214 238
255 214 238
255 214 238
255 214 238
255 214 238
255 214 238
255 214 238
255 214 238
255 214 238
255 214 238
255 214 238
255 214 238
255 226 250
255 214 238
255 214 238
255 214 238
255 214 238
255 214 238
255 214 238
255 214 238
255 214 238
255 214 238
255 214 238
255 214 238
255 214 238
255 214 238
255 214 238
255 214 238
255 214 238
255 214 238
255 214 238
255 214 238
255 214 238
255 214 238
255 214 238
255 214 238
255 214 238
255 214 238
255 214 238
255 214 238
255 214 238
255 214 238
255 214 238
255 214 238
255 214 238
255 214 238
255 214 238
255 214 238
255 214 238
255 226 250
255 214 238
255 214 238
255 214 238
255 214 238
255 214 238
255 214 238
255 214 238
255 214 238
255 214 238
255 214 238
255 214 238
255 214 238
255 214 238
255 214 238
255 214 238
255 214 238
255 214 238
255 214 238
255 214 238
255 214 238
255 214 238
255 214 238
255 214 238
255 214 238
255 214 238
255 214 238
255 214 238
255 214 238
255 214 238
255 214 238
255 214 238
255 214 238
255 214 238
255 214 238
255 214 238
255 214 238
255 226 250
255 214 238
255 214 238
255 214 238
255 214 238
255 214 238
255 214 238
255 214 238
255 214 238
255 214 238
255 214 238
255 214 238
255 214 238
255 214 238
255 214 238
255 214 238
255 214 238
255 214 238
255 214 238
255 214 238
255 214 238
255 214 238
255 214 238
255 214 238
255 214 238
255 214 238
255 214 238
255 214 238
255 214 238
255 214 238
255 214 238
255 214 238
255 214 238
255 214 238
255 214 238
255 214 238
255 214 238
255 226 250
255 214 238
255 214 238
255 214 238
255 214 238
255 214 238
255 214 238
255 214 238
255 214 238
255 214 238
255 214 238
255 214 238
255 214 238
255 214 238
255 214 238
255 214 238
255 214 238
255 214 238
255 214 238
255 214 238
255 214 238
255 214 238
255 214 238
255 214 238
255 214 238
255 214 238
255 214 238
255 214 238
255 214 238
255 214 238
255 214 238
255 214 238
255 214 238
255 214 238
255 214 238
255 214 238
255 214 238
255 226 250
255 214 238
255 214 238
255 214 238
255 214 238
255 214 238
255 214 238
255 214 238
255 214 238
255 214 238
255 214 238
255 214 238
255 214 238
255 214 238
255 214 238
255 214 238
255 214 238
255 214 238
255 214 238
255 214 238
255 214 238
255 214 238
255 214 238
255 214 238
255 214 238
255 214 238
255 214 238
255 214 238
255 214 238
255 214 238
255 214 238
255 214 238
255 214 238
255 214 238
255 214 238
255 214 238
255 214 238
255 226 250
255 214 238
255 214 238
255 214 238
255 214 238
255 214 238
255 214 238
255 214 238
255 214 238
255 214 238
255 214 238
255 214 238
255 214 238
255 214 238
255 214 238
255 214 238
255 214 238
255 214 238
255 214 238
255 214 238
255 214 238
255 214 238
255 214 238
255 214 238
255 214 238
255 214 238
255 214 238
255 214 238
255 214 238
255 214 238
255 214 238
255 214 238
255 214 238
255 214 238
255 214 238
255 214 238
255 214 238
255 226 250
255 214 238
255 214 238
255 214 238
255 214 238
255 214 238
255 214 238
255 214 238
255 214 238
255 214 238
255 214 238
255 214 238
255 214 238
255 214 238
255 214 238
255 214 238
255 214 238
255 214 238
255 214 238
255 214 238
255 214 238
255 214 238
255 214 238
255 214 238
255 214 238
255 214 238
255 214 238
255 214 238
255 214 238
255 214 238
255 214 238
255 214 238
255 214 238
255 214 238
255 214 238
255 214 238
255 214 238
255 226 250
255 214 238
255 214 238
255 214 238
255 214 238
255 214 238
255 214 238
255 214 238
255 214 238
255 214 238
255 214 238
255 214 238
255 214 238
255 214 238
255 214 238
255 214 238
255 214 238
255 214 238
255 214 238
255 214 238
255 214 238
255 214 238
255 214 238
255 214 238
255 214 238
255 214 238
255 214 238
255 214 238
255 214 238
255 214 238
255 214 238
255 214 238
255 214 238
255 214 238
255 214 238
255 214 238
255 214 238
255 214 238
255 214 238
255 214 238
255 214 238
255 214 238
255 214 238
255 214 238
255 214 238
255 214 238
255 214 238
255 214 238
255 214 238
255 214 238
255 214 238
255 214 238
255 214 238
255 214 238
255 214 238
255 214 238
255 214 238
255 214 238
255 214 238
255 214 238
255 226 250
255 214 238
255 214 238
255 214 238
255 214 238
255 214 238
255 214 238
255 214 238
255 214 238
255 214 238
255 214 238
255 214 238
255 214 238
255 214 238
255 214 238
255 214 238
255 214 238
255 214 238
255 214 238
255 214 238
255 214 238
255 214 238
255 214 238
255 214 238
255 214 238
255 214 238
255 214 238
255 214 238
255 214 238
255 214 238
255 214 238
255 214 238
255 214 238
255 214 238
255 214 238
255 214 238
255 214 238
255 226 250
255 214 238
255 214 238
255 214 238
255 214 238
255 214 238
255 214 238
255 214 238
255 214 238
255 214 238
255 214 238
255 214 238
255 214 238
255 214 238
255 214 238
255 214 238
255 214 238
255 214 238
255 214 238
255 214 238
255 214 238
255 214 238
255 214 238
255 214 238
255 214 238
255 214 238
255 214 238
255 214 238
255 214 238
255 214 238
255 214 238
255 214 238
255 214 238
255 214 238
255 214 238
255 214 238
255 214 238
255 226 250
255 214 238
255 214 238
255 214 238
255 214 238
255 214 238
255 214 238
255 214 238
255 214 238
255 214 238
255 214 238
255 214 238
255 214 238
255 214 238
255 214 238
255 214 238
255 214 238
255 214 238
255 214 238
255 214 238
255 214 238
255 214 238
255 214 238
255 214 238
255 214 238
255 214 238
255 214 238
255 214 238
255 214 238
255 214 238
255 214 238
255 214 238
255 214 238
255 214 238
255 214 238
255 214 238
255 214 238
255 226 250
255 214 238
255 214 238
255 214 238
255 214 238
255 214 238
255 214 238
255 214 238
255 214 238
255 214 238
255 214 238
255 214 238
255 214 238
255 214 238
255 214 238
255 214 238
255 214 238
255 214 238
255 214 238
255 214 238
255 214 238
255 214 238
255 214 238
255 214 238
255 214 238
255 214 238
255 214 238
255 214 238
255 214 238
255 214 238
255 214 238
255 214 238
255 214 238
255 214 238
255 214 238
255 214 238
255 214 238
255 226 250
255 214 238
255 214 238
255 214 238
255 214 238
255 214 238
255 214 238
255 214 238
255 214 238
255 214 238
255 214 238
255 214 238
255 214 238
255 214 238
255 214 238
255 214 238
255 214 238
255 214 238
255 214 238
255 214 238
255 214 238
255 214 238
255 214 238
255 214 238
255 214 238
255 214 238
255 214 238
255 214 238
255 214 238
255 214 238
255 214 238
255 214 238
255 214 238
255 214 238
255 214 238
255 214 238
255 214 238
255 226 250
255 214 238
255 214 238
255 214 238
255 214 238
255 214 238
255 214 238
255 214 238
255 214 238
255 214 238
255 214 238
255 214 238
255 214 238
255 214 238
255 214 238
255 214 238
255 214 238
255 214 238
255 214 238
255 214 238
255 214 238
255 214 238
255 214 238
255 214 238
255 214 238
255 214 238
255 214 238
255 214 238
255 214 238
255 214 238
255 214 238
255 214 238
255 214 238
255 214 238
255 214 238
255 214 238
255 214 238
255 226 250
255 214 238
255 214 238
255 214 238
255 214 238
255 214 238
255 214 238
255 214 238
255 214 238
255 214 238
255 214 238
255 214 238
255 214 238
255 214 238
255 214 238
255 214 238
255 214 238
255 214 238
255 214 238
255 214 238
255 214 238
255 214 238
255 214 238
255 214 238
255 214 238
255 214 238
255 214 238
255 214 238
255 214 238
255 214 238
255 214 238
255 214 238
255 214 238
255 214 238
255 214 238
255 214 238
255 214 238
255 226 250
255 214 238
255 214 238
255 214 238
255 214 238
255 214 238
255 214 238
255 214 238
255 214 238
255 214 238
255 214 238
255 214 238
255 214 238
255 214 238
255 214 238
255 214 238
255 214 238
255 214 238
255 214 238
255 214 238
255 214 238
255 214 238
255 214 238
255 214 238
255 214 238
255 214 238
255 214 238
255 214 238
255 214 238
255 214 238
255 214 238
255 214 238
255 214 238
255 214 238
255 214 238
255 214 238
255 214 238
255 214 238
255 214 238
255 214 238
255 214 238
255 214 238
255 214 238
255 214 238
255 214 238
255 214 238
255 214 238
255 214 238
255 214 238
255 214 238
255 214 238
255 214 238
255 214 238
255 214 238
255 214 238
255 214 238
255 214 238
255 214 238
255 214 238
255 214 238
255 226 250
255 214 238
255 214 238
255 214 238
255 214 238
255 214 238
255 214 238
255 214 238
255 214 238
255 214 238
255 214 238
255 214 238
255 214 238
255 214 238
255 214 238
255 214 238
255 214 238
255 214 238
255 214 238
255 214 238
255 214 238
255 214 238
255 214 238
255 214 238
255 214 238
255 214 238
255 214 238
255 214 238
255 214 238
255 214 238
255 214 238
255 214 238
255 214 238
255 214 238
255 214 238
255 214 238
255 214 238
255 226 250
255 214 238
255 214 238
255 214 238
255 214 238
255 214 238
255 214 238
255 214 238
255 214 238
255 214 238
255 214 238
255 214 238
255 214 238
255 214 238
255 214 238
255 214 238
255 214 238
255 214 238
255 214 238
255 214 238
255 214 238
255 214 238
255 214 238
255 214 238
255 214 238
255 214 238
255 214 238
255 214 238
255 214 238
255 214 238
255 214 238
255 214 238
255 214 238
255 214 238
255 214 238
255 214 238
255 214 238
255 226 250
255 214 238
255 214 238
255 214 238
255 214 238
255 214 238
255 214 238
255 214 238
255 214 238
255 214 238
255 214 238
255 214 238
255 214 238
255 214 238
255 214 238
255 214 238
255 214 238
255 214 238
255 214 238
255 214 238
255 214 238
255 214 238
255 214 238
255 214 238
255 214 238
255 214 238
255 214 238
255 214 238
255 214 238
255 214 238
255 214 238
255 214 238
255 214 238
255 214 238
255 214 238
255 214 238
255 214 238
255 226 250
255 214 238
255 214 238
255 214 238
255 214 238
255 214 238
255 214 238
255 214 238
255 214 238
255 214 238
255 214 238
255 214 238
255 214 238
255 214 238
255 214 238
255 214 238
255 214 238
255 214 238
255 214 238
255 214 238
255 214 238
255 214 238
255 214 238
255 214 238
255 214 238
255 214 238
255 214 238
255 214 238
255 214 238
255 214 238
255 214 238
255 214 238
255 214 238
255 214 238
255 214 238
255 214 238
255 214 238
255 226 250
255 214 238
255 214 238
255 214 238
255 214 238
255 214 238
255 214 238
255 214 238
255 214 238
255 214 238
255 214 238
255 214 238
255 214 238
255 214 238
255 214 238
255 214 238
255 214 238
255 214 238
255 214 238
255 214 238
255 214 238
255 214 238
255 214 238
255 214 238
255 214 238
255 214 238
255 214 238
255 214 238
255 214 238
255 214 238
255 214 238
255 214 238
255 214 238
255 214 238
255 214 238
255 214 238
255 214 238
255 226 250
255 214 238
255 214 238
255 214 238
255 214 238
255 214 238
255 214 238
255 214 238
255 214 238
255 214 238
255 214 238
255 214 238
255 214 238
255 214 238
255 214 238
255 214 238
255 214 238
255 214 238
255 214 238
255 214 238
255 214 238
255 214 238
255 214 238
255 214 238
255 214 238
255 214 238
255 214 238
255 214 238
255 214 238
255 214 238
255 214 238
255 214 238
255 214 238
255 214 238
255 214 238
255 214 238
255 214 238
255 226 250
255 214 238
255 214 238
255 214 238
255 214 238
255 214 238
255 214 238
255 214 238
255 214 238
255 214 238
255 214 238
255 214 238
255 214 238
255 214 238
255 214 238
255 214 238
255 214 238
255 214 238
255 214 238
255 214 238
255 214 238
255 214 238
255 214 238
255 214 238
255 214 238
255 214 238
255 214 238
255 214 238
255 214 238
255 214 238
255 214 238
255 214 238
255 214 238
255 214 238
255 214 238
255 214 238
255 214 238
255 226 250
255 214 238
255 214 238
255 214 238
255 214 238
255 214 238
255 214 238
255 214 238
255 214 238
255 214 238
255 214 238
255 214 238
255 214 238
255 214 238
255 214 238
255 214 238
255 214 238
255 214 238
255 214 238
255 214 238
255 214 238
255 214 238
255 214 238
255 214 238
255 214 238
255 214 238
255 214 238
255 214 238
255 214 238
255 214 238
255 214 238
255 214 238
255 214 238
255 214 238
255 214 238
255 214 238
255 214 238
255 226 250
255 214 238
255 214 238
255 214 238
255 214 238
255 214 238
255 214 238
255 214 238
255 214 238
255 214 238
255 214 238
255 214 238
255 214 238
255 214 238
255 214 238
255 214 238
255 214 238
255 214 238
255 214 238
255 214 238
255 214 238
255 214 238
255 214 238
255 226 250
255 214 238
255 214 238
255 214 238
255 214 238
255 214 238
255 214 238
255 214 238
255 214 238
255 214 238
255 214 238
255 214 238
255 214 238
255 214 238
255 214 238
255 214 238
255 214 238
255 214 238
255 214 238
255 214 238
255 214 238
255 214 238
255 214 238
255 214 238
255 214 238
255 214 238
255 214 238
255 214 238
255 214 238
255 214 238
255 214 238
255 214 238
255 214 238
255 214 238
255 214 238
255 214 238
255 214 238
255 226 250
255 214 238
255 214 238
255 214 238
255 214 238
255 214 238
255 214 238
255 214 238
255 214 238
255 214 238
255 214 238
255 214 238
255 214 238
255 214 238
255 214 238
255 214 238
255 214 238
255 214 238
255 214 238
255 214 238
255 214 238
255 214 238
255 214 238
255 214 238
255 214 238
255 214 238
255 214 238
255 214 238
255 214 238
255 214 238
255 214 238
255 214 238
255 214 238
255 214 238
255 214 238
255 214 238
255 214 238
255 226 250
255 214 238
255 214 238
255 214 238
255 214 238
255 214 238
255 214 238
255 214 238
255 214 238
255 214 238
255 214 238
255 214 238
255 214 238
255 214 238
255 214 238
255 214 238
255 214 238
255 214 238
255 214 238
255 214 238
255 214 238
255 214 238
255 214 238
255 214 238
255 214 238
255 214 238
255 214 238
255 214 238
255 214 238
255 214 238
255 214 238
255 214 238
255 214 238
255 214 238
255 214 238
255 214 238
255 214 238
255 226 250
255 214 238
255 214 238
255 214 238
255 214 238
255 214 238
255 214 238
255 214 238
255 214 238
255 214 238
255 214 238
255 214 238
255 214 238
255 214 238
255 214 238
255 214 238
255 214 238
255 214 238
255 214 238
255 214 238
255 214 238
255 214 238
255 214 238
255 214 238
255 214 238
255 214 238
255 214 238
255 214 238
255 214 238
255 214 238
255 214 238
255 214 238
255 214 238
255 214 238
255 214 238
255 214 238
255 214 238
255 226 250
255 214 238
255 214 238
255 214 238
255 214 238
255 214 238
255 214 238
255 214 238
255 214 238
255 214 238
255 214 238
255 214 238
255 214 238
255 214 238
255 214 238
255 214 238
255 214 238
255 214 238
255 214 238
255 214 238
255 214 238
255 214 238
255 214 238
255 214 238
255 214 238
255 214 238
255 214 238
255 214 238
255 214 238
255 214 238
255 214 238
255 214 238
255 214 238
255 214 238
255 214 238
255 214 238
255 214 238
255 226 250
255 214 238
255 214 238
255 214 238
255 214 238
255 214 238
255 214 238
255 214 238
255 214 238
255 214 238
255 214 238
255 214 238
255 214 238
255 214 238
255 214 238
255 214 238
255 214 238
255 214 238
255 214 238
255 214 238
255 214 238
255 214 238
255 214 238
255 214 238
255 214 238
255 214 238
255 214 238
255 214 238
255 214 238
255 214 238
255 214 238
255 214 238
255 214 238
255 214 238
255 214 238
255 214 238
255 214 238
255 226 250
255 214 238
255 214 238
255 214 238
255 214 238
255 214 238
255 214 238
255 214 238
255 214 238
255 214 238
255 214 238
255 214 238
255 214 238
255 214 238
255 214 238
255 214 238
255 214 238
255 214 238
255 214 238
255 214 238
255 214 238
255 214 238
255 214 238
255 214 238
255 214 238
255 214 238
255 214 238
255 214 238
255 214 238
255 214 238
255 214 238
255 214 238
255 214 238
255 214 238
255 214 238
255 214 238
255 214 238
255 226 250
255 214 238
255 214 238
255 214 238
255 214 238
255 214 238
255 214 238
255 214 238
255 214 238
255 214 238
255 214 238
255 214 238
255 214 238
255 214 238
255 214 238
255 214 238
255 214 238
255 214 238
255 214 238
255 214 238
255 214 238
255 214 238
255 214 238
255 214 238
255 214 238
255 214 238
255 214 238
255 214 238
255 214 238
255 214 238
255 214 238
255 214 238
255 214 238
255 214 238
255 214 238
255 214 238
255 214 238
255 226 250
255 214 238
255 214 238
255 214 238
255 214 238
255 214 238
255 214 238
255 214 238
255 214 238
255 214 238
255 214 238
255 214 238
255 214 238
255 214 238
255 214 238
255 214 238
255 214 238
255 214 238
255 214 238
255 214 238
255 214 238
255 214 238
255 214 238
255 226 250
255 214 238
255 214 238
255 214 238
255 214 238
255 214 238
255 214 238
255 214 238
255 214 238
255 214 238
255 214 238
255 214 238
255 214 238
255 214 238
255 214 238
255 214 238
255 214 238
255 214 238
255 214 238
255 214 238
255 214 238
255 214 238
255 214 238
255 214 238
255 214 238
255 214 238
255 214 238
255 214 238
255 214 238
255 214 238
255 214 238
255 214 238
255 214 238
255 214 238
255 214 238
255 214 238
255 214 238
255 226 250
255 214 238
255 214 238
255 214 238
255 214 238
255 214 238
255 214 238
255 214 238
255 214 238
255 214 238
255 214 238
255 214 238
255 214 238
255 214 238
255 214 238
255 214 238
255 214 238
255 214 238
255 214 238
255 214 238
255 214 238
255 214 238
255 214 238
255 214 238
255 214 238
255 214 238
255 214 238
255 214 238
255 214 238
255 214 238
255 214 238
255 214 238
255 214 238
255 214 238
255 214 238
255 214 238
255 214 238
255 226 250
255 214 238
255 214 238
255 214 238
255 214 238
255 214 238
255 214 238
255 214 238
255 214 238
255 214 238
255 214 238
255 214 238
255 214 238
255 214 238
255 214 238
255 214 238
255 214 238
255 214 238
255 214 238
255 214 238
255 214 238
255 214 238
255 214 238
255 214 238
255 214 238
255 214 238
255 214 238
255 214 238
255 214 238
255 214 238
255 214 238
255 214 238
255 214 238
255 214 238
255 214 238
255 214 238
255 214 238
255 226 250
255 214 238
255 214 238
255 214 238
255 214 238
255 214 238
255 214 238
255 214 238
255 214 238
255 214 238
255 214 238
255 214 238
255 214 238
255 214 238
255 214 238
255 214 238
255 214 238
255 214 238
255 214 238
255 214 238
255 214 238
255 214 238
255 214 238
255 214 238
255 214 238
255 214 238
255 214 238
255 214 238
255 214 238
255 214 238
255 214 238
255 214 238
255 214 238
255 214 238
255 214 238
255 214 238
255 214 238
255 226 250
255 214 238
255 214 238
255 214 238
255 214 238
255 214 238
255 214 238
255 214 238
255 214 238
255 214 238
255 214 238
255 214 238
255 214 238
255 214 238
255 214 238
255 214 238
255 214 238
255 214 238
255 214 238
255 214 238
255 214 238
255 214 238
255 214 238
255 214 238
255 214 238
255 214 238
255 214 238
255 214 238
255 214 238
255 214 238
255 214 238
255 214 238
255 214 238
255 214 238
255 214 238
255 214 238
255 214 238
255 226 250
255 214 238
255 214 238
255 214 238
255 214 238
255 214 238
255 214 238
255 214 238
255 214 238
255 214 238
255 214 238
255 214 238
255 214 238
255 214 238
255 214 238
255 214 238
255 214 238
255 214 238
255 214 238
255 214 238
255 214 238
255 214 238
255 214 238
255 214 238
255 214 238
255 214 238
255 214 238
255 214 238
255 214 238
255 214 238
255 214 238
255 214 238
255 214 238
255 214 238
255 214 238
255 214 238
255 214 238
255 226 250
255 214 238
255 214 238
255 214 238
255 214 238
255 214 238
255 214 238
255 214 238
255 214 238
255 214 238
255 214 238
255 214 238
255 214 238
255 214 238
255 214 238
255 214 238
255 214 238
255 214 238
255 214 238
255 214 238
255 214 238
255 214 238
255 214 238
255 214 238
255 214 238
255 214 238
255 214 238
255 214 238
255 214 238
255 214 238
255 214 238
255 214 238
255 214 238
255 214 238
255 214 238
255 214 238
255 214 238
255 226 250
255 214 238
255 214 238
255 214 238
255 214 238
255 214 238
255 214 238
255 214 238
255 214 238
255 214 238
255 214 238
255 214 238
255 214 238
255 214 238
255 214 238
255 214 238
255 214 238
255 214 238
255 214 238
255 214 238
255 214 238
255 214 238
255 214 238
255 214 238
255 214 238
255 214 238
255 214 238
255 214 238
255 214 238
255 214 238
255 214 238
255 214 238
255 214 238
255 214 238
255 214 238
255 214 238
255 214 238
255 226 250
255 214 238
255 214 238
255 214 238
255 214 238
255 214 238
255 214 238
255 214 238
255 214 238
255 214 238
255 214 238
255 214 238
255 214 238
255 214 238
255 214 238
255 214 238
255 214 238
255 214 238
255 214 238
255 214 238
255 214 238
255 214 238
255 214 238
255 226 250
255 214 238
255 214 238
255 214 238
255 214 238
255 214 238
255 214 238
255 214 238
255 214 238
255 214 238
255 214 238
255 214 238
255 214 238
255 214 238
255 214 238
255 214 238
255 214 238
255 214 238
255 214 238
255 214 238
255 214 238
255 214 238
255 214 238
255 214 238
255 214 238
255 214 238
255 214 238
255 214 238
255 214 238
255 214 238
255 214 238
255 214 238
255 214 238
255 214 238
255 214 238
255 214 238
255 214 238
255 226 250
255 214 238
255 214 238
255 214 238
255 214 238
255 214 238
255 214 238
255 214 238
255 214 238
255 214 238
255 214 238
255 214 238
255 214 238
255 214 238
255 214 238
255 214 238
255 214 238
255 214 238
255 214 238
255 214 238
255 214 238
255 214 238
255 214 238
255 214 238
255 214 238
255 214 238
255 214 238
255 214 238
255 214 238
255 214 238
255 214 238
255 214 238
255 214 238
255 214 238
255 214 238
255 214 238
255 214 238
255 226 250
255 214 238
255 214 238
255 214 238
255 214 238
255 214 238
255 214 238
255 214 238
255 214 238
255 214 238
255 214 238
255 214 238
255 214 238
255 214 238
255 214 238
255 214 238
255 214 238
255 214 238
255 214 238
255 214 238
255 214 238
255 214 238
255 214 238
255 214 238
255 214 238
255 214 238
255 214 238
255 214 238
255 214 238
255 214 238
255 214 238
255 214 238
255 214 238
255 214 238
255 214 238
255 214 238
255 214 238
255 226 250
255 214 238
255 214 238
255 214 238
255 214 238
255 214 238
255 214 238
255 214 238
255 214 238
255 214 238
255 214 238
255 214 238
255 214 238
255 214 238
255 214 238
255 214 238
255 214 238
255 214 238
255 214 238
255 214 238
255 214 238
255 214 238
255 214 238
255 214 238
255 214 238
255 214 238
255 214 238
255 214 238
255 214 238
255 214 238
255 214 238
255 214 238
255 214 238
255 214 238
255 214 238
255 214 238
255 214 238
255 226 250
255 214 238
255 214 238
255 214 238
255 214 238
255 214 238
255 214 238
255 214 238
255 214 238
255 214 238
255 214 238
255 214 238
255 214 238
255 214 238
255 214 238
255 214 238
255 214 238
255 214 238
255 214 238
255 214 238
255 214 238
255 214 238
255 214 238
255 214 238
255 214 238
255 214 238
255 214 238
255 214 238
255 214 238
255 214 238
255 214 238
255 214 238
255 214 238
255 214 238
255 214 238
255 214 238
255 214 238
255 226 250
255 214 238
255 214 238
255 214 238
255 214 238
255 214 238
255 214 238
255 214 238
255 214 238
255 214 238
255 214 238
255 214 238
255 214 238
255 214 238
255 214 238
255 214 238
255 214 238
255 214 238
255 214 238
255 214 238
255 214 238
255 214 238
255 214 238
255 214 238
255 214 238
255 214 238
255 214 238
255 214 238
255 214 238
255 214 238
255 214 238
255 214 238
255 214 238
255 214 238
255 214 238
255 214 238
255 214 238
255 226 250
255 214 238
255 214 238
255 214 238
255 214 238
255 214 238
255 214 238
255 214 238
255 214 238
255 214 238
255 214 238
255 214 238
255 214 238
255 214 238
255 214 238
255 214 238
255 214 238
255 214 238
255 214 238
255 214 238
255 214 238
255 214 238
255 214 238
255 214 238
255 214 238
255 214 238
255 214 238
255 214 238
255 214 238
255 214 238
255 214 238
255 214 238
255 214 238
255 214 238
255 214 238
255 214 238
255 214 238
255 226 250
255 214 238
255 214 238
255 214 238
255 214 238
255 214 238
255 214 238
255 214 238
255 214 238
255 214 238
255 214 238
255 214 238
255 214 238
255 214 238
255 214 238
255 214 238
255 214 238
255 214 238
255 214 238
255 214 238
255 214 238
255 214 238
255 214 238
255 214 238
255 214 238
255 214 238
255 214 238
255 214 238
255 214 238
255 214 238
255 214 238
255 214 238
255 214 238
255 214 238
255 214 238
255 214 238
255 214 238
255 226 250
255 214 238
255 214 238
255 214 238
255 214 238
255 214 238
255 214 238
255 214 238
255 214 238
255 214 238
255 214 238
255 214 238
255 214 238
255 214 238
255 214 238
255 214 238
255 214 238
255 214 238
255 214 238
255 214 238
255 214 238
255 214 238
255 214 238
255 226 250
255 214 238
255 214 238
255 214 238
255 214 238
255 214 238
255 214 238
255 214 238
255 214 238
255 214 238
255 214 238
255 214 238
255 214 238
255 214 238
255 214 238
255 214 238
255 214 238
255 214 238
255 214 238
255 214 238
255 214 238
255 214 238
255 214 238
255 214 238
255 214 238
255 214 238
255 214 238
255 214 238
255 214 238
255 214 238
255 214 238
255 214 238
255 214 238
255 214 238
255 214 238
255 214 238
255 214 238
255 226 250
255 214 238
255 214 238
255 214 238
255 214 238
255 214 238
255 214 238
255 214 238
255 214 238
255 214 238
255 214 238
255 214 238
255 214 238
255 214 238
255 214 238
255 214 238
255 214 238
255 214 238
255 214 238
255 214 238
255 214 238
255 214 238
255 214 238
255 214 238
255 214 238
255 214 238
255 214 238
255 214 238
255 214 238
255 214 238
255 214 238
255 214 238
255 214 238
255 214 238
255 214 238
255 214 238
255 214 238
255 226 250
255 214 238
255 214 238
255 214 238
255 214 238
255 214 238
255 214 238
255 214 238
255 214 238
255 214 238
255 214 238
255 214 238
255 214 238
255 214 238
255 214 238
255 214 238
255 214 238
255 214 238
255 214 238
255 214 238
255 214 238
255 214 238
255 214 238
255 214 238
255 214 238
255 214 238
255 214 238
255 214 238
255 214 238
255 214 238
255 214 238
255 214 238
255 214 238
255 214 238
255 214 238
255 214 238
255 214 238
255 226 250
255 214 238
255 214 238
255 214 238
255 214 238
255 214 238
255 214 238
255 214 238
255 214 238
255 214 238
255 214 238
255 214 238
255 214 238
255 214 238
255 214 238
255 214 238
255 214 238
255 214 238
255 214 238
255 214 238
255 214 238
255 214 238
255 214 238
255 214 238
255 214 238
255 214 238
255 214 238
255 214 238
255 214 238
255 214 238
255 214 238
255 214 238
255 214 238
255 214 238
255 214 238
255 214 238
255 214 238
255 226 250
255 214 238
255 214 238
255 214 238
255 214 238
255 214 238
255 214 238
255 214 238
255 214 238
255 214 238
255 214 238
255 214 238
255 214 238
255 214 238
255 214 238
255 214 238
255 214 238
255 214 238
255 214 238
255 214 238
255 214 238
255 214 238
255 214 238
255 214 238
255 214 238
255 214 238
255 214 238
255 214 238
255 214 238
255 214 238
255 214 238
255 214 238
255 214 238
255 214 238
255 214 238
255 214 238
255 214 238
255 226 250
255 214 238
255 214 238
255 214 238
255 214 238
255 214 238
255 214 238
255 214 238
255 214 238
255 214 238
255 214 238
255 214 238
255 214 238
255 214 238
255 214 238
255 214 238
255 214 238
255 214 238
255 214 238
255 214 238
255 214 238
255 214 238
255 214 238
255 214 238
255 214 238
255 214 238
255 214 238
255 214 238
255 214 238
255 214 238
255 214 238
255 214 238
255 214 238
255 214 238
255 214 238
255 214 238
255 214 238
255 226 250
255 214 238
255 214 238
255 214 238
255 214 238
255 214 238
255 214 238
255 214 238
255 214 238
255 214 238
255 214 238
255 214 238
255 214 238
255 214 238
255 214 238
255 214 238
255 214 238
255 214 238
255 214 238
255 214 238
255 214 238
255 214 238
255 214 238
255 214 238
255 214 238
255 214 238
255 214 238
255 214 238
255 214 238
255 214 238
255 214 238
255 214 238
255 214 238
255 214 238
255 214 238
255 214 238
255 214 238
255 226 250
255 214 238
255 214 238
255 214 238
255 214 238
255 214 238
255 214 238
255 214 238
255 214 238
255 214 238
255 214 238
255 214 238
255 214 238
255 214 238
255 214 238
255 214 238
255 214 238
255 214 238
255 214 238
255 214 238
255 214 238
255 214 238
255 214 238
255 214 238
255 214 238
255 214 238
255 214 238
255 214 238
255 214 238
255 214 238
255 214 238
255 214 238
255 214 238
255 214 238
255 214 238
255 214 238
255 214 238
255 226 250
255 214 238
255 214 238
255 214 238
255 214 238
255 214 238
255 214 238
255 214 238
255 214 238
255 214 238
255 214 238
255 214 238
255 214 238
255 214 238
255 214 238
255 214 238
255 214 238
255 214 238
255 214 238
255 214 238
255 214 238
255 214 238
255 214 238
255 226 250
255 214 238
255 214 238
255 214 238
255 214 238
255 214 238
255 214 238
255 214 238
255 214 238
255 214 238
255 214 238
255 214 238
255 214 238
255 214 238
255 214 238
255 214 238
255 214 238
255 214 238
255 214 238
255 214 238
255 214 238
255 214 238
255 214 238
255 214 238
255 214 238
255 214 238
255 214 238
255 214 238
255 214 238
255 214 238
255 214 238
255 214 238
255 214 238
255 214 238
255 214 238
255 214 238
255 214 238
255 226 250
255 214 238
255 214 238
255 214 238
255 214 238
255 214 238
255 214 238
255 214 238
255 214 238
255 214 238
255 214 238
255 214 238
255 214 238
255 214 238
255 214 238
255 214 238
255 214 238
255 214 238
255 214 238
255 214 238
255 214 238
255 214 238
255 214 238
255 214 238
255 214 238
255 214 238
255 214 238
255 214 238
255 214 238
255 214 238
255 214 238
255 214 238
255 214 238
255 214 238
255 214 238
255 214 238
255 214 238
255 226 250
255 214 238
255 214 238
255 214 238
255 214 238
255 214 238
255 214 238
255 214 238
255 214 238
255 214 238
255 214 238
255 214 238
255 214 238
255 214 238
255 214 238
255 214 238
255 214 238
255 214 238
255 214 238
255 214 238
255 214 238
255 214 238
255 214 238
255 214 238
255 214 238
255 214 238
255 214 238
255 214 238
255 214 238
255 214 238
255 214 238
255 214 238
255 214 238
255 214 238
255 214 238
255 214 238
255 214 238
255 226 250
255 214 238
255 214 238
255 214 238
255 214 238
255 214 238
255 214 238
255 214 238
255 214 238
255 214 238
255 214 238
255 214 238
255 214 238
255 214 238
255 214 238
255 214 238
255 214 238
255 214 238
255 214 238
255 214 238
255 214 238
255 214 238
255 214 238
255 214 238
255 214 238
255 214 238
255 214 238
255 214 238
255 214 238
255 214 238
255 214 238
255 214 238
255 214 238
255 214 238
255 214 238
255 214 238
255 214 238
255 226 250
255 214 238
255 214 238
255 214 238
255 214 238
255 214 238
255 214 238
255 214 238
255 214 238
255 214 238
255 214 238
255 214 238
255 214 238
255 214 238
255 214 238
255 214 238
255 214 238
255 214 238
255 214 238
255 214 238
255 214 238
255 214 238
255 214 238
255 214 238
255 214 238
255 214 238
255 214 238
255 214 238
255 214 238
255 214 238
255 214 238
255 214 238
255 214 238
255 214 238
255 214 238
255 214 238
255 214 238
255 226 250
255 214 238
255 214 238
255 214 238
255 214 238
255 214 238
255 214 238
255 214 238
255 214 238
255 214 238
255 214 238
255 214 238
255 214 238
255 214 238
255 214 238
255 214 238
255 214 238
255 214 238
255 214 238
255 214 238
255 214 238
255 214 238
255 214 238
255 214 238
255 214 238
255 214 238
255 214 238
255 214 238
255 214 238
255 214 238
255 214 238
255 214 238
255 214 238
255 214 238
255 214 238
255 214 238
255 214 238
255 226 250
255 214 238
255 214 238
255 214 238
255 214 238
255 214 238
255 214 238
255 214 238
255 214 238
255 214 238
255 214 238
255 214 238
255 214 238
255 214 238
255 214 238
255 214 238
255 214 238
255 214 238
255 214 238
255 214 238
255 214 238
255 214 238
255 214 238
255 214 238
255 214 238
255 214 238
255 214 238
255 214 238
255 214 238
255 214 238
255 214 238
255 214 238
255 214 238
255 214 238
255 214 238
255 214 238
255 214 238
255 226 250
255 214 238
255 214 238
255 214 238
255 214 238
255 214 238
255 214 238
255 214 238
255 214 238
255 214 238
255 214 238
255 214 238
255 214 238
255 214 238
255 214 238
255 214 238
255 214 238
255 214 238
255 214 238
255 214 238
255 214 238
255 214 238
255 214 238
255 214 238
255 214 238
255 214 238
255 214 238
255 214 238
255 214 238
255 214 238
255 214 238
255 214 238
255 214 238
255 214 238
255 214 238
255 214 238
255 214 238
255 226 250
255 214 238
255 214 238
255 214 238
255 214 238
255 214 238
255 214 238
255 214 238
255 214 238
255 214 238
255 214 238
255 214 238
255 214 238
255 214 238
255 214 238
255 214 238
255 214 238
255 214 238
255 214 238
255 214 238
255 214 238
255 214 238
255 214 238
255 226 250
255 214 238
255 214 238
255 214 238
255 214 238
255 214 238
255 214 238
255 214 238
255 214 238
255 214 238
255 214 238
255 214 238
255 214 238
255 214 238
255 214 238
255 214 238
255 214 238
255 214 238
255 214 238
255 214 238
255 214 238
255 214 238
255 214 238
255 214 238
255 214 238
255 214 238
255 214 238
255 214 238
255 214 238
255 214 238
255 214 238
255 214 238
255 214 238
255 214 238
255 214 238
255 214 238
255 214 238
255 226 250
255 214 238
255 214 238
255 214 238
255 214 238
255 214 238
255 214 238
255 214 238
255 214 238
255 214 238
255 214 238
255 214 238
255 214 238
255 214 238
255 214 238
255 214 238
255 214 238
255 214 238
255 214 238
255 214 238
255 214 238
255 214 238
255 214 238
255 214 238
255 214 238
255 214 238
255 214 238
255 214 238
255 214 238
255 214 238
255 214 238
255 214 238
255 214 238
255 214 238
255 214 238
255 214 238
255 214 238
255 226 250
255 214 238
255 214 238
255 214 238
255 214 238
255 214 238
255 214 238
255 214 238
255 214 238
255 214 238
255 214 238
255 214 238
255 214 238
255 214 238
255 214 238
255 214 238
255 214 238
255 214 238
255 214 238
255 214 238
255 214 238
255 214 238
255 214 238
255 214 238
255 214 238
255 214 238
255 214 238
255 214 238
255 214 238
255 214 238
255 214 238
255 214 238
255 214 238
255 214 238
255 214 238
255 214 238
255 214 238
255 226 250
255 214 238
255 214 238
255 214 238
255 214 238
255 214 238
255 214 238
255 214 238
255 214 238
255 214 238
255 214 238
255 214 238
255 214 238
255 214 238
255 214 238
255 214 238
255 214 238
255 214 238
255 214 238
255 214 238
255 214 238
255 214 238
255 214 238
255 214 238
255 214 238
255 214 238
255 214 238
255 214 238
255 214 238
255 214 238
255 214 238
255 214 238
255 214 238
255 214 238
255 214 238
255 214 238
255 214 238
255 226 250
255 214 238
255 214 238
255 214 238
255 214 238
255 214 238
255 214 238
255 214 238
255 214 238
255 214 238
255 214 238
255 214 238
255 214 238
255 214 238
255 214 238
255 214 238
255 214 238
255 214 238
255 214 238
255 214 238
255 214 238
255 214 238
255 214 238
255 214 238
255 214 238
255 214 238
255 214 238
255 214 238
255 214 238
255 214 238
255 214 238
255 214 238
255 214 238
255 214 238
255 214 238
255 214 238
255 214 238
255 226 250
255 214 238
255 214 238
255 214 238
255 214 238
255 214 238
255 214 238
255 214 238
255 214 238
255 214 238
255 214 238
255 214 238
255 214 238
255 214 238
255 214 238
255 214 238
255 214 238
255 214 238
255 214 238
255 214 238
255 214 238
255 214 238
255 214 238
255 214 238
255 214 238
255 214 238
255 214 238
255 214 238
255 214 238
255 214 238
255 214 238
255 214 238
255 214 238
255 214 238
255 214 238
255 214 238
255 214 238
255 226 250
255 214 238
255 214 238
255 214 238
255 214 238
255 214 238
255 214 238
255 214 238
255 214 238
255 214 238
255 214 238
255 214 238
255 214 238
255 214 238
255 214 238
255 214 238
255 214 238
255 214 238
255 214 238
255 214 238
255 214 238
255 214 238
255 214 238
255 214 238
255 214 238
255 214 238
255 214 238
255 214 238
255 214 238
255 214 238
255 214 238
255 214 238
255 214 238
255 214 238
255 214 238
255 214 238
255 214 238
255 226 250
255 214 238
255 214 238
255 214 238
255 214 238
255 214 238
255 214 238
255 214 238
255 214 238
255 214 238
255 214 238
255 214 238
255 214 238
255 214 238
255 214 238
255 214 238
255 214 238
255 214 238
255 214 238
255 214 238
255 214 238
255 214 238
255 214 238
255 214 238
255 214 238
255 214 238
255 214 238
255 214 238
255 214 238
255 214 238
255 214 238
255 214 238
255 214 238
255 214 238
255 214 238
255 214 238
255 214 238
255 226 250
255 214 238
255 214 238
255 214 238
255 214 238
255 214 238
255 214 238
255 214 238
255 214 238
255 214 238
255 214 238
255 214 238
255 214 238
255 214 238
255 214 238
255 214 238
255 214 238
255 214 238
255 214 238
255 214 238
255 214 238
255 214 238
255 214 238
255 226 250
255 214 238
255 214 238
255 214 238
255 214 238
255 214 238
255 214 238
255 214 238
255 214 238
255 214 238
255 214 238
255 214 238
255 214 238
255 214 238
255 214 238
255 214 238
255 214 238
255 214 238
255 214 238
255 214 238
255 214 238
255 214 238
255 214 238
255 214 238
255 214 238
255 214 238
255 214 238
255 214 238
255 214 238
255 214 238
255 214 238
255 214 238
255 214 238
255 214 238
255 214 238
255 214 238
255 214 238
255 226 250
255 214 238
255 214 238
255 214 238
255 214 238
255 214 238
255 214 238
255 214 238
255 214 238
255 214 238
255 214 238
255 214 238
255 214 238
255 214 238
255 214 238
255 214 238
255 214 238
255 214 238
255 214 238
255 214 238
255 214 238
255 214 238
255 214 238
255 214 238
255 214 238
255 214 238
255 214 238
255 214 238
255 214 238
255 214 238
255 214 238
255 214 238
255 214 238
255 214 238
255 214 238
255 214 238
255 214 238
255 226 250
255 214 238
255 214 238
255 214 238
255 214 238
255 214 238
255 214 238
255 214 238
255 214 238
255 214 238
255 214 238
255 214 238
255 214 238
255 214 238
255 214 238
255 214 238
255 214 238
255 214 238
255 214 238
255 214 238
255 214 238
255 214 238
255 214 238
255 214 238
255 214 238
255 214 238
255 214 238
255 214 238
255 214 238
255 214 238
255 214 238
255 214 238
255 214 238
255 214 238
255 214 238
255 214 238
255 214 238
255 226 250
255 214 238
255 214 238
255 214 238
255 214 238
255 214 238
255 214 238
255 214 238
255 214 238
255 214 238
255 214 238
255 214 238
255 214 238
255 214 238
255 214 238
255 214 238
255 214 238
255 214 238
255 214 238
255 214 238
255 214 238
255 214 238
255 214 238
255 214 238
255 214 238
255 214 238
255 214 238
255 214 238
255 214 238
255 214 238
255 214 238
255 214 238
255 214 238
255 214 238
255 214 238
255 214 238
255 214 238
255 226 250
255 214 238
255 214 238
255 214 238
255 214 238
255 214 238
255 214 238
255 214 238
255 214 238
255 214 238
255 214 238
255 214 238
255 214 238
255 214 238
255 214 238
255 214 238
255 214 238
255 214 238
255 214 238
255 214 238
255 214 238
255 214 238
255 214 238
255 214 238
255 214 238
255 214 238
255 214 238
255 214 238
255 214 238
255 214 238
255 214 238
255 214 238
255 214 238
255 214 238
255 214 238
255 214 238
255 214 238
255 226 250
255 214 238
255 214 238
255 214 238
255 214 238
255 214 238
255 214 238
255 214 238
255 214 238
255 214 238
255 214 238
255 214 238
255 214 238
255 214 238
255 214 238
255 214 238
255 214 238
255 214 238
255 214 238
255 214 238
255 214 238
255 214 238
255 214 238
255 214 238
255 214 238
255 214 238
255 214 238
255 214 238
255 214 238
255 214 238
255 214 238
255 214 238
255 214 238
255 214 238
255 214 238
255 214 238
255 214 238
255 226 250
255 214 238
255 214 238
255 214 238
255 214 238
255 214 238
255 214 238
255 214 238
255 214 238
255 214 238
255 214 238
255 214 238
255 214 238
255 214 238
255 214 238
255 214 238
255 214 238
255 214 238
255 214 238
255 214 238
255 214 238
255 214 238
255 214 238
255 214 238
255 214 238
255 214 238
255 214 238
255 214 238
255 214 238
255 214 238
255 214 238
255 214 238
255 214 238
255 214 238
255 214 238
255 214 238
255 214 238
255 226 250
255 214 238
255 214 238
255 214 238
255 214 238
255 214 238
255 214 238
255 214 238
255 214 238
255 214 238
255 214 238
255 214 238
255 214 238
255 214 238
255 214 238
255 214 238
255 214 238
255 214 238
255 214 238
255 214 238
255 214 238
255 214 238
255 214 238
255 214 238
255 214 238
255 214 238
255 214 238
255 214 238
255 214 238
255 214 238
255 214 238
255 214 238
255 214 238
255 214 238
255 214 238
255 214 238
255 214 238
255 226 250
255 214 238
255 214 238
255 214 238
255 214 238
255 214 238
255 214 238
255 214 238
255 214 238
255 214 238
255 214 238
255 214 238
255 214 238
255 214 238
255 214 238
255 214 238
255 214 238
255 214 238
255 214 238
255 214 238
255 214 238
255 214 238
255 214 238
255 226 250
255 214 238
255 214 238
255 214 238
255 214 238
255 214 238
255 214 238
255 214 238
255 214 238
255 214 238
255 214 238
255 214 238
255 214 238
255 214 238
255 214 238
255 214 238
255 214 238
255 214 238
255 214 238
255 214 238
255 214 238
255 214 238
255 214 238
255 214 238
255 214 238
255 214 238
255 214 238
255 214 238
255 214 238
255 214 238
255 214 238
255 214 238
255 214 238
255 214 238
255 214 238
255 214 238
255 214 238
255 226 250
255 214 238
255 214 238
255 214 238
255 214 238
255 214 238
255 214 238
255 214 238
255 214 238
255 214 238
255 214 238
255 214 238
255 214 238
255 214 238
255 214 238
255 214 238
255 214 238
255 214 238
255 214 238
255 214 238
255 214 238
255 214 238
255 214 238
255 214 238
255 214 238
255 214 238
255 214 238
255 214 238
255 214 238
255 214 238
255 214 238
255 214 238
255 214 238
255 214 238
255 214 238
255 214 238
255 214 238
255 226 250
255 214 238
255 214 238
255 214 238
255 214 238
255 214 238
255 214 238
255 214 238
255 214 238
255 214 238
255 214 238
255 214 238
255 214 238
255 214 238
255 214 238
255 214 238
255 214 238
255 214 238
255 214 238
255 214 238
255 214 238
255 214 238
255 214 238
255 214 238
255 214 238
255 214 238
255 214 238
255 214 238
255 214 238
255 214 238
255 214 238
255 214 238
255 214 238
255 214 238
255 214 238
255 214 238
255 214 238
255 226 250
255 214 238
255 214 238
255 214 238
255 214 238
255 214 238
255 214 238
255 214 238
255 214 238
255 214 238
255 214 238
255 214 238
255 214 238
255 214 238
255 214 238
255 214 238
255 214 238
255 214 238
255 214 238
255 214 238
255 214 238
255 214 238
255 214 238
255 214 238
255 214 238
255 214 238
255 214 238
255 214 238
255 214 238
255 214 238
255 214 238
255 214 238
255 214 238
255 214 238
255 214 238
255 214 238
255 214 238
255 226 250
255 214 238
255 214 238
255 214 238
255 214 238
255 214 238
255 214 238
255 214 238
255 214 238
255 214 238
255 214 238
255 214 238
255 214 238
255 214 238
255 214 238
255 214 238
255 214 238
255 214 238
255 214 238
255 214 238
255 214 238
255 214 238
255 214 238
255 214 238
255 214 238
255 214 238
255 214 238
255 214 238
255 214 238
255 214 238
255 214 238
255 214 238
255 214 238
255 214 238
255 214 238
255 214 238
255 214 238
255 226 250
255 214 238
255 214 238
255 214 238
255 214 238
255 214 238
255 214 238
255 214 238
255 214 238
255 214 238
255 214 238
255 214 238
255 214 238
255 214 238
255 214 238
255 214 238
255 214 238
255 214 238
255 214 238
255 214 238
255 214 238
255 214 238
255 214 238
255 214 238
255 214 238
255 214 238
255 214 238
255 214 238
255 214 238
255 214 238
255 214 238
255 214 238
255 214 238
255 214 238
255 214 238
255 214 238
255 214 238
255 226 250
255 214 238
255 214 238
255 214 238
255 214 238
255 214 238
255 214 238
255 214 238
255 214 238
255 214 238
255 214 238
255 214 238
255 214 238
255 214 238
255 214 238
255 214 238
255 214 238
255 214 238
255 214 238
255 214 238
255 214 238
255 214 238
255 214 238
255 214 238
255 214 238
255 214 238
255 214 238
255 214 238
255 214 238
255 214 238
255 214 238
255 214 238
255 214 238
255 214 238
255 214 238
255 214 238
255 214 238
255 226 250
255 214 238
255 214 238
255 214 238
255 214 238
255 214 238
255 214 238
255 214 238
255 214 238
255 214 238
255 214 238
255 214 238
255 214 238
255 214 238
255 214 238
255 214 238
255 214 238
255 214 238
255 214 238
255 214 238
255 214 238
255 214 238
255 214 238
255 214 238
255 214 238
255 214 238
255 214 238
255 214 238
255 214 238
255 214 238
255 214 238
255 214 238
255 214 238
255 214 238
255 214 238
255 214 238
255 214 238
255 226 250
255 214 238
255 214 238
255 214 238
255 214 238
255 214 238
255 214 238
255 214 238
255 214 238
255 214 238
255 214 238
255 214 238
255 214 238
255 214 238
255 214 238
255 214 238
255 214 238
255 214 238
255 214 238
255 214 238
255 214 238
255 214 238
255 214 238
255 226 250
255 214 238
255 214 238
255 214 238
255 214 238
255 214 238
255 214 238
255 214 238
255 214 238
255 214 238
255 214 238
255 214 238
255 214 238
255 214 238
255 214 238
255 214 238
255 214 238
255 214 238
255 214 238
255 214 238
255 214 238
255 214 238
255 214 238
255 214 238
255 214 238
255 214 238
255 214 238
255 214 238
255 214 238
255 214 238
255 214 238
255 214 238
255 214 238
255 214 238
255 214 238
255 214 238
255 214 238
255 226 250
255 214 238
255 214 238
255 214 238
255 214 238
255 214 238
255 214 238
255 214 238
255 214 238
255 214 238
255 214 238
255 214 238
255 214 238
255 214 238
255 214 238
255 214 238
255 214 238
255 214 238
255 214 238
255 214 238
255 214 238
255 214 238
255 214 238
255 214 238
255 214 238
255 214 238
255 214 238
255 214 238
255 214 238
255 214 238
255 214 238
255 214 238
255 214 238
255 214 238
255 214 238
255 214 238
255 214 238
255 226 250
255 214 238
255 214 238
255 214 238
255 214 238
255 214 238
255 214 238
255 214 238
255 214 238
255 214 238
255 214 238
255 214 238
255 214 238
255 214 238
255 214 238
255 214 238
255 214 238
255 214 238
255 214 238
255 214 238
255 214 238
255 214 238
255 214 238
255 214 238
255 214 238
255 214 238
255 214 238
255 214 238
255 214 238
255 214 238
255 214 238
255 214 238
255 214 238
255 214 238
255 214 238
255 214 238
255 214 238
255 226 250
255 214 238
255 214 238
255 214 238
255 214 238
255 214 238
255 214 238
255 214 238
255 214 238
255 214 238
255 214 238
255 214 238
255 214 238
255 214 238
255 214 238
255 214 238
255 214 238
255 214 238
255 214 238
255 214 238
255 214 238
255 214 238
255 214 238
255 214 238
255 214 238
255 214 238
255 214 238
255 214 238
255 214 238
255 214 238
255 214 238
255 214 238
255 214 238
255 214 238
255 214 238
255 214 238
255 214 238
255 226 250
255 214 238
255 214 238
255 214 238
255 214 238
255 214 238
255 214 238
255 214 238
255 214 238
255 214 238
255 214 238
255 214 238
255 214 238
255 214 238
255 214 238
255 214 238
255 214 238
255 214 238
255 214 238
255 214 238
255 214 238
255 214 238
255 214 238
255 214 238
255 214 238
255 214 238
255 214 238
255 214 238
255 214 238
255 214 238
255 214 238
255 214 238
255 214 238
255 214 238
255 214 238
255 214 238
255 214 238
255 226 250
255 214 238
255 214 238
255 214 238
255 214 238
255 214 238
255 214 238
255 214 238
255 214 238
255 214 238
255 214 238
255 214 238
255 214 238
255 214 238
255 214 238
255 214 238
255 214 238
255 214 238
255 214 238
255 214 238
255 214 238
255 214 238
255 214 238
255 214 238
255 214 238
255 214 238
255 214 238
255 214 238
255 214 238
255 214 238
255 214 238
255 214 238
255 214 238
255 214 238
255 214 238
255 214 238
255 214 238
255 226 250
255 214 238
255 214 238
255 214 238
255 214 238
255 214 238
255 214 238
255 214 238
255 214 238
255 214 238
255 214 238
255 214 238
255 214 238
255 214 238
255 214 238
255 214 238
255 214 238
255 214 238
255 214 238
255 214 238
255 214 238
255 214 238
255 214 238
255 214 238
255 214 238
255 214 238
255 214 238
255 214 238
255 214 238
255 214 238
255 214 238
255 214 238
255 214 238
255 214 238
255 214 238
255 214 238
255 214 238
255 226 250
255 214 238
255 214 238
255 214 238
255 214 238
255 214 238
255 214 238
255 214 238
255 214 238
255 214 238
255 214 238
255 214 238
255 214 238
255 214 238
255 214 238
255 214 238
255 214 238
255 214 238
255 214 238
255 214 238
255 214 238
255 214 238
255 214 238
255 214 238
255 214 238
255 214 238
255 214 238
255 214 238
255 214 238
255 214 238
255 214 238
255 214 238
255 214 238
255 214 238
255 214 238
255 214 238
255 214 238
255 226 250
255 214 238
255 214 238
255 214 238
255 214 238
255 214 238
255 214 238
255 214 238
255 214 238
255 214 238
255 214 238
255 214 238
255 214 238
255 214 238
255 214 238
255 214 238
255 214 238
255 214 238
255 214 238
255 214 238
255 214 238
255 214 238
255 214 238
255 226 250
255 214 238
255 214 238
255 214 238
255 214 238
255 214 238
255 214 238
255 214 238
255 214 238
255 214 238
255 214 238
255 214 238
255 214 238
255 214 238
255 214 238
255 214 238
255 214 238
255 214 238
255 214 238
255 214 238
255 214 238
255 214 238
255 214 238
255 214 238
255 214 238
255 214 238
255 214 238
255 214 238
255 214 238
255 214 238
255 214 238
255 214 238
255 214 238
255 214 238
255 214 238
255 214 238
255 214 238
255 226 250
255 214 238
255 214 238
255 214 238
255 214 238
255 214 238
255 214 238
255 214 238
255 214 238
255 214 238
255 214 238
255 214 238
255 214 238
255 214 238
255 214 238
255 214 238
255 214 238
255 214 238
255 214 238
255 214 238
255 214 238
255 214 238
255 214 238
255 214 238
255 214 238
255 214 238
255 214 238
255 214 238
255 214 238
255 214 238
255 214 238
255 214 238
255 214 238
255 214 238
255 214 238
255 214 238
255 214 238
255 226 250
255 214 238
255 214 238
255 214 238
255 214 238
255 214 238
255 214 238
255 214 238
255 214 238
255 214 238
255 214 238
255 214 238
255 214 238
255 214 238
255 214 238
255 214 238
255 214 238
255 214 238
255 214 238
255 214 238
255 214 238
255 214 238
255 214 238
255 214 238
255 214 238
255 214 238
255 214 238
255 214 238
255 214 238
255 214 238
255 214 238
255 214 238
255 214 238
255 214 238
255 214 238
255 214 238
255 214 238
255 226 250
255 214 238
255 214 238
255 214 238
255 214 238
255 214 238
255 214 238
255 214 238
255 214 238
255 214 238
255 214 238
255 214 238
255 214 238
255 214 238
255 214 238
255 214 238
255 214 238
255 214 238
255 214 238
255 214 238
255 214 238
255 214 238
255 214 238
255 214 238
255 214 238
255 214 238
255 214 238
255 214 238
255 214 238
255 214 238
255 214 238
255 214 238
255 214 238
255 214 238
255 214 238
255 214 238
255 214 238
255 226 250
255 214 238
255 214 238
255 214 238
255 214 238
255 214 238
255 214 238
255 214 238
255 214 238
255 214 238
255 214 238
255 214 238
255 214 238
255 214 238
255 214 238
255 214 238
255 214 238
255 214 238
255 214 238
255 214 238
255 214 238
255 214 238
255 214 238
255 214 238
255 214 238
255 214 238
255 214 238
255 214 238
255 214 238
255 214 238
255 214 238
255 214 238
255 214 238
255 214 238
255 214 238
255 214 238
255 214 238
255 226 250
255 214 238
255 214 238
255 214 238
255 214 238
255 214 238
255 214 238
255 214 238
255 214 238
255 214 238
255 214 238
255 214 238
255 214 238
255 214 238
255 214 238
255 214 238
255 214 238
255 214 238
255 214 238
255 214 238
255 214 238
255 214 238
255 214 238
255 214 238
255 214 238
255 214 238
255 214 238
255 214 238
255 214 238
255 214 238
255 214 238
255 214 238
255 214 238
255 214 238
255 214 238
255 214 238
255 214 238
255 226 250
255 214 238
255 214 238
255 214 238
255 214 238
255 214 238
255 214 238
255 214 238
255 214 238
255 214 238
255 214 238
255 214 238
255 214 238
255 214 238
255 214 238
255 214 238
255 214 238
255 214 238
255 214 238
255 214 238
255 214 238
255 214 238
255 214 238
255 214 238
255 214 238
255 214 238
255 214 238
255 214 238
255 214 238
255 214 238
255 214 238
255 214 238
255 214 238
255 214 238
255 214 238
255 214 238
255 214 238
255 226 250
255 214 238
255 214 238
255 214 238
255 214 238
255 214 238
255 214 238
255 214 238
255 214 238
255 214 238
255 214 238
255 214 238
255 214 238
255 214 238
255 214 238
255 214 238
255 214 238
255 214 238
255 214 238
255 214 238
255 214 238
255 214 238
255 214 238
255 214 238
255 214 238
255 214 238
255 214 238
255 214 238
255 214 238
255 214 238
255 214 238
255 214 238
255 214 238
255 214 238
255 214 238
255 214 238
255 214 238
255 226 250
255 214 238
255 214 238
255 214 238
255 214 238
255 214 238
255 214 238
255 214 238
255 214 238
255 214 238
255 214 238
255 214 238
255 214 238
255 214 238
255 214 238
255 214 238
255 214 238
255 214 238
255 214 238
255 214 238
255 214 238
255 214 238
255 214 238
255 226 250
255 214 238
255 214 238
255 214 238
255 214 238
255 214 238
255 214 238
255 214 238
255 214 238
255 214 238
255 214 238
255 214 238
255 214 238
255 214 238
255 214 238
255 214 238
255 214 238
255 214 238
255 214 238
255 214 238
255 214 238
255 214 238
255 214 238
255 214 238
255 214 238
255 214 238
255 214 238
255 214 238
255 214 238
255 214 238
255 214 238
255 214 238
255 214 238
255 214 238
255 214 238
255 214 238
255 214 238
255 226 250
255 214 238
255 214 238
255 214 238
255 214 238
255 214 238
255 214 238
255 214 238
255 214 238
255 214 238
255 214 238
255 214 238
255 214 238
255 214 238
255 214 238
255 214 238
255 214 238
255 214 238
255 214 238
255 214 238
255 214 238
255 214 238
255 214 238
255 214 238
255 214 238
255 214 238
255 214 238
255 214 238
255 214 238
255 214 238
255 214 238
255 214 238
255 214 238
255 214 238
255 214 238
255 214 238
255 214 238
255 226 250
255 214 238
255 214 238
255 214 238
255 214 238
255 214 238
255 214 238
255 214 238
255 214 238
255 214 238
255 214 238
255 214 238
255 214 238
255 214 238
255 214 238
255 214 238
255 214 238
255 214 238
255 214 238
255 214 238
255 214 238
255 214 238
255 214 238
255 214 238
255 214 238
255 214 238
255 214 238
255 214 238
255 214 238
255 214 238
255 214 238
255 214 238
255 214 238
255 214 238
255 214 238
255 214 238
255 214 238
255 226 250
255 214 238
255 214 238
255 214 238
255 214 238
255 214 238
255 214 238
255 214 238
255 214 238
255 214 238
255 214 238
255 214 238
255 214 238
255 214 238
255 214 238
255 214 238
255 214 238
255 214 238
255 214 238
255 214 238
255 214 238
255 214 238
255 214 238
255 214 238
255 214 238
255 214 238
255 214 238
255 214 238
255 214 238
255 214 238
255 214 238
255 214 238
255 214 238
255 214 238
255 214 238
255 214 238
255 214 238
255 226 250
255 214 238
255 214 238
255 214 238
255 214 238
255 214 238
255 214 238
255 214 238
255 214 238
255 214 238
255 214 238
255 214 238
255 214 238
255 214 238
255 214 238
255 214 238
255 214 238
255 214 238
255 214 238
255 214 238
255 214 238
255 214 238
255 214 238
255 214 238
255 214 238
255 214 238
255 214 238
255 214 238
255 214 238
255 214 238
255 214 238
255 214 238
255 214 238
255 214 238
255 214 238
255 214 238
255 214 238
255 226 250
255 214 238
255 214 238
255 214 238
255 214 238
255 214 238
255 214 238
255 214 238
255 214 238
255 214 238
255 214 238
255 214 238
255 214 238
255 214 238
255 214 238
255 214 238
255 214 238
255 214 238
255 214 238
255 214 238
255 214 238
255 214 238
255 214 238
255 214 238
255 214 238
255 214 238
255 214 238
255 214 238
255 214 238
255 214 238
255 214 238
255 214 238
255 214 238
255 214 238
255 214 238
255 214 238
255 214 238
255 226 250
255 214 238
255 214 238
255 214 238
255 214 238
255 214 238
255 214 238
255 214 238
255 214 238
255 214 238
255 214 238
255 214 238
255 214 238
255 214 238
255 214 238
255 214 238
255 214 238
255 214 238
255 214 238
255 214 238
255 214 238
255 214 238
255 214 238
255 214 238
255 214 238
255 214 238
255 214 238
255 214 238
255 214 238
255 214 238
255 214 238
255 214 238
255 214 238
255 214 238
255 214 238
255 214 238
255 214 238
255 226 250
255 214 238
255 214 238
255 214 238
255 214 238
255 214 238
255 214 238
255 214 238
255 214 238
255 214 238
255 214 238
255 214 238
255 214 238
255 214 238
255 214 238
255 214 238
255 214 238
255 214 238
255 214 238
255 214 238
255 214 238
255 214 238
255 214 238
255 214 238
255 214 238
255 214 238
255 214 238
255 214 238
255 214 238
255 214 238
255 214 238
255 214 238
255 214 238
255 214 238
255 214 238
255 214 238
255 214 238
255 226 250
255 214 238
255 214 238
255 214 238
255 214 238
255 214 238
255 214 238
255 214 238
255 214 238
255 214 238
255 214 238
255 214 238
255 214 238
255 214 238
255 214 238
255 214 238
255 214 238
255 214 238
255 214 238
255 214 238
255 214 238
255 214 238
255 214 238
255 226 250
255 214 238
255 214 238
255 214 238
255 214 238
255 214 238
255 214 238
255 214 238
255 214 238
255 214 238
255 214 238
255 214 238
255 214 238
255 214 238
255 214 238
255 214 238
255 214 238
255 214 238
255 214 238
255 214 238
255 214 238
255 214 238
255 214 238
255 214 238
255 214 238
255 214 238
255 214 238
255 214 238
255 214 238
255 214 238
255 214 238
255 214 238
255 214 238
255 214 238
255 214 238
255 214 238
255 214 238
255 226 250
255 214 238
255 214 238
255 214 238
255 214 238
255 214 238
255 214 238
255 214 238
255 214 238
255 214 238
255 214 238
255 214 238
255 214 238
255 214 238
255 214 238
255 214 238
255 214 238
255 214 238
255 214 238
255 214 238
255 214 238
255 214 238
255 214 238
255 214 238
255 214 238
255 214 238
255 214 238
255 214 238
255 214 238
255 214 238
255 214 238
255 214 238
255 214 238
255 214 238
255 214 238
255 214 238
255 214 238
255 226 250
255 214 238
255 214 238
255 214 238
255 214 238
255 214 238
255 214 238
255 214 238
255 214 238
255 214 238
255 214 238
255 214 238
255 214 238
255 214 238
255 214 238
255 214 238
255 214 238
255 214 238
255 214 238
255 214 238
255 214 238
255 214 238
255 214 238
255 214 238
255 214 238
255 214 238
255 214 238
255 214 238
255 214 238
255 214 238
255 214 238
255 214 238
255 214 238
255 214 238
255 214 238
255 214 238
255 214 238
255 226 250
255 214 238
255 214 238
255 214 238
255 214 238
255 214 238
255 214 238
255 214 238
255 214 238
255 214 238
255 214 238
255 214 238
255 214 238
255 214 238
255 214 238
255 214 238
255 214 238
255 214 238
255 214 238
255 214 238
255 214 238
255 214 238
255 214 238
255 214 238
255 214 238
255 214 238
255 214 238
255 214 238
255 214 238
255 214 238
255 214 238
255 214 238
255 214 238
255 214 238
255 214 238
255 214 238
255 214 238
255 226 250
255 214 238
255 214 238
255 214 238
255 214 238
255 214 238
255 214 238
255 214 238
255 214 238
255 214 238
255 214 238
255 214 238
255 214 238
255 214 238
255 214 238
255 214 238
255 214 238
255 214 238
255 214 238
255 214 238
255 214 238
255 214 238
255 214 238
255 214 238
255 214 238
255 214 238
255 214 238
255 214 238
255 214 238
255 214 238
255 214 238
255 214 238
255 214 238
255 214 238
255 214 238
255 214 238
255 214 238
255 226 250
255 214 238
255 214 238
255 214 238
255 214 238
255 214 238
255 214 238
255 214 238
255 214 238
255 214 238
255 214 238
255 214 238
255 214 238
255 214 238
255 214 238
255 214 238
255 214 238
255 214 238
255 214 238
255 214 238
255 214 238
255 214 238
255 214 238
255 214 238
255 214 238
255 214 238
255 214 238
255 214 238
255 214 238
255 214 238
255 214 238
255 214 238
255 214 238
255 214 238
255 214 238
255 214 238
255 214 238
255 226 250
255 214 238
255 214 238
255 214 238
255 214 238
255 214 238
255 214 238
255 214 238
255 214 238
255 214 238
255 214 238
255 214 238
255 214 238
255 214 238
255 214 238
255 214 238
255 214 238
255 214 238
255 214 238
255 214 238
255 214 238
255 214 238
255 214 238
255 214 238
255 214 238
255 214 238
255 214 238
255 214 238
255 214 238
255 214 238
255 214 238
255 214 238
255 214 238
255 214 238
255 214 238
255 214 238
255 214 238
255 226 250
255 214 238
255 214 238
255 214 238
255 214 238
255 214 238
255 214 238
255 214 238
255 214 238
255 214 238
255 214 238
255 214 238
255 214 238
255 214 238
255 214 238
255 214 238
255 214 238
255 214 238
255 214 238
255 214 238
255 214 238
255 214 238
255 214 238
255 214 238
255 214 238
255 214 238
255 214 238
255 214 238
255 214 238
255 214 238
255 214 238
255 214 238
255 214 238
255 214 238
255 214 238
255 214 238
255 214 238
255 226 250
255 214 238
255 214 238
255 214 238
255 214 238
255 214 238
255 214 238
255 214 238
255 214 238
255 214 238
255 214 238
255 214 238
255 214 238
255 214 238
255 214 238
255 214 238
255 214 238
255 214 238
255 214 238
255 214 238
255 214 238
255 214 238
255 214 238
255 226 250
255 214 238
255 214 238
255 214 238
255 214 238
255 214 238
255 214 238
255 214 238
255 214 238
255 214 238
255 214 238
255 214 238
255 214 238
255 214 238
255 214 238
255 214 238
255 214 238
255 214 238
255 214 238
255 214 238
255 214 238
255 214 238
255 214 238
255 214 238
255 214 238
255 214 238
255 214 238
255 214 238
255 214 238
255 214 238
255 214 238
255 214 238
255 214 238
255 214 238
255 214 238
255 214 238
255 214 238
255 226 250
255 214 238
255 214 238
255 214 238
255 214 238
255 214 238
255 214 238
255 214 238
255 214 238
255 214 238
255 214 238
255 214 238
255 214 238
255 214 238
255 214 238
255 214 238
255 214 238
255 214 238
255 214 238
255 214 238
255 214 238
255 214 238
255 214 238
255 214 238
255 214 238
255 214 238
255 214 238
255 214 238
255 214 238
255 214 238
255 214 238
255 214 238
255 214 238
255 214 238
255 214 238
255 214 238
255 214 238
255 226 250
255 214 238
255 214 238
255 214 238
255 214 238
255 214 238
255 214 238
255 214 238
255 214 238
255 214 238
255 214 238
255 214 238
255 214 238
255 214 238
255 214 238
255 214 238
255 214 238
255 214 238
255 214 238
255 214 238
255 214 238
255 214 238
255 214 238
255 214 238
255 214 238
255 214 238
255 214 238
255 214 238
255 214 238
255 214 238
255 214 238
255 214 238
255 214 238
255 214 238
255 214 238
255 214 238
255 214 238
255 226 250
255 214 238
255 214 238
255 214 238
255 214 238
255 214 238
255 214 238
255 214 238
255 214 238
255 214 238
255 214 238
255 214 238
255 214 238
255 214 238
255 214 238
255 214 238
255 214 238
255 214 238
255 214 238
255 214 238
255 214 238
255 214 238
255 214 238
255 214 238
255 214 238
255 214 238
255 214 238
255 214 238
255 214 238
255 214 238
255 214 238
255 214 238
255 214 238
255 214 238
255 214 238
255 214 238
255 214 238
255 226 250
255 214 238
255 214 238
255 214 238
255 214 238
255 214 238
255 214 238
255 214 238
255 214 238
255 214 238
255 214 238
255 214 238
255 214 238
255 214 238
255 214 238
255 214 238
255 214 238
255 214 238
255 214 238
255 214 238
255 214 238
255 214 238
255 214 238
255 214 238
255 214 238
255 214 238
255 214 238
255 214 238
255 214 238
255 214 238
255 214 238
255 214 238
255 214 238
255 214 238
255 214 238
255 214 238
255 214 238
255 226 250
255 214 238
255 214 238
255 214 238
255 214 238
255 214 238
255 214 238
255 214 238
255 214 238
255 214 238
255 214 238
255 214 238
255 214 238
255 214 238
255 214 238
255 214 238
255 214 238
255 214 238
255 214 238
255 214 238
255 214 238
255 214 238
255 214 238
255 214 238
255 214 238
255 214 238
255 214 238
255 214 238
255 214 238
255 214 238
255 214 238
255 214 238
255 214 238
255 214 238
255 214 238
255 214 238
255 214 238
255 226 250
255 214 238
255 214 238
255 214 238
255 214 238
255 214 238
255 214 238
255 214 238
255 214 238
255 214 238
255 214 238
255 214 238
255 214 238
255 214 238
255 214 238
255 214 238
255 214 238
255 214 238
255 214 238
255 214 238
255 214 238
255 214 238
255 214 238
255 214 238
255 214 238
255 214 238
255 214 238
255 214 238
255 214 238
255 214 238
255 214 238
255 214 238
255 214 238
255 214 238
255 214 238
255 214 238
255 214 238
255 226 250
255 214 238
255 214 238
255 214 238
255 214 238
255 214 238
255 214 238
255 214 238
255 214 238
255 214 238
255 214 238
255 214 238
255 214 238
255 214 238
255 214 238
255 214 238
255 214 238
255 214 238
255 214 238
255 214 238
255 214 238
255 214 238
255 214 238
255 214 238
255 214 238
255 214 238
255 214 238
255 214 238
255 214 238
255 214 238
255 214 238
255 214 238
255 214 238
255 214 238
255 214 238
255 214 238
255 214 238
255 226 250
255 214 238
255 214 238
255 214 238
255 214 238
255 214 238
255 214 238
255 214 238
255 214 238
255 214 238
255 214 238
255 214 238
255 214 238
255 214 238
255 214 238
255 214 238
255 214 238
255 214 238
255 214 238
255 214 238
255 214 238
255 214 238
255 214 238
255 226 250
255 214 238
255 214 238
255 214 238
255 214 238
255 214 238
255 214 238
255 214 238
255 214 238
255 214 238
255 214 238
255 214 238
255 214 238
255 214 238
255 214 238
255 214 238
255 214 238
255 214 238
255 214 238
255 214 238
255 214 238
255 214 238
255 214 238
255 214 238
255 214 238
255 214 238
255 214 238
255 214 238
255 214 238
255 214 238
255 214 238
255 214 238
255 214 238
255 214 238
255 214 238
255 214 238
255 214 238
255 226 250
255 214 238
255 214 238
255 214 238
255 214 238
255 214 238
255 214 238
255 214 238
255 214 238
255 214 238
255 214 238
255 214 238
255 214 238
255 214 238
255 214 238
255 214 238
255 214 238
255 214 238
255 214 238
255 214 238
255 214 238
255 214 238
255 214 238
255 214 238
255 214 238
255 214 238
255 214 238
255 214 238
255 214 238
255 214 238
255 214 238
255 214 238
255 214 238
255 214 238
255 214 238
255 214 238
255 214 238
255 226 250
255 214 238
255 214 238
255 214 238
255 214 238
255 214 238
255 214 238
255 214 238
255 214 238
255 214 238
255 214 238
255 214 238
255 214 238
255 214 238
255 214 238
255 214 238
255 214 238
255 214 238
255 214 238
255 214 238
255 214 238
255 214 238
255 214 238
255 214 238
255 214 238
255 214 238
255 214 238
255 214 238
255 214 238
255 214 238
255 214 238
255 214 238
255 214 238
255 214 238
255 214 238
255 214 238
255 214 238
255 226 250
255 214 238
255 214 238
255 214 238
255 214 238
255 214 238
255 214 238
255 214 238
255 214 238
255 214 238
255 214 238
255 214 238
255 214 238
255 214 238
255 214 238
255 214 238
255 214 238
255 214 238
255 214 238
255 214 238
255 214 238
255 214 238
255 214 238
255 214 238
255 214 238
255 214 238
255 214 238
255 214 238
255 214 238
255 214 238
255 214 238
255 214 238
255 214 238
255 214 238
255 214 238
255 214 238
255 214 238
255 226 250
255 214 238
255 214 238
255 214 238
255 214 238
255 214 238
255 214 238
255 214 238
255 214 238
255 214 238
255 214 238
255 214 238
255 214 238
255 214 238
255 214 238
255 214 238
255 214 238
255 214 238
255 214 238
255 214 238
255 214 238
255 214 238
255 214 238
255 214 238
255 214 238
255 214 238
255 214 238
255 214 238
255 214 238
255 214 238
255 214 238
255 214 238
255 214 238
255 214 238
255 214 238
255 214 238
255 214 238
255 226 250
255 214 238
255 214 238
255 214 238
255 214 238
255 214 238
255 214 238
255 214 238
255 214 238
255 214 238
255 214 238
255 214 238
255 214 238
255 214 238
255 214 238
255 214 238
255 214 238
255 214 238
255 214 238
255 214 238
255 214 238
255 214 238
255 214 238
255 214 238
255 214 238
255 214 238
255 214 238
255 214 238
255 214 238
255 214 238
255 214 238
255 214 238
255 214 238
255 214 238
255 214 238
255 214 238
255 214 238
255 226 250
255 214 238
255 214 238
255 214 238
255 214 238
255 214 238
255 214 238
255 214 238
255 214 238
255 214 238
255 214 238
255 214 238
255 214 238
255 214 238
255 214 238
255 214 238
255 214 238
255 214 238
255 214 238
255 214 238
255 214 238
255 214 238
255 214 238
255 214 238
255 214 238
255 214 238
255 214 238
255 214 238
255 214 238
255 214 238
255 214 238
255 214 238
255 214 238
255 214 238
255 214 238
255 214 238
255 214 238
255 226 250
255 214 238
255 214 238
255 214 238
255 214 238
255 214 238
255 214 238
255 214 238
255 214 238
255 214 238
255 214 238
255 214 238
255 214 238
255 214 238
255 214 238
255 214 238
255 214 238
255 214 238
255 214 238
255 214 238
255 214 238
255 214 238
255 214 238
255 214 238
255 214 238
255 214 238
255 214 238
255 214 238
255 214 238
255 214 238
255 214 238
255 214 238
255 214 238
255 214 238
255 214 238
255 214 238
255 214 238
255 226 250
255 214 238
255 214 238
255 214 238
255 214 238
255 214 238
255 214 238
255 214 238
255 214 238
255 214 238
255 214 238
255 214 238
255 214 238
255 214 238
255 214 238
255 214 238
255 214 238
255 214 238
255 214 238
255 214 238
255 214 238
255 214 238
255 214 238
255 226 250
255 214 238
255 214 238
255 214 238
255 214 238
255 214 238
255 214 238
255 214 238
255 214 238
255 214 238
255 214 238
255 214 238
255 214 238
255 214 238
255 214 238
255 214 238
255 214 238
255 214 238
255 214 238
255 214 238
255 214 238
255 214 238
255 214 238
255 214 238
255 214 238
255 214 238
255 214 238
255 214 238
255 214 238
255 214 238
255 214 238
255 214 238
255 214 238
255 214 238
255 214 238
255 214 238
255 214 238
255 226 250
255 214 238
255 214 238
255 214 238
255 214 238
255 214 238
255 214 238
255 214 238
255 214 238
255 214 238
255 214 238
255 214 238
255 214 238
255 214 238
255 214 238
255 214 238
255 214 238
255 214 238
255 214 238
255 214 238
255 214 238
255 214 238
255 214 238
255 214 238
255 214 238
255 214 238
255 214 238
255 214 238
255 214 238
255 214 238
255 214 238
255 214 238
255 214 238
255 214 238
255 214 238
255 214 238
255 214 238
255 226 250
255 214 238
255 214 238
255 214 238
255 214 238
255 214 238
255 214 238
255 214 238
255 214 238
255 214 238
255 214 238
255 214 238
255 214 238
255 214 238
255 214 238
255 214 238
255 214 238
255 214 238
255 214 238
255 214 238
255 214 238
255 214 238
255 214 238
255 214 238
255 214 238
255 214 238
255 214 238
255 214 238
255 214 238
255 214 238
255 214 238
255 214 238
255 214 238
255 214 238
255 214 238
255 214 238
255 214 238
255 226 250
255 214 238
255 214 238
255 214 238
255 214 238
255 214 238
255 214 238
255 214 238
255 214 238
255 214 238
255 214 238
255 214 238
255 214 238
255 214 238
255 214 238
255 214 238
255 214 238
255 214 238
255 214 238
255 214 238
255 214 238
255 214 238
255 214 238
255 214 238
255 214 238
255 214 238
255 214 238
255 214 238
255 214 238
255 214 238
255 214 238
255 214 238
255 214 238
255 214 238
255 214 238
255 214 238
255 214 238
255 226 250
255 214 238
255 214 238
255 214 238
255 214 238
255 214 238
255 214 238
255 214 238
255 214 238
255 214 238
255 214 238
255 214 238
255 214 238
255 214 238
255 214 238
255 214 238
255 214 238
255 214 238
255 214 238
255 214 238
255 214 238
255 214 238
255 214 238
255 214 238
255 214 238
255 214 238
255 214 238
255 214 238
255 214 238
255 214 238
255 214 238
255 214 238
255 214 238
255 214 238
255 214 238
255 214 238
255 214 238
255 226 250
255 214 238
255 214 238
255 214 238
255 214 238
255 214 238
255 214 238
255 214 238
255 214 238
255 214 238
255 214 238
255 214 238
255 214 238
255 214 238
255 214 238
255 214 238
255 214 238
255 214 238
255 214 238
255 214 238
255 214 238
255 214 238
255 214 238
255 214 238
255 214 238
255 214 238
255 214 238
255 214 238
255 214 238
255 214 238
255 214 238
255 214 238
255 214 238
255 214 238
255 214 238
255 214 238
255 214 238
255 226 250
255 214 238
255 214 238
255 214 238
255 214 238
255 214 238
255 214 238
255 214 238
255 214 238
255 214 238
255 214 238
255 214 238
255 214 238
255 214 238
255 214 238
255 214 238
255 214 238
255 214 238
255 214 238
255 214 238
255 214 238
255 214 238
255 214 238
255 214 238
255 214 238
255 214 238
255 214 238
255 214 238
255 214 238
255 214 238
255 214 238
255 214 238
255 214 238
255 214 238
255 214 238
255 214 238
255 214 238
255 226 250
255 214 238
255 214 238
255 214 238
255 214 238
255 214 238
255 214 238
255 214 238
255 214 238
255 214 238
255 214 238
255 214 238
255 214 238
255 214 238
255 214 238
255 214 238
255 214 238
255 214 238
255 214 238
255 214 238
255 214 238
255 214 238
255 214 238
255 214 238
255 214 238
255 214 238
255 214 238
255 214 238
255 214 238
255 214 238
255 214 238
255 214 238
255 214 238
255 214 238
255 214 238
255 214 238
255 214 238
255 226 250
255 214 238
255 214 238
255 214 238
255 214 238
255 214 238
255 214 238
255 214 238
255 214 238
255 214 238
255 214 238
255 214 238
255 214 238
255 214 238
255 214 238
255 214 238
255 214 238
255 214 238
255 214 238
255 214 238
255 214 238
255 214 238
255 214 238
255 226 250
255 214 238
255 214 238
255 214 238
255 214 238
255 214 238
255 214 238
255 214 238
255 214 238
255 214 238
255 214 238
255 214 238
255 214 238
255 214 238
255 214 238
255 214 238
255 214 238
255 214 238
255 214 238
255 214 238
255 214 238
255 214 238
255 214 238
255 214 238
255 214 238
255 214 238
255 214 238
255 214 238
255 214 238
255 214 238
255 214 238
255 214 238
255 214 238
255 214 238
255 214 238
255 214 238
255 214 238
255 226 250
255 214 238
255 214 238
255 214 238
255 214 238
255 214 238
255 214 238
255 214 238
255 214 238
255 214 238
255 214 238
255 214 238
255 214 238
255 214 238
255 214 238
255 214 238
255 214 238
255 214 238
255 214 238
255 214 238
255 214 238
255 214 238
255 214 238
255 214 238
255 214 238
255 214 238
255 214 238
255 214 238
255 214 238
255 214 238
255 214 238
255 214 238
255 214 238
255 214 238
255 214 238
255 214 238
255 214 238
255 226 250
255 214 238
255 214 238
255 214 238
255 214 238
255 214 238
255 214 238
255 214 238
255 214 238
255 214 238
255 214 238
255 214 238
255 214 238
255 214 238
255 214 238
255 214 238
255 214 238
255 214 238
255 214 238
255 214 238
255 214 238
255 214 238
255 214 238
255 214 238
255 214 238
255 214 238
255 214 238
255 214 238
255 214 238
255 214 238
255 214 238
255 214 238
255 214 238
255 214 238
255 214 238
255 214 238
255 214 238
255 226 250
255 214 238
255 214 238
255 214 238
255 214 238
255 214 238
255 214 238
255 214 238
255 214 238
255 214 238
255 214 238
255 214 238
255 214 238
255 214 238
255 214 238
255 214 238
255 214 238
255 214 238
255 214 238
255 214 238
255 214 238
255 214 238
255 214 238
255 214 238
255 214 238
255 214 238
255 214 238
255 214 238
255 214 238
255 214 238
255 214 238
255 214 238
255 214 238
255 214 238
255 214 238
255 214 238
255 214 238
255 226 250
255 214 238
255 214 238
255 214 238
255 214 238
255 214 238
255 214 238
255 214 238
255 214 238
255 214 238
255 214 238
255 214 238
255 214 238
255 214 238
255 214 238
255 214 238
255 214 238
255 214 238
255 214 238
255 214 238
255 214 238
255 214 238
255 214 238
255 214 238
255 214 238
255 214 238
255 214 238
255 214 238
255 214 238
255 214 238
255 214 238
255 214 238
255 214 238
255 214 238
255 214 238
255 214 238
255 214 238
255 226 250
255 214 238
255 214 238
255 214 238
255 214 238
255 214 238
255 214 238
255 214 238
255 214 238
255 214 238
255 214 238
255 214 238
255 214 238
255 214 238
255 214 238
255 214 238
255 214 238
255 214 238
255 214 238
255 214 238
255 214 238
255 214 238
255 214 238
255 214 238
255 214 238
255 214 238
255 214 238
255 214 238
255 214 238
255 214 238
255 214 238
255 214 238
255 214 238
255 214 238
255 214 238
255 214 238
255 214 238
255 226 250
255 214 238
255 214 238
255 214 238
255 214 238
255 214 238
255 214 238
255 214 238
255 214 238
255 214 238
255 214 238
255 214 238
255 214 238
255 214 238
255 214 238
255 214 238
255 214 238
255 214 238
255 214 238
255 214 238
255 214 238
255 214 238
255 214 238
255 214 238
255 214 238
255 214 238
255 214 238
255 214 238
255 214 238
255 214 238
255 214 238
255 214 238
255 214 238
255 214 238
255 214 238
255 214 238
255 214 238
255 226 250
255 214 238
255 214 238
255 214 238
255 214 238
255 214 238
255 214 238
255 214 238
255 214 238
255 214 238
255 214 238
255 214 238
255 214 238
255 214 238
255 214 238
255 214 238
255 214 238
255 214 238
255 214 238
255 214 238
255 214 238
255 214 238
255 214 238
255 214 238
255 214 238
255 214 238
255 214 238
255 214 238
255 214 238
255 214 238
255 214 238
255 214 238
255 214 238
255 214 238
255 214 238
255 214 238
255 214 238
255 226 250
255 214 238
255 214 238
255 214 238
255 214 238
255 214 238
255 214 238
255 214 238
255 214 238
255 214 238
255 214 238
255 214 238
255 214 238
255 214 238
255 214 238
255 214 238
255 214 238
255 214 238
255 214 238
255 214 238
255 214 238
255 214 238
255 214 238
255 226 250
255 214 238
255 214 238
255 214 238
255 214 238
255 214 238
255 214 238
255 214 238
255 214 238
255 214 238
255 214 238
255 214 238
255 214 238
255 214 238
255 214 238
255 214 238
255 214 238
255 214 238
255 214 238
255 214 238
255 214 238
255 214 238
255 214 238
255 214 238
255 214 238
255 214 238
255 214 238
255 214 238
255 214 238
255 214 238
255 214 238
255 214 238
255 214 238
255 214 238
255 214 238
255 214 238
255 214 238
255 226 250
255 214 238
255 214 238
255 214 238
255 214 238
255 214 238
255 214 238
255 214 238
255 214 238
255 214 238
255 214 238
255 214 238
255 214 238
255 214 238
255 214 238
255 214 238
255 214 238
255 214 238
255 214 238
255 214 238
255 214 238
255 214 238
255 214 238
255 214 238
255 214 238
255 214 238
255 214 238
255 214 238
255 214 238
255 214 238
255 214 238
255 214 238
255 214 238
255 214 238
255 214 238
255 214 238
255 214 238
255 226 250
255 214 238
255 214 238
255 214 238
255 214 238
255 214 238
255 214 238
255 214 238
255 214 238
255 214 238
255 214 238
255 214 238
255 214 238
255 214 238
255 214 238
255 214 238
255 214 238
255 214 238
255 214 238
255 214 238
255 214 238
255 214 238
255 214 238
255 214 238
255 214 238
255 214 238
255 214 238
255 214 238
255 214 238
255 214 238
255 214 238
255 214 238
255 214 238
255 214 238
255 214 238
255 214 238
255 214 238
255 226 250
255 214 238
255 214 238
255 214 238
255 214 238
255 214 238
255 214 238
255 214 238
255 214 238
255 214 238
255 214 238
255 214 238
255 214 238
255 214 238
255 214 238
255 214 238
255 214 238
255 214 238
255 214 238
255 214 238
255 214 238
255 214 238
255 214 238
255 214 238
255 214 238
255 214 238
255 214 238
255 214 238
255 214 238
255 214 238
255 214 238
255 214 238
255 214 238
255 214 238
255 214 238
255 214 238
255 214 238
255 226 250
255 214 238
255 214 238
255 214 238
255 214 238
255 214 238
255 214 238
255 214 238
255 214 238
255 214 238
255 214 238
255 214 238
255 214 238
255 214 238
255 214 238
255 214 238
255 214 238
255 214 238
255 214 238
255 214 238
255 214 238
255 214 238
255 214 238
255 214 238
255 214 238
255 214 238
255 214 238
255 214 238
255 214 238
255 214 238
255 214 238
255 214 238
255 214 238
255 214 238
255 214 238
255 214 238
255 214 238
255 226 250
255 214 238
255 214 238
255 214 238
255 214 238
255 214 238
255 214 238
255 214 238
255 214 238
255 214 238
255 214 238
255 214 238
255 214 238
255 214 238
255 214 238
255 214 238
255 214 238
255 214 238
255 214 238
255 214 238
255 214 238
255 214 238
255 214 238
255 214 238
255 214 238
255 214 238
255 214 238
255 214 238
255 214 238
255 214 238
255 214 238
255 214 238
255 214 238
255 214 238
255 214 238
255 214 238
255 214 238
255 226 250
255 214 238
255 214 238
255 214 238
255 214 238
255 214 238
255 214 238
255 214 238
255 214 238
255 214 238
255 214 238
255 214 238
255 214 238
255 214 238
255 214 238
255 214 238
255 214 238
255 214 238
255 214 238
255 214 238
255 214 238
255 214 238
255 214 238
255 214 238
255 214 238
255 214 238
255 214 238
255 214 238
255 214 238
255 214 238
255 214 238
255 214 238
255 214 238
255 214 238
255 214 238
255 214 238
255 214 238
255 226 250
255 214 238
255 214 238
255 214 238
255 214 238
255 214 238
255 214 238
255 214 238
255 214 238
255 214 238
255 214 238
255 214 238
255 214 238
255 214 238
255 214 238
255 214 238
255 214 238
255 214 238
255 214 238
255 214 238
255 214 238
255 214 238
255 214 238
255 214 238
255 214 238
255 214 238
255 214 238
255 214 238
255 214 238
255 214 238
255 214 238
255 214 238
255 214 238
255 214 238
255 214 238
255 214 238
255 214 238
255 226 250
255 214 238
255 214 238
255 214 238
255 214 238
255 214 238
255 214 238
255 214 238
255 214 238
255 214 238
255 214 238
255 214 238
255 214 238
255 214 238
255 214 238
255 214 238
255 214 238
255 214 238
255 214 238
255 214 238
255 214 238
255 214 238
255 214 238
255 226 250
255 214 238
255 214 238
255 214 238
255 214 238
255 214 238
255 214 238
255 214 238
255 214 238
255 214 238
255 214 238
255 214 238
255 214 238
255 214 238
255 214 238
255 214 238
255 214 238
255 214 238
255 214 238
255 214 238
255 214 238
255 214 238
255 214 238
255 214 238
255 214 238
255 214 238
255 214 238
255 214 238
255 214 238
255 214 238
255 214 238
255 214 238
255 214 238
255 214 238
255 214 238
255 214 238
255 214 238
255 226 250
255 214 238
255 214 238
255 214 238
255 214 238
255 214 238
255 214 238
255 214 238
255 214 238
255 214 238
255 214 238
255 214 238
255 214 238
255 214 238
255 214 238
255 214 238
255 214 238
255 214 238
255 214 238
255 214 238
255 214 238
255 214 238
255 214 238
255 214 238
255 214 238
255 214 238
255 214 238
255 214 238
255 214 238
255 214 238
255 214 238
255 214 238
255 214 238
255 214 238
255 214 238
255 214 238
255 214 238
255 226 250
255 214 238
255 214 238
255 214 238
255 214 238
255 214 238
255 214 238
255 214 238
255 214 238
255 214 238
255 214 238
255 214 238
255 214 238
255 214 238
255 214 238
255 214 238
255 214 238
255 214 238
255 214 238
255 214 238
255 214 238
255 214 238
255 214 238
255 214 238
255 214 238
255 214 238
255 214 238
255 214 238
255 214 238
255 214 238
255 214 238
255 214 238
255 214 238
255 214 238
255 214 238
255 214 238
255 214 238
255 226 250
255 214 238
255 214 238
255 214 238
255 214 238
255 214 238
255 214 238
255 214 238
255 214 238
255 214 238
255 214 238
255 214 238
255 214 238
255 214 238
255 214 238
255 214 238
255 214 238
255 214 238
255 214 238
255 214 238
255 214 238
255 214 238
255 214 238
255 214 238
255 214 238
255 214 238
255 214 238
255 214 238
255 214 238
255 214 238
255 214 238
255 214 238
255 214 238
255 214 238
255 214 238
255 214 238
255 214 238
255 226 250
255 214 238
255 214 238
255 214 238
255 214 238
255 214 238
255 214 238
255 214 238
255 214 238
255 214 238
255 214 238
255 214 238
255 214 238
255 214 238
255 214 238
255 214 238
255 214 238
255 214 238
255 214 238
255 214 238
255 214 238
255 214 238
255 214 238
255 214 238
255 214 238
255 214 238
255 214 238
255 214 238
255 214 238
255 214 238
255 214 238
255 214 238
255 214 238
255 214 238
255 214 238
255 214 238
255 214 238
255 226 250
255 214 238
255 214 238
255 214 238
255 214 238
255 214 238
255 214 238
255 214 238
255 214 238
255 214 238
255 214 238
255 214 238
255 214 238
255 214 238
255 214 238
255 214 238
255 214 238
255 214 238
255 214 238
255 214 238
255 214 238
255 214 238
255 214 238
255 214 238
255 214 238
255 214 238
255 214 238
255 214 238
255 214 238
255 214 238
255 214 238
255 214 238
255 214 238
255 214 238
255 214 238
255 214 238
255 214 238
255 226 250
255 214 238
255 214 238
255 214 238
255 214 238
255 214 238
255 214 238
255 214 238
255 214 238
255 214 238
255 214 238
255 214 238
255 214 238
255 214 238
255 214 238
255 214 238
255 214 238
255 214 238
255 214 238
255 214 238
255 214 238
255 214 238
255 214 238
255 214 238
255 214 238
255 214 238
255 214 238
255 214 238
255 214 238
255 214 238
255 214 238
255 214 238
255 214 238
255 214 238
255 214 238
255 214 238
255 214 238
255 226 250
255 214 238
255 214 238
255 214 238
255 214 238
255 214 238
255 214 238
255 214 238
255 214 238
255 214 238
255 214 238
255 214 238
255 214 238
255 214 238
255 214 238
255 214 238
255 214 238
255 214 238
255 214 238
255 214 238
255 214 238
255 214 238
255 214 238
255 214 238
255 214 238
255 214 238
255 214 238
255 214 238
255 214 238
255 214 238
255 214 238
255 214 238
255 214 238
255 214 238
255 214 238
255 214 238
255 214 238
255 226 250
255 214 238
255 214 238
255 214 238
255 214 238
255 214 238
255 214 238
255 214 238
255 214 238
255 214 238
255 214 238
255 214 238
255 214 238
255 214 238
255 214 238
255 214 238
255 214 238
255 214 238
255 214 238
255 214 238
255 214 238
255 214 238
255 214 238
255 226 250
255 214 238
255 214 238
255 214 238
255 214 238
255 214 238
255 214 238
255 214 238
255 214 238
255 214 238
255 214 238
255 214 238
255 214 238
255 214 238
255 214 238
255 214 238
255 214 238
255 214 238
255 214 238
255 214 238
255 214 238
255 214 238
255 214 238
255 214 238
255 214 238
255 214 238
255 214 238
255 214 238
255 214 238
255 214 238
255 214 238
255 214 238
255 214 238
255 214 238
255 214 238
255 214 238
255 214 238
255 226 250
255 214 238
255 214 238
255 214 238
255 214 238
255 214 238
255 214 238
255 214 238
255 214 238
255 214 238
255 214 238
255 214 238
255 214 238
255 214 238
255 214 238
255 214 238
255 214 238
255 214 238
255 214 238
255 214 238
255 214 238
255 214 238
255 214 238
255 214 238
255 214 238
255 214 238
255 214 238
255 214 238
255 214 238
255 214 238
255 214 238
255 214 238
255 214 238
255 214 238
255 214 238
255 214 238
255 214 238
255 226 250
255 214 238
255 214 238
255 214 238
255 214 238
255 214 238
255 214 238
255 214 238
255 214 238
255 214 238
255 214 238
255 214 238
255 214 238
255 214 238
255 214 238
255 214 238
255 214 238
255 214 238
255 214 238
255 214 238
255 214 238
255 214 238
255 214 238
255 214 238
255 214 238
255 214 238
255 214 238
255 214 238
255 214 238
255 214 238
255 214 238
255 214 238
255 214 238
255 214 238
255 214 238
255 214 238
255 214 238
255 226 250
255 214 238
255 214 238
255 214 238
255 214 238
255 214 238
255 214 238
255 214 238
255 214 238
255 214 238
255 214 238
255 214 238
255 214 238
255 214 238
255 214 238
255 214 238
255 214 238
255 214 238
255 214 238
255 214 238
255 214 238
255 214 238
255 214 238
255 214 238
255 214 238
255 214 238
255 214 238
255 214 238
255 214 238
255 214 238
255 214 238
255 214 238
255 214 238
255 214 238
255 214 238
255 214 238
255 214 238
255 226 250
255 214 238
255 214 238
255 214 238
255 214 238
255 214 238
255 214 238
255 214 238
255 214 238
255 214 238
255 214 238
255 214 238
255 214 238
255 214 238
255 214 238
255 214 238
255 214 238
255 214 238
255 214 238
255 214 238
255 214 238
255 214 238
255 214 238
255 214 238
255 214 238
255 214 238
255 214 238
255 214 238
255 214 238
255 214 238
255 214 238
255 214 238
255 214 238
255 214 238
255 214 238
255 214 238
255 214 238
255 226 250
255 214 238
255 214 238
255 214 238
255 214 238
255 214 238
255 214 238
255 214 238
255 214 238
255 214 238
255 214 238
255 214 238
255 214 238
255 214 238
255 214 238
255 214 238
255 214 238
255 214 238
255 214 238
255 214 238
255 214 238
255 214 238
255 214 238
255 214 238
255 214 238
255 214 238
255 214 238
255 214 238
255 214 238
255 214 238
255 214 238
255 214 238
255 214 238
255 214 238
255 214 238
255 214 238
255 214 238
255 226 250
255 214 238
255 214 238
255 214 238
255 214 238
255 214 238
255 214 238
255 214 238
255 214 238
255 214 238
255 214 238
255 214 238
255 214 238
255 214 238
255 214 238
255 214 238
255 214 238
255 214 238
255 214 238
255 214 238
255 214 238
255 214 238
255 214 238
255 214 238
255 214 238
255 214 238
255 214 238
255 214 238
255 214 238
255 214 238
255 214 238
255 214 238
255 214 238
255 214 238
255 214 238
255 214 238
255 214 238
255 226 250
255 214 238
255 214 238
255 214 238
255 214 238
255 214 238
255 214 238
255 214 238
255 214 238
255 214 238
255 214 238
255 214 238
255 214 238
255 214 238
255 214 238
255 214 238
255 214 238
255 214 238
255 214 238
255 214 238
255 214 238
255 214 238
255 214 238
255 214 238
255 214 238
255 214 238
255 214 238
255 214 238
255 214 238
255 214 238
255 214 238
255 214 238
255 214 238
255 214 238
255 214 238
255 214 238
255 214 238
255 226 250
255 214 238
255 214 238
255 214 238
255 214 238
255 214 238
255 214 238
255 214 238
255 214 238
255 214 238
255 214 238
255 214 238
255 214 238
255 214 238
255 214 238
255 214 238
255 214 238
255 214 238
255 214 238
255 214 238
255 214 238
255 214 238
255 214 238
255 226 250
255 214 238
255 214 238
255 214 238
255 214 238
255 214 238
255 214 238
255 214 238
255 214 238
255 214 238
255 214 238
255 214 238
255 214 238
255 214 238
255 214 238
255 214 238
255 214 238
255 214 238
255 214 238
255 214 238
255 214 238
255 214 238
255 214 238
255 214 238
255 214 238
255 214 238
255 214 238
255 214 238
255 214 238
255 214 238
255 214 238
255 214 238
255 214 238
255 214 238
255 214 238
255 214 238
255 214 238
255 226 250
255 214 238
255 214 238
255 214 238
255 214 238
255 214 238
255 214 238
255 214 238
255 214 238
255 214 238
255 214 238
255 214 238
255 214 238
255 214 238
255 214 238
255 214 238
255 214 238
255 214 238
255 214 238
255 214 238
255 214 238
255 214 238
255 214 238
255 214 238
255 214 238
255 214 238
255 214 238
255 214 238
255 214 238
255 214 238
255 214 238
255 214 238
255 214 238
255 214 238
255 214 238
255 214 238
255 214 238
255 226 250
255 214 238
255 214 238
255 214 238
255 214 238
255 214 238
255 214 238
255 214 238
255 214 238
255 214 238
255 214 238
255 214 238
255 214 238
255 214 238
255 214 238
255 214 238
255 214 238
255 214 238
255 214 238
255 214 238
255 214 238
255 214 238
255 214 238
255 214 238
255 214 238
255 214 238
255 214 238
255 214 238
255 214 238
255 214 238
255 214 238
255 214 238
255 214 238
255 214 238
255 214 238
255 214 238
255 214 238
255 226 250
255 214 238
255 214 238
255 214 238
255 214 238
255 214 238
255 214 238
255 214 238
255 214 238
255 214 238
255 214 238
255 214 238
255 214 238
255 214 238
255 214 238
255 214 238
255 214 238
255 214 238
255 214 238
255 214 238
255 214 238
255 214 238
255 214 238
255 214 238
255 214 238
255 214 238
255 214 238
255 214 238
255 214 238
255 214 238
255 214 238
255 214 238
255 214 238
255 214 238
255 214 238
255 214 238
255 214 238
255 226 250
255 214 238
255 214 238
255 214 238
255 214 238
255 214 238
255 214 238
255 214 238
255 214 238
255 214 238
255 214 238
255 214 238
255 214 238
255 214 238
255 214 238
255 214 238
255 214 238
255 214 238
255 214 238
255 214 238
255 214 238
255 214 238
255 214 238
255 214 238
255 214 238
255 214 238
255 214 238
255 214 238
255 214 238
255 214 238
255 214 238
255 214 238
255 214 238
255 214 238
255 214 238
255 214 238
255 214 238
255 226 250
255 214 238
255 214 238
255 214 238
255 214 238
255 214 238
255 214 238
255 214 238
255 214 238
255 214 238
255 214 238
255 214 238
255 214 238
255 214 238
255 214 238
255 214 238
255 214 238
255 214 238
255 214 238
255 214 238
255 214 238
255 214 238
255 214 238
255 214 238
255 214 238
255 214 238
255 214 238
255 214 238
255 214 238
255 214 238
255 214 238
255 214 238
255 214 238
255 214 238
255 214 238
255 214 238
255 214 238
255 226 250
255 214 238
255 214 238
255 214 238
255 214 238
255 214 238
255 214 238
255 214 238
255 214 238
255 214 238
255 214 238
255 214 238
255 214 238
255 214 238
255 214 238
255 214 238
255 214 238
255 214 238
255 214 238
255 214 238
255 214 238
255 214 238
255 214 238
255 214 238
255 214 238
255 214 238
255 214 238
255 214 238
255 214 238
255 214 238
255 214 238
255 214 238
255 214 238
255 214 238
255 214 238
255 214 238
255 214 238
255 226 250
255 214 238
255 214 238
255 214 238
255 214 238
255 214 238
255 214 238
255 214 238
255 214 238
255 214 238
255 214 238
255 214 238
255 214 238
255 214 238
255 214 238
255 214 238
255 214 238
255 214 238
255 214 238
255 214 238
255 214 238
255 214 238
255 214 238
255 214 238
255 214 238
255 214 238
255 214 238
255 214 238
255 214 238
255 214 238
255 214 238
255 214 238
255 214 238
255 214 238
255 214 238
255 214 238
255 214 238
255 226 250
255 214 238
255 214 238
255 214 238
255 214 238
255 214 238
255 214 238
255 214 238
255 214 238
255 214 238
255 214 238
255 214 238
255 214 238
255 214 238
255 214 238
255 214 238
255 214 238
255 214 238
255 214 238
255 214 238
255 214 238
255 214 238
255 214 238
255 226 250
255 214 238
255 214 238
255 214 238
255 214 238
255 214 238
255 214 238
255 214 238
255 214 238
255 214 238
255 214 238
255 214 238
255 214 238
255 214 238
255 214 238
255 214 238
255 214 238
255 214 238
255 214 238
255 214 238
255 214 238
255 214 238
255 214 238
255 214 238
255 214 238
255 214 238
255 214 238
255 214 238
255 214 238
255 214 238
255 214 238
255 214 238
255 214 238
255 214 238
255 214 238
255 214 238
255 214 238
255 226 250
255 214 238
255 214 238
255 214 238
255 214 238
255 214 238
255 214 238
255 214 238
255 214 238
255 214 238
255 214 238
255 214 238
255 214 238
255 214 238
255 214 238
255 214 238
255 214 238
255 214 238
255 214 238
255 214 238
255 214 238
255 214 238
255 214 238
255 214 238
255 214 238
255 214 238
255 214 238
255 214 238
255 214 238
255 214 238
255 214 238
255 214 238
255 214 238
255 214 238
255 214 238
255 214 238
255 214 238
255 226 250
255 214 238
255 214 238
255 214 238
255 214 238
255 214 238
255 214 238
255 214 238
255 214 238
255 214 238
255 214 238
255 214 238
255 214 238
255 214 238
255 214 238
255 214 238
255 214 238
255 214 238
255 214 238
255 214 238
255 214 238
255 214 238
255 214 238
255 214 238
255 214 238
255 214 238
255 214 238
255 214 238
255 214 238
255 214 238
255 214 238
255 214 238
255 214 238
255 214 238
255 214 238
255 214 238
255 214 238
255 226 250
255 214 238
255 214 238
255 214 238
255 214 238
255 214 238
255 214 238
255 214 238
255 214 238
255 214 238
255 214 238
255 214 238
255 214 238
255 214 238
255 214 238
255 214 238
255 214 238
255 214 238
255 214 238
255 214 238
255 214 238
255 214 238
255 214 238
255 214 238
255 214 238
255 214 238
255 214 238
255 214 238
255 214 238
255 214 238
255 214 238
255 214 238
255 214 238
255 214 238
255 214 238
255 214 238
255 214 238
255 226 250
255 214 238
255 214 238
255 214 238
255 214 238
255 214 238
255 214 238
255 214 238
255 214 238
255 214 238
255 214 238
255 214 238
255 214 238
255 214 238
255 214 238
255 214 238
255 214 238
255 214 238
255 214 238
255 214 238
255 214 238
255 214 238
255 214 238
255 214 238
255 214 238
255 214 238
255 214 238
255 214 238
255 214 238
255 214 238
255 214 238
255 214 238
255 214 238
255 214 238
255 214 238
255 214 238
255 214 238
255 226 250
255 214 238
255 214 238
255 214 238
255 214 238
255 214 238
255 214 238
255 214 238
255 214 238
255 214 238
255 214 238
255 214 238
255 214 238
255 214 238
255 214 238
255 214 238
255 214 238
255 214 238
255 214 238
255 214 238
255 214 238
255 214 238
255 214 238
255 214 238
255 214 238
255 214 238
255 214 238
255 214 238
255 214 238
255 214 238
255 214 238
255 214 238
255 214 238
255 214 238
255 214 238
255 214 238
255 214 238
255 226 250
255 214 238
255 214 238
255 214 238
255 214 238
255 214 238
255 214 238
255 214 238
255 214 238
255 214 238
255 214 238
255 214 238
255 214 238
255 214 238
255 214 238
255 214 238
255 214 238
255 214 238
255 214 238
255 214 238
255 214 238
255 214 238
255 214 238
255 214 238
255 214 238
255 214 238
255 214 238
255 214 238
255 214 238
255 214 238
255 214 238
255 214 238
255 214 238
255 214 238
255 214 238
255 214 238
255 214 238
255 226 250
255 214 238
255 214 238
255 214 238
255 214 238
255 214 238
255 214 238
255 214 238
255 214 238
255 214 238
255 214 238
255 214 238
255 214 238
255 214 238
255 214 238
255 214 238
255 214 238
255 214 238
255 214 238
255 214 238
255 214 238
255 214 238
255 214 238
255 214 238
255 214 238
255 214 238
255 214 238
255 214 238
255 214 238
255 214 238
255 214 238
255 214 238
255 214 238
255 214 238
255 214 238
255 214 238
255 214 238
255 226 250
255 214 238
255 214 238
255 214 238
255 214 238
255 214 238
255 214 238
255 214 238
255 214 238
255 214 238
255 214 238
255 214 238
255 214 238
255 214 238
255 214 238
255 214 238
255 214 238
255 214 238
255 214 238
255 214 238
255 214 238
255 214 238
255 214 238
255 226 250
255 214 238
255 214 238
255 214 238
255 214 238
255 214 238
255 214 238
255 214 238
255 214 238
255 214 238
255 214 238
255 214 238
255 214 238
255 214 238
255 214 238
255 214 238
255 214 238
255 214 238
255 214 238
255 214 238
255 214 238
255 214 238
255 214 238
255 214 238
255 214 238
255 214 238
255 214 238
255 214 238
255 214 238
255 214 238
255 214 238
255 214 238
255 214 238
255 214 238
255 214 238
255 214 238
255 214 238
255 226 250
255 214 238
255 214 238
255 214 238
255 214 238
255 214 238
255 214 238
255 214 238
255 214 238
255 214 238
255 214 238
255 214 238
255 214 238
255 214 238
255 214 238
255 214 238
255 214 238
255 214 238
255 214 238
255 214 238
255 214 238
255 214 238
255 214 238
255 214 238
255 214 238
255 214 238
255 214 238
255 214 238
255 214 238
255 214 238
255 214 238
255 214 238
255 214 238
255 214 238
255 214 238
255 214 238
255 214 238
255 226 250
255 214 238
255 214 238
255 214 238
255 214 238
255 214 238
255 214 238
255 214 238
255 214 238
255 214 238
255 214 238
255 214 238
255 214 238
255 214 238
255 214 238
255 214 238
255 214 238
255 214 238
255 214 238
255 214 238
255 214 238
255 214 238
255 214 238
255 214 238
255 214 238
255 214 238
255 214 238
255 214 238
255 214 238
255 214 238
255 214 238
255 214 238
255 214 238
255 214 238
255 214 238
255 214 238
255 214 238
255 226 250
255 214 238
255 214 238
255 214 238
255 214 238
255 214 238
255 214 238
255 214 238
255 214 238
255 214 238
255 214 238
255 214 238
255 214 238
255 214 238
255 214 238
255 214 238
255 214 238
255 214 238
255 214 238
255 214 238
255 214 238
255 214 238
255 214 238
255 214 238
255 214 238
255 214 238
255 214 238
255 214 238
255 214 238
255 214 238
255 214 238
255 214 238
255 214 238
255 214 238
255 214 238
255 214 238
255 214 238
255 226 250
255 214 238
255 214 238
255 214 238
255 214 238
255 214 238
255 214 238
255 214 238
255 214 238
255 214 238
255 214 238
255 214 238
255 214 238
255 214 238
255 214 238
255 214 238
255 214 238
255 214 238
255 214 238
255 214 238
255 214 238
255 214 238
255 214 238
255 214 238
255 214 238
255 214 238
255 214 238
255 214 238
255 214 238
255 214 238
255 214 238
255 214 238
255 214 238
255 214 238
255 214 238
255 214 238
255 214 238
255 226 250
255 214 238
255 214 238
255 214 238
255 214 238
255 214 238
255 214 238
255 214 238
255 214 238
255 214 238
255 214 238
255 214 238
255 214 238
255 214 238
255 214 238
255 214 238
255 214 238
255 214 238
255 214 238
255 214 238
255 214 238
255 214 238
255 214 238
255 214 238
255 214 238
255 214 238
255 214 238
255 214 238
255 214 238
255 214 238
255 214 238
255 214 238
255 214 238
255 214 238
255 214 238
255 214 238
255 214 238
255 226 250
255 214 238
255 214 238
255 214 238
255 214 238
255 214 238
255 214 238
255 214 238
255 214 238
255 214 238
255 214 238
255 214 238
255 214 238
255 214 238
255 214 238
255 214 238
255 214 238
255 214 238
255 214 238
255 214 238
255 214 238
255 214 238
255 214 238
255 214 238
255 214 238
255 214 238
255 214 238
255 214 238
255 214 238
255 214 238
255 214 238
255 214 238
255 214 238
255 214 238
255 214 238
255 214 238
255 214 238
255 226 250
255 214 238
255 214 238
255 214 238
255 214 238
255 214 238
255 214 238
255 214 238
255 214 238
255 214 238
255 214 238
255 214 238
255 214 238
255 214 238
255 214 238
255 214 238
255 214 238
255 214 238
255 214 238
255 214 238
255 214 238
255 214 238
255 214 238
255 214 238
255 214 238
255 214 238
255 214 238
255 214 238
255 214 238
255 214 238
255 214 238
255 214 238
255 214 238
255 214 238
255 214 238
255 214 238
255 214 238
255 226 250
255 214 238
255 214 238
255 214 238
255 214 238
255 214 238
255 214 238
255 214 238
255 214 238
255 214 238
255 214 238
255 214 238
255 214 238
255 214 238
255 214 238
255 214 238
255 214 238
255 214 238
255 214 238
255 214 238
255 214 238
255 214 238
255 214 238
255 226 250
255 214 238
255 214 238
255 214 238
255 214 238
255 214 238
255 214 238
255 214 238
255 214 238
255 214 238
255 214 238
255 214 238
255 214 238
255 214 238
255 214 238
255 214 238
255 214 238
255 214 238
255 214 238
255 214 238
255 214 238
255 214 238
255 214 238
255 214 238
255 214 238
255 214 238
255 214 238
255 214 238
255 214 238
255 214 238
255 214 238
255 214 238
255 214 238
255 214 238
255 214 238
255 214 238
255 214 238
255 226 250
255 214 238
255 214 238
255 214 238
255 214 238
255 214 238
255 214 238
255 214 238
255 214 238
255 214 238
255 214 238
255 214 238
255 214 238
255 214 238
255 214 238
255 214 238
255 214 238
255 214 238
255 214 238
255 214 238
255 214 238
255 214 238
255 214 238
255 214 238
255 214 238
255 214 238
255 214 238
255 214 238
255 214 238
255 214 238
255 214 238
255 214 238
255 214 238
255 214 238
255 214 238
255 214 238
255 214 238
255 226 250
255 214 238
255 214 238
255 214 238
255 214 238
255 214 238
255 214 238
255 214 238
255 214 238
255 214 238
255 214 238
255 214 238
255 214 238
255 214 238
255 214 238
255 214 238
255 214 238
255 214 238
255 214 238
255 214 238
255 214 238
255 214 238
255 214 238
255 214 238
255 214 238
255 214 238
255 214 238
255 214 238
255 214 238
255 214 238
255 214 238
255 214 238
255 214 238
255 214 238
255 214 238
255 214 238
255 214 238
255 226 250
255 214 238
255 214 238
255 214 238
255 214 238
255 214 238
255 214 238
255 214 238
255 214 238
255 214 238
255 214 238
255 214 238
255 214 238
255 214 238
255 214 238
255 214 238
255 214 238
255 214 238
255 214 238
255 214 238
255 214 238
255 214 238
255 214 238
255 214 238
255 214 238
255 214 238
255 214 238
255 214 238
255 214 238
255 214 238
255 214 238
255 214 238
255 214 238
255 214 238
255 214 238
255 214 238
255 214 238
255 226 250
255 214 238
255 214 238
255 214 238
255 214 238
255 214 238
255 214 238
255 214 238
255 214 238
255 214 238
255 214 238
255 214 238
255 214 238
255 214 238
255 214 238
255 214 238
255 214 238
255 214 238
255 214 238
255 214 238
255 214 238
255 214 238
255 214 238
255 214 238
255 214 238
255 214 238
255 214 238
255 214 238
255 214 238
255 214 238
255 214 238
255 214 238
255 214 238
255 214 238
255 214 238
255 214 238
255 214 238
255 226 250
255 214 238
255 214 238
255 214 238
255 214 238
255 214 238
255 214 238
255 214 238
255 214 238
255 214 238
255 214 238
255 214 238
255 214 238
255 214 238
255 214 238
255 214 238
255 214 238
255 214 238
255 214 238
255 214 238
255 214 238
255 214 238
255 214 238
255 214 238
255 214 238
255 214 238
255 214 238
255 214 238
255 214 238
255 214 238
255 214 238
255 214 238
255 214 238
255 214 238
255 214 238
255 214 238
255 214 238
255 226 250
255 214 238
255 214 238
255 214 238
255 214 238
255 214 238
255 214 238
255 214 238
255 214 238
255 214 238
255 214 238
255 214 238
255 214 238
255 214 238
255 214 238
255 214 238
255 214 238
255 214 238
255 214 238
255 214 238
255 214 238
255 214 238
255 214 238
255 214 238
255 214 238
255 214 238
255 214 238
255 214 238
255 214 238
255 214 238
255 214 238
255 214 238
255 214 238
255 214 238
255 214 238
255 214 238
255 214 238
255 226 250
255 214 238
255 214 238
255 214 238
255 214 238
255 214 238
255 214 238
255 214 238
255 214 238
255 214 238
255 214 238
255 214 238
255 214 238
255 214 238
255 214 238
255 214 238
255 214 238
255 214 238
255 214 238
255 214 238
255 214 238
255 214 238
255 214 238
255 214 238
255 214 238
255 214 238
255 214 238
255 214 238
255 214 238
255 214 238
255 214 238
255 214 238
255 214 238
255 214 238
255 214 238
255 214 238
255 214 238
255 226 250
255 214 238
255 214 238
255 214 238
255 214 238
255 214 238
255 214 238
255 214 238
255 214 238
255 214 238
255 214 238
255 214 238
255 214 238
255 214 238
255 214 238
255 214 238
255 214 238
255 214 238
255 214 238
255 214 238
255 214 238
255 214 238
255 214 238
255 214 238
255 214 238
255 214 238
255 214 238
255 214 238
255 214 238
255 214 238
255 214 238
255 214 238
255 214 238
255 214 238
255 214 238
255 214 238
255 214 238
255 214 238
255 214 238
255 214 238
255 214 238
255 214 238
255 214 238
255 214 238
255 214 238
255 214 238
255 214 238
255 214 238
255 214 238
255 214 238
255 214 238
255 214 238
255 214 238
255 214 238
255 214 238
255 214 238
255 214 238
255 214 238
255 214 238
255 214 238
255 226 250
255 214 238
255 214 238
255 214 238
255 214 238
255 214 238
255 214 238
255 214 238
255 214 238
255 214 238
255 214 238
255 214 238
255 214 238
255 214 238
255 214 238
255 214 238
255 214 238
255 214 238
255 214 238
255 214 238
255 214 238
255 214 238
255 214 238
255 214 238
255 214 238
255 214 238
255 214 238
255 214 238
255 214 238
255 214 238
255 214 238
255 214 238
255 214 238
255 214 238
255 214 238
255 214 238
255 214 238
255 226 250
255 214 238
255 214 238
255 214 238
255 214 238
255 214 238
255 214 238
255 214 238
255 214 238
255 214 238
255 214 238
255 214 238
255 214 238
255 214 238
255 214 238
255 214 238
255 214 238
255 214 238
255 214 238
255 214 238
255 214 238
255 214 238
255 214 238
255 214 238
255 214 238
255 214 238
255 214 238
255 214 238
255 214 238
255 214 238
255 214 238
255 214 238
255 214 238
255 214 238
255 214 238
255 214 238
255 214 238
255 226 250
255 214 238
255 214 238
255 214 238
255 214 238
255 214 238
255 214 238
255 214 238
255 214 238
255 214 238
255 214 238
255 214 238
255 214 238
255 214 238
255 214 238
255 214 238
255 214 238
255 214 238
255 214 238
255 214 238
255 214 238
255 214 238
255 214 238
255 214 238
255 214 238
255 214 238
255 214 238
255 214 238
255 214 238
255 214 238
255 214 238
255 214 238
255 214 238
255 214 238
255 214 238
255 214 238
255 214 238
255 226 250
255 214 238
255 214 238
255 214 238
255 214 238
255 214 238
255 214 238
255 214 238
255 214 238
255 214 238
255 214 238
255 214 238
255 214 238
255 214 238
255 214 238
255 214 238
255 214 238
255 214 238
255 214 238
255 214 238
255 214 238
255 214 238
255 214 238
255 214 238
255 214 238
255 214 238
255 214 238
255 214 238
255 214 238
255 214 238
255 214 238
255 214 238
255 214 238
255 214 238
255 214 238
255 214 238
255 214 238
255 226 250
255 214 238
255 214 238
255 214 238
255 214 238
255 214 238
255 214 238
255 214 238
255 214 238
255 214 238
255 214 238
255 214 238
255 214 238
255 214 238
255 214 238
255 214 238
255 214 238
255 214 238
255 214 238
255 214 238
255 214 238
255 214 238
255 214 238
255 214 238
255 214 238
255 214 238
255 214 238
255 214 238
255 214 238
255 214 238
255 214 238
255 214 238
255 214 238
255 214 238
255 214 238
255 214 238
255 214 238
255 226 250
255 214 238
255 214 238
255 214 238
255 214 238
255 214 238
255 214 238
255 214 238
255 214 238
255 214 238
255 214 238
255 214 238
255 214 238
255 214 238
255 214 238
255 214 238
255 214 238
255 214 238
255 214 238
255 214 238
255 214 238
255 214 238
255 214 238
255 214 238
255 214 238
255 214 238
255 214 238
255 214 238
255 214 238
255 214 238
255 214 238
255 214 238
255 214 238
255 214 238
255 214 238
255 214 238
255 214 238
255 226 250
255 214 238
255 214 238
255 214 238
255 214 238
255 214 238
255 214 238
255 214 238
255 214 238
255 214 238
255 214 238
255 214 238
255 214 238
255 214 238
255 214 238
255 214 238
255 214 238
255 214 238
255 214 238
255 214 238
255 214 238
255 214 238
255 214 238
255 214 238
255 214 238
255 214 238
255 214 238
255 214 238
255 214 238
255 214 238
255 214 238
255 214 238
255 214 238
255 214 238
255 214 238
255 214 238
255 214 238
255 226 250
255 214 238
255 214 238
255 214 238
255 214 238
255 214 238
255 214 238
255 214 238
255 214 238
255 214 238
255 214 238
255 214 238
255 214 238
255 214 238
255 214 238
255 214 238
255 214 238
255 214 238
255 214 238
255 214 238
255 214 238
255 214 238
255 214 238
255 214 238
255 214 238
255 214 238
255 214 238
255 214 238
255 214 238
255 214 238
255 214 238
255 214 238
255 214 238
255 214 238
255 214 238
255 214 238
255 214 238
255 214 238
255 214 238
255 214 238
255 214 238
255 214 238
255 214 238
255 214 238
255 214 238
255 214 238
255 214 238
255 214 238
255 214 238
255 214 238
255 214 238
255 214 238
255 214 238
255 214 238
255 214 238
255 214 238
255 214 238
255 214 238
255 214 238
255 214 238
255 226 250
255 214 238
255 214 238
255 214 238
255 214 238
255 214 238
255 214 238
255 214 238
255 214 238
255 214 238
255 214 238
255 214 238
255 214 238
255 214 238
255 214 238
255 214 238
255 214 238
255 214 238
255 214 238
255 214 238
255 214 238
255 214 238
255 214 238
255 214 238
255 214 238
255 214 238
255 214 238
255 214 238
255 214 238
255 214 238
255 214 238
255 214 238
255 214 238
255 214 238
255 214 238
255 214 238
255 214 238
255 226 250
255 214 238
255 214 238
255 214 238
255 214 238
255 214 238
255 214 238
255 214 238
255 214 238
255 214 238
255 214 238
255 214 238
255 214 238
255 214 238
255 214 238
255 214 238
255 214 238
255 214 238
255 214 238
255 214 238
255 214 238
255 214 238
255 214 238
255 214 238
255 214 238
255 214 238
255 214 238
255 214 238
255 214 238
255 214 238
255 214 238
255 214 238
255 214 238
255 214 238
255 214 238
255 214 238
255 214 238
255 226 250
255 214 238
255 214 238
255 214 238
255 214 238
255 214 238
255 214 238
255 214 238
255 214 238
255 214 238
255 214 238
255 214 238
255 214 238
255 214 238
255 214 238
255 214 238
255 214 238
255 214 238
255 214 238
255 214 238
255 214 238
255 214 238
255 214 238
255 214 238
255 214 238
255 214 238
255 214 238
255 214 238
255 214 238
255 214 238
255 214 238
255 214 238
255 214 238
255 214 238
255 214 238
255 214 238
255 214 238
255 226 250
255 214 238
255 214 238
255 214 238
255 214 238
255 214 238
255 214 238
255 214 238
255 214 238
255 214 238
255 214 238
255 214 238
255 214 238
255 214 238
255 214 238
255 214 238
255 214 238
255 214 238
255 214 238
255 214 238
255 214 238
255 214 238
255 214 238
255 214 238
255 214 238
255 214 238
255 214 238
255 214 238
255 214 238
255 214 238
255 214 238
255 214 238
255 214 238
255 214 238
255 214 238
255 214 238
255 214 238
255 226 250
255 214 238
255 214 238
255 214 238
255 214 238
255 214 238
255 214 238
255 214 238
255 214 238
255 214 238
255 214 238
255 214 238
255 214 238
255 214 238
255 214 238
255 214 238
255 214 238
255 214 238
255 214 238
255 214 238
255 214 238
255 214 238
255 214 238
255 214 238
255 214 238
255 214 238
255 214 238
255 214 238
255 214 238
255 214 238
255 214 238
255 214 238
255 214 238
255 214 238
255 214 238
255 214 238
255 214 238
255 226 250
255 214 238
255 214 238
255 214 238
255 214 238
255 214 238
255 214 238
255 214 238
255 214 238
255 214 238
255 214 238
255 214 238
255 214 238
255 214 238
255 214 238
255 214 238
255 214 238
255 214 238
255 214 238
255 214 238
255 214 238
255 214 238
255 214 238
255 214 238
255 214 238
255 214 238
255 214 238
255 214 238
255 214 238
255 214 238
255 214 238
255 214 238
255 214 238
255 214 238
255 214 238
255 214 238
255 214 238
255 226 250
255 214 238
255 214 238
255 214 238
255 214 238
255 214 238
255 214 238
255 214 238
255 214 238
255 214 238
255 214 238
255 214 238
255 214 238
255 214 238
255 214 238
255 214 238
255 214 238
255 214 238
255 214 238
255 214 238
255 214 238
255 214 238
255 214 238
255 214 238
255 214 238
255 214 238
255 214 238
255 214 238
255 214 238
255 214 238
255 214 238
255 214 238
255 214 238
255 214 238
255 214 238
255 214 238
255 214 238
255 226 250
255 214 238
255 214 238
255 214 238
255 214 238
255 214 238
255 214 238
255 214 238
255 214 238
255 214 238
255 214 238
255 214 238
255 214 238
255 214 238
255 214 238
255 214 238
255 214 238
255 214 238
255 214 238
255 214 238
255 214 238
255 214 238
255 214 238
255 214 238
255 214 238
255 214 238
255 214 238
255 214 238
255 214 238
255 214 238
255 214 238
255 214 238
255 214 238
255 214 238
255 214 238
255 214 238
255 214 238
255 214 238
255 214 238
255 214 238
255 214 238
255 214 238
255 214 238
255 214 238
255 214 238
255 214 238
255 214 238
255 214 238
255 214 238
255 214 238
255 214 238
255 214 238
255 214 238
255 214 238
255 214 238
255 214 238
255 214 238
255 214 238
255 214 238
255 214 238
255 226 250
255 214 238
255 214 238
255 214 238
255 214 238
255 214 238
255 214 238
255 214 238
255 214 238
255 214 238
255 214 238
255 214 238
255 214 238
255 214 238
255 214 238
255 214 238
255 214 238
255 214 238
255 214 238
255 214 238
255 214 238
255 214 238
255 214 238
255 214 238
255 214 238
255 214 238
255 214 238
255 214 238
255 214 238
255 214 238
255 214 238
255 214 238
255 214 238
255 214 238
255 214 238
255 214 238
255 214 238
255 226 250
255 214 238
255 214 238
255 214 238
255 214 238
255 214 238
255 214 238
255 214 238
255 214 238
255 214 238
255 214 238
255 214 238
255 214 238
255 214 238
255 214 238
255 214 238
255 214 238
255 214 238
255 214 238
255 214 238
255 214 238
255 214 238
255 214 238
255 214 238
255 214 238
255 214 238
255 214 238
255 214 238
255 214 238
255 214 238
255 214 238
255 214 238
255 214 238
255 214 238
255 214 238
255 214 238
255 214 238
255 226 250
255 214 238
255 214 238
255 214 238
255 214 238
255 214 238
255 214 238
255 214 238
255 214 238
255 214 238
255 214 238
255 214 238
255 214 238
255 214 238
255 214 238
255 214 238
255 214 238
255 214 238
255 214 238
255 214 238
255 214 238
255 214 238
255 214 238
255 214 238
255 214 238
255 214 238
255 214 238
255 214 238
255 214 238
255 214 238
255 214 238
255 214 238
255 214 238
255 214 238
255 214 238
255 214 238
255 214 238
255 226 250
255 214 238
255 214 238
255 214 238
255 214 238
255 214 238
255 214 238
255 214 238
255 214 238
255 214 238
255 214 238
255 214 238
255 214 238
255 214 238
255 214 238
255 214 238
255 214 238
255 214 238
255 214 238
255 214 238
255 214 238
255 214 238
255 214 238
255 214 238
255 214 238
255 214 238
255 214 238
255 214 238
255 214 238
255 214 238
255 214 238
255 214 238
255 214 238
255 214 238
255 214 238
255 214 238
255 214 238
255 226 250
255 214 238
255 214 238
255 214 238
255 214 238
255 214 238
255 214 238
255 214 238
255 214 238
255 214 238
255 214 238
255 214 238
255 214 238
255 214 238
255 214 238
255 214 238
255 214 238
255 214 238
255 214 238
255 214 238
255 214 238
255 214 238
255 214 238
255 214 238
255 214 238
255 214 238
255 214 238
255 214 238
255 214 238
255 214 238
255 214 238
255 214 238
255 214 238
255 214 238
255 214 238
255 214 238
255 214 238
255 226 250
255 214 238
255 214 238
255 214 238
255 214 238
255 214 238
255 214 238
255 214 238
255 214 238
255 214 238
255 214 238
255 214 238
255 214 238
255 214 238
255 214 238
255 214 238
255 214 238
255 214 238
255 214 238
255 214 238
255 214 238
255 214 238
255 214 238
255 214 238
255 214 238
255 214 238
255 214 238
255 214 238
255 214 238
255 214 238
255 214 238
255 214 238
255 214 238
255 214 238
255 214 238
255 214 238
255 214 238
255 226 250
255 214 238
255 214 238
255 214 238
255 214 238
255 214 238
255 214 238
255 214 238
255 214 238
255 214 238
255 214 238
255 214 238
255 214 238
255 214 238
255 214 238
255 214 238
255 214 238
255 214 238
255 214 238
255 214 238
255 214 238
255 214 238
255 214 238
255 214 238
255 214 238
255 214 238
255 214 238
255 214 238
255 214 238
255 214 238
255 214 238
255 214 238
255 214 238
255 214 238
255 214 238
255 214 238
255 214 238
255 226 250
255 214 238
255 214 238
255 214 238
255 214 238
255 214 238
255 214 238
255 214 238
255 214 238
255 214 238
255 214 238
255 214 238
255 214 238
255 214 238
255 214 238
255 214 238
255 214 238
255 214 238
255 214 238
255 214 238
255 214 238
255 214 238
255 214 238
255 214 238
255 214 238
255 214 238
255 214 238
255 214 238
255 214 238
255 214 238
255 214 238
255 214 238
255 214 238
255 214 238
255 214 238
255 214 238
255 214 238
255 214 238
255 214 238
255 214 238
255 214 238
255 214 238
255 214 238
255 214 238
255 214 238
255 214 238
255 214 238
255 214 238
255 214 238
255 214 238
255 214 238
255 214 238
255 214 238
255 214 238
255 214 238
255 214 238
255 214 238
255 214 238
255 214 238
255 214 238
255 226 250
255 214 238
255 214 238
255 214 238
255 214 238
255 214 238
255 214 238
255 214 238
255 214 238
255 214 238
255 214 238
255 214 238
255 214 238
255 214 238
255 214 238
255 214 238
255 214 238
255 214 238
255 214 238
255 214 238
255 214 238
255 214 238
255 214 238
255 214 238
255 214 238
255 214 238
255 214 238
255 214 238
255 214 238
255 214 238
255 214 238
255 214 238
255 214 238
255 214 238
255 214 238
255 214 238
255 214 238
255 226 250
255 214 238
255 214 238
255 214 238
255 214 238
255 214 238
255 214 238
255 214 238
255 214 238
255 214 238
255 214 238
255 214 238
255 214 238
255 214 238
255 214 238
255 214 238
255 214 238
255 214 238
255 214 238
255 214 238
255 214 238
255 214 238
255 214 238
255 214 238
255 214 238
255 214 238
255 214 238
255 214 238
255 214 238
255 214 238
255 214 238
255 214 238
255 214 238
255 214 238
255 214 238
255 214 238
255 214 238
255 226 250
255 214 238
255 214 238
255 214 238
255 214 238
255 214 238
255 214 238
255 214 238
255 214 238
255 214 238
255 214 238
255 214 238
255 214 238
255 214 238
255 214 238
255 214 238
255 214 238
255 214 238
255 214 238
255 214 238
255 214 238
255 214 238
255 214 238
255 214 238
255 214 238
255 214 238
255 214 238
255 214 238
255 214 238
255 214 238
255 214 238
255 214 238
255 214 238
255 214 238
255 214 238
255 214 238
255 214 238
255 226 250
255 214 238
255 214 238
255 214 238
255 214 238
255 214 238
255 214 238
255 214 238
255 214 238
255 214 238
255 214 238
255 214 238
255 214 238
255 214 238
255 214 238
255 214 238
255 214 238
255 214 238
255 214 238
255 214 238
255 214 238
255 214 238
255 214 238
255 214 238
255 214 238
255 214 238
255 214 238
255 214 238
255 214 238
255 214 238
255 214 238
255 214 238
255 214 238
255 214 238
255 214 238
255 214 238
255 214 238
255 226 250
255 214 238
255 214 238
255 214 238
255 214 238
255 214 238
255 214 238
255 214 238
255 214 238
255 214 238
255 214 238
255 214 238
255 214 238
255 214 238
255 214 238
255 214 238
255 214 238
255 214 238
255 214 238
255 214 238
255 214 238
255 214 238
255 214 238
255 214 238
255 214 238
255 214 238
255 214 238
255 214 238
255 214 238
255 214 238
255 214 238
255 214 238
255 214 238
255 214 238
255 214 238
255 214 238
255 214 238
255 226 250
255 214 238
255 214 238
255 214 238
255 214 238
255 214 238
255 214 238
255 214 238
255 214 238
255 214 238
255 214 238
255 214 238
255 214 238
255 214 238
255 214 238
255 214 238
255 214 238
255 214 238
255 214 238
255 214 238
255 214 238
255 214 238
255 214 238
255 214 238
255 214 238
255 214 238
255 214 238
255 214 238
255 214 238
255 214 238
255 214 238
255 214 238
255 214 238
255 214 238
255 214 238
255 214 238
255 214 238
255 226 250
255 214 238
255 214 238
255 214 238
255 214 238
255 214 238
255 214 238
255 214 238
255 214 238
255 214 238
255 214 238
255 214 238
255 214 238
255 214 238
255 214 238
255 214 238
255 214 238
255 214 238
255 214 238
255 214 238
255 214 238
255 214 238
255 214 238
255 214 238
255 214 238
255 214 238
255 214 238
255 214 238
255 214 238
255 214 238
255 214 238
255 214 238
255 214 238
255 214 238
255 214 238
255 214 238
255 214 238
255 226 250
255 214 238
255 214 238
255 214 238
255 214 238
255 214 238
255 214 238
255 214 238
255 214 238
255 214 238
255 214 238
255 214 238
255 214 238
255 214 238
255 214 238
255 214 238
255 214 238
255 214 238
255 214 238
255 214 238
255 214 238
255 214 238
255 214 238
255 214 238
255 214 238
255 214 238
255 214 238
255 214 238
255 214 238
255 214 238
255 214 238
255 214 238
255 214 238
255 214 238
255 214 238
255 214 238
255 214 238
255 214 238
255 214 238
255 214 238
255 214 238
255 214 238
255 214 238
255 214 238
255 214 238
255 214 238
255 214 238
255 214 238
255 214 238
255 214 238
255 214 238
255 214 238
255 214 238
255 214 238
255 214 238
255 214 238
255 214 238
255 214 238
255 214 238
255 214 238
255 226 250
255 214 238
255 214 238
255 214 238
255 214 238
255 214 238
255 214 238
255 214 238
255 214 238
255 214 238
255 214 238
255 214 238
255 214 238
255 214 238
255 214 238
255 214 238
255 214 238
255 214 238
255 214 238
255 214 238
255 214 238
255 214 238
255 214 238
255 214 238
255 214 238
255 214 238
255 214 238
255 214 238
255 214 238
255 214 238
255 214 238
255 214 238
255 214 238
255 214 238
255 214 238
255 214 238
255 214 238
255 226 250
255 214 238
255 214 238
255 214 238
255 214 238
255 214 238
255 214 238
255 214 238
255 214 238
255 214 238
255 214 238
255 214 238
255 214 238
255 214 238
255 214 238
255 214 238
255 214 238
255 214 238
255 214 238
255 214 238
255 214 238
255 214 238
255 214 238
255 214 238
255 214 238
255 214 238
255 214 238
255 214 238
255 214 238
255 214 238
255 214 238
255 214 238
255 214 238
255 214 238
255 214 238
255 214 238
255 214 238
255 226 250
255 214 238
255 214 238
255 214 238
255 214 238
255 214 238
255 214 238
255 214 238
255 214 238
255 214 238
255 214 238
255 214 238
255 214 238
255 214 238
255 214 238
255 214 238
255 214 238
255 214 238
255 214 238
255 214 238
255 214 238
255 214 238
255 214 238
255 214 238
255 214 238
255 214 238
255 214 238
255 214 238
255 214 238
255 214 238
255 214 238
255 214 238
255 214 238
255 214 238
255 214 238
255 214 238
255 214 238
255 226 250
255 214 238
255 214 238
255 214 238
255 214 238
255 214 238
255 214 238
255 214 238
255 214 238
255 214 238
255 214 238
255 214 238
255 214 238
255 214 238
255 214 238
255 214 238
255 214 238
255 214 238
255 214 238
255 214 238
255 214 238
255 214 238
255 214 238
255 214 238
255 214 238
255 214 238
255 214 238
255 214 238
255 214 238
255 214 238
255 214 238
255 214 238
255 214 238
255 214 238
255 214 238
255 214 238
255 214 238
255 226 250
255 214 238
255 214 238
255 214 238
255 214 238
255 214 238
255 214 238
255 214 238
255 214 238
255 214 238
255 214 238
255 214 238
255 214 238
255 214 238
255 214 238
255 214 238
255 214 238
255 214 238
255 214 238
255 214 238
255 214 238
255 214 238
255 214 238
255 214 238
255 214 238
255 214 238
255 214 238
255 214 238
255 214 238
255 214 238
255 214 238
255 214 238
255 214 238
255 214 238
255 214 238
255 214 238
255 214 238
255 226 250
255 214 238
255 214 238
255 214 238
255 214 238
255 214 238
255 214 238
255 214 238
255 214 238
255 214 238
255 214 238
255 214 238
255 214 238
255 214 238
255 214 238
255 214 238
255 214 238
255 214 238
255 214 238
255 214 238
255 214 238
255 214 238
255 214 238
255 214 238
255 214 238
255 214 238
255 214 238
255 214 238
255 214 238
255 214 238
255 214 238
255 214 238
255 214 238
255 214 238
255 214 238
255 214 238
255 214 238
255 226 250
255 214 238
255 214 238
255 214 238
255 214 238
255 214 238
255 214 238
255 214 238
255 214 238
255 214 238
255 214 238
255 214 238
255 214 238
255 214 238
255 214 238
255 214 238
255 214 238
255 214 238
255 214 238
255 214 238
255 214 238
255 214 238
255 214 238
255 214 238
255 214 238
255 214 238
255 214 238
255 214 238
255 214 238
255 214 238
255 214 238
255 214 238
255 214 238
255 214 238
255 214 238
255 214 238
255 214 238
255 226 250
255 214 238
255 214 238
255 214 238
255 214 238
255 214 238
255 214 238
255 214 238
255 214 238
255 214 238
255 214 238
255 214 238
255 214 238
255 214 238
255 214 238
255 214 238
255 214 238
255 214 238
255 214 238
255 214 238
255 214 238
255 214 238
255 214 238
255 214 238
255 214 238
255 214 238
255 214 238
255 214 238
255 214 238
255 214 238
255 214 238
255 214 238
255 214 238
255 214 238
255 214 238
255 214 238
255 214 238
255 214 238
255 214 238
255 214 238
255 214 238
255 214 238
255 214 238
255 214 238
255 214 238
255 214 238
255 214 238
255 214 238
255 214 238
255 214 238
255 214 238
255 214 238
255 214 238
255 214 238
255 214 238
255 214 238
255 214 238
255 214 238
255 214 238
255 214 238
255 226 250
255 214 238
255 214 238
255 214 238
255 214 238
255 214 238
255 214 238
255 214 238
255 214 238
255 214 238
255 214 238
255 214 238
255 214 238
255 214 238
255 214 238
255 214 238
255 214 238
255 214 238
255 214 238
255 214 238
255 214 238
255 214 238
255 214 238
255 214 238
255 214 238
255 214 238
255 214 238
255 214 238
255 214 238
255 214 238
255 214 238
255 214 238
255 214 238
255 214 238
255 214 238
255 214 238
255 214 238
255 226 250
255 214 238
255 214 238
255 214 238
255 214 238
255 214 238
255 214 238
255 214 238
255 214 238
255 214 238
255 214 238
255 214 238
255 214 238
255 214 238
255 214 238
255 214 238
255 214 238
255 214 238
255 214 238
255 214 238
255 214 238
255 214 238
255 214 238
255 214 238
255 214 238
255 214 238
255 214 238
255 214 238
255 214 238
255 214 238
255 214 238
255 214 238
255 214 238
255 214 238
255 214 238
255 214 238
255 214 238
255 226 250
255 214 238
255 214 238
255 214 238
255 214 238
255 214 238
255 214 238
255 214 238
255 214 238
255 214 238
255 214 238
255 214 238
255 214 238
255 214 238
255 214 238
255 214 238
255 214 238
255 214 238
255 214 238
255 214 238
255 214 238
255 214 238
255 214 238
255 214 238
255 214 238
255 214 238
255 214 238
255 214 238
255 214 238
255 214 238
255 214 238
255 214 238
255 214 238
255 214 238
255 214 238
255 214 238
255 214 238
255 226 250
255 214 238
255 214 238
255 214 238
255 214 238
255 214 238
255 214 238
255 214 238
255 214 238
255 214 238
255 214 238
255 214 238
255 214 238
255 214 238
255 214 238
255 214 238
255 214 238
255 214 238
255 214 238
255 214 238
255 214 238
255 214 238
255 214 238
255 214 238
255 214 238
255 214 238
255 214 238
255 214 238
255 214 238
255 214 238
255 214 238
255 214 238
255 214 238
255 214 238
255 214 238
255 214 238
255 214 238
255 226 250
255 214 238
255 214 238
255 214 238
255 214 238
255 214 238
255 214 238
255 214 238
255 214 238
255 214 238
255 214 238
255 214 238
255 214 238
255 214 238
255 214 238
255 214 238
255 214 238
255 214 238
255 214 238
255 214 238
255 214 238
255 214 238
255 214 238
255 214 238
255 214 238
255 214 238
255 214 238
255 214 238
255 214 238
255 214 238
255 214 238
255 214 238
255 214 238
255 214 238
255 214 238
255 214 238
255 214 238
255 226 250
255 214 238
255 214 238
255 214 238
255 214 238
255 214 238
255 214 238
255 214 238
255 214 238
255 214 238
255 214 238
255 214 238
255 214 238
255 214 238
255 214 238
255 214 238
255 214 238
255 214 238
255 214 238
255 214 238
255 214 238
255 214 238
255 214 238
255 214 238
255 214 238
255 214 238
255 214 238
255 214 238
255 214 238
255 214 238
255 214 238
255 214 238
255 214 238
255 214 238
255 214 238
255 214 238
255 214 238
255 226 250
255 214 238
255 214 238
255 214 238
255 214 238
255 214 238
255 214 238
255 214 238
255 214 238
255 214 238
255 214 238
255 214 238
255 214 238
255 214 238
255 214 238
255 214 238
255 214 238
255 214 238
255 214 238
255 214 238
255 214 238
255 214 238
255 214 238
255 214 238
255 214 238
255 214 238
255 214 238
255 214 238
255 214 238
255 214 238
255 214 238
255 214 238
255 214 238
255 214 238
255 214 238
255 214 238
255 214 238
255 226 250
255 214 238
255 214 238
255 214 238
255 214 238
255 214 238
255 214 238
255 214 238
255 214 238
255 214 238
255 214 238
255 214 238
255 214 238
255 214 238
255 214 238
255 214 238
255 214 238
255 214 238
255 214 238
255 214 238
255 214 238
255 214 238
255 214 238
255 214 238
255 214 238
255 214 238
255 214 238
255 214 238
255 214 238
255 214 238
255 214 238
255 214 238
255 214 238
255 214 238
255 214 238
255 214 238
255 214 238
255 214 238
255 214 238
255 214 238
255 214 238
255 214 238
255 214 238
255 214 238
255 214 238
255 214 238
255 214 238
255 214 238
255 214 238
255 214 238
255 214 238
255 214 238
255 214 238
255 214 238
255 214 238
255 214 238
255 214 238
255 214 238
255 214 238
255 214 238
255 226 250
255 214 238
255 214 238
255 214 238
255 214 238
255 214 238
255 214 238
255 214 238
255 214 238
255 214 238
255 214 238
255 214 238
255 214 238
255 214 238
255 214 238
255 214 238
255 214 238
255 214 238
255 214 238
255 214 238
255 214 238
255 214 238
255 214 238
255 214 238
255 214 238
255 214 238
255 214 238
255 214 238
255 214 238
255 214 238
255 214 238
255 214 238
255 214 238
255 214 238
255 214 238
255 214 238
255 214 238
255 226 250
255 214 238
255 214 238
255 214 238
255 214 238
255 214 238
255 214 238
255 214 238
255 214 238
255 214 238
255 214 238
255 214 238
255 214 238
255 214 238
255 214 238
255 214 238
255 214 238
255 214 238
255 214 238
255 214 238
255 214 238
255 214 238
255 214 238
255 214 238
255 214 238
255 214 238
255 214 238
255 214 238
255 214 238
255 214 238
255 214 238
255 214 238
255 214 238
255 214 238
255 214 238
255 214 238
255 214 238
255 226 250
255 214 238
255 214 238
255 214 238
255 214 238
255 214 238
255 214 238
255 214 238
255 214 238
255 214 238
255 214 238
255 214 238
255 214 238
255 214 238
255 214 238
255 214 238
255 214 238
255 214 238
255 214 238
255 214 238
255 214 238
255 214 238
255 214 238
255 214 238
255 214 238
255 214 238
255 214 238
255 214 238
255 214 238
255 214 238
255 214 238
255 214 238
255 214 238
255 214 238
255 214 238
255 214 238
255 214 238
255 226 250
255 214 238
255 214 238
255 214 238
255 214 238
255 214 238
255 214 238
255 214 238
255 214 238
255 214 238
255 214 238
255 214 238
255 214 238
255 214 238
255 214 238
255 214 238
255 214 238
255 214 238
255 214 238
255 214 238
255 214 238
255 214 238
255 214 238
255 214 238
255 214 238
255 214 238
255 214 238
255 214 238
255 214 238
255 214 238
255 214 238
255 214 238
255 214 238
255 214 238
255 214 238
255 214 238
255 214 238
255 226 250
255 214 238
255 214 238
255 214 238
255 214 238
255 214 238
255 214 238
255 214 238
255 214 238
255 214 238
255 214 238
255 214 238
255 214 238
255 214 238
255 214 238
255 214 238
255 214 238
255 214 238
255 214 238
255 214 238
255 214 238
255 214 238
255 214 238
255 214 238
255 214 238
255 214 238
255 214 238
255 214 238
255 214 238
255 214 238
255 214 238
255 214 238
255 214 238
255 214 238
255 214 238
255 214 238
255 214 238
255 226 250
255 214 238
255 214 238
255 214 238
255 214 238
255 214 238
255 214 238
255 214 238
255 214 238
255 214 238
255 214 238
255 214 238
255 214 238
255 214 238
255 214 238
255 214 238
255 214 238
255 214 238
255 214 238
255 214 238
255 214 238
255 214 238
255 214 238
255 214 238
255 214 238
255 214 238
255 214 238
255 214 238
255 214 238
255 214 238
255 214 238
255 214 238
255 214 238
255 214 238
255 214 238
255 214 238
255 214 238
255 226 250
255 214 238
255 214 238
255 214 238
255 214 238
255 214 238
255 214 238
255 214 238
255 214 238
255 214 238
255 214 238
255 214 238
255 214 238
255 214 238
255 214 238
255 214 238
255 214 238
255 214 238
255 214 238
255 214 238
255 214 238
255 214 238
255 214 238
255 214 238
255 214 238
255 214 238
255 214 238
255 214 238
255 214 238
255 214 238
255 214 238
255 214 238
255 214 238
255 214 238
255 214 238
255 214 238
255 214 238
255 226 250
255 214 238
255 214 238
255 214 238
255 214 238
255 214 238
255 214 238
255 214 238
255 214 238
255 214 238
255 214 238
255 214 238
255 214 238
255 214 238
255 214 238
255 214 238
255 214 238
255 214 238
255 214 238
255 214 238
255 214 238
255 214 238
255 214 238
255 214 238
255 214 238
255 214 238
255 214 238
255 214 238
255 214 238
255 214 238
255 214 238
255 214 238
255 214 238
255 214 238
255 214 238
255 214 238
255 214 238
255 214 238
255 214 238
255 214 238
255 214 238
255 214 238
255 214 238
255 214 238
255 214 238
255 214 238
255 214 238
255 214 238
255 214 238
255 214 238
255 214 238
255 214 238
255 214 238
255 214 238
255 214 238
255 214 238
255 214 238
255 214 238
255 214 238
255 214 238
255 226 250
255 214 238
255 214 238
255 214 238
255 214 238
255 214 238
255 214 238
255 214 238
255 214 238
255 214 238
255 214 238
255 214 238
255 214 238
255 214 238
255 214 238
255 214 238
255 214 238
255 214 238
255 214 238
255 214 238
255 214 238
255 214 238
255 214 238
255 214 238
255 214 238
255 214 238
255 214 238
255 214 238
255 214 238
255 214 238
255 214 238
255 214 238
255 214 238
255 214 238
255 214 238
255 214 238
255 214 238
255 226 250
255 214 238
255 214 238
255 214 238
255 214 238
255 214 238
255 214 238
255 214 238
255 214 238
255 214 238
255 214 238
255 214 238
255 214 238
255 214 238
255 214 238
255 214 238
255 214 238
255 214 238
255 214 238
255 214 238
255 214 238
255 214 238
255 214 238
255 214 238
255 214 238
255 214 238
255 214 238
255 214 238
255 214 238
255 214 238
255 214 238
255 214 238
255 214 238
255 214 238
255 214 238
255 214 238
255 214 238
255 226 250
255 214 238
255 214 238
255 214 238
255 214 238
255 214 238
255 214 238
255 214 238
255 214 238
255 214 238
255 214 238
255 214 238
255 214 238
255 214 238
255 214 238
255 214 238
255 214 238
255 214 238
255 214 238
255 214 238
255 214 238
255 214 238
255 214 238
255 214 238
255 214 238
255 214 238
255 214 238
255 214 238
255 214 238
255 214 238
255 214 238
255 214 238
255 214 238
255 214 238
255 214 238
255 214 238
255 214 238
255 226 250
255 214 238
255 214 238
255 214 238
255 214 238
255 214 238
255 214 238
255 214 238
255 214 238
255 214 238
255 214 238
255 214 238
255 214 238
255 214 238
255 214 238
255 214 238
255 214 238
255 214 238
255 214 238
255 214 238
255 214 238
255 214 238
255 214 238
255 214 238
255 214 238
255 214 238
255 214 238
255 214 238
255 214 238
255 214 238
255 214 238
255 214 238
255 214 238
255 214 238
255 214 238
255 214 238
255 214 238
255 226 250
255 214 238
255 214 238
255 214 238
255 214 238
255 214 238
255 214 238
255 214 238
255 214 238
255 214 238
255 214 238
255 214 238
255 214 238
255 214 238
255 214 238
255 214 238
255 214 238
255 214 238
255 214 238
255 214 238
255 214 238
255 214 238
255 214 238
255 214 238
255 214 238
255 214 238
255 214 238
255 214 238
255 214 238
255 214 238
255 214 238
255 214 238
255 214 238
255 214 238
255 214 238
255 214 238
255 214 238
255 226 250
255 214 238
255 214 238
255 214 238
255 214 238
255 214 238
255 214 238
255 214 238
255 214 238
255 214 238
255 214 238
255 214 238
255 214 238
255 214 238
255 214 238
255 214 238
255 214 238
255 214 238
255 214 238
255 214 238
255 214 238
255 214 238
255 214 238
255 214 238
255 214 238
255 214 238
255 214 238
255 214 238
255 214 238
255 214 238
255 214 238
255 214 238
255 214 238
255 214 238
255 214 238
255 214 238
255 214 238
255 226 250
255 214 238
255 214 238
255 214 238
255 214 238
255 214 238
255 214 238
255 214 238
255 214 238
255 214 238
255 214 238
255 214 238
255 214 238
255 214 238
255 214 238
255 214 238
255 214 238
255 214 238
255 214 238
255 214 238
255 214 238
255 214 238
255 214 238
255 214 238
255 214 238
255 214 238
255 214 238
255 214 238
255 214 238
255 214 238
255 214 238
255 214 238
255 214 238
255 214 238
255 214 238
255 214 238
255 214 238
255 226 250
255 214 238
255 214 238
255 214 238
255 214 238
255 214 238
255 214 238
255 214 238
255 214 238
255 214 238
255 214 238
255 214 238
255 214 238
255 214 238
255 214 238
255 214 238
255 214 238
255 214 238
255 214 238
255 214 238
255 214 238
255 214 238
255 214 238
255 214 238
255 214 238
255 214 238
255 214 238
255 214 238
255 214 238
255 214 238
255 214 238
255 214 238
255 214 238
255 214 238
255 214 238
255 214 238
255 214 238
255 214 238
255 214 238
255 214 238
255 214 238
255 214 238
255 214 238
255 214 238
255 214 238
255 214 238
255 214 238
255 214 238
255 214 238
255 214 238
255 214 238
255 214 238
255 214 238
255 214 238
255 214 238
255 214 238
255 214 238
255 214 238
255 214 238
255 214 238
255 226 250
255 214 238
255 214 238
255 214 238
255 214 238
255 214 238
255 214 238
255 214 238
255 214 238
255 214 238
255 214 238
255 214 238
255 214 238
255 214 238
255 214 238
255 214 238
255 214 238
255 214 238
255 214 238
255 214 238
255 214 238
255 214 238
255 214 238
255 214 238
255 214 238
255 214 238
255 214 238
255 214 238
255 214 238
255 214 238
255 214 238
255 214 238
255 214 238
255 214 238
255 214 238
255 214 238
255 214 238
255 226 250
255 214 238
255 214 238
255 214 238
255 214 238
255 214 238
255 214 238
255 214 238
255 214 238
255 214 238
255 214 238
255 214 238
255 214 238
255 214 238
255 214 238
255 214 238
255 214 238
255 214 238
255 214 238
255 214 238
255 214 238
255 214 238
255 214 238
255 214 238
255 214 238
255 214 238
255 214 238
255 214 238
255 214 238
255 214 238
255 214 238
255 214 238
255 214 238
255 214 238
255 214 238
255 214 238
255 214 238
255 226 250
255 214 238
255 214 238
255 214 238
255 214 238
255 214 238
255 214 238
255 214 238
255 214 238
255 214 238
255 214 238
255 214 238
255 214 238
255 214 238
255 214 238
255 214 238
255 214 238
255 214 238
255 214 238
255 214 238
255 214 238
255 214 238
255 214 238
255 214 238
255 214 238
255 214 238
255 214 238
255 214 238
255 214 238
255 214 238
255 214 238
255 214 238
255 214 238
255 214 238
255 214 238
255 214 238
255 214 238
255 226 250
255 214 238
255 214 238
255 214 238
255 214 238
255 214 238
255 214 238
255 214 238
255 214 238
255 214 238
255 214 238
255 214 238
255 214 238
255 214 238
255 214 238
255 214 238
255 214 238
255 214 238
255 214 238
255 214 238
255 214 238
255 214 238
255 214 238
255 214 238
255 214 238
255 214 238
255 214 238
255 214 238
255 214 238
255 214 238
255 214 238
255 214 238
255 214 238
255 214 238
255 214 238
255 214 238
255 214 238
255 226 250
255 214 238
255 214 238
255 214 238
255 214 238
255 214 238
255 214 238
255 214 238
255 214 238
255 214 238
255 214 238
255 214 238
255 214 238
255 214 238
255 214 238
255 214 238
255 214 238
255 214 238
255 214 238
255 214 238
255 214 238
255 214 238
255 214 238
255 214 238
255 214 238
255 214 238
255 214 238
255 214 238
255 214 238
255 214 238
255 214 238
255 214 238
255 214 238
255 214 238
255 214 238
255 214 238
255 214 238
255 226 250
255 214 238
255 214 238
255 214 238
255 214 238
255 214 238
255 214 238
255 214 238
255 214 238
255 214 238
255 214 238
255 214 238
255 214 238
255 214 238
255 214 238
255 214 238
255 214 238
255 214 238
255 214 238
255 214 238
255 214 238
255 214 238
255 214 238
255 214 238
255 214 238
255 214 238
255 214 238
255 214 238
255 214 238
255 214 238
255 214 238
255 214 238
255 214 238
255 214 238
255 214 238
255 214 238
255 214 238
255 226 250
255 214 238
255 214 238
255 214 238
255 214 238
255 214 238
255 214 238
255 214 238
255 214 238
255 214 238
255 214 238
255 214 238
255 214 238
255 214 238
255 214 238
255 214 238
255 214 238
255 214 238
255 214 238
255 214 238
255 214 238
255 214 238
255 214 238
255 214 238
255 214 238
255 214 238
255 214 238
255 214 238
255 214 238
255 214 238
255 214 238
255 214 238
255 214 238
255 214 238
255 214 238
255 214 238
255 214 238
255 226 250
255 214 238
255 214 238
255 214 238
255 214 238
255 214 238
255 214 238
255 214 238
255 214 238
255 214 238
255 214 238
255 214 238
255 214 238
255 214 238
255 214 238
255 214 238
255 214 238
255 214 238
255 214 238
255 214 238
255 214 238
255 214 238
255 214 238
255 214 238
255 214 238
255 214 238
255 214 238
255 214 238
255 214 238
255 214 238
255 214 238
255 214 238
255 214 238
255 214 238
255 214 238
255 214 238
255 214 238
255 214 238
255 214 238
255 214 238
255 214 238
255 214 238
255 214 238
255 214 238
255 214 238
255 214 238
255 214 238
255 214 238
255 214 238
255 214 238
255 214 238
255 214 238
255 214 238
255 214 238
255 214 238
255 214 238
255 214 238
255 214 238
255 214 238
255 214 238
255 226 250
255 214 238
255 214 238
255 214 238
255 214 238
255 214 238
255 214 238
255 214 238
255 214 238
255 214 238
255 214 238
255 214 238
255 214 238
255 214 238
255 214 238
255 214 238
255 214 238
255 214 238
255 214 238
255 214 238
255 214 238
255 214 238
255 214 238
255 214 238
255 214 238
255 214 238
255 214 238
255 214 238
255 214 238
255 214 238
255 214 238
255 214 238
255 214 238
255 214 238
255 214 238
255 214 238
255 214 238
255 226 250
255 214 238
255 214 238
255 214 238
255 214 238
255 214 238
255 214 238
255 214 238
255 214 238
255 214 238
255 214 238
255 214 238
255 214 238
255 214 238
255 214 238
255 214 238
255 214 238
255 214 238
255 214 238
255 214 238
255 214 238
255 214 238
255 214 238
255 214 238
255 214 238
255 214 238
255 214 238
255 214 238
255 214 238
255 214 238
255 214 238
255 214 238
255 214 238
255 214 238
255 214 238
255 214 238
255 214 238
255 226 250
255 214 238
255 214 238
255 214 238
255 214 238
255 214 238
255 214 238
255 214 238
255 214 238
255 214 238
255 214 238
255 214 238
255 214 238
255 214 238
255 214 238
255 214 238
255 214 238
255 214 238
255 214 238
255 214 238
255 214 238
255 214 238
255 214 238
255 214 238
255 214 238
255 214 238
255 214 238
255 214 238
255 214 238
255 214 238
255 214 238
255 214 238
255 214 238
255 214 238
255 214 238
255 214 238
255 214 238
255 226 250
255 214 238
255 214 238
255 214 238
255 214 238
255 214 238
255 214 238
255 214 238
255 214 238
255 214 238
255 214 238
255 214 238
255 214 238
255 214 238
255 214 238
255 214 238
255 214 238
255 214 238
255 214 238
255 214 238
255 214 238
255 214 238
255 214 238
255 214 238
255 214 238
255 214 238
255 214 238
255 214 238
255 214 238
255 214 238
255 214 238
255 214 238
255 214 238
255 214 238
255 214 238
255 214 238
255 214 238
255 226 250
255 214 238
255 214 238
255 214 238
255 214 238
255 214 238
255 214 238
255 214 238
255 214 238
255 214 238
255 214 238
255 214 238
255 214 238
255 214 238
255 214 238
255 214 238
255 214 238
255 214 238
255 214 238
255 214 238
255 214 238
255 214 238
255 214 238
255 214 238
255 214 238
255 214 238
255 214 238
255 214 238
255 214 238
255 214 238
255 214 238
255 214 238
255 214 238
255 214 238
255 214 238
255 214 238
255 214 238
255 226 250
255 214 238
255 214 238
255 214 238
255 214 238
255 214 238
255 214 238
255 214 238
255 214 238
255 214 238
255 214 238
255 214 238
255 214 238
255 214 238
255 214 238
255 214 238
255 214 238
255 214 238
255 214 238
255 214 238
255 214 238
255 214 238
255 214 238
255 214 238
255 214 238
255 214 238
255 214 238
255 214 238
255 214 238
255 214 238
255 214 238
255 214 238
255 214 238
255 214 238
255 214 238
255 214 238
255 214 238
255 226 250
255 214 238
255 214 238
255 214 238
255 214 238
255 214 238
255 214 238
255 214 238
255 214 238
255 214 238
255 214 238
255 214 238
255 214 238
255 214 238
255 214 238
255 214 238
255 214 238
255 214 238
255 214 238
255 214 238
255 214 238
255 214 238
255 214 238
255 214 238
255 214 238
255 214 238
255 214 238
255 214 238
255 214 238
255 214 238
255 214 238
255 214 238
255 214 238
255 214 238
255 214 238
255 214 238
255 214 238
255 226 250
255 214 238
255 214 238
255 214 238
255 214 238
255 214 238
255 214 238
255 214 238
255 214 238
255 214 238
255 214 238
255 214 238
255 214 238
255 214 238
255 214 238
255 214 238
255 214 238
255 214 238
255 214 238
255 214 238
255 214 238
255 214 238
255 214 238
255 214 238
255 214 238
255 214 238
255 214 238
255 214 238
255 214 238
255 214 238
255 214 238
255 214 238
255 214 238
255 214 238
255 214 238
255 214 238
255 214 238
255 214 238
255 214 238
255 214 238
255 214 238
255 214 238
255 214 238
255 214 238
255 214 238
255 214 238
255 214 238
255 214 238
255 214 238
255 214 238
255 214 238
255 214 238
255 214 238
255 214 238
255 214 238
255 214 238
255 214 238
255 214 238
255 214 238
255 214 238
255 226 250
255 214 238
255 214 238
255 214 238
255 214 238
255 214 238
255 214 238
255 214 238
255 214 238
255 214 238
255 214 238
255 214 238
255 214 238
255 214 238
255 214 238
255 214 238
255 214 238
255 214 238
255 214 238
255 214 238
255 214 238
255 214 238
255 214 238
255 214 238
255 214 238
255 214 238
255 214 238
255 214 238
255 214 238
255 214 238
255 214 238
255 214 238
255 214 238
255 214 238
255 214 238
255 214 238
255 214 238
255 226 250
255 214 238
255 214 238
255 214 238
255 214 238
255 214 238
255 214 238
255 214 238
255 214 238
255 214 238
255 214 238
255 214 238
255 214 238
255 214 238
255 214 238
255 214 238
255 214 238
255 214 238
255 214 238
255 214 238
255 214 238
255 214 238
255 214 238
255 214 238
255 214 238
255 214 238
255 214 238
255 214 238
255 214 238
255 214 238
255 214 238
255 214 238
255 214 238
255 214 238
255 214 238
255 214 238
255 214 238
255 226 250
255 214 238
255 214 238
255 214 238
255 214 238
255 214 238
255 214 238
255 214 238
255 214 238
255 214 238
255 214 238
255 214 238
255 214 238
255 214 238
255 214 238
255 214 238
255 214 238
255 214 238
255 214 238
255 214 238
255 214 238
255 214 238
255 214 238
255 214 238
255 214 238
255 214 238
255 214 238
255 214 238
255 214 238
255 214 238
255 214 238
255 214 238
255 214 238
255 214 238
255 214 238
255 214 238
255 214 238
255 226 250
255 214 238
255 214 238
255 214 238
255 214 238
255 214 238
255 214 238
255 214 238
255 214 238
255 214 238
255 214 238
255 214 238
255 214 238
255 214 238
255 214 238
255 214 238
255 214 238
255 214 238
255 214 238
255 214 238
255 214 238
255 214 238
255 214 238
255 214 238
255 214 238
255 214 238
255 214 238
255 214 238
255 214 238
255 214 238
255 214 238
255 214 238
255 214 238
255 214 238
255 214 238
255 214 238
255 214 238
255 226 250
255 214 238
255 214 238
255 214 238
255 214 238
255 214 238
255 214 238
255 214 238
255 214 238
255 214 238
255 214 238
255 214 238
255 214 238
255 214 238
255 214 238
255 214 238
255 214 238
255 214 238
255 214 238
255 214 238
255 214 238
255 214 238
255 214 238
255 214 238
255 214 238
255 214 238
255 214 238
255 214 238
255 214 238
255 214 238
255 214 238
255 214 238
255 214 238
255 214 238
255 214 238
255 214 238
255 214 238
255 226 250
255 214 238
255 214 238
255 214 238
255 214 238
255 214 238
255 214 238
255 214 238
255 214 238
255 214 238
255 214 238
255 214 238
255 214 238
255 214 238
255 214 238
255 214 238
255 214 238
255 214 238
255 214 238
255 214 238
255 214 238
255 214 238
255 214 238
255 214 238
255 214 238
255 214 238
255 214 238
255 214 238
255 214 238
255 214 238
255 214 238
255 214 238
255 214 238
255 214 238
255 214 238
255 214 238
255 214 238
255 226 250
255 214 238
255 214 238
255 214 238
255 214 238
255 214 238
255 214 238
255 214 238
255 214 238
255 214 238
255 214 238
255 214 238
255 214 238
255 214 238
255 214 238
255 214 238
255 214 238
255 214 238
255 214 238
255 214 238
255 214 238
255 214 238
255 214 238
255 214 238
255 214 238
255 214 238
255 214 238
255 214 238
255 214 238
255 214 238
255 214 238
255 214 238
255 214 238
255 214 238
255 214 238
255 214 238
255 214 238
255 226 250
255 214 238
255 214 238
255 214 238
255 214 238
255 214 238
255 214 238
255 214 238
255 214 238
255 214 238
255 214 238
255 214 238
255 214 238
255 214 238
255 214 238
255 214 238
255 214 238
255 214 238
255 214 238
255 214 238
255 214 238
255 214 238
255 214 238
255 214 238
255 214 238
255 214 238
255 214 238
255 214 238
255 214 238
255 214 238
255 214 238
255 214 238
255 214 238
255 214 238
255 214 238
255 214 238
255 214 238
255 214 238
255 214 238
255 214 238
255 214 238
255 214 238
255 214 238
255 214 238
255 214 238
255 214 238
255 214 238
255 214 238
255 214 238
255 214 238
255 214 238
255 214 238
255 214 238
255 214 238
255 214 238
255 214 238
255 214 238
255 214 238
255 214 238
255 214 238
255 226 250
255 214 238
255 214 238
255 214 238
255 214 238
255 214 238
255 214 238
255 214 238
255 214 238
255 214 238
255 214 238
255 214 238
255 214 238
255 214 238
255 214 238
255 214 238
255 214 238
255 214 238
255 214 238
255 214 238
255 214 238
255 214 238
255 214 238
255 214 238
255 214 238
255 214 238
255 214 238
255 214 238
255 214 238
255 214 238
255 214 238
255 214 238
255 214 238
255 214 238
255 214 238
255 214 238
255 214 238
255 226 250
255 214 238
255 214 238
255 214 238
255 214 238
255 214 238
255 214 238
255 214 238
255 214 238
255 214 238
255 214 238
255 214 238
255 214 238
255 214 238
255 214 238
255 214 238
255 214 238
255 214 238
255 214 238
255 214 238
255 214 238
255 214 238
255 214 238
255 214 238
255 214 238
255 214 238
255 214 238
255 214 238
255 214 238
255 214 238
255 214 238
255 214 238
255 214 238
255 214 238
255 214 238
255 214 238
255 214 238
255 226 250
255 214 238
255 214 238
255 214 238
255 214 238
255 214 238
255 214 238
255 214 238
255 214 238
255 214 238
255 214 238
255 214 238
255 214 238
255 214 238
255 214 238
255 214 238
255 214 238
255 214 238
255 214 238
255 214 238
255 214 238
255 214 238
255 214 238
255 214 238
255 214 238
255 214 238
255 214 238
255 214 238
255 214 238
255 214 238
255 214 238
255 214 238
255 214 238
255 214 238
255 214 238
255 214 238
255 214 238
255 226 250
255 214 238
255 214 238
255 214 238
255 214 238
255 214 238
255 214 238
255 214 238
255 214 238
255 214 238
255 214 238
255 214 238
255 214 238
255 214 238
255 214 238
255 214 238
255 214 238
255 214 238
255 214 238
255 214 238
255 214 238
255 214 238
255 214 238
255 214 238
255 214 238
255 214 238
255 214 238
255 214 238
255 214 238
255 214 238
255 214 238
255 214 238
255 214 238
255 214 238
255 214 238
255 214 238
255 214 238
255 226 250
255 214 238
255 214 238
255 214 238
255 214 238
255 214 238
255 214 238
255 214 238
255 214 238
255 214 238
255 214 238
255 214 238
255 214 238
255 214 238
255 214 238
255 214 238
255 214 238
255 214 238
255 214 238
255 214 238
255 214 238
255 214 238
255 214 238
255 214 238
255 214 238
255 214 238
255 214 238
255 214 238
255 214 238
255 214 238
255 214 238
255 214 238
255 214 238
255 214 238
255 214 238
255 214 238
255 214 238
255 226 250
255 214 238
255 214 238
255 214 238
255 214 238
255 214 238
255 214 238
255 214 238
255 214 238
255 214 238
255 214 238
255 214 238
255 214 238
255 214 238
255 214 238
255 214 238
255 214 238
255 214 238
255 214 238
255 214 238
255 214 238
255 214 238
255 214 238
255 214 238
255 214 238
255 214 238
255 214 238
255 214 238
255 214 238
255 214 238
255 214 238
255 214 238
255 214 238
255 214 238
255 214 238
255 214 238
255 214 238
255 226 250
255 214 238
255 214 238
255 214 238
255 214 238
255 214 238
255 214 238
255 214 238
255 214 238
255 214 238
255 214 238
255 214 238
255 214 238
255 214 238
255 214 238
255 214 238
255 214 238
255 214 238
255 214 238
255 214 238
255 214 238
255 214 238
255 214 238
255 214 238
255 214 238
255 214 238
255 214 238
255 214 238
255 214 238
255 214 238
255 214 238
255 214 238
255 214 238
255 214 238
255 214 238
255 214 238
255 214 238
255 226 250
255 214 238
255 214 238
255 214 238
255 214 238
255 214 238
255 214 238
255 214 238
255 214 238
255 214 238
255 214 238
255 214 238
255 214 238
255 214 238
255 214 238
255 214 238
255 214 238
255 214 238
255 214 238
255 214 238
255 214 238
255 214 238
255 214 238
255 214 238
255 214 238
255 214 238
255 214 238
255 214 238
255 214 238
255 214 238
255 214 238
255 214 238
255 214 238
255 214 238
255 214 238
255 214 238
255 214 238
255 214 238
255 214 238
255 214 238
255 214 238
255 214 238
255 214 238
255 214 238
255 214 238
255 214 238
255 214 238
255 214 238
255 214 238
255 214 238
255 214 238
255 214 238
255 214 238
255 214 238
255 214 238
255 214 238
255 214 238
255 214 238
255 214 238
255 214 238
255 226 250
255 214 238
255 214 238
255 214 238
255 214 238
255 214 238
255 214 238
255 214 238
255 214 238
255 214 238
255 214 238
255 214 238
255 214 238
255 214 238
255 214 238
255 214 238
255 214 238
255 214 238
255 214 238
255 214 238
255 214 238
255 214 238
255 214 238
255 214 238
255 214 238
255 214 238
255 214 238
255 214 238
255 214 238
255 214 238
255 214 238
255 214 238
255 214 238
255 214 238
255 214 238
255 214 238
255 214 238
255 226 250
255 214 238
255 214 238
255 214 238
255 214 238
255 214 238
255 214 238
255 214 238
255 214 238
255 214 238
255 214 238
255 214 238
255 214 238
255 214 238
255 214 238
255 214 238
255 214 238
255 214 238
255 214 238
255 214 238
255 214 238
255 214 238
255 214 238
255 214 238
255 214 238
255 214 238
255 214 238
255 214 238
255 214 238
255 214 238
255 214 238
255 214 238
255 214 238
255 214 238
255 214 238
255 214 238
255 214 238
255 226 250
255 214 238
255 214 238
255 214 238
255 214 238
255 214 238
255 214 238
255 214 238
255 214 238
255 214 238
255 214 238
255 214 238
255 214 238
255 214 238
255 214 238
255 214 238
255 214 238
255 214 238
255 214 238
255 214 238
255 214 238
255 214 238
255 214 238
255 214 238
255 214 238
255 214 238
255 214 238
255 214 238
255 214 238
255 214 238
255 214 238
255 214 238
255 214 238
255 214 238
255 214 238
255 214 238
255 214 238
255 226 250
255 214 238
255 214 238
255 214 238
255 214 238
255 214 238
255 214 238
255 214 238
255 214 238
255 214 238
255 214 238
255 214 238
255 214 238
255 214 238
255 214 238
255 214 238
255 214 238
255 214 238
255 214 238
255 214 238
255 214 238
255 214 238
255 214 238
255 214 238
255 214 238
255 214 238
255 214 238
255 214 238
255 214 238
255 214 238
255 214 238
255 214 238
255 214 238
255 214 238
255 214 238
255 214 238
255 214 238
255 226 250
255 214 238
255 214 238
255 214 238
255 214 238
255 214 238
255 214 238
255 214 238
255 214 238
255 214 238
255 214 238
255 214 238
255 214 238
255 214 238
255 214 238
255 214 238
255 214 238
255 214 238
255 214 238
255 214 238
255 214 238
255 214 238
255 214 238
255 214 238
255 214 238
255 214 238
255 214 238
255 214 238
255 214 238
255 214 238
255 214 238
255 214 238
255 214 238
255 214 238
255 214 238
255 214 238
255 214 238
255 226 250
255 214 238
255 214 238
255 214 238
255 214 238
255 214 238
255 214 238
255 214 238
255 214 238
255 214 238
255 214 238
255 214 238
255 214 238
255 214 238
255 214 238
255 214 238
255 214 238
255 214 238
255 214 238
255 214 238
255 214 238
255 214 238
255 214 238
255 214 238
255 214 238
255 214 238
255 214 238
255 214 238
255 214 238
255 214 238
255 214 238
255 214 238
255 214 238
255 214 238
255 214 238
255 214 238
255 214 238
255 226 250
255 214 238
255 214 238
255 214 238
255 214 238
255 214 238
255 214 238
255 214 238
255 214 238
255 214 238
255 214 238
255 214 238
255 214 238
255 214 238
255 214 238
255 214 238
255 214 238
255 214 238
255 214 238
255 214 238
255 214 238
255 214 238
255 214 238
255 214 238
255 214 238
255 214 238
255 214 238
255 214 238
255 214 238
255 214 238
255 214 238
255 214 238
255 214 238
255 214 238
255 214 238
255 214 238
255 214 238
255 226 250
255 214 238
255 214 238
255 214 238
255 214 238
255 214 238
255 214 238
255 214 238
255 214 238
255 214 238
255 214 238
255 214 238
255 214 238
255 214 238
255 214 238
255 214 238
255 214 238
255 214 238
255 214 238
255 214 238
255 214 238
255 214 238
255 214 238
255 214 238
255 214 238
255 214 238
255 214 238
255 214 238
255 214 238
255 214 238
255 214 238
255 214 238
255 214 238
255 214 238
255 214 238
255 214 238
255 214 238
255 214 238
255 214 238
255 214 238
255 214 238
255 214 238
255 214 238
255 214 238
255 214 238
255 214 238
255 214 238
255 214 238
255 214 238
255 214 238
255 214 238
255 214 238
255 214 238
255 214 238
255 214 238
255 214 238
255 214 238
255 214 238
255 214 238
255 214 238
255 226 250
255 214 238
255 214 238
255 214 238
255 214 238
255 214 238
255 214 238
255 214 238
255 214 238
255 214 238
255 214 238
255 214 238
255 214 238
255 214 238
255 214 238
255 214 238
255 214 238
255 214 238
255 214 238
255 214 238
255 214 238
255 214 238
255 214 238
255 214 238
255 214 238
255 214 238
255 214 238
255 214 238
255 214 238
255 214 238
255 214 238
255 214 238
255 214 238
255 214 238
255 214 238
255 214 238
255 214 238
255 226 250
255 214 238
255 214 238
255 214 238
255 214 238
255 214 238
255 214 238
255 214 238
255 214 238
255 214 238
255 214 238
255 214 238
255 214 238
255 214 238
255 214 238
255 214 238
255 214 238
255 214 238
255 214 238
255 214 238
255 214 238
255 214 238
255 214 238
255 214 238
255 214 238
255 214 238
255 214 238
255 214 238
255 214 238
255 214 238
255 214 238
255 214 238
255 214 238
255 214 238
255 214 238
255 214 238
255 214 238
255 226 250
255 214 238
255 214 238
255 214 238
255 214 238
255 214 238
255 214 238
255 214 238
255 214 238
255 214 238
255 214 238
255 214 238
255 214 238
255 214 238
255 214 238
255 214 238
255 214 238
255 214 238
255 214 238
255 214 238
255 214 238
255 214 238
255 214 238
255 214 238
255 214 238
255 214 238
255 214 238
255 214 238
255 214 238
255 214 238
255 214 238
255 214 238
255 214 238
255 214 238
255 214 238
255 214 238
255 214 238
255 226 250
255 214 238
255 214 238
255 214 238
255 214 238
255 214 238
255 214 238
255 214 238
255 214 238
255 214 238
255 214 238
255 214 238
255 214 238
255 214 238
255 214 238
255 214 238
255 214 238
255 214 238
255 214 238
255 214 238
255 214 238
255 214 238
255 214 238
255 214 238
255 214 238
255 214 238
255 214 238
255 214 238
255 214 238
255 214 238
255 214 238
255 214 238
255 214 238
255 214 238
255 214 238
255 214 238
255 214 238
255 226 250
255 214 238
255 214 238
255 214 238
255 214 238
255 214 238
255 214 238
255 214 238
255 214 238
255 214 238
255 214 238
255 214 238
255 214 238
255 214 238
255 214 238
255 214 238
255 214 238
255 214 238
255 214 238
255 214 238
255 214 238
255 214 238
255 214 238
255 214 238
255 214 238
255 214 238
255 214 238
255 214 238
255 214 238
255 214 238
255 214 238
255 214 238
255 214 238
255 214 238
255 214 238
255 214 238
255 214 238
255 226 250
255 214 238
255 214 238
255 214 238
255 214 238
255 214 238
255 214 238
255 214 238
255 214 238
255 214 238
255 214 238
255 214 238
255 214 238
255 214 238
255 214 238
255 214 238
255 214 238
255 214 238
255 214 238
255 214 238
255 214 238
255 214 238
255 214 238
255 214 238
255 214 238
255 214 238
255 214 238
255 214 238
255 214 238
255 214 238
255 214 238
255 214 238
255 214 238
255 214 238
255 214 238
255 214 238
255 214 238
255 226 250
255 214 238
255 214 238
255 214 238
255 214 238
255 214 238
255 214 238
255 214 238
255 214 238
255 214 238
255 214 238
255 214 238
255 214 238
255 214 238
255 214 238
255 214 238
255 214 238
255 214 238
255 214 238
255 214 238
255 214 238
255 214 238
255 214 238
255 214 238
255 214 238
255 214 238
255 214 238
255 214 238
255 214 238
255 214 238
255 214 238
255 214 238
255 214 238
255 214 238
255 214 238
255 214 238
255 214 238
255 226 250
255 214 238
255 214 238
255 214 238
255 214 238
255 214 238
255 214 238
255 214 238
255 214 238
255 214 238
255 214 238
255 214 238
255 214 238
255 214 238
255 214 238
255 214 238
255 214 238
255 214 238
255 214 238
255 214 238
255 214 238
255 214 238
255 214 238
255 214 238
255 214 238
255 214 238
255 214 238
255 214 238
255 214 238
255 214 238
255 214 238
255 214 238
255 214 238
255 214 238
255 214 238
255 214 238
255 214 238
255 226 250
255 214 238
255 214 238
255 214 238
255 214 238
255 214 238
255 214 238
255 214 238
255 214 238
255 214 238
255 214 238
255 214 238
255 214 238
255 214 238
255 214 238
255 214 238
255 214 238
255 214 238
255 214 238
255 214 238
255 214 238
255 214 238
255 214 238
255 226 250
255 214 238
255 214 238
255 214 238
255 214 238
255 214 238
255 214 238
255 214 238
255 214 238
255 214 238
255 214 238
255 214 238
255 214 238
255 214 238
255 214 238
255 214 238
255 214 238
255 214 238
255 214 238
255 214 238
255 214 238
255 214 238
255 214 238
255 214 238
255 214 238
255 214 238
255 214 238
255 214 238
255 214 238
255 214 238
255 214 238
255 214 238
255 214 238
255 214 238
255 214 238
255 214 238
255 214 238
255 226 250
255 214 238
255 214 238
255 214 238
255 214 238
255 214 238
255 214 238
255 214 238
255 214 238
255 214 238
255 214 238
255 214 238
255 214 238
255 214 238
255 214 238
255 214 238
255 214 238
255 214 238
255 214 238
255 214 238
255 214 238
255 214 238
255 214 238
255 214 238
255 214 238
255 214 238
255 214 238
255 214 238
255 214 238
255 214 238
255 214 238
255 214 238
255 214 238
255 214 238
255 214 238
255 214 238
255 214 238
255 226 250
255 214 238
255 214 238
255 214 238
255 214 238
255 214 238
255 214 238
255 214 238
255 214 238
255 214 238
255 214 238
255 214 238
255 214 238
255 214 238
255 214 238
255 214 238
255 214 238
255 214 238
255 214 238
255 214 238
255 214 238
255 214 238
255 214 238
255 214 238
255 214 238
255 214 238
255 214 238
255 214 238
255 214 238
255 214 238
255 214 238
255 214 238
255 214 238
255 214 238
255 214 238
255 214 238
255 214 238
255 226 250
255 214 238
255 214 238
255 214 238
255 214 238
255 214 238
255 214 238
255 214 238
255 214 238
255 214 238
255 214 238
255 214 238
255 214 238
255 214 238
255 214 238
255 214 238
255 214 238
255 214 238
255 214 238
255 214 238
255 214 238
255 214 238
255 214 238
255 214 238
255 214 238
255 214 238
255 214 238
255 214 238
255 214 238
255 214 238
255 214 238
255 214 238
255 214 238
255 214 238
255 214 238
255 214 238
255 214 238
255 226 250
255 214 238
255 214 238
255 214 238
255 214 238
255 214 238
255 214 238
255 214 238
255 214 238
255 214 238
255 214 238
255 214 238
255 214 238
255 214 238
255 214 238
255 214 238
255 214 238
255 214 238
255 214 238
255 214 238
255 214 238
255 214 238
255 214 238
255 214 238
255 214 238
255 214 238
255 214 238
255 214 238
255 214 238
255 214 238
255 214 238
255 214 238
255 214 238
255 214 238
255 214 238
255 214 238
255 214 238
255 226 250
255 214 238
255 214 238
255 214 238
255 214 238
255 214 238
255 214 238
255 214 238
255 214 238
255 214 238
255 214 238
255 214 238
255 214 238
255 214 238
255 214 238
255 214 238
255 214 238
255 214 238
255 214 238
255 214 238
255 214 238
255 214 238
255 214 238
255 214 238
255 214 238
255 214 238
255 214 238
255 214 238
255 214 238
255 214 238
255 214 238
255 214 238
255 214 238
255 214 238
255 214 238
255 214 238
255 214 238
255 226 250
255 214 238
255 214 238
255 214 238
255 214 238
255 214 238
255 214 238
255 214 238
255 214 238
255 214 238
255 214 238
255 214 238
255 214 238
255 214 238
255 214 238
255 214 238
255 214 238
255 214 238
255 214 238
255 214 238
255 214 238
255 214 238
255 214 238
255 214 238
255 214 238
255 214 238
255 214 238
255 214 238
255 214 238
255 214 238
255 214 238
255 214 238
255 214 238
255 214 238
255 214 238
255 214 238
255 214 238
255 226 250
255 214 238
255 214 238
255 214 238
255 214 238
255 214 238
255 214 238
255 214 238
255 214 238
255 214 238
255 214 238
255 214 238
255 214 238
255 214 238
255 214 238
255 214 238
255 214 238
255 214 238
255 214 238
255 214 238
255 214 238
255 214 238
255 214 238
255 214 238
255 214 238
255 214 238
255 214 238
255 214 238
255 214 238
255 214 238
255 214 238
255 214 238
255 214 238
255 214 238
255 214 238
255 214 238
255 214 238
255 226 250
255 214 238
255 214 238
255 214 238
255 214 238
255 214 238
255 214 238
255 214 238
255 214 238
255 214 238
255 214 238
255 214 238
255 214 238
255 214 238
255 214 238
255 214 238
255 214 238
255 214 238
255 214 238
255 214 238
255 214 238
255 214 238
255 214 238
255 226 250
255 214 238
255 214 238
255 214 238
255 214 238
255 214 238
255 214 238
255 214 238
255 214 238
255 214 238
255 214 238
255 214 238
255 214 238
255 214 238
255 214 238
255 214 238
255 214 238
255 214 238
255 214 238
255 214 238
255 214 238
255 214 238
255 214 238
255 214 238
255 214 238
255 214 238
255 214 238
255 214 238
255 214 238
255 214 238
255 214 238
255 214 238
255 214 238
255 214 238
255 214 238
255 214 238
255 214 238
255 226 250
255 214 238
255 214 238
255 214 238
255 214 238
255 214 238
255 214 238
255 214 238
255 214 238
255 214 238
255 214 238
255 214 238
255 214 238
255 214 238
255 214 238
255 214 238
255 214 238
255 214 238
255 214 238
255 214 238
255 214 238
255 214 238
255 214 238
255 214 238
255 214 238
255 214 238
255 214 238
255 214 238
255 214 238
255 214 238
255 214 238
255 214 238
255 214 238
255 214 238
255 214 238
255 214 238
255 214 238
255 226 250
255 214 238
255 214 238
255 214 238
255 214 238
255 214 238
255 214 238
255 214 238
255 214 238
255 214 238
255 214 238
255 214 238
255 214 238
255 214 238
255 214 238
255 214 238
255 214 238
255 214 238
255 214 238
255 214 238
255 214 238
255 214 238
255 214 238
255 214 238
255 214 238
255 214 238
255 214 238
255 214 238
255 214 238
255 214 238
255 214 238
255 214 238
255 214 238
255 214 238
255 214 238
255 214 238
255 214 238
255 226 250
255 214 238
255 214 238
255 214 238
255 214 238
255 214 238
255 214 238
255 214 238
255 214 238
255 214 238
255 214 238
255 214 238
255 214 238
255 214 238
255 214 238
255 214 238
255 214 238
255 214 238
255 214 238
255 214 238
255 214 238
255 214 238
255 214 238
255 214 238
255 214 238
255 214 238
255 214 238
255 214 238
255 214 238
255 214 238
255 214 238
255 214 238
255 214 238
255 214 238
255 214 238
255 214 238
255 214 238
255 226 250
255 214 238
255 214 238
255 214 238
255 214 238
255 214 238
255 214 238
255 214 238
255 214 238
255 214 238
255 214 238
255 214 238
255 214 238
255 214 238
255 214 238
255 214 238
255 214 238
255 214 238
255 214 238
255 214 238
255 214 238
255 214 238
255 214 238
255 214 238
255 214 238
255 214 238
255 214 238
255 214 238
255 214 238
255 214 238
255 214 238
255 214 238
255 214 238
255 214 238
255 214 238
255 214 238
255 214 238
255 226 250
255 214 238
255 214 238
255 214 238
255 214 238
255 214 238
255 214 238
255 214 238
255 214 238
255 214 238
255 214 238
255 214 238
255 214 238
255 214 238
255 214 238
255 214 238
255 214 238
255 214 238
255 214 238
255 214 238
255 214 238
255 214 238
255 214 238
255 214 238
255 214 238
255 214 238
255 214 238
255 214 238
255 214 238
255 214 238
255 214 238
255 214 238
255 214 238
255 214 238
255 214 238
255 214 238
255 214 238
255 226 250
255 214 238
255 214 238
255 214 238
255 214 238
255 214 238
255 214 238
255 214 238
255 214 238
255 214 238
255 214 238
255 214 238
255 214 238
255 214 238
255 214 238
255 214 238
255 214 238
255 214 238
255 214 238
255 214 238
255 214 238
255 214 238
255 214 238
255 214 238
255 214 238
255 214 238
255 214 238
255 214 238
255 214 238
255 214 238
255 214 238
255 214 238
255 214 238
255 214 238
255 214 238
255 214 238
255 214 238
255 226 250
255 214 238
255 214 238
255 214 238
255 214 238
255 214 238
255 214 238
255 214 238
255 214 238
255 214 238
255 214 238
255 214 238
255 214 238
255 214 238
255 214 238
255 214 238
255 214 238
255 214 238
255 214 238
255 214 238
255 214 238
255 214 238
255 214 238
255 214 238
255 214 238
255 214 238
255 214 238
255 214 238
255 214 238
255 214 238
255 214 238
255 214 238
255 214 238
255 214 238
255 214 238
255 214 238
255 214 238
255 226 250
255 214 238
255 214 238
255 214 238
255 214 238
255 214 238
255 214 238
255 214 238
255 214 238
255 214 238
255 214 238
255 214 238
255 214 238
255 214 238
255 214 238
255 214 238
255 214 238
255 214 238
255 214 238
255 214 238
255 214 238
255 214 238
255 214 238
255 226 250
255 214 238
255 214 238
255 214 238
255 214 238
255 214 238
255 214 238
255 214 238
255 214 238
255 214 238
255 214 238
255 214 238
255 214 238
255 214 238
255 214 238
255 214 238
255 214 238
255 214 238
255 214 238
255 214 238
255 214 238
255 214 238
255 214 238
255 214 238
255 214 238
255 214 238
255 214 238
255 214 238
255 214 238
255 214 238
255 214 238
255 214 238
255 214 238
255 214 238
255 214 238
255 214 238
255 214 238
255 226 250
255 214 238
255 214 238
255 214 238
255 214 238
255 214 238
255 214 238
255 214 238
255 214 238
255 214 238
255 214 238
255 214 238
255 214 238
255 214 238
255 214 238
255 214 238
255 214 238
255 214 238
255 214 238
255 214 238
255 214 238
255 214 238
255 214 238
255 214 238
255 214 238
255 214 238
255 214 238
255 214 238
255 214 238
255 214 238
255 214 238
255 214 238
255 214 238
255 214 238
255 214 238
255 214 238
255 214 238
255 226 250
255 214 238
255 214 238
255 214 238
255 214 238
255 214 238
255 214 238
255 214 238
255 214 238
255 214 238
255 214 238
255 214 238
255 214 238
255 214 238
255 214 238
255 214 238
255 214 238
255 214 238
255 214 238
255 214 238
255 214 238
255 214 238
255 214 238
255 214 238
255 214 238
255 214 238
255 214 238
255 214 238
255 214 238
255 214 238
255 214 238
255 214 238
255 214 238
255 214 238
255 214 238
255 214 238
255 214 238
255 226 250
255 214 238
255 214 238
255 214 238
255 214 238
255 214 238
255 214 238
255 214 238
255 214 238
255 214 238
255 214 238
255 214 238
255 214 238
255 214 238
255 214 238
255 214 238
255 214 238
255 214 238
255 214 238
255 214 238
255 214 238
255 214 238
255 214 238
255 214 238
255 214 238
255 214 238
255 214 238
255 214 238
255 214 238
255 214 238
255 214 238
255 214 238
255 214 238
255 214 238
255 214 238
255 214 238
255 214 238
255 226 250
255 214 238
255 214 238
255 214 238
255 214 238
255 214 238
255 214 238
255 214 238
255 214 238
255 214 238
255 214 238
255 214 238
255 214 238
255 214 238
255 214 238
255 214 238
255 214 238
255 214 238
255 214 238
255 214 238
255 214 238
255 214 238
255 214 238
255 214 238
255 214 238
255 214 238
255 214 238
255 214 238
255 214 238
255 214 238
255 214 238
255 214 238
255 214 238
255 214 238
255 214 238
255 214 238
255 214 238
255 226 250
255 214 238
255 214 238
255 214 238
255 214 238
255 214 238
255 214 238
255 214 238
255 214 238
255 214 238
255 214 238
255 214 238
255 214 238
255 214 238
255 214 238
255 214 238
255 214 238
255 214 238
255 214 238
255 214 238
255 214 238
255 214 238
255 214 238
255 214 238
255 214 238
255 214 238
255 214 238
255 214 238
255 214 238
255 214 238
255 214 238
255 214 238
255 214 238
255 214 238
255 214 238
255 214 238
255 214 238
255 226 250
255 214 238
255 214 238
255 214 238
255 214 238
255 214 238
255 214 238
255 214 238
255 214 238
255 214 238
255 214 238
255 214 238
255 214 238
255 214 238
255 214 238
255 214 238
255 214 238
255 214 238
255 214 238
255 214 238
255 214 238
255 214 238
255 214 238
255 214 238
255 214 238
255 214 238
255 214 238
255 214 238
255 214 238
255 214 238
255 214 238
255 214 238
255 214 238
255 214 238
255 214 238
255 214 238
255 214 238
255 226 250
255 214 238
255 214 238
255 214 238
255 214 238
255 214 238
255 214 238
255 214 238
255 214 238
255 214 238
255 214 238
255 214 238
255 214 238
255 214 238
255 214 238
255 214 238
255 214 238
255 214 238
255 214 238
255 214 238
255 214 238
255 214 238
255 214 238
255 214 238
255 214 238
255 214 238
255 214 238
255 214 238
255 214 238
255 214 238
255 214 238
255 214 238
255 214 238
255 214 238
255 214 238
255 214 238
255 214 238
255 226 250
255 214 238
255 214 238
255 214 238
255 214 238
255 214 238
255 214 238
255 214 238
255 214 238
255 214 238
255 214 238
255 214 238
255 214 238
255 214 238
255 214 238
255 214 238
255 214 238
255 214 238
255 214 238
255 214 238
255 214 238
255 214 238
255 214 238
255 226 250
255 214 238
255 214 238
255 214 238
255 214 238
255 214 238
255 214 238
255 214 238
255 214 238
255 214 238
255 214 238
255 214 238
255 214 238
255 214 238
255 214 238
255 214 238
255 214 238
255 214 238
255 214 238
255 214 238
255 214 238
255 214 238
255 214 238
255 214 238
255 214 238
255 214 238
255 214 238
255 214 238
255 214 238
255 214 238
255 214 238
255 214 238
255 214 238
255 214 238
255 214 238
255 214 238
255 214 238
255 226 250
255 214 238
255 214 238
255 214 238
255 214 238
255 214 238
255 214 238
255 214 238
255 214 238
255 214 238
255 214 238
255 214 238
255 214 238
255 214 238
255 214 238
255 214 238
255 214 238
255 214 238
255 214 238
255 214 238
255 214 238
255 214 238
255 214 238
255 214 238
255 214 238
255 214 238
255 214 238
255 214 238
255 214 238
255 214 238
255 214 238
255 214 238
255 214 238
255 214 238
255 214 238
255 214 238
255 214 238
255 226 250
255 214 238
255 214 238
255 214 238
255 214 238
255 214 238
255 214 238
255 214 238
255 214 238
255 214 238
255 214 238
255 214 238
255 214 238
255 214 238
255 214 238
255 214 238
255 214 238
255 214 238
255 214 238
255 214 238
255 214 238
255 214 238
255 214 238
255 214 238
255 214 238
255 214 238
255 214 238
255 214 238
255 214 238
255 214 238
255 214 238
255 214 238
255 214 238
255 214 238
255 214 238
255 214 238
255 214 238
255 226 250
255 214 238
255 214 238
255 214 238
255 214 238
255 214 238
255 214 238
255 214 238
255 214 238
255 214 238
255 214 238
255 214 238
255 214 238
255 214 238
255 214 238
255 214 238
255 214 238
255 214 238
255 214 238
255 214 238
255 214 238
255 214 238
255 214 238
255 214 238
255 214 238
255 214 238
255 214 238
255 214 238
255 214 238
255 214 238
255 214 238
255 214 238
255 214 238
255 214 238
255 214 238
255 214 238
255 214 238
255 226 250
255 214 238
255 214 238
255 214 238
255 214 238
255 214 238
255 214 238
255 214 238
255 214 238
255 214 238
255 214 238
255 214 238
255 214 238
255 214 238
255 214 238
255 214 238
255 214 238
255 214 238
255 214 238
255 214 238
255 214 238
255 214 238
255 214 238
255 214 238
255 214 238
255 214 238
255 214 238
255 214 238
255 214 238
255 214 238
255 214 238
255 214 238
255 214 238
255 214 238
255 214 238
255 214 238
255 214 238
255 226 250
255 214 238
255 214 238
255 214 238
255 214 238
255 214 238
255 214 238
255 214 238
255 214 238
255 214 238
255 214 238
255 214 238
255 214 238
255 214 238
255 214 238
255 214 238
255 214 238
255 214 238
255 214 238
255 214 238
255 214 238
255 214 238
255 214 238
255 214 238
255 214 238
255 214 238
255 214 238
255 214 238
255 214 238
255 214 238
255 214 238
255 214 238
255 214 238
255 214 238
255 214 238
255 214 238
255 214 238
255 226 250
255 214 238
255 214 238
255 214 238
255 214 238
255 214 238
255 214 238
255 214 238
255 214 238
255 214 238
255 214 238
255 214 238
255 214 238
255 214 238
255 214 238
255 214 238
255 214 238
255 214 238
255 214 238
255 214 238
255 214 238
255 214 238
255 214 238
255 214 238
255 214 238
255 214 238
255 214 238
255 214 238
255 214 238
255 214 238
255 214 238
255 214 238
255 214 238
255 214 238
255 214 238
255 214 238
255 214 238
255 226 250
255 214 238
255 214 238
255 214 238
255 214 238
255 214 238
255 214 238
255 214 238
255 214 238
255 214 238
255 214 238
255 214 238
255 214 238
255 214 238
255 214 238
255 214 238
255 214 238
255 214 238
255 214 238
255 214 238
255 214 238
255 214 238
255 214 238
255 214 238
255 214 238
255 214 238
255 214 238
255 214 238
255 214 238
255 214 238
255 214 238
255 214 238
255 214 238
255 214 238
255 214 238
255 214 238
255 214 238
255 226 250
255 214 238
255 214 238
255 214 238
255 214 238
255 214 238
255 214 238
255 214 238
255 214 238
255 214 238
255 214 238
255 214 238
255 214 238
255 214 238
255 214 238
255 214 238
255 214 238
255 214 238
255 214 238
255 214 238
255 214 238
255 214 238
255 214 238
255 226 250
255 214 238
255 214 238
255 214 238
255 214 238
255 214 238
255 214 238
255 214 238
255 214 238
255 214 238
255 214 238
255 214 238
255 214 238
255 214 238
255 214 238
255 214 238
255 214 238
255 214 238
255 214 238
255 214 238
255 214 238
255 214 238
255 214 238
255 214 238
255 214 238
255 214 238
255 214 238
255 214 238
255 214 238
255 214 238
255 214 238
255 214 238
255 214 238
255 214 238
255 214 238
255 214 238
255 214 238
255 226 250
255 214 238
255 214 238
255 214 238
255 214 238
255 214 238
255 214 238
255 214 238
255 214 238
255 214 238
255 214 238
255 214 238
255 214 238
255 214 238
255 214 238
255 214 238
255 214 238
255 214 238
255 214 238
255 214 238
255 214 238
255 214 238
255 214 238
255 214 238
255 214 238
255 214 238
255 214 238
255 214 238
255 214 238
255 214 238
255 214 238
255 214 238
255 214 238
255 214 238
255 214 238
255 214 238
255 214 238
255 226 250
255 214 238
255 214 238
255 214 238
255 214 238
255 214 238
255 214 238
255 214 238
255 214 238
255 214 238
255 214 238
255 214 238
255 214 238
255 214 238
255 214 238
255 214 238
255 214 238
255 214 238
255 214 238
255 214 238
255 214 238
255 214 238
255 214 238
255 214 238
255 214 238
255 214 238
255 214 238
255 214 238
255 214 238
255 214 238
255 214 238
255 214 238
255 214 238
255 214 238
255 214 238
255 214 238
255 214 238
255 226 250
255 214 238
255 214 238
255 214 238
255 214 238
255 214 238
255 214 238
255 214 238
255 214 238
255 214 238
255 214 238
255 214 238
255 214 238
255 214 238
255 214 238
255 214 238
255 214 238
255 214 238
255 214 238
255 214 238
255 214 238
255 214 238
255 214 238
255 214 238
255 214 238
255 214 238
255 214 238
255 214 238
255 214 238
255 214 238
255 214 238
255 214 238
255 214 238
255 214 238
255 214 238
255 214 238
255 214 238
255 226 250
255 214 238
255 214 238
255 214 238
255 214 238
255 214 238
255 214 238
255 214 238
255 214 238
255 214 238
255 214 238
255 214 238
255 214 238
255 214 238
255 214 238
255 214 238
255 214 238
255 214 238
255 214 238
255 214 238
255 214 238
255 214 238
255 214 238
255 214 238
255 214 238
255 214 238
255 214 238
255 214 238
255 214 238
255 214 238
255 214 238
255 214 238
255 214 238
255 214 238
255 214 238
255 214 238
255 214 238
255 226 250
255 214 238
255 214 238
255 214 238
255 214 238
255 214 238
255 214 238
255 214 238
255 214 238
255 214 238
255 214 238
255 214 238
255 214 238
255 214 238
255 214 238
255 214 238
255 214 238
255 214 238
255 214 238
255 214 238
255 214 238
255 214 238
255 214 238
255 214 238
255 214 238
255 214 238
255 214 238
255 214 238
255 214 238
255 214 238
255 214 238
255 214 238
255 214 238
255 214 238
255 214 238
255 214 238
255 214 238
255 226 250
255 214 238
255 214 238
255 214 238
255 214 238
255 214 238
255 214 238
255 214 238
255 214 238
255 214 238
255 214 238
255 214 238
255 214 238
255 214 238
255 214 238
255 214 238
255 214 238
255 214 238
255 214 238
255 214 238
255 214 238
255 214 238
255 214 238
255 214 238
255 214 238
255 214 238
255 214 238
255 214 238
255 214 238
255 214 238
255 214 238
255 214 238
255 214 238
255 214 238
255 214 238
255 214 238
255 214 238
255 226 250
255 214 238
255 214 238
255 214 238
255 214 238
255 214 238
255 214 238
255 214 238
255 214 238
255 214 238
255 214 238
255 214 238
255 214 238
255 214 238
255 214 238
255 214 238
255 214 238
255 214 238
255 214 238
255 214 238
255 214 238
255 214 238
255 214 238
255 214 238
255 214 238
255 214 238
255 214 238
255 214 238
255 214 238
255 214 238
255 214 238
255 214 238
255 214 238
255 214 238
255 214 238
255 214 238
255 214 238
255 226 250
255 214 238
255 214 238
255 214 238
255 214 238
255 214 238
255 214 238
255 214 238
255 214 238
255 214 238
255 214 238
255 214 238
255 214 238
255 214 238
255 214 238
255 214 238
255 214 238
255 214 238
255 214 238
255 214 238
255 214 238
255 214 238
255 214 238
255 226 250
255 214 238
255 214 238
255 214 238
255 214 238
255 214 238
255 214 238
255 214 238
255 214 238
255 214 238
255 214 238
255 214 238
255 214 238
255 214 238
255 214 238
255 214 238
255 214 238
255 214 238
255 214 238
255 214 238
255 214 238
255 214 238
255 214 238
255 214 238
255 214 238
255 214 238
255 214 238
255 214 238
255 214 238
255 214 238
255 214 238
255 214 238
255 214 238
255 214 238
255 214 238
255 214 238
255 214 238
255 226 250
255 214 238
255 214 238
255 214 238
255 214 238
255 214 238
255 214 238
255 214 238
255 214 238
255 214 238
255 214 238
255 214 238
255 214 238
255 214 238
255 214 238
255 214 238
255 214 238
255 214 238
255 214 238
255 214 238
255 214 238
255 214 238
255 214 238
255 214 238
255 214 238
255 214 238
255 214 238
255 214 238
255 214 238
255 214 238
255 214 238
255 214 238
255 214 238
255 214 238
255 214 238
255 214 238
255 214 238
255 226 250
255 214 238
255 214 238
255 214 238
255 214 238
255 214 238
255 214 238
255 214 238
255 214 238
255 214 238
255 214 238
255 214 238
255 214 238
255 214 238
255 214 238
255 214 238
255 214 238
255 214 238
255 214 238
255 214 238
255 214 238
255 214 238
255 214 238
255 214 238
255 214 238
255 214 238
255 214 238
255 214 238
255 214 238
255 214 238
255 214 238
255 214 238
255 214 238
255 214 238
255 214 238
255 214 238
255 214 238
255 226 250
255 214 238
255 214 238
255 214 238
255 214 238
255 214 238
255 214 238
255 214 238
255 214 238
255 214 238
255 214 238
255 214 238
255 214 238
255 214 238
255 214 238
255 214 238
255 214 238
255 214 238
255 214 238
255 214 238
255 214 238
255 214 238
255 214 238
255 214 238
255 214 238
255 214 238
255 214 238
255 214 238
255 214 238
255 214 238
255 214 238
255 214 238
255 214 238
255 214 238
255 214 238
255 214 238
255 214 238
255 226 250
255 214 238
255 214 238
255 214 238
255 214 238
255 214 238
255 214 238
255 214 238
255 214 238
255 214 238
255 214 238
255 214 238
255 214 238
255 214 238
255 214 238
255 214 238
255 214 238
255 214 238
255 214 238
255 214 238
255 214 238
255 214 238
255 214 238
255 214 238
255 214 238
255 214 238
255 214 238
255 214 238
255 214 238
255 214 238
255 214 238
255 214 238
255 214 238
255 214 238
255 214 238
255 214 238
255 214 238
255 226 250
255 214 238
255 214 238
255 214 238
255 214 238
255 214 238
255 214 238
255 214 238
255 214 238
255 214 238
255 214 238
255 214 238
255 214 238
255 214 238
255 214 238
255 214 238
255 214 238
255 214 238
255 214 238
255 214 238
255 214 238
255 214 238
255 214 238
255 214 238
255 214 238
255 214 238
255 214 238
255 214 238
255 214 238
255 214 238
255 214 238
255 214 238
255 214 238
255 214 238
255 214 238
255 214 238
255 214 238
255 226 250
255 214 238
255 214 238
255 214 238
255 214 238
255 214 238
255 214 238
255 214 238
255 214 238
255 214 238
255 214 238
255 214 238
255 214 238
255 214 238
255 214 238
255 214 238
255 214 238
255 214 238
255 214 238
255 214 238
255 214 238
255 214 238
255 214 238
255 214 238
255 214 238
255 214 238
255 214 238
255 214 238
255 214 238
255 214 238
255 214 238
255 214 238
255 214 238
255 214 238
255 214 238
255 214 238
255 214 238
255 226 250
255 214 238
255 214 238
255 214 238
255 214 238
255 214 238
255 214 238
255 214 238
255 214 238
255 214 238
255 214 238
255 214 238
255 214 238
255 214 238
255 214 238
255 214 238
255 214 238
255 214 238
255 214 238
255 214 238
255 214 238
255 214 238
255 214 238
255 214 238
255 214 238
255 214 238
255 214 238
255 214 238
255 214 238
255 214 238
255 214 238
255 214 238
255 214 238
255 214 238
255 214 238
255 214 238
255 214 238
255 226 250
255 214 238
255 214 238
255 214 238
255 214 238
255 214 238
255 214 238
255 214 238
255 214 238
255 214 238
255 214 238
255 214 238
255 214 238
255 214 238
255 214 238
255 214 238
255 214 238
255 214 238
255 214 238
255 214 238
255 214 238
255 214 238
255 214 238
255 226 250
255 214 238
255 214 238
255 214 238
255 214 238
255 214 238
255 214 238
255 214 238
255 214 238
255 214 238
255 214 238
255 214 238
255 214 238
255 214 238
255 214 238
255 214 238
255 214 238
255 214 238
255 214 238
255 214 238
255 214 238
255 214 238
255 214 238
255 214 238
255 214 238
255 214 238
255 214 238
255 214 238
255 214 238
255 214 238
255 214 238
255 214 238
255 214 238
255 214 238
255 214 238
255 214 238
255 214 238
255 226 250
255 214 238
255 214 238
255 214 238
255 214 238
255 214 238
255 214 238
255 214 238
255 214 238
255 214 238
255 214 238
255 214 238
255 214 238
255 214 238
255 214 238
255 214 238
255 214 238
255 214 238
255 214 238
255 214 238
255 214 238
255 214 238
255 214 238
255 214 238
255 214 238
255 214 238
255 214 238
255 214 238
255 214 238
255 214 238
255 214 238
255 214 238
255 214 238
255 214 238
255 214 238
255 214 238
255 214 238
255 226 250
255 214 238
255 214 238
255 214 238
255 214 238
255 214 238
255 214 238
255 214 238
255 214 238
255 214 238
255 214 238
255 214 238
255 214 238
255 214 238
255 214 238
255 214 238
255 214 238
255 214 238
255 214 238
255 214 238
255 214 238
255 214 238
255 214 238
255 214 238
255 214 238
255 214 238
255 214 238
255 214 238
255 214 238
255 214 238
255 214 238
255 214 238
255 214 238
255 214 238
255 214 238
255 214 238
255 214 238
255 226 250
255 214 238
255 214 238
255 214 238
255 214 238
255 214 238
255 214 238
255 214 238
255 214 238
255 214 238
255 214 238
255 214 238
255 214 238
255 214 238
255 214 238
255 214 238
255 214 238
255 214 238
255 214 238
255 214 238
255 214 238
255 214 238
255 214 238
255 214 238
255 214 238
255 214 238
255 214 238
255 214 238
255 214 238
255 214 238
255 214 238
255 214 238
255 214 238
255 214 238
255 214 238
255 214 238
255 214 238
255 226 250
255 214 238
255 214 238
255 214 238
255 214 238
255 214 238
255 214 238
255 214 238
255 214 238
255 214 238
255 214 238
255 214 238
255 214 238
255 214 238
255 214 238
255 214 238
255 214 238
255 214 238
255 214 238
255 214 238
255 214 238
255 214 238
255 214 238
255 214 238
255 214 238
255 214 238
255 214 238
255 214 238
255 214 238
255 214 238
255 214 238
255 214 238
255 214 238
255 214 238
255 214 238
255 214 238
255 214 238
255 226 250
255 214 238
255 214 238
255 214 238
255 214 238
255 214 238
255 214 238
255 214 238
255 214 238
255 214 238
255 214 238
255 214 238
255 214 238
255 214 238
255 214 238
255 214 238
255 214 238
255 214 238
255 214 238
255 214 238
255 214 238
255 214 238
255 214 238
255 214 238
255 214 238
255 214 238
255 214 238
255 214 238
255 214 238
255 214 238
255 214 238
255 214 238
255 214 238
255 214 238
255 214 238
255 214 238
255 214 238
255 226 250
255 214 238
255 214 238
255 214 238
255 214 238
255 214 238
255 214 238
255 214 238
255 214 238
255 214 238
255 214 238
255 214 238
255 214 238
255 214 238
255 214 238
255 214 238
255 214 238
255 214 238
255 214 238
255 214 238
255 214 238
255 214 238
255 214 238
255 214 238
255 214 238
255 214 238
255 214 238
255 214 238
255 214 238
255 214 238
255 214 238
255 214 238
255 214 238
255 214 238
255 214 238
255 214 238
255 214 238
255 226 250
255 214 238
255 214 238
255 214 238
255 214 238
255 214 238
255 214 238
255 214 238
255 214 238
255 214 238
255 214 238
255 214 238
255 214 238
255 214 238
255 214 238
255 214 238
255 214 238
255 214 238
255 214 238
255 214 238
255 214 238
255 214 238
255 214 238
255 214 238
255 214 238
255 214 238
255 214 238
255 214 238
255 214 238
255 214 238
255 214 238
255 214 238
255 214 238
255 214 238
255 214 238
255 214 238
255 214 238
255 226 250
255 214 238
255 214 238
255 214 238
255 214 238
255 214 238
255 214 238
255 214 238
255 214 238
255 214 238
255 214 238
255 214 238
255 214 238
255 214 238
255 214 238
255 214 238
255 214 238
255 214 238
255 214 238
255 214 238
255 214 238
255 214 238
255 214 238
255 226 250
255 214 238
255 214 238
255 214 238
255 214 238
255 214 238
255 214 238
255 214 238
255 214 238
255 214 238
255 214 238
255 214 238
255 214 238
255 214 238
255 214 238
255 214 238
255 214 238
255 214 238
255 214 238
255 214 238
255 214 238
255 214 238
255 214 238
255 214 238
255 214 238
255 214 238
255 214 238
255 214 238
255 214 238
255 214 238
255 214 238
255 214 238
255 214 238
255 214 238
255 214 238
255 214 238
255 214 238
255 226 250
255 214 238
255 214 238
255 214 238
255 214 238
255 214 238
255 214 238
255 214 238
255 214 238
255 214 238
255 214 238
255 214 238
255 214 238
255 214 238
255 214 238
255 214 238
255 214 238
255 214 238
255 214 238
255 214 238
255 214 238
255 214 238
255 214 238
255 214 238
255 214 238
255 214 238
255 214 238
255 214 238
255 214 238
255 214 238
255 214 238
255 214 238
255 214 238
255 214 238
255 214 238
255 214 238
255 214 238
255 226 250
255 214 238
255 214 238
255 214 238
255 214 238
255 214 238
255 214 238
255 214 238
255 214 238
255 214 238
255 214 238
255 214 238
255 214 238
255 214 238
255 214 238
255 214 238
255 214 238
255 214 238
255 214 238
255 214 238
255 214 238
255 214 238
255 214 238
255 214 238
255 214 238
255 214 238
255 214 238
255 214 238
255 214 238
255 214 238
255 214 238
255 214 238
255 214 238
255 214 238
255 214 238
255 214 238
255 214 238
255 226 250
255 214 238
255 214 238
255 214 238
255 214 238
255 214 238
255 214 238
255 214 238
255 214 238
255 214 238
255 214 238
255 214 238
255 214 238
255 214 238
255 214 238
255 214 238
255 214 238
255 214 238
255 214 238
255 214 238
255 214 238
255 214 238
255 214 238
255 214 238
255 214 238
255 214 238
255 214 238
255 214 238
255 214 238
255 214 238
255 214 238
255 214 238
255 214 238
255 214 238
255 214 238
255 214 238
255 214 238
255 226 250
255 214 238
255 214 238
255 214 238
255 214 238
255 214 238
255 214 238
255 214 238
255 214 238
255 214 238
255 214 238
255 214 238
255 214 238
255 214 238
255 214 238
255 214 238
255 214 238
255 214 238
255 214 238
255 214 238
255 214 238
255 214 238
255 214 238
255 214 238
255 214 238
255 214 238
255 214 238
255 214 238
255 214 238
255 214 238
255 214 238
255 214 238
255 214 238
255 214 238
255 214 238
255 214 238
255 214 238
255 226 250
255 214 238
255 214 238
255 214 238
255 214 238
255 214 238
255 214 238
255 214 238
255 214 238
255 214 238
255 214 238
255 214 238
255 214 238
255 214 238
255 214 238
255 214 238
255 214 238
255 214 238
255 214 238
255 214 238
255 214 238
255 214 238
255 214 238
255 214 238
255 214 238
255 214 238
255 214 238
255 214 238
255 214 238
255 214 238
255 214 238
255 214 238
255 214 238
255 214 238
255 214 238
255 214 238
255 214 238
255 226 250
255 214 238
255 214 238
255 214 238
255 214 238
255 214 238
255 214 238
255 214 238
255 214 238
255 214 238
255 214 238
255 214 238
255 214 238
255 214 238
255 214 238
255 214 238
255 214 238
255 214 238
255 214 238
255 214 238
255 214 238
255 214 238
255 214 238
255 214 238
255 214 238
255 214 238
255 214 238
255 214 238
255 214 238
255 214 238
255 214 238
255 214 238
255 214 238
255 214 238
255 214 238
255 214 238
255 214 238
255 226 250
255 214 238
255 214 238
255 214 238
255 214 238
255 214 238
255 214 238
255 214 238
255 214 238
255 214 238
255 214 238
255 214 238
255 214 238
255 214 238
255 214 238
255 214 238
255 214 238
255 214 238
255 214 238
255 214 238
255 214 238
255 214 238
255 214 238
255 214 238
255 214 238
255 214 238
255 214 238
255 214 238
255 214 238
255 214 238
255 214 238
255 214 238
255 214 238
255 214 238
255 214 238
255 214 238
255 214 238
255 226 250
255 214 238
255 214 238
255 214 238
255 214 238
255 214 238
255 214 238
255 214 238
255 214 238
255 214 238
255 214 238
255 214 238
255 214 238
255 214 238
255 214 238
255 214 238
255 214 238
255 214 238
255 214 238
255 214 238
255 214 238
255 214 238
255 214 238
255 226 250
255 214 238
255 214 238
255 214 238
255 214 238
255 214 238
255 214 238
255 214 238
255 214 238
255 214 238
255 214 238
255 214 238
255 214 238
255 214 238
255 214 238
255 214 238
255 214 238
255 214 238
255 214 238
255 214 238
255 214 238
255 214 238
255 214 238
255 214 238
255 214 238
255 214 238
255 214 238
255 214 238
255 214 238
255 214 238
255 214 238
255 214 238
255 214 238
255 214 238
255 214 238
255 214 238
255 214 238
255 226 250
255 214 238
255 214 238
255 214 238
255 214 238
255 214 238
255 214 238
255 214 238
255 214 238
255 214 238
255 214 238
255 214 238
255 214 238
255 214 238
255 214 238
255 214 238
255 214 238
255 214 238
255 214 238
255 214 238
255 214 238
255 214 238
255 214 238
255 214 238
255 214 238
255 214 238
255 214 238
255 214 238
255 214 238
255 214 238
255 214 238
255 214 238
255 214 238
255 214 238
255 214 238
255 214 238
255 214 238
255 226 250
255 214 238
255 214 238
255 214 238
255 214 238
255 214 238
255 214 238
255 214 238
255 214 238
255 214 238
255 214 238
255 214 238
255 214 238
255 214 238
255 214 238
255 214 238
255 214 238
255 214 238
255 214 238
255 214 238
255 214 238
255 214 238
255 214 238
255 214 238
255 214 238
255 214 238
255 214 238
255 214 238
255 214 238
255 214 238
255 214 238
255 214 238
255 214 238
255 214 238
255 214 238
255 214 238
255 214 238
255 226 250
255 214 238
255 214 238
255 214 238
255 214 238
255 214 238
255 214 238
255 214 238
255 214 238
255 214 238
255 214 238
255 214 238
255 214 238
255 214 238
255 214 238
255 214 238
255 214 238
255 214 238
255 214 238
255 214 238
255 214 238
255 214 238
255 214 238
255 214 238
255 214 238
255 214 238
255 214 238
255 214 238
255 214 238
255 214 238
255 214 238
255 214 238
255 214 238
255 214 238
255 214 238
255 214 238
255 214 238
255 226 250
255 214 238
255 214 238
255 214 238
255 214 238
255 214 238
255 214 238
255 214 238
255 214 238
255 214 238
255 214 238
255 214 238
255 214 238
255 214 238
255 214 238
255 214 238
255 214 238
255 214 238
255 214 238
255 214 238
255 214 238
255 214 238
255 214 238
255 214 238
255 214 238
255 214 238
255 214 238
255 214 238
255 214 238
255 214 238
255 214 238
255 214 238
255 214 238
255 214 238
255 214 238
255 214 238
255 214 238
255 226 250
255 214 238
255 214 238
255 214 238
255 214 238
255 214 238
255 214 238
255 214 238
255 214 238
255 214 238
255 214 238
255 214 238
255 214 238
255 214 238
255 214 238
255 214 238
255 214 238
255 214 238
255 214 238
255 214 238
255 214 238
255 214 238
255 214 238
255 214 238
255 214 238
255 214 238
255 214 238
255 214 238
255 214 238
255 214 238
255 214 238
255 214 238
255 214 238
255 214 238
255 214 238
255 214 238
255 214 238
255 226 250
255 214 238
255 214 238
255 214 238
255 214 238
255 214 238
255 214 238
255 214 238
255 214 238
255 214 238
255 214 238
255 214 238
255 214 238
255 214 238
255 214 238
255 214 238
255 214 238
255 214 238
255 214 238
255 214 238
255 214 238
255 214 238
255 214 238
255 214 238
255 214 238
255 214 238
255 214 238
255 214 238
255 214 238
255 214 238
255 214 238
255 214 238
255 214 238
255 214 238
255 214 238
255 214 238
255 214 238
255 226 250
255 214 238
255 214 238
255 214 238
255 214 238
255 214 238
255 214 238
255 214 238
255 214 238
255 214 238
255 214 238
255 214 238
255 214 238
255 214 238
255 214 238
255 214 238
255 214 238
255 214 238
255 214 238
255 214 238
255 214 238
255 214 238
255 214 238
255 214 238
255 214 238
255 214 238
255 214 238
255 214 238
255 214 238
255 214 238
255 214 238
255 214 238
255 214 238
255 214 238
255 214 238
255 214 238
255 214 238
255 226 250
255 214 238
255 214 238
255 214 238
255 214 238
255 214 238
255 214 238
255 214 238
255 214 238
255 214 238
255 214 238
255 214 238
255 214 238
255 214 238
255 214 238
255 214 238
255 214 238
255 214 238
255 214 238
255 214 238
255 214 238
255 214 238
255 214 238
255 226 250
255 214 238
255 214 238
255 214 238
255 214 238
255 214 238
255 214 238
255 214 238
255 214 238
255 214 238
255 214 238
255 214 238
255 214 238
255 214 238
255 214 238
255 214 238
255 214 238
255 214 238
255 214 238
255 214 238
255 214 238
255 214 238
255 214 238
255 214 238
255 214 238
255 214 238
255 214 238
255 214 238
255 214 238
255 214 238
255 214 238
255 214 238
255 214 238
255 214 238
255 214 238
255 214 238
255 214 238
255 226 250
255 214 238
255 214 238
255 214 238
255 214 238
255 214 238
255 214 238
255 214 238
255 214 238
255 214 238
255 214 238
255 214 238
255 214 238
255 214 238
255 214 238
255 214 238
255 214 238
255 214 238
255 214 238
255 214 238
255 214 238
255 214 238
255 214 238
255 214 238
255 214 238
255 214 238
255 214 238
255 214 238
255 214 238
255 214 238
255 214 238
255 214 238
255 214 238
255 214 238
255 214 238
255 214 238
255 214 238
255 226 250
255 214 238
255 214 238
255 214 238
255 214 238
255 214 238
255 214 238
255 214 238
255 214 238
255 214 238
255 214 238
255 214 238
255 214 238
255 214 238
255 214 238
255 214 238
255 214 238
255 214 238
255 214 238
255 214 238
255 214 238
255 214 238
255 214 238
255 214 238
255 214 238
255 214 238
255 214 238
255 214 238
255 214 238
255 214 238
255 214 238
255 214 238
255 214 238
255 214 238
255 214 238
255 214 238
255 214 238
255 226 250
255 214 238
255 214 238
255 214 238
255 214 238
255 214 238
255 214 238
255 214 238
255 214 238
255 214 238
255 214 238
255 214 238
255 214 238
255 214 238
255 214 238
255 214 238
255 214 238
255 214 238
255 214 238
255 214 238
255 214 238
255 214 238
255 214 238
255 214 238
255 214 238
255 214 238
255 214 238
255 214 238
255 214 238
255 214 238
255 214 238
255 214 238
255 214 238
255 214 238
255 214 238
255 214 238
255 214 238
255 226 250
255 214 238
255 214 238
255 214 238
255 214 238
255 214 238
255 214 238
255 214 238
255 214 238
255 214 238
255 214 238
255 214 238
255 214 238
255 214 238
255 214 238
255 214 238
255 214 238
255 214 238
255 214 238
255 214 238
255 214 238
255 214 238
255 214 238
255 214 238
255 214 238
255 214 238
255 214 238
255 214 238
255 214 238
255 214 238
255 214 238
255 214 238
255 214 238
255 214 238
255 214 238
255 214 238
255 214 238
255 226 250
255 214 238
255 214 238
255 214 238
255 214 238
255 214 238
255 214 238
255 214 238
255 214 238
255 214 238
255 214 238
255 214 238
255 214 238
255 214 238
255 214 238
255 214 238
255 214 238
255 214 238
255 214 238
255 214 238
255 214 238
255 214 238
255 214 238
255 214 238
255 214 238
255 214 238
255 214 238
255 214 238
255 214 238
255 214 238
255 214 238
255 214 238
255 214 238
255 214 238
255 214 238
255 214 238
255 214 238
255 226 250
255 214 238
255 214 238
255 214 238
255 214 238
255 214 238
255 214 238
255 214 238
255 214 238
255 214 238
255 214 238
255 214 238
255 214 238
255 214 238
255 214 238
255 214 238
255 214 238
255 214 238
255 214 238
255 214 238
255 214 238
255 214 238
255 214 238
255 214 238
255 214 238
255 214 238
255 214 238
255 214 238
255 214 238
255 214 238
255 214 238
255 214 238
255 214 238
255 214 238
255 214 238
255 214 238
255 214 238
255 226 250
255 214 238
255 214 238
255 214 238
255 214 238
255 214 238
255 214 238
255 214 238
255 214 238
255 214 238
255 214 238
255 214 238
255 214 238
255 214 238
255 214 238
255 214 238
255 214 238
255 214 238
255 214 238
255 214 238
255 214 238
255 214 238
255 214 238
255 214 238
255 214 238
255 214 238
255 214 238
255 214 238
255 214 238
255 214 238
255 214 238
255 214 238
255 214 238
255 214 238
255 214 238
255 214 238
255 214 238
255 226 250
255 214 238
255 214 238
255 214 238
255 214 238
255 214 238
255 214 238
255 214 238
255 214 238
255 214 238
255 214 238
255 214 238
255 214 238
255 214 238
255 214 238
255 214 238
255 214 238
255 214 238
255 214 238
255 214 238
255 214 238
255 214 238
255 214 238
255 226 250
255 214 238
255 214 238
255 214 238
255 214 238
255 214 238
255 214 238
255 214 238
255 214 238
255 214 238
255 214 238
255 214 238
255 214 238
255 214 238
255 214 238
255 214 238
255 214 238
255 214 238
255 214 238
255 214 238
255 214 238
255 214 238
255 214 238
255 214 238
255 214 238
255 214 238
255 214 238
255 214 238
255 214 238
255 214 238
255 214 238
255 214 238
255 214 238
255 214 238
255 214 238
255 214 238
255 214 238
255 226 250
255 214 238
255 214 238
255 214 238
255 214 238
255 214 238
255 214 238
255 214 238
255 214 238
255 214 238
255 214 238
255 214 238
255 214 238
255 214 238
255 214 238
255 214 238
255 214 238
255 214 238
255 214 238
255 214 238
255 214 238
255 214 238
255 214 238
255 214 238
255 214 238
255 214 238
255 214 238
255 214 238
255 214 238
255 214 238
255 214 238
255 214 238
255 214 238
255 214 238
255 214 238
255 214 238
255 214 238
255 226 250
255 214 238
255 214 238
255 214 238
255 214 238
255 214 238
255 214 238
255 214 238
255 214 238
255 214 238
255 214 238
255 214 238
255 214 238
255 214 238
255 214 238
255 214 238
255 214 238
255 214 238
255 214 238
255 214 238
255 214 238
255 214 238
255 214 238
255 214 238
255 214 238
255 214 238
255 214 238
255 214 238
255 214 238
255 214 238
255 214 238
255 214 238
255 214 238
255 214 238
255 214 238
255 214 238
255 214 238
255 226 250
255 214 238
255 214 238
255 214 238
255 214 238
255 214 238
255 214 238
255 214 238
255 214 238
255 214 238
255 214 238
255 214 238
255 214 238
255 214 238
255 214 238
255 214 238
255 214 238
255 214 238
255 214 238
255 214 238
255 214 238
255 214 238
255 214 238
255 214 238
255 214 238
255 214 238
255 214 238
255 214 238
255 214 238
255 214 238
255 214 238
255 214 238
255 214 238
255 214 238
255 214 238
255 214 238
255 214 238
255 226 250
255 214 238
255 214 238
255 214 238
255 214 238
255 214 238
255 214 238
255 214 238
255 214 238
255 214 238
255 214 238
255 214 238
255 214 238
255 214 238
255 214 238
255 214 238
255 214 238
255 214 238
255 214 238
255 214 238
255 214 238
255 214 238
255 214 238
255 214 238
255 214 238
255 214 238
255 214 238
255 214 238
255 214 238
255 214 238
255 214 238
255 214 238
255 214 238
255 214 238
255 214 238
255 214 238
255 214 238
255 226 250
255 214 238
255 214 238
255 214 238
255 214 238
255 214 238
255 214 238
255 214 238
255 214 238
255 214 238
255 214 238
255 214 238
255 214 238
255 214 238
255 214 238
255 214 238
255 214 238
255 214 238
255 214 238
255 214 238
255 214 238
255 214 238
255 214 238
255 214 238
255 214 238
255 214 238
255 214 238
255 214 238
255 214 238
255 214 238
255 214 238
255 214 238
255 214 238
255 214 238
255 214 238
255 214 238
255 214 238
255 226 250
255 214 238
255 214 238
255 214 238
255 214 238
255 214 238
255 214 238
255 214 238
255 214 238
255 214 238
255 214 238
255 214 238
255 214 238
255 214 238
255 214 238
255 214 238
255 214 238
255 214 238
255 214 238
255 214 238
255 214 238
255 214 238
255 214 238
255 214 238
255 214 238
255 214 238
255 214 238
255 214 238
255 214 238
255 214 238
255 214 238
255 214 238
255 214 238
255 214 238
255 214 238
255 214 238
255 214 238
255 226 250
255 214 238
255 214 238
255 214 238
255 214 238
255 214 238
255 214 238
255 214 238
255 214 238
255 214 238
255 214 238
255 214 238
255 214 238
255 214 238
255 214 238
255 214 238
255 214 238
255 214 238
255 214 238
255 214 238
255 214 238
255 214 238
255 214 238
255 214 238
255 214 238
255 214 238
255 214 238
255 214 238
255 214 238
255 214 238
255 214 238
255 214 238
255 214 238
255 214 238
255 214 238
255 214 238
255 214 238
255 226 250
255 214 238
255 214 238
255 214 238
255 214 238
255 214 238
255 214 238
255 214 238
255 214 238
255 214 238
255 214 238
255 214 238
255 214 238
255 214 238
255 214 238
255 214 238
255 214 238
255 214 238
255 214 238
255 214 238
255 214 238
255 214 238
255 214 238
255 226 250
255 214 238
255 214 238
255 214 238
255 214 238
255 214 238
255 214 238
255 214 238
255 214 238
255 214 238
255 214 238
255 214 238
255 214 238
255 214 238
255 214 238
255 214 238
255 214 238
255 214 238
255 214 238
255 214 238
255 214 238
255 214 238
255 214 238
255 214 238
255 214 238
255 214 238
255 214 238
255 214 238
255 214 238
255 214 238
255 214 238
255 214 238
255 214 238
255 214 238
255 214 238
255 214 238
255 214 238
255 226 250
255 214 238
255 214 238
255 214 238
255 214 238
255 214 238
255 214 238
255 214 238
255 214 238
255 214 238
255 214 238
255 214 238
255 214 238
255 214 238
255 214 238
255 214 238
255 214 238
255 214 238
255 214 238
255 214 238
255 214 238
255 214 238
255 214 238
255 214 238
255 214 238
255 214 238
255 214 238
255 214 238
255 214 238
255 214 238
255 214 238
255 214 238
255 214 238
255 214 238
255 214 238
255 214 238
255 214 238
255 226 250
255 214 238
255 214 238
255 214 238
255 214 238
255 214 238
255 214 238
255 214 238
255 214 238
255 214 238
255 214 238
255 214 238
255 214 238
255 214 238
255 214 238
255 214 238
255 214 238
255 214 238
255 214 238
255 214 238
255 214 238
255 214 238
255 214 238
255 214 238
255 214 238
255 214 238
255 214 238
255 214 238
255 214 238
255 214 238
255 214 238
255 214 238
255 214 238
255 214 238
255 214 238
255 214 238
255 214 238
255 226 250
255 214 238
255 214 238
255 214 238
255 214 238
255 214 238
255 214 238
255 214 238
255 214 238
255 214 238
255 214 238
255 214 238
255 214 238
255 214 238
255 214 238
255 214 238
255 214 238
255 214 238
255 214 238
255 214 238
255 214 238
255 214 238
255 214 238
255 214 238
255 214 238
255 214 238
255 214 238
255 214 238
255 214 238
255 214 238
255 214 238
255 214 238
255 214 238
255 214 238
255 214 238
255 214 238
255 214 238
255 226 250
255 214 238
255 214 238
255 214 238
255 214 238
255 214 238
255 214 238
255 214 238
255 214 238
255 214 238
255 214 238
255 214 238
255 214 238
255 214 238
255 214 238
255 214 238
255 214 238
255 214 238
255 214 238
255 214 238
255 214 238
255 214 238
255 214 238
255 214 238
255 214 238
255 214 238
255 214 238
255 214 238
255 214 238
255 214 238
255 214 238
255 214 238
255 214 238
255 214 238
255 214 238
255 214 238
255 214 238
255 226 250
255 214 238
255 214 238
255 214 238
255 214 238
255 214 238
255 214 238
255 214 238
255 214 238
255 214 238
255 214 238
255 214 238
255 214 238
255 214 238
255 214 238
255 214 238
255 214 238
255 214 238
255 214 238
255 214 238
255 214 238
255 214 238
255 214 238
255 214 238
255 214 238
255 214 238
255 214 238
255 214 238
255 214 238
255 214 238
255 214 238
255 214 238
255 214 238
255 214 238
255 214 238
255 214 238
255 214 238
255 226 250
255 214 238
255 214 238
255 214 238
255 214 238
255 214 238
255 214 238
255 214 238
255 214 238
255 214 238
255 214 238
255 214 238
255 214 238
255 214 238
255 214 238
255 214 238
255 214 238
255 214 238
255 214 238
255 214 238
255 214 238
255 214 238
255 214 238
255 214 238
255 214 238
255 214 238
255 214 238
255 214 238
255 214 238
255 214 238
255 214 238
255 214 238
255 214 238
255 214 238
255 214 238
255 214 238
255 214 238
255 226 250
255 214 238
255 214 238
255 214 238
255 214 238
255 214 238
255 214 238
255 214 238
255 214 238
255 214 238
255 214 238
255 214 238
255 214 238
255 214 238
255 214 238
255 214 238
255 214 238
255 214 238
255 214 238
255 214 238
255 214 238
255 214 238
255 214 238
255 214 238
255 214 238
255 214 238
255 214 238
255 214 238
255 214 238
255 214 238
255 214 238
255 214 238
255 214 238
255 214 238
255 214 238
255 214 238
255 214 238
255 226 250
255 214 238
255 214 238
255 214 238
255 214 238
255 214 238
255 214 238
255 214 238
255 214 238
255 214 238
255 214 238
255 214 238
255 214 238
255 214 238
255 214 238
255 214 238
255 214 238
255 214 238
255 214 238
255 214 238
255 214 238
255 214 238
255 214 238
255 226 250
255 214 238
255 214 238
255 214 238
255 214 238
255 214 238
255 214 238
255 214 238
255 214 238
255 214 238
255 214 238
255 214 238
255 214 238
255 214 238
255 214 238
255 214 238
255 214 238
255 214 238
255 214 238
255 214 238
255 214 238
255 214 238
255 214 238
255 214 238
255 214 238
255 214 238
255 214 238
255 214 238
255 214 238
255 214 238
255 214 238
255 214 238
255 214 238
255 214 238
255 214 238
255 214 238
255 214 238
255 226 250
255 214 238
255 214 238
255 214 238
255 214 238
255 214 238
255 214 238
255 214 238
255 214 238
255 214 238
255 214 238
255 214 238
255 214 238
255 214 238
255 214 238
255 214 238
255 214 238
255 214 238
255 214 238
255 214 238
255 214 238
255 214 238
255 214 238
255 214 238
255 214 238
255 214 238
255 214 238
255 214 238
255 214 238
255 214 238
255 214 238
255 214 238
255 214 238
255 214 238
255 214 238
255 214 238
255 214 238
255 226 250
255 214 238
255 214 238
255 214 238
255 214 238
255 214 238
255 214 238
255 214 238
255 214 238
255 214 238
255 214 238
255 214 238
255 214 238
255 214 238
255 214 238
255 214 238
255 214 238
255 214 238
255 214 238
255 214 238
255 214 238
255 214 238
255 214 238
255 214 238
255 214 238
255 214 238
255 214 238
255 214 238
255 214 238
255 214 238
255 214 238
255 214 238
255 214 238
255 214 238
255 214 238
255 214 238
255 214 238
255 226 250
255 214 238
255 214 238
255 214 238
255 214 238
255 214 238
255 214 238
255 214 238
255 214 238
255 214 238
255 214 238
255 214 238
255 214 238
255 214 238
255 214 238
255 214 238
255 214 238
255 214 238
255 214 238
255 214 238
255 214 238
255 214 238
255 214 238
255 214 238
255 214 238
255 214 238
255 214 238
255 214 238
255 214 238
255 214 238
255 214 238
255 214 238
255 214 238
255 214 238
255 214 238
255 214 238
255 214 238
255 226 250
255 214 238
255 214 238
255 214 238
255 214 238
255 214 238
255 214 238
255 214 238
255 214 238
255 214 238
255 214 238
255 214 238
255 214 238
255 214 238
255 214 238
255 214 238
255 214 238
255 214 238
255 214 238
255 214 238
255 214 238
255 214 238
255 214 238
255 214 238
255 214 238
255 214 238
255 214 238
255 214 238
255 214 238
255 214 238
255 214 238
255 214 238
255 214 238
255 214 238
255 214 238
255 214 238
255 214 238
255 226 250
255 214 238
255 214 238
255 214 238
255 214 238
255 214 238
255 214 238
255 214 238
255 214 238
255 214 238
255 214 238
255 214 238
255 214 238
255 214 238
255 214 238
255 214 238
255 214 238
255 214 238
255 214 238
255 214 238
255 214 238
255 214 238
255 214 238
255 214 238
255 214 238
255 214 238
255 214 238
255 214 238
255 214 238
255 214 238
255 214 238
255 214 238
255 214 238
255 214 238
255 214 238
255 214 238
255 214 238
255 226 250
255 214 238
255 214 238
255 214 238
255 214 238
255 214 238
255 214 238
255 214 238
255 214 238
255 214 238
255 214 238
255 214 238
255 214 238
255 214 238
255 214 238
255 214 238
255 214 238
255 214 238
255 214 238
255 214 238
255 214 238
255 214 238
255 214 238
255 214 238
255 214 238
255 214 238
255 214 238
255 214 238
255 214 238
255 214 238
255 214 238
255 214 238
255 214 238
255 214 238
255 214 238
255 214 238
255 214 238
255 226 250
255 214 238
255 214 238
255 214 238
255 214 238
255 214 238
255 214 238
255 214 238
255 214 238
255 214 238
255 214 238
255 214 238
255 214 238
255 214 238
255 214 238
255 214 238
255 214 238
255 214 238
255 214 238
255 214 238
255 214 238
255 214 238
255 214 238
255 214 238
255 214 238
255 214 238
255 214 238
255 214 238
255 214 238
255 214 238
255 214 238
255 214 238
255 214 238
255 214 238
255 214 238
255 214 238
255 214 238
255 226 250
255 214 238
255 214 238
255 214 238
255 214 238
255 214 238
255 214 238
255 214 238
255 214 238
255 214 238
255 214 238
255 214 238
255 214 238
255 214 238
255 214 238
255 214 238
255 214 238
255 214 238
255 214 238
255 214 238
255 214 238
255 214 238
255 214 238
255 226 250
255 214 238
255 214 238
255 214 238
255 214 238
255 214 238
255 214 238
255 214 238
255 214 238
255 214 238
255 214 238
255 214 238
255 214 238
255 214 238
255 214 238
255 214 238
255 214 238
255 214 238
255 214 238
255 214 238
255 214 238
255 214 238
255 214 238
255 214 238
255 214 238
255 214 238
255 214 238
255 214 238
255 214 238
255 214 238
255 214 238
255 214 238
255 214 238
255 214 238
255 214 238
255 214 238
255 214 238
255 226 250
255 214 238
255 214 238
255 214 238
255 214 238
255 214 238
255 214 238
255 214 238
255 214 238
255 214 238
255 214 238
255 214 238
255 214 238
255 214 238
255 214 238
255 214 238
255 214 238
255 214 238
255 214 238
255 214 238
255 214 238
255 214 238
255 214 238
255 214 238
255 214 238
255 214 238
255 214 238
255 214 238
255 214 238
255 214 238
255 214 238
255 214 238
255 214 238
255 214 238
255 214 238
255 214 238
255 214 238
255 226 250
255 214 238
255 214 238
255 214 238
255 214 238
255 214 238
255 214 238
255 214 238
255 214 238
255 214 238
255 214 238
255 214 238
255 214 238
255 214 238
255 214 238
255 214 238
255 214 238
255 214 238
255 214 238
255 214 238
255 214 238
255 214 238
255 214 238
255 214 238
255 214 238
255 214 238
255 214 238
255 214 238
255 214 238
255 214 238
255 214 238
255 214 238
255 214 238
255 214 238
255 214 238
255 214 238
255 214 238
255 226 250
255 214 238
255 214 238
255 214 238
255 214 238
255 214 238
255 214 238
255 214 238
255 214 238
255 214 238
255 214 238
255 214 238
255 214 238
255 214 238
255 214 238
255 214 238
255 214 238
255 214 238
255 214 238
255 214 238
255 214 238
255 214 238
255 214 238
255 214 238
255 214 238
255 214 238
255 214 238
255 214 238
255 214 238
255 214 238
255 214 238
255 214 238
255 214 238
255 214 238
255 214 238
255 214 238
255 214 238
255 226 250
255 214 238
255 214 238
255 214 238
255 214 238
255 214 238
255 214 238
255 214 238
255 214 238
255 214 238
255 214 238
255 214 238
255 214 238
255 214 238
255 214 238
255 214 238
255 214 238
255 214 238
255 214 238
255 214 238
255 214 238
255 214 238
255 214 238
255 214 238
255 214 238
255 214 238
255 214 238
255 214 238
255 214 238
255 214 238
255 214 238
255 214 238
255 214 238
255 214 238
255 214 238
255 214 238
255 214 238
255 226 250
255 214 238
255 214 238
255 214 238
255 214 238
255 214 238
255 214 238
255 214 238
255 214 238
255 214 238
255 214 238
255 214 238
255 214 238
255 214 238
255 214 238
255 214 238
255 214 238
255 214 238
255 214 238
255 214 238
255 214 238
255 214 238
255 214 238
255 214 238
255 214 238
255 214 238
255 214 238
255 214 238
255 214 238
255 214 238
255 214 238
255 214 238
255 214 238
255 214 238
255 214 238
255 214 238
255 214 238
255 226 250
255 214 238
255 214 238
255 214 238
255 214 238
255 214 238
255 214 238
255 214 238
255 214 238
255 214 238
255 214 238
255 214 238
255 214 238
255 214 238
255 214 238
255 214 238
255 214 238
255 214 238
255 214 238
255 214 238
255 214 238
255 214 238
255 214 238
255 214 238
255 214 238
255 214 238
255 214 238
255 214 238
255 214 238
255 214 238
255 214 238
255 214 238
255 214 238
255 214 238
255 214 238
255 214 238
255 214 238
255 226 250
255 214 238
255 214 238
255 214 238
255 214 238
255 214 238
255 214 238
255 214 238
255 214 238
255 214 238
255 214 238
255 214 238
255 214 238
255 214 238
255 214 238
255 214 238
255 214 238
255 214 238
255 214 238
255 214 238
255 214 238
255 214 238
255 214 238
255 214 238
255 214 238
255 214 238
255 214 238
255 214 238
255 214 238
255 214 238
255 214 238
255 214 238
255 214 238
255 214 238
255 214 238
255 214 238
255 214 238
255 226 250
255 214 238
255 214 238
255 214 238
255 214 238
255 214 238
255 214 238
255 214 238
255 214 238
255 214 238
255 214 238
255 214 238
255 214 238
255 214 238
255 214 238
255 214 238
255 214 238
255 214 238
255 214 238
255 214 238
255 214 238
255 214 238
255 214 238
255 226 250
255 214 238
255 214 238
255 214 238
255 214 238
255 214 238
255 214 238
255 214 238
255 214 238
255 214 238
255 214 238
255 214 238
255 214 238
255 214 238
255 214 238
255 214 238
255 214 238
255 214 238
255 214 238
255 214 238
255 214 238
255 214 238
255 214 238
255 214 238
255 214 238
255 214 238
255 214 238
255 214 238
255 214 238
255 214 238
255 214 238
255 214 238
255 214 238
255 214 238
255 214 238
255 214 238
255 214 238
255 226 250
255 214 238
255 214 238
255 214 238
255 214 238
255 214 238
255 214 238
255 214 238
255 214 238
255 214 238
255 214 238
255 214 238
255 214 238
255 214 238
255 214 238
255 214 238
255 214 238
255 214 238
255 214 238
255 214 238
255 214 238
255 214 238
255 214 238
255 214 238
255 214 238
255 214 238
255 214 238
255 214 238
255 214 238
255 214 238
255 214 238
255 214 238
255 214 238
255 214 238
255 214 238
255 214 238
255 214 238
255 226 250
255 214 238
255 214 238
255 214 238
255 214 238
255 214 238
255 214 238
255 214 238
255 214 238
255 214 238
255 214 238
255 214 238
255 214 238
255 214 238
255 214 238
255 214 238
255 214 238
255 214 238
255 214 238
255 214 238
255 214 238
255 214 238
255 214 238
255 214 238
255 214 238
255 214 238
255 214 238
255 214 238
255 214 238
255 214 238
255 214 238
255 214 238
255 214 238
255 214 238
255 214 238
255 214 238
255 214 238
255 226 250
255 214 238
255 214 238
255 214 238
255 214 238
255 214 238
255 214 238
255 214 238
255 214 238
255 214 238
255 214 238
255 214 238
255 214 238
255 214 238
255 214 238
255 214 238
255 214 238
255 214 238
255 214 238
255 214 238
255 214 238
255 214 238
255 214 238
255 214 238
255 214 238
255 214 238
255 214 238
255 214 238
255 214 238
255 214 238
255 214 238
255 214 238
255 214 238
255 214 238
255 214 238
255 214 238
255 214 238
255 226 250
255 214 238
255 214 238
255 214 238
255 214 238
255 214 238
255 214 238
255 214 238
255 214 238
255 214 238
255 214 238
255 214 238
255 214 238
255 214 238
255 214 238
255 214 238
255 214 238
255 214 238
255 214 238
255 214 238
255 214 238
255 214 238
255 214 238
255 214 238
255 214 238
255 214 238
255 214 238
255 214 238
255 214 238
255 214 238
255 214 238
255 214 238
255 214 238
255 214 238
255 214 238
255 214 238
255 214 238
255 226 250
255 214 238
255 214 238
255 214 238
255 214 238
255 214 238
255 214 238
255 214 238
255 214 238
255 214 238
255 214 238
255 214 238
255 214 238
255 214 238
255 214 238
255 214 238
255 214 238
255 214 238
255 214 238
255 214 238
255 214 238
255 214 238
255 214 238
255 214 238
255 214 238
255 214 238
255 214 238
255 214 238
255 214 238
255 214 238
255 214 238
255 214 238
255 214 238
255 214 238
255 214 238
255 214 238
255 214 238
255 226 250
255 214 238
255 214 238
255 214 238
255 214 238
255 214 238
255 214 238
255 214 238
255 214 238
255 214 238
255 214 238
255 214 238
255 214 238
255 214 238
255 214 238
255 214 238
255 214 238
255 214 238
255 214 238
255 214 238
255 214 238
255 214 238
255 214 238
255 214 238
255 214 238
255 214 238
255 214 238
255 214 238
255 214 238
255 214 238
255 214 238
255 214 238
255 214 238
255 214 238
255 214 238
255 214 238
255 214 238
255 226 250
255 214 238
255 214 238
255 214 238
255 214 238
255 214 238
255 214 238
255 214 238
255 214 238
255 214 238
255 214 238
255 214 238
255 214 238
255 214 238
255 214 238
255 214 238
255 214 238
255 214 238
255 214 238
255 214 238
255 214 238
255 214 238
255 214 238
255 214 238
255 214 238
255 214 238
255 214 238
255 214 238
255 214 238
255 214 238
255 214 238
255 214 238
255 214 238
255 214 238
255 214 238
255 214 238
255 214 238
255 226 250
255 214 238
255 214 238
255 214 238
255 214 238
255 214 238
255 214 238
255 214 238
255 214 238
255 214 238
255 214 238
255 214 238
255 214 238
255 214 238
255 214 238
255 214 238
255 214 238
255 214 238
255 214 238
255 214 238
255 214 238
255 214 238
255 214 238
255 226 250
255 214 238
255 214 238
255 214 238
255 214 238
255 214 238
255 214 238
255 214 238
255 214 238
255 214 238
255 214 238
255 214 238
255 214 238
255 214 238
255 214 238
255 214 238
255 214 238
255 214 238
255 214 238
255 214 238
255 214 238
255 214 238
255 214 238
255 214 238
255 214 238
255 214 238
255 214 238
255 214 238
255 214 238
255 214 238
255 214 238
255 214 238
255 214 238
255 214 238
255 214 238
255 214 238
255 214 238
255 226 250
255 214 238
255 214 238
255 214 238
255 214 238
255 214 238
255 214 238
255 214 238
255 214 238
255 214 238
255 214 238
255 214 238
255 214 238
255 214 238
255 214 238
255 214 238
255 214 238
255 214 238
255 214 238
255 214 238
255 214 238
255 214 238
255 214 238
255 214 238
255 214 238
255 214 238
255 214 238
255 214 238
255 214 238
255 214 238
255 214 238
255 214 238
255 214 238
255 214 238
255 214 238
255 214 238
255 214 238
255 226 250
255 214 238
255 214 238
255 214 238
255 214 238
255 214 238
255 214 238
255 214 238
255 214 238
255 214 238
255 214 238
255 214 238
255 214 238
255 214 238
255 214 238
255 214 238
255 214 238
255 214 238
255 214 238
255 214 238
255 214 238
255 214 238
255 214 238
255 214 238
255 214 238
255 214 238
255 214 238
255 214 238
255 214 238
255 214 238
255 214 238
255 214 238
255 214 238
255 214 238
255 214 238
255 214 238
255 214 238
255 226 250
255 214 238
255 214 238
255 214 238
255 214 238
255 214 238
255 214 238
255 214 238
255 214 238
255 214 238
255 214 238
255 214 238
255 214 238
255 214 238
255 214 238
255 214 238
255 214 238
255 214 238
255 214 238
255 214 238
255 214 238
255 214 238
255 214 238
255 214 238
255 214 238
255 214 238
255 214 238
255 214 238
255 214 238
255 214 238
255 214 238
255 214 238
255 214 238
255 214 238
255 214 238
255 214 238
255 214 238
255 226 250
255 214 238
255 214 238
255 214 238
255 214 238
255 214 238
255 214 238
255 214 238
255 214 238
255 214 238
255 214 238
255 214 238
255 214 238
255 214 238
255 214 238
255 214 238
255 214 238
255 214 238
255 214 238
255 214 238
255 214 238
255 214 238
255 214 238
255 214 238
255 214 238
255 214 238
255 214 238
255 214 238
255 214 238
255 214 238
255 214 238
255 214 238
255 214 238
255 214 238
255 214 238
255 214 238
255 214 238
255 226 250
255 214 238
255 214 238
255 214 238
255 214 238
255 214 238
255 214 238
255 214 238
255 214 238
255 214 238
255 214 238
255 214 238
255 214 238
255 214 238
255 214 238
255 214 238
255 214 238
255 214 238
255 214 238
255 214 238
255 214 238
255 214 238
255 214 238
255 214 238
255 214 238
255 214 238
255 214 238
255 214 238
255 214 238
255 214 238
255 214 238
255 214 238
255 214 238
255 214 238
255 214 238
255 214 238
255 214 238
255 226 250
255 214 238
255 214 238
255 214 238
255 214 238
255 214 238
255 214 238
255 214 238
255 214 238
255 214 238
255 214 238
255 214 238
255 214 238
255 214 238
255 214 238
255 214 238
255 214 238
255 214 238
255 214 238
255 214 238
255 214 238
255 214 238
255 214 238
255 214 238
255 214 238
255 214 238
255 214 238
255 214 238
255 214 238
255 214 238
255 214 238
255 214 238
255 214 238
255 214 238
255 214 238
255 214 238
255 214 238
255 226 250
255 214 238
255 214 238
255 214 238
255 214 238
255 214 238
255 214 238
255 214 238
255 214 238
255 214 238
255 214 238
255 214 238
255 214 238
255 214 238
255 214 238
255 214 238
255 214 238
255 214 238
255 214 238
255 214 238
255 214 238
255 214 238
255 214 238
255 214 238
255 214 238
255 214 238
255 214 238
255 214 238
255 214 238
255 214 238
255 214 238
255 214 238
255 214 238
255 214 238
255 214 238
255 214 238
255 214 238
255 226 250
255 214 238
255 214 238
255 214 238
255 214 238
255 214 238
255 214 238
255 214 238
255 214 238
255 214 238
255 214 238
255 214 238
255 214 238
255 214 238
255 214 238
255 214 238
255 214 238
255 214 238
255 214 238
255 214 238
255 214 238
255 214 238
255 214 238
255 226 250
255 214 238
255 214 238
255 214 238
255 214 238
255 214 238
255 214 238
255 214 238
255 214 238
255 214 238
255 214 238
255 214 238
255 214 238
255 214 238
255 214 238
255 214 238
255 214 238
255 214 238
255 214 238
255 214 238
255 214 238
255 214 238
255 214 238
255 214 238
255 214 238
255 214 238
255 214 238
255 214 238
255 214 238
255 214 238
255 214 238
255 214 238
255 214 238
255 214 238
255 214 238
255 214 238
255 214 238
255 226 250
255 214 238
255 214 238
255 214 238
255 214 238
255 214 238
255 214 238
255 214 238
255 214 238
255 214 238
255 214 238
255 214 238
255 214 238
255 214 238
255 214 238
255 214 238
255 214 238
255 214 238
255 214 238
255 214 238
255 214 238
255 214 238
255 214 238
255 214 238
255 214 238
255 214 238
255 214 238
255 214 238
255 214 238
255 214 238
255 214 238
255 214 238
255 214 238
255 214 238
255 214 238
255 214 238
255 214 238
255 226 250
255 214 238
255 214 238
255 214 238
255 214 238
255 214 238
255 214 238
255 214 238
255 214 238
255 214 238
255 214 238
255 214 238
255 214 238
255 214 238
255 214 238
255 214 238
255 214 238
255 214 238
255 214 238
255 214 238
255 214 238
255 214 238
255 214 238
255 214 238
255 214 238
255 214 238
255 214 238
255 214 238
255 214 238
255 214 238
255 214 238
255 214 238
255 214 238
255 214 238
255 214 238
255 214 238
255 214 238
255 226 250
255 214 238
255 214 238
255 214 238
255 214 238
255 214 238
255 214 238
255 214 238
255 214 238
255 214 238
255 214 238
255 214 238
255 214 238
255 214 238
255 214 238
255 214 238
255 214 238
255 214 238
255 214 238
255 214 238
255 214 238
255 214 238
255 214 238
255 214 238
255 214 238
255 214 238
255 214 238
255 214 238
255 214 238
255 214 238
255 214 238
255 214 238
255 214 238
255 214 238
255 214 238
255 214 238
255 214 238
255 226 250
255 214 238
255 214 238
255 214 238
255 214 238
255 214 238
255 214 238
255 214 238
255 214 238
255 214 238
255 214 238
255 214 238
255 214 238
255 214 238
255 214 238
255 214 238
255 214 238
255 214 238
255 214 238
255 214 238
255 214 238
255 214 238
255 214 238
255 214 238
255 214 238
255 214 238
255 214 238
255 214 238
255 214 238
255 214 238
255 214 238
255 214 238
255 214 238
255 214 238
255 214 238
255 214 238
255 214 238
255 226 250
255 214 238
255 214 238
255 214 238
255 214 238
255 214 238
255 214 238
255 214 238
255 214 238
255 214 238
255 214 238
255 214 238
255 214 238
255 214 238
255 214 238
255 214 238
255 214 238
255 214 238
255 214 238
255 214 238
255 214 238
255 214 238
255 214 238
255 214 238
255 214 238
255 214 238
255 214 238
255 214 238
255 214 238
255 214 238
255 214 238
255 214 238
255 214 238
255 214 238
255 214 238
255 214 238
255 214 238
255 226 250
255 214 238
255 214 238
255 214 238
255 214 238
255 214 238
255 214 238
255 214 238
255 214 238
255 214 238
255 214 238
255 214 238
255 214 238
255 214 238
255 214 238
255 214 238
255 214 238
255 214 238
255 214 238
255 214 238
255 214 238
255 214 238
255 214 238
255 214 238
255 214 238
255 214 238
255 214 238
255 214 238
255 214 238
255 214 238
255 214 238
255 214 238
255 214 238
255 214 238
255 214 238
255 214 238
255 214 238
255 226 250
255 214 238
255 214 238
255 214 238
255 214 238
255 214 238
255 214 238
255 214 238
255 214 238
255 214 238
255 214 238
255 214 238
255 214 238
255 214 238
255 214 238
255 214 238
255 214 238
255 214 238
255 214 238
255 214 238
255 214 238
255 214 238
255 214 238
255 214 238
255 214 238
255 214 238
255 214 238
255 214 238
255 214 238
255 214 238
255 214 238
255 214 238
255 214 238
255 214 238
255 214 238
255 214 238
255 214 238
255 226 250
255 214 238
255 214 238
255 214 238
255 214 238
255 214 238
255 214 238
255 214 238
255 214 238
255 214 238
255 214 238
255 214 238
255 214 238
255 214 238
255 214 238
255 214 238
255 214 238
255 214 238
255 214 238
255 214 238
255 214 238
255 214 238
255 214 238
255 226 250
255 214 238
255 214 238
255 214 238
255 214 238
255 214 238
255 214 238
255 214 238
255 214 238
255 214 238
255 214 238
255 214 238
255 214 238
255 214 238
255 214 238
255 214 238
255 214 238
255 214 238
255 214 238
255 214 238
255 214 238
255 214 238
255 214 238
255 214 238
255 214 238
255 214 238
255 214 238
255 214 238
255 214 238
255 214 238
255 214 238
255 214 238
255 214 238
255 214 238
255 214 238
255 214 238
255 214 238
255 226 250
255 214 238
255 214 238
255 214 238
255 214 238
255 214 238
255 214 238
255 214 238
255 214 238
255 214 238
255 214 238
255 214 238
255 214 238
255 214 238
255 214 238
255 214 238
255 214 238
255 214 238
255 214 238
255 214 238
255 214 238
255 214 238
255 214 238
255 214 238
255 214 238
255 214 238
255 214 238
255 214 238
255 214 238
255 214 238
255 214 238
255 214 238
255 214 238
255 214 238
255 214 238
255 214 238
255 214 238
255 226 250
255 214 238
255 214 238
255 214 238
255 214 238
255 214 238
255 214 238
255 214 238
255 214 238
255 214 238
255 214 238
255 214 238
255 214 238
255 214 238
255 214 238
255 214 238
255 214 238
255 214 238
255 214 238
255 214 238
255 214 238
255 214 238
255 214 238
255 214 238
255 214 238
255 214 238
255 214 238
255 214 238
255 214 238
255 214 238
255 214 238
255 214 238
255 214 238
255 214 238
255 214 238
255 214 238
255 214 238
255 226 250
255 214 238
255 214 238
255 214 238
255 214 238
255 214 238
255 214 238
255 214 238
255 214 238
255 214 238
255 214 238
255 214 238
255 214 238
255 214 238
255 214 238
255 214 238
255 214 238
255 214 238
255 214 238
255 214 238
255 214 238
255 214 238
255 214 238
255 214 238
255 214 238
255 214 238
255 214 238
255 214 238
255 214 238
255 214 238
255 214 238
255 214 238
255 214 238
255 214 238
255 214 238
255 214 238
255 214 238
255 226 250
255 214 238
255 214 238
255 214 238
255 214 238
255 214 238
255 214 238
255 214 238
255 214 238
255 214 238
255 214 238
255 214 238
255 214 238
255 214 238
255 214 238
255 214 238
255 214 238
255 214 238
255 214 238
255 214 238
255 214 238
255 214 238
255 214 238
255 214 238
255 214 238
255 214 238
255 214 238
255 214 238
255 214 238
255 214 238
255 214 238
255 214 238
255 214 238
255 214 238
255 214 238
255 214 238
255 214 238
255 226 250
255 214 238
255 214 238
255 214 238
255 214 238
255 214 238
255 214 238
255 214 238
255 214 238
255 214 238
255 214 238
255 214 238
255 214 238
255 214 238
255 214 238
255 214 238
255 214 238
255 214 238
255 214 238
255 214 238
255 214 238
255 214 238
255 214 238
255 214 238
255 214 238
255 214 238
255 214 238
255 214 238
255 214 238
255 214 238
255 214 238
255 214 238
255 214 238
255 214 238
255 214 238
255 214 238
255 214 238
255 226 250
255 214 238
255 214 238
255 214 238
255 214 238
255 214 238
255 214 238
255 214 238
255 214 238
255 214 238
255 214 238
255 214 238
255 214 238
255 214 238
255 214 238
255 214 238
255 214 238
255 214 238
255 214 238
255 214 238
255 214 238
255 214 238
255 214 238
255 214 238
255 214 238
255 214 238
255 214 238
255 214 238
255 214 238
255 214 238
255 214 238
255 214 238
255 214 238
255 214 238
255 214 238
255 214 238
255 214 238
255 226 250
255 214 238
255 214 238
255 214 238
255 214 238
255 214 238
255 214 238
255 214 238
255 214 238
255 214 238
255 214 238
255 214 238
255 214 238
255 214 238
255 214 238
255 214 238
255 214 238
255 214 238
255 214 238
255 214 238
255 214 238
255 214 238
255 214 238
255 214 238
255 214 238
255 214 238
255 214 238
255 214 238
255 214 238
255 214 238
255 214 238
255 214 238
255 214 238
255 214 238
255 214 238
255 214 238
255 214 238
255 226 250
255 214 238
255 214 238
255 214 238
255 214 238
255 214 238
255 214 238
255 214 238
255 214 238
255 214 238
255 214 238
255 214 238
255 214 238
255 214 238
255 214 238
255 214 238
255 214 238
255 214 238
255 214 238
255 214 238
255 214 238
255 214 238
255 214 238
255 226 250
255 214 238
255 214 238
255 214 238
255 214 238
255 214 238
255 214 238
255 214 238
255 214 238
255 214 238
255 214 238
255 214 238
255 214 238
255 214 238
255 214 238
255 214 238
255 214 238
255 214 238
255 214 238
255 214 238
255 214 238
255 214 238
255 214 238
255 214 238
255 214 238
255 214 238
255 214 238
255 214 238
255 214 238
255 214 238
255 214 238
255 214 238
255 214 238
255 214 238
255 214 238
255 214 238
255 214 238
255 226 250
255 214 238
255 214 238
255 214 238
255 214 238
255 214 238
255 214 238
255 214 238
255 214 238
255 214 238
255 214 238
255 214 238
255 214 238
255 214 238
255 214 238
255 214 238
255 214 238
255 214 238
255 214 238
255 214 238
255 214 238
255 214 238
255 214 238
255 214 238
255 214 238
255 214 238
255 214 238
255 214 238
255 214 238
255 214 238
255 214 238
255 214 238
255 214 238
255 214 238
255 214 238
255 214 238
255 214 238
255 226 250
255 214 238
255 214 238
255 214 238
255 214 238
255 214 238
255 214 238
255 214 238
255 214 238
255 214 238
255 214 238
255 214 238
255 214 238
255 214 238
255 214 238
255 214 238
255 214 238
255 214 238
255 214 238
255 214 238
255 214 238
255 214 238
255 214 238
255 214 238
255 214 238
255 214 238
255 214 238
255 214 238
255 214 238
255 214 238
255 214 238
255 214 238
255 214 238
255 214 238
255 214 238
255 214 238
255 214 238
255 226 250
255 214 238
255 214 238
255 214 238
255 214 238
255 214 238
255 214 238
255 214 238
255 214 238
255 214 238
255 214 238
255 214 238
255 214 238
255 214 238
255 214 238
255 214 238
255 214 238
255 214 238
255 214 238
255 214 238
255 214 238
255 214 238
255 214 238
255 214 238
255 214 238
255 214 238
255 214 238
255 214 238
255 214 238
255 214 238
255 214 238
255 214 238
255 214 238
255 214 238
255 214 238
255 214 238
255 214 238
255 226 250
255 214 238
255 214 238
255 214 238
255 214 238
255 214 238
255 214 238
255 214 238
255 214 238
255 214 238
255 214 238
255 214 238
255 214 238
255 214 238
255 214 238
255 214 238
255 214 238
255 214 238
255 214 238
255 214 238
255 214 238
255 214 238
255 214 238
255 214 238
255 214 238
255 214 238
255 214 238
255 214 238
255 214 238
255 214 238
255 214 238
255 214 238
255 214 238
255 214 238
255 214 238
255 214 238
255 214 238
255 226 250
255 214 238
255 214 238
255 214 238
255 214 238
255 214 238
255 214 238
255 214 238
255 214 238
255 214 238
255 214 238
255 214 238
255 214 238
255 214 238
255 214 238
255 214 238
255 214 238
255 214 238
255 214 238
255 214 238
255 214 238
255 214 238
255 214 238
255 214 238
255 214 238
255 214 238
255 214 238
255 214 238
255 214 238
255 214 238
255 214 238
255 214 238
255 214 238
255 214 238
255 214 238
255 214 238
255 214 238
255 226 250
255 214 238
255 214 238
255 214 238
255 214 238
255 214 238
255 214 238
255 214 238
255 214 238
255 214 238
255 214 238
255 214 238
255 214 238
255 214 238
255 214 238
255 214 238
255 214 238
255 214 238
255 214 238
255 214 238
255 214 238
255 214 238
255 214 238
255 214 238
255 214 238
255 214 238
255 214 238
255 214 238
255 214 238
255 214 238
255 214 238
255 214 238
255 214 238
255 214 238
255 214 238
255 214 238
255 214 238
255 226 250
255 214 238
255 214 238
255 214 238
255 214 238
255 214 238
255 214 238
255 214 238
255 214 238
255 214 238
255 214 238
255 214 238
255 214 238
255 214 238
255 214 238
255 214 238
255 214 238
255 214 238
255 214 238
255 214 238
255 214 238
255 214 238
255 214 238
255 214 238
255 214 238
255 214 238
255 214 238
255 214 238
255 214 238
255 214 238
255 214 238
255 214 238
255 214 238
255 214 238
255 214 238
255 214 238
255 214 238
255 226 250
255 214 238
255 214 238
255 214 238
255 214 238
255 214 238
255 214 238
255 214 238
255 214 238
255 214 238
255 214 238
255 214 238
255 214 238
255 214 238
255 214 238
255 214 238
255 214 238
255 214 238
255 214 238
255 214 238
255 214 238
255 214 238
255 214 238
255 226 250
255 214 238
255 214 238
255 214 238
255 214 238
255 214 238
255 214 238
255 214 238
255 214 238
255 214 238
255 214 238
255 214 238
255 214 238
255 214 238
255 214 238
255 214 238
255 214 238
255 214 238
255 214 238
255 214 238
255 214 238
255 214 238
255 214 238
255 214 238
255 214 238
255 214 238
255 214 238
255 214 238
255 214 238
255 214 238
255 214 238
255 214 238
255 214 238
255 214 238
255 214 238
255 214 238
255 214 238
255 226 250
255 214 238
255 214 238
255 214 238
255 214 238
255 214 238
255 214 238
255 214 238
255 214 238
255 214 238
255 214 238
255 214 238
255 214 238
255 214 238
255 214 238
255 214 238
255 214 238
255 214 238
255 214 238
255 214 238
255 214 238
255 214 238
255 214 238
255 214 238
255 214 238
255 214 238
255 214 238
255 214 238
255 214 238
255 214 238
255 214 238
255 214 238
255 214 238
255 214 238
255 214 238
255 214 238
255 214 238
255 226 250
255 214 238
255 214 238
255 214 238
255 214 238
255 214 238
255 214 238
255 214 238
255 214 238
255 214 238
255 214 238
255 214 238
255 214 238
255 214 238
255 214 238
255 214 238
255 214 238
255 214 238
255 214 238
255 214 238
255 214 238
255 214 238
255 214 238
255 214 238
255 214 238
255 214 238
255 214 238
255 214 238
255 214 238
255 214 238
255 214 238
255 214 238
255 214 238
255 214 238
255 214 238
255 214 238
255 214 238
255 226 250
255 214 238
255 214 238
255 214 238
255 214 238
255 214 238
255 214 238
255 214 238
255 214 238
255 214 238
255 214 238
255 214 238
255 214 238
255 214 238
255 214 238
255 214 238
255 214 238
255 214 238
255 214 238
255 214 238
255 214 238
255 214 238
255 214 238
255 214 238
255 214 238
255 214 238
255 214 238
255 214 238
255 214 238
255 214 238
255 214 238
255 214 238
255 214 238
255 214 238
255 214 238
255 214 238
255 214 238
255 226 250
255 214 238
255 214 238
255 214 238
255 214 238
255 214 238
255 214 238
255 214 238
255 214 238
255 214 238
255 214 238
255 214 238
255 214 238
255 214 238
255 214 238
255 214 238
255 214 238
255 214 238
255 214 238
255 214 238
255 214 238
255 214 238
255 214 238
255 214 238
255 214 238
255 214 238
255 214 238
255 214 238
255 214 238
255 214 238
255 214 238
255 214 238
255 214 238
255 214 238
255 214 238
255 214 238
255 214 238
255 226 250
255 214 238
255 214 238
255 214 238
255 214 238
255 214 238
255 214 238
255 214 238
255 214 238
255 214 238
255 214 238
255 214 238
255 214 238
255 214 238
255 214 238
255 214 238
255 214 238
255 214 238
255 214 238
255 214 238
255 214 238
255 214 238
255 214 238
255 214 238
255 214 238
255 214 238
255 214 238
255 214 238
255 214 238
255 214 238
255 214 238
255 214 238
255 214 238
255 214 238
255 214 238
255 214 238
255 214 238
255 226 250
255 214 238
255 214 238
255 214 238
255 214 238
255 214 238
255 214 238
255 214 238
255 214 238
255 214 238
255 214 238
255 214 238
255 214 238
255 214 238
255 214 238
255 214 238
255 214 238
255 214 238
255 214 238
255 214 238
255 214 238
255 214 238
255 214 238
255 214 238
255 214 238
255 214 238
255 214 238
255 214 238
255 214 238
255 214 238
255 214 238
255 214 238
255 214 238
255 214 238
255 214 238
255 214 238
255 214 238
255 226 250
255 214 238
255 214 238
255 214 238
255 214 238
255 214 238
255 214 238
255 214 238
255 214 238
255 214 238
255 214 238
255 214 238
255 214 238
255 214 238
255 214 238
255 214 238
255 214 238
255 214 238
255 214 238
255 214 238
255 214 238
255 214 238
255 214 238
255 214 238
255 214 238
255 214 238
255 214 238
255 214 238
255 214 238
255 214 238
255 214 238
255 214 238
255 214 238
255 214 238
255 214 238
255 214 238
255 214 238
255 226 250
255 214 238
255 214 238
255 214 238
255 214 238
255 214 238
255 214 238
255 214 238
255 214 238
255 214 238
255 214 238
255 214 238
255 214 238
255 214 238
255 214 238
255 214 238
255 214 238
255 214 238
255 214 238
255 214 238
255 214 238
255 214 238
255 214 238
255 226 250
255 214 238
255 214 238
255 214 238
255 214 238
255 214 238
255 214 238
255 214 238
255 214 238
255 214 238
255 214 238
255 214 238
255 214 238
255 214 238
255 214 238
255 214 238
255 214 238
255 214 238
255 214 238
255 214 238
255 214 238
255 214 238
255 214 238
255 214 238
255 214 238
255 214 238
255 214 238
255 214 238
255 214 238
255 214 238
255 214 238
255 214 238
255 214 238
255 214 238
255 214 238
255 214 238
255 214 238
255 226 250
255 214 238
255 214 238
255 214 238
255 214 238
255 214 238
255 214 238
255 214 238
255 214 238
255 214 238
255 214 238
255 214 238
255 214 238
255 214 238
255 214 238
255 214 238
255 214 238
255 214 238
255 214 238
255 214 238
255 214 238
255 214 238
255 214 238
255 214 238
255 214 238
255 214 238
255 214 238
255 214 238
255 214 238
255 214 238
255 214 238
255 214 238
255 214 238
255 214 238
255 214 238
255 214 238
255 214 238
255 226 250
255 214 238
255 214 238
255 214 238
255 214 238
255 214 238
255 214 238
255 214 238
255 214 238
255 214 238
255 214 238
255 214 238
255 214 238
255 214 238
255 214 238
255 214 238
255 214 238
255 214 238
255 214 238
255 214 238
255 214 238
255 214 238
255 214 238
255 214 238
255 214 238
255 214 238
255 214 238
255 214 238
255 214 238
255 214 238
255 214 238
255 214 238
255 214 238
255 214 238
255 214 238
255 214 238
255 214 238
255 226 250
255 214 238
255 214 238
255 214 238
255 214 238
255 214 238
255 214 238
255 214 238
255 214 238
255 214 238
255 214 238
255 214 238
255 214 238
255 214 238
255 214 238
255 214 238
255 214 238
255 214 238
255 214 238
255 214 238
255 214 238
255 214 238
255 214 238
255 214 238
255 214 238
255 214 238
255 214 238
255 214 238
255 214 238
255 214 238
255 214 238
255 214 238
255 214 238
255 214 238
255 214 238
255 214 238
255 214 238
255 226 250
255 214 238
255 214 238
255 214 238
255 214 238
255 214 238
255 214 238
255 214 238
255 214 238
255 214 238
255 214 238
255 214 238
255 214 238
255 214 238
255 214 238
255 214 238
255 214 238
255 214 238
255 214 238
255 214 238
255 214 238
255 214 238
255 214 238
255 214 238
255 214 238
255 214 238
255 214 238
255 214 238
255 214 238
255 214 238
255 214 238
255 214 238
255 214 238
255 214 238
255 214 238
255 214 238
255 214 238
255 226 250
255 214 238
255 214 238
255 214 238
255 214 238
255 214 238
255 214 238
255 214 238
255 214 238
255 214 238
255 214 238
255 214 238
255 214 238
255 214 238
255 214 238
255 214 238
255 214 238
255 214 238
255 214 238
255 214 238
255 214 238
255 214 238
255 214 238
255 214 238
255 214 238
255 214 238
255 214 238
255 214 238
255 214 238
255 214 238
255 214 238
255 214 238
255 214 238
255 214 238
255 214 238
255 214 238
255 214 238
255 226 250
255 214 238
255 214 238
255 214 238
255 214 238
255 214 238
255 214 238
255 214 238
255 214 238
255 214 238
255 214 238
255 214 238
255 214 238
255 214 238
255 214 238
255 214 238
255 214 238
255 214 238
255 214 238
255 214 238
255 214 238
255 214 238
255 214 238
255 214 238
255 214 238
255 214 238
255 214 238
255 214 238
255 214 238
255 214 238
255 214 238
255 214 238
255 214 238
255 214 238
255 214 238
255 214 238
255 214 238
255 226 250
255 214 238
255 214 238
255 214 238
255 214 238
255 214 238
255 214 238
255 214 238
255 214 238
255 214 238
255 214 238
255 214 238
255 214 238
255 214 238
255 214 238
255 214 238
255 214 238
255 214 238
255 214 238
255 214 238
255 214 238
255 214 238
255 214 238
255 214 238
255 214 238
255 214 238
255 214 238
255 214 238
255 214 238
255 214 238
255 214 238
255 214 238
255 214 238
255 214 238
255 214 238
255 214 238
255 214 238
255 226 250
255 214 238
255 214 238
255 214 238
255 214 238
255 214 238
255 214 238
255 214 238
255 214 238
255 214 238
255 214 238
255 214 238
255 214 238
255 214 238
255 214 238
255 214 238
255 214 238
255 214 238
255 214 238
255 214 238
255 214 238
255 214 238
255 214 238
255 226 250
255 214 238
255 214 238
255 214 238
255 214 238
255 214 238
255 214 238
255 214 238
255 214 238
255 214 238
255 214 238
255 214 238
255 214 238
255 214 238
255 214 238
255 214 238
255 214 238
255 214 238
255 214 238
255 214 238
255 214 238
255 214 238
255 214 238
255 214 238
255 214 238
255 214 238
255 214 238
255 214 238
255 214 238
255 214 238
255 214 238
255 214 238
255 214 238
255 214 238
255 214 238
255 214 238
255 214 238
255 226 250
255 214 238
255 214 238
255 214 238
255 214 238
255 214 238
255 214 238
255 214 238
255 214 238
255 214 238
255 214 238
255 214 238
255 214 238
255 214 238
255 214 238
255 214 238
255 214 238
255 214 238
255 214 238
255 214 238
255 214 238
255 214 238
255 214 238
255 214 238
255 214 238
255 214 238
255 214 238
255 214 238
255 214 238
255 214 238
255 214 238
255 214 238
255 214 238
255 214 238
255 214 238
255 214 238
255 214 238
255 226 250
255 214 238
255 214 238
255 214 238
255 214 238
255 214 238
255 214 238
255 214 238
255 214 238
255 214 238
255 214 238
255 214 238
255 214 238
255 214 238
255 214 238
255 214 238
255 214 238
255 214 238
255 214 238
255 214 238
255 214 238
255 214 238
255 214 238
255 214 238
255 214 238
255 214 238
255 214 238
255 214 238
255 214 238
255 214 238
255 214 238
255 214 238
255 214 238
255 214 238
255 214 238
255 214 238
255 214 238
255 226 250
255 214 238
255 214 238
255 214 238
255 214 238
255 214 238
255 214 238
255 214 238
255 214 238
255 214 238
255 214 238
255 214 238
255 214 238
255 214 238
255 214 238
255 214 238
255 214 238
255 214 238
255 214 238
255 214 238
255 214 238
255 214 238
255 214 238
255 214 238
255 214 238
255 214 238
255 214 238
255 214 238
255 214 238
255 214 238
255 214 238
255 214 238
255 214 238
255 214 238
255 214 238
255 214 238
255 214 238
255 226 250
255 214 238
255 214 238
255 214 238
255 214 238
255 214 238
255 214 238
255 214 238
255 214 238
255 214 238
255 214 238
255 214 238
255 214 238
255 214 238
255 214 238
255 214 238
255 214 238
255 214 238
255 214 238
255 214 238
255 214 238
255 214 238
255 214 238
255 214 238
255 214 238
255 214 238
255 214 238
255 214 238
255 214 238
255 214 238
255 214 238
255 214 238
255 214 238
255 214 238
255 214 238
255 214 238
255 214 238
255 226 250
255 214 238
255 214 238
255 214 238
255 214 238
255 214 238
255 214 238
255 214 238
255 214 238
255 214 238
255 214 238
255 214 238
255 214 238
255 214 238
255 214 238
255 214 238
255 214 238
255 214 238
255 214 238
255 214 238
255 214 238
255 214 238
255 214 238
255 214 238
255 214 238
255 214 238
255 214 238
255 214 238
255 214 238
255 214 238
255 214 238
255 214 238
255 214 238
255 214 238
255 214 238
255 214 238
255 214 238
255 226 250
255 214 238
255 214 238
255 214 238
255 214 238
255 214 238
255 214 238
255 214 238
255 214 238
255 214 238
255 214 238
255 214 238
255 214 238
255 214 238
255 214 238
255 214 238
255 214 238
255 214 238
255 214 238
255 214 238
255 214 238
255 214 238
255 214 238
255 214 238
255 214 238
255 214 238
255 214 238
255 214 238
255 214 238
255 214 238
255 214 238
255 214 238
255 214 238
255 214 238
255 214 238
255 214 238
255 214 238
255 226 250
255 214 238
255 214 238
255 214 238
255 214 238
255 214 238
255 214 238
255 214 238
255 214 238
255 214 238
255 214 238
255 214 238
255 214 238
255 214 238
255 214 238
255 214 238
255 214 238
255 214 238
255 214 238
255 214 238
255 214 238
255 214 238
255 214 238
255 214 238
255 214 238
255 214 238
255 214 238
255 214 238
255 214 238
255 214 238
255 214 238
255 214 238
255 214 238
255 214 238
255 214 238
255 214 238
255 214 238
255 226 250
255 214 238
255 214 238
255 214 238
255 214 238
255 214 238
255 214 238
255 214 238
255 214 238
255 214 238
255 214 238
255 214 238
255 214 238
255 214 238
255 214 238
255 214 238
255 214 238
255 214 238
255 214 238
255 214 238
255 214 238
255 214 238
255 214 238
255 226 250
255 214 238
255 214 238
255 214 238
255 214 238
255 214 238
255 214 238
255 214 238
255 214 238
255 214 238
255 214 238
255 214 238
255 214 238
255 214 238
255 214 238
255 214 238
255 214 238
255 214 238
255 214 238
255 214 238
255 214 238
255 214 238
255 214 238
255 214 238
255 214 238
255 214 238
255 214 238
255 214 238
255 214 238
255 214 238
255 214 238
255 214 238
255 214 238
255 214 238
255 214 238
255 214 238
255 214 238
255 226 250
255 214 238
255 214 238
255 214 238
255 214 238
255 214 238
255 214 238
255 214 238
255 214 238
255 214 238
255 214 238
255 214 238
255 214 238
255 214 238
255 214 238
255 214 238
255 214 238
255 214 238
255 214 238
255 214 238
255 214 238
255 214 238
255 214 238
255 214 238
255 214 238
255 214 238
255 214 238
255 214 238
255 214 238
255 214 238
255 214 238
255 214 238
255 214 238
255 214 238
255 214 238
255 214 238
255 214 238
255 226 250
255 214 238
255 214 238
255 214 238
255 214 238
255 214 238
255 214 238
255 214 238
255 214 238
255 214 238
255 214 238
255 214 238
255 214 238
255 214 238
255 214 238
255 214 238
255 214 238
255 214 238
255 214 238
255 214 238
255 214 238
255 214 238
255 214 238
255 214 238
255 214 238
255 214 238
255 214 238
255 214 238
255 214 238
255 214 238
255 214 238
255 214 238
255 214 238
255 214 238
255 214 238
255 214 238
255 214 238
255 226 250
255 214 238
255 214 238
255 214 238
255 214 238
255 214 238
255 214 238
255 214 238
255 214 238
255 214 238
255 214 238
255 214 238
255 214 238
255 214 238
255 214 238
255 214 238
255 214 238
255 214 238
255 214 238
255 214 238
255 214 238
255 214 238
255 214 238
255 214 238
255 214 238
255 214 238
255 214 238
255 214 238
255 214 238
255 214 238
255 214 238
255 214 238
255 214 238
255 214 238
255 214 238
255 214 238
255 214 238
255 226 250
255 214 238
255 214 238
255 214 238
255 214 238
255 214 238
255 214 238
255 214 238
255 214 238
255 214 238
255 214 238
255 214 238
255 214 238
255 214 238
255 214 238
255 214 238
255 214 238
255 214 238
255 214 238
255 214 238
255 214 238
255 214 238
255 214 238
255 214 238
255 214 238
255 214 238
255 214 238
255 214 238
255 214 238
255 214 238
255 214 238
255 214 238
255 214 238
255 214 238
255 214 238
255 214 238
255 214 238
255 226 250
255 214 238
255 214 238
255 214 238
255 214 238
255 214 238
255 214 238
255 214 238
255 214 238
255 214 238
255 214 238
255 214 238
255 214 238
255 214 238
255 214 238
255 214 238
255 214 238
255 214 238
255 214 238
255 214 238
255 214 238
255 214 238
255 214 238
255 214 238
255 214 238
255 214 238
255 214 238
255 214 238
255 214 238
255 214 238
255 214 238
255 214 238
255 214 238
255 214 238
255 214 238
255 214 238
255 214 238
255 226 250
255 214 238
255 214 238
255 214 238
255 214 238
255 214 238
255 214 238
255 214 238
255 214 238
255 214 238
255 214 238
255 214 238
255 214 238
255 214 238
255 214 238
255 214 238
255 214 238
255 214 238
255 214 238
255 214 238
255 214 238
255 214 238
255 214 238
255 214 238
255 214 238
255 214 238
255 214 238
255 214 238
255 214 238
255 214 238
255 214 238
255 214 238
255 214 238
255 214 238
255 214 238
255 214 238
255 214 238
255 226 250
255 214 238
255 214 238
255 214 238
255 214 238
255 214 238
255 214 238
255 214 238
255 214 238
255 214 238
255 214 238
255 214 238
255 214 238
255 214 238
255 214 238
255 214 238
255 214 238
255 214 238
255 214 238
255 214 238
255 214 238
255 214 238
255 214 238
255 214 238
255 214 238
255 214 238
255 214 238
255 214 238
255 214 238
255 214 238
255 214 238
255 214 238
255 214 238
255 214 238
255 214 238
255 214 238
255 214 238
255 226 250
255 214 238
255 214 238
255 214 238
255 214 238
255 214 238
255 214 238
255 214 238
255 214 238
255 214 238
255 214 238
255 214 238
255 214 238
255 214 238
255 214 238
255 214 238
255 214 238
255 214 238
255 214 238
255 214 238
255 214 238
255 214 238
255 214 238
255 214 238
255 214 238
255 214 238
255 214 238
255 214 238
255 214 238
255 214 238
255 214 238
255 214 238
255 214 238
255 214 238
255 214 238
255 214 238
255 214 238
255 214 238
255 214 238
255 214 238
255 214 238
255 214 238
255 214 238
255 214 238
255 214 238
255 214 238
255 214 238
255 214 238
255 214 238
255 214 238
255 214 238
255 214 238
255 214 238
255 214 238
255 214 238
255 214 238
255 214 238
255 214 238
255 214 238
255 214 238
255 226 250
255 214 238
255 214 238
255 214 238
255 214 238
255 214 238
255 214 238
255 214 238
255 214 238
255 214 238
255 214 238
255 214 238
255 214 238
255 214 238
255 214 238
255 214 238
255 214 238
255 214 238
255 214 238
255 214 238
255 214 238
255 214 238
255 214 238
255 214 238
255 214 238
255 214 238
255 214 238
255 214 238
255 214 238
255 214 238
255 214 238
255 214 238
255 214 238
255 214 238
255 214 238
255 214 238
255 214 238
255 226 250
255 214 238
255 214 238
255 214 238
255 214 238
255 214 238
255 214 238
255 214 238
255 214 238
255 214 238
255 214 238
255 214 238
255 214 238
255 214 238
255 214 238
255 214 238
255 214 238
255 214 238
255 214 238
255 214 238
255 214 238
255 214 238
255 214 238
255 214 238
255 214 238
255 214 238
255 214 238
255 214 238
255 214 238
255 214 238
255 214 238
255 214 238
255 214 238
255 214 238
255 214 238
255 214 238
255 214 238
255 226 250
255 214 238
255 214 238
255 214 238
255 214 238
255 214 238
255 214 238
255 214 238
255 214 238
255 214 238
255 214 238
255 214 238
255 214 238
255 214 238
255 214 238
255 214 238
255 214 238
255 214 238
255 214 238
255 214 238
255 214 238
255 214 238
255 214 238
255 214 238
255 214 238
255 214 238
255 214 238
255 214 238
255 214 238
255 214 238
255 214 238
255 214 238
255 214 238
255 214 238
255 214 238
255 214 238
255 214 238
255 226 250
255 214 238
255 214 238
255 214 238
255 214 238
255 214 238
255 214 238
255 214 238
255 214 238
255 214 238
255 214 238
255 214 238
255 214 238
255 214 238
255 214 238
255 214 238
255 214 238
255 214 238
255 214 238
255 214 238
255 214 238
255 214 238
255 214 238
255 214 238
255 214 238
255 214 238
255 214 238
255 214 238
255 214 238
255 214 238
255 214 238
255 214 238
255 214 238
255 214 238
255 214 238
255 214 238
255 214 238
255 226 250
255 214 238
255 214 238
255 214 238
255 214 238
255 214 238
255 214 238
255 214 238
255 214 238
255 214 238
255 214 238
255 214 238
255 214 238
255 214 238
255 214 238
255 214 238
255 214 238
255 214 238
255 214 238
255 214 238
255 214 238
255 214 238
255 214 238
255 214 238
255 214 238
255 214 238
255 214 238
255 214 238
255 214 238
255 214 238
255 214 238
255 214 238
255 214 238
255 214 238
255 214 238
255 214 238
255 214 238
255 226 250
255 214 238
255 214 238
255 214 238
255 214 238
255 214 238
255 214 238
255 214 238
255 214 238
255 214 238
255 214 238
255 214 238
255 214 238
255 214 238
255 214 238
255 214 238
255 214 238
255 214 238
255 214 238
255 214 238
255 214 238
255 214 238
255 214 238
255 214 238
255 214 238
255 214 238
255 214 238
255 214 238
255 214 238
255 214 238
255 214 238
255 214 238
255 214 238
255 214 238
255 214 238
255 214 238
255 214 238
255 226 250
255 214 238
255 214 238
255 214 238
255 214 238
255 214 238
255 214 238
255 214 238
255 214 238
255 214 238
255 214 238
255 214 238
255 214 238
255 214 238
255 214 238
255 214 238
255 214 238
255 214 238
255 214 238
255 214 238
255 214 238
255 214 238
255 214 238
255 214 238
255 214 238
255 214 238
255 214 238
255 214 238
255 214 238
255 214 238
255 214 238
255 214 238
255 214 238
255 214 238
255 214 238
255 214 238
255 214 238
255 226 250
255 214 238
255 214 238
255 214 238
255 214 238
255 214 238
255 214 238
255 214 238
255 214 238
255 214 238
255 214 238
255 214 238
255 214 238
255 214 238
255 214 238
255 214 238
255 214 238
255 214 238
255 214 238
255 214 238
255 214 238
255 214 238
255 214 238
255 214 238
255 214 238
255 214 238
255 214 238
255 214 238
255 214 238
255 214 238
255 214 238
255 214 238
255 214 238
255 214 238
255 214 238
255 214 238
255 214 238
255 214 238
255 214 238
255 214 238
255 214 238
255 214 238
255 214 238
255 214 238
255 214 238
255 214 238
255 214 238
255 214 238
255 214 238
255 214 238
255 214 238
255 214 238
255 214 238
255 214 238
255 214 238
255 214 238
255 214 238
255 214 238
255 214 238
255 214 238
255 226 250
255 214 238
255 214 238
255 214 238
255 214 238
255 214 238
255 214 238
255 214 238
255 214 238
255 214 238
255 214 238
255 214 238
255 214 238
255 214 238
255 214 238
255 214 238
255 214 238
255 214 238
255 214 238
255 214 238
255 214 238
255 214 238
255 214 238
255 214 238
255 214 238
255 214 238
255 214 238
255 214 238
255 214 238
255 214 238
255 214 238
255 214 238
255 214 238
255 214 238
255 214 238
255 214 238
255 214 238
255 226 250
255 214 238
255 214 238
255 214 238
255 214 238
255 214 238
255 214 238
255 214 238
255 214 238
255 214 238
255 214 238
255 214 238
255 214 238
255 214 238
255 214 238
255 214 238
255 214 238
255 214 238
255 214 238
255 214 238
255 214 238
255 214 238
255 214 238
255 214 238
255 214 238
255 214 238
255 214 238
255 214 238
255 214 238
255 214 238
255 214 238
255 214 238
255 214 238
255 214 238
255 214 238
255 214 238
255 214 238
255 226 250
255 214 238
255 214 238
255 214 238
255 214 238
255 214 238
255 214 238
255 214 238
255 214 238
255 214 238
255 214 238
255 214 238
255 214 238
255 214 238
255 214 238
255 214 238
255 214 238
255 214 238
255 214 238
255 214 238
255 214 238
255 214 238
255 214 238
255 214 238
255 214 238
255 214 238
255 214 238
255 214 238
255 214 238
255 214 238
255 214 238
255 214 238
255 214 238
255 214 238
255 214 238
255 214 238
255 214 238
255 226 250
255 214 238
255 214 238
255 214 238
255 214 238
255 214 238
255 214 238
255 214 238
255 214 238
255 214 238
255 214 238
255 214 238
255 214 238
255 214 238
255 214 238
255 214 238
255 214 238
255 214 238
255 214 238
255 214 238
255 214 238
255 214 238
255 214 238
255 214 238
255 214 238
255 214 238
255 214 238
255 214 238
255 214 238
255 214 238
255 214 238
255 214 238
255 214 238
255 214 238
255 214 238
255 214 238
255 214 238
255 226 250
255 214 238
255 214 238
255 214 238
255 214 238
255 214 238
255 214 238
255 214 238
255 214 238
255 214 238
255 214 238
255 214 238
255 214 238
255 214 238
255 214 238
255 214 238
255 214 238
255 214 238
255 214 238
255 214 238
255 214 238
255 214 238
255 214 238
255 214 238
255 214 238
255 214 238
255 214 238
255 214 238
255 214 238
255 214 238
255 214 238
255 214 238
255 214 238
255 214 238
255 214 238
255 214 238
255 214 238
255 226 250
255 214 238
255 214 238
255 214 238
255 214 238
255 214 238
255 214 238
255 214 238
255 214 238
255 214 238
255 214 238
255 214 238
255 214 238
255 214 238
255 214 238
255 214 238
255 214 238
255 214 238
255 214 238
255 214 238
255 214 238
255 214 238
255 214 238
255 214 238
255 214 238
255 214 238
255 214 238
255 214 238
255 214 238
255 214 238
255 214 238
255 214 238
255 214 238
255 214 238
255 214 238
255 214 238
255 214 238
255 226 250
255 214 238
255 214 238
255 214 238
255 214 238
255 214 238
255 214 238
255 214 238
255 214 238
255 214 238
255 214 238
255 214 238
255 214 238
255 214 238
255 214 238
255 214 238
255 214 238
255 214 238
255 214 238
255 214 238
255 214 238
255 214 238
255 214 238
255 214 238
255 214 238
255 214 238
255 214 238
255 214 238
255 214 238
255 214 238
255 214 238
255 214 238
255 214 238
255 214 238
255 214 238
255 214 238
255 214 238
255 226 250
255 214 238
255 214 238
255 214 238
255 214 238
255 214 238
255 214 238
255 214 238
255 214 238
255 214 238
255 214 238
255 214 238
255 214 238
255 214 238
255 214 238
255 214 238
255 214 238
255 214 238
255 214 238
255 214 238
255 214 238
255 214 238
255 214 238
255 214 238
255 214 238
255 214 238
255 214 238
255 214 238
255 214 238
255 214 238
255 214 238
255 214 238
255 214 238
255 214 238
255 214 238
255 214 238
255 214 238
255 214 238
255 214 238
255 214 238
255 214 238
255 214 238
255 214 238
255 214 238
255 214 238
255 214 238
255 214 238
255 214 238
255 214 238
255 214 238
255 214 238
255 214 238
255 214 238
255 214 238
255 214 238
255 214 238
255 214 238
255 214 238
255 214 238
255 214 238
255 226 250
255 214 238
255 214 238
255 214 238
255 214 238
255 214 238
255 214 238
255 214 238
255 214 238
255 214 238
255 214 238
255 214 238
255 214 238
255 214 238
255 214 238
255 214 238
255 214 238
255 214 238
255 214 238
255 214 238
255 214 238
255 214 238
255 214 238
255 214 238
255 214 238
255 214 238
255 214 238
255 214 238
255 214 238
255 214 238
255 214 238
255 214 238
255 214 238
255 214 238
255 214 238
255 214 238
255 214 238
255 226 250
255 214 238
255 214 238
255 214 238
255 214 238
255 214 238
255 214 238
255 214 238
255 214 238
255 214 238
255 214 238
255 214 238
255 214 238
255 214 238
255 214 238
255 214 238
255 214 238
255 214 238
255 214 238
255 214 238
255 214 238
255 214 238
255 214 238
255 214 238
255 214 238
255 214 238
255 214 238
255 214 238
255 214 238
255 214 238
255 214 238
255 214 238
255 214 238
255 214 238
255 214 238
255 214 238
255 214 238
255 226 250
255 214 238
255 214 238
255 214 238
255 214 238
255 214 238
255 214 238
255 214 238
255 214 238
255 214 238
255 214 238
255 214 238
255 214 238
255 214 238
255 214 238
255 214 238
255 214 238
255 214 238
255 214 238
255 214 238
255 214 238
255 214 238
255 214 238
255 214 238
255 214 238
255 214 238
255 214 238
255 214 238
255 214 238
255 214 238
255 214 238
255 214 238
255 214 238
255 214 238
255 214 238
255 214 238
255 214 238
255 226 250
255 214 238
255 214 238
255 214 238
255 214 238
255 214 238
255 214 238
255 214 238
255 214 238
255 214 238
255 214 238
255 214 238
255 214 238
255 214 238
255 214 238
255 214 238
255 214 238
255 214 238
255 214 238
255 214 238
255 214 238
255 214 238
255 214 238
255 214 238
255 214 238
255 214 238
255 214 238
255 214 238
255 214 238
255 214 238
255 214 238
255 214 238
255 214 238
255 214 238
255 214 238
255 214 238
255 214 238
255 226 250
255 214 238
255 214 238
255 214 238
255 214 238
255 214 238
255 214 238
255 214 238
255 214 238
255 214 238
255 214 238
255 214 238
255 214 238
255 214 238
255 214 238
255 214 238
255 214 238
255 214 238
255 214 238
255 214 238
255 214 238
255 214 238
255 214 238
255 214 238
255 214 238
255 214 238
255 214 238
255 214 238
255 214 238
255 214 238
255 214 238
255 214 238
255 214 238
255 214 238
255 214 238
255 214 238
255 214 238
255 226 250
255 214 238
255 214 238
255 214 238
255 214 238
255 214 238
255 214 238
255 214 238
255 214 238
255 214 238
255 214 238
255 214 238
255 214 238
255 214 238
255 214 238
255 214 238
255 214 238
255 214 238
255 214 238
255 214 238
255 214 238
255 214 238
255 214 238
255 214 238
255 214 238
255 214 238
255 214 238
255 214 238
255 214 238
255 214 238
255 214 238
255 214 238
255 214 238
255 214 238
255 214 238
255 214 238
255 214 238
255 226 250
255 214 238
255 214 238
255 214 238
255 214 238
255 214 238
255 214 238
255 214 238
255 214 238
255 214 238
255 214 238
255 214 238
255 214 238
255 214 238
255 214 238
255 214 238
255 214 238
255 214 238
255 214 238
255 214 238
255 214 238
255 214 238
255 214 238
255 214 238
255 214 238
255 214 238
255 214 238
255 214 238
255 214 238
255 214 238
255 214 238
255 214 238
255 214 238
255 214 238
255 214 238
255 214 238
255 214 238
255 226 250
255 214 238
255 214 238
255 214 238
255 214 238
255 214 238
255 214 238
255 214 238
255 214 238
255 214 238
255 214 238
255 214 238
255 214 238
255 214 238
255 214 238
255 214 238
255 214 238
255 214 238
255 214 238
255 214 238
255 214 238
255 214 238
255 214 238
255 214 238
255 214 238
255 214 238
255 214 238
255 214 238
255 214 238
255 214 238
255 214 238
255 214 238
255 214 238
255 214 238
255 214 238
255 214 238
255 214 238
255 214 238
255 214 238
255 214 238
255 214 238
255 214 238
255 214 238
255 214 238
255 214 238
255 214 238
255 214 238
255 214 238
255 214 238
255 214 238
255 214 238
255 214 238
255 214 238
255 214 238
255 214 238
255 214 238
255 214 238
255 214 238
255 214 238
255 214 238
255 226 250
255 214 238
255 214 238
255 214 238
255 214 238
255 214 238
255 214 238
255 214 238
255 214 238
255 214 238
255 214 238
255 214 238
255 214 238
255 214 238
255 214 238
255 214 238
255 214 238
255 214 238
255 214 238
255 214 238
255 214 238
255 214 238
255 214 238
255 214 238
255 214 238
255 214 238
255 214 238
255 214 238
255 214 238
255 214 238
255 214 238
255 214 238
255 214 238
255 214 238
255 214 238
255 214 238
255 214 238
255 226 250
255 214 238
255 214 238
255 214 238
255 214 238
255 214 238
255 214 238
255 214 238
255 214 238
255 214 238
255 214 238
255 214 238
255 214 238
255 214 238
255 214 238
255 214 238
255 214 238
255 214 238
255 214 238
255 214 238
255 214 238
255 214 238
255 214 238
255 214 238
255 214 238
255 214 238
255 214 238
255 214 238
255 214 238
255 214 238
255 214 238
255 214 238
255 214 238
255 214 238
255 214 238
255 214 238
255 214 238
255 226 250
255 214 238
255 214 238
255 214 238
255 214 238
255 214 238
255 214 238
255 214 238
255 214 238
255 214 238
255 214 238
255 214 238
255 214 238
255 214 238
255 214 238
255 214 238
255 214 238
255 214 238
255 214 238
255 214 238
255 214 238
255 214 238
255 214 238
255 214 238
255 214 238
255 214 238
255 214 238
255 214 238
255 214 238
255 214 238
255 214 238
255 214 238
255 214 238
255 214 238
255 214 238
255 214 238
255 214 238
255 226 250
255 214 238
255 214 238
255 214 238
255 214 238
255 214 238
255 214 238
255 214 238
255 214 238
255 214 238
255 214 238
255 214 238
255 214 238
255 214 238
255 214 238
255 214 238
255 214 238
255 214 238
255 214 238
255 214 238
255 214 238
255 214 238
255 214 238
255 214 238
255 214 238
255 214 238
255 214 238
255 214 238
255 214 238
255 214 238
255 214 238
255 214 238
255 214 238
255 214 238
255 214 238
255 214 238
255 214 238
255 226 250
255 214 238
255 214 238
255 214 238
255 214 238
255 214 238
255 214 238
255 214 238
255 214 238
255 214 238
255 214 238
255 214 238
255 214 238
255 214 238
255 214 238
255 214 238
255 214 238
255 214 238
255 214 238
255 214 238
255 214 238
255 214 238
255 214 238
255 214 238
255 214 238
255 214 238
255 214 238
255 214 238
255 214 238
255 214 238
255 214 238
255 214 238
255 214 238
255 214 238
255 214 238
255 214 238
255 214 238
255 226 250
255 214 238
255 214 238
255 214 238
255 214 238
255 214 238
255 214 238
255 214 238
255 214 238
255 214 238
255 214 238
255 214 238
255 214 238
255 214 238
255 214 238
255 214 238
255 214 238
255 214 238
255 214 238
255 214 238
255 214 238
255 214 238
255 214 238
255 214 238
255 214 238
255 214 238
255 214 238
255 214 238
255 214 238
255 214 238
255 214 238
255 214 238
255 214 238
255 214 238
255 214 238
255 214 238
255 214 238
255 226 250
255 214 238
255 214 238
255 214 238
255 214 238
255 214 238
255 214 238
255 214 238
255 214 238
255 214 238
255 214 238
255 214 238
255 214 238
255 214 238
255 214 238
255 214 238
255 214 238
255 214 238
255 214 238
255 214 238
255 214 238
255 214 238
255 214 238
255 214 238
255 214 238
255 214 238
255 214 238
255 214 238
255 214 238
255 214 238
255 214 238
255 214 238
255 214 238
255 214 238
255 214 238
255 214 238
255 214 238
255 226 250
255 214 238
255 214 238
255 214 238
255 214 238
255 214 238
255 214 238
255 214 238
255 214 238
255 214 238
255 214 238
255 214 238
255 214 238
255 214 238
255 214 238
255 214 238
255 214 238
255 214 238
255 214 238
255 214 238
255 214 238
255 214 238
255 214 238
255 214 238
255 214 238
255 214 238
255 214 238
255 214 238
255 214 238
255 214 238
255 214 238
255 214 238
255 214 238
255 214 238
255 214 238
255 214 238
255 214 238
255 214 238
255 214 238
255 214 238
255 214 238
255 214 238
255 214 238
255 214 238
255 214 238
255 214 238
255 214 238
255 214 238
255 214 238
255 214 238
255 214 238
255 214 238
255 214 238
255 214 238
255 214 238
255 214 238
255 214 238
255 214 238
255 214 238
255 214 238
255 226 250
255 214 238
255 214 238
255 214 238
255 214 238
255 214 238
255 214 238
255 214 238
255 214 238
255 214 238
255 214 238
255 214 238
255 214 238
255 214 238
255 214 238
255 214 238
255 214 238
255 214 238
255 214 238
255 214 238
255 214 238
255 214 238
255 214 238
255 214 238
255 214 238
255 214 238
255 214 238
255 214 238
255 214 238
255 214 238
255 214 238
255 214 238
255 214 238
255 214 238
255 214 238
255 214 238
255 214 238
255 226 250
255 214 238
255 214 238
255 214 238
255 214 238
255 214 238
255 214 238
255 214 238
255 214 238
255 214 238
255 214 238
255 214 238
255 214 238
255 214 238
255 214 238
255 214 238
255 214 238
255 214 238
255 214 238
255 214 238
255 214 238
255 214 238
255 214 238
255 214 238
255 214 238
255 214 238
255 214 238
255 214 238
255 214 238
255 214 238
255 214 238
255 214 238
255 214 238
255 214 238
255 214 238
255 214 238
255 214 238
255 226 250
255 214 238
255 214 238
255 214 238
255 214 238
255 214 238
255 214 238
255 214 238
255 214 238
255 214 238
255 214 238
255 214 238
255 214 238
255 214 238
255 214 238
255 214 238
255 214 238
255 214 238
255 214 238
255 214 238
255 214 238
255 214 238
255 214 238
255 214 238
255 214 238
255 214 238
255 214 238
255 214 238
255 214 238
255 214 238
255 214 238
255 214 238
255 214 238
255 214 238
255 214 238
255 214 238
255 214 238
255 226 250
255 214 238
255 214 238
255 214 238
255 214 238
255 214 238
255 214 238
255 214 238
255 214 238
255 214 238
255 214 238
255 214 238
255 214 238
255 214 238
255 214 238
255 214 238
255 214 238
255 214 238
255 214 238
255 214 238
255 214 238
255 214 238
255 214 238
255 214 238
255 214 238
255 214 238
255 214 238
255 214 238
255 214 238
255 214 238
255 214 238
255 214 238
255 214 238
255 214 238
255 214 238
255 214 238
255 214 238
255 226 250
255 214 238
255 214 238
255 214 238
255 214 238
255 214 238
255 214 238
255 214 238
255 214 238
255 214 238
255 214 238
255 214 238
255 214 238
255 214 238
255 214 238
255 214 238
255 214 238
255 214 238
255 214 238
255 214 238
255 214 238
255 214 238
255 214 238
255 214 238
255 214 238
255 214 238
255 214 238
255 214 238
255 214 238
255 214 238
255 214 238
255 214 238
255 214 238
255 214 238
255 214 238
255 214 238
255 214 238
255 226 250
255 214 238
255 214 238
255 214 238
255 214 238
255 214 238
255 214 238
255 214 238
255 214 238
255 214 238
255 214 238
255 214 238
255 214 238
255 214 238
255 214 238
255 214 238
255 214 238
255 214 238
255 214 238
255 214 238
255 214 238
255 214 238
255 214 238
255 214 238
255 214 238
255 214 238
255 214 238
255 214 238
255 214 238
255 214 238
255 214 238
255 214 238
255 214 238
255 214 238
255 214 238
255 214 238
255 214 238
255 226 250
255 214 238
255 214 238
255 214 238
255 214 238
255 214 238
255 214 238
255 214 238
255 214 238
255 214 238
255 214 238
255 214 238
255 214 238
255 214 238
255 214 238
255 214 238
255 214 238
255 214 238
255 214 238
255 214 238
255 214 238
255 214 238
255 214 238
255 214 238
255 214 238
255 214 238
255 214 238
255 214 238
255 214 238
255 214 238
255 214 238
255 214 238
255 214 238
255 214 238
255 214 238
255 214 238
255 214 238
255 226 250
255 214 238
255 214 238
255 214 238
255 214 238
255 214 238
255 214 238
255 214 238
255 214 238
255 214 238
255 214 238
255 214 238
255 214 238
255 214 238
255 214 238
255 214 238
255 214 238
255 214 238
255 214 238
255 214 238
255 214 238
255 214 238
255 214 238
255 214 238
255 214 238
255 214 238
255 214 238
255 214 238
255 214 238
255 214 238
255 214 238
255 214 238
255 214 238
255 214 238
255 214 238
255 214 238
255 214 238
255 214 238
255 214 238
255 214 238
255 214 238
255 214 238
255 214 238
255 214 238
255 214 238
255 214 238
255 214 238
255 214 238
255 214 238
255 214 238
255 214 238
255 214 238
255 214 238
255 214 238
255 214 238
255 214 238
255 214 238
255 214 238
255 214 238
255 214 238
255 226 250
255 214 238
255 214 238
255 214 238
255 214 238
255 214 238
255 214 238
255 214 238
255 214 238
255 214 238
255 214 238
255 214 238
255 214 238
255 214 238
255 214 238
255 214 238
255 214 238
255 214 238
255 214 238
255 214 238
255 214 238
255 214 238
255 214 238
255 214 238
255 214 238
255 214 238
255 214 238
255 214 238
255 214 238
255 214 238
255 214 238
255 214 238
255 214 238
255 214 238
255 214 238
255 214 238
255 214 238
255 226 250
255 214 238
255 214 238
255 214 238
255 214 238
255 214 238
255 214 238
255 214 238
255 214 238
255 214 238
255 214 238
255 214 238
255 214 238
255 214 238
255 214 238
255 214 238
255 214 238
255 214 238
255 214 238
255 214 238
255 214 238
255 214 238
255 214 238
255 214 238
255 214 238
255 214 238
255 214 238
255 214 238
255 214 238
255 214 238
255 214 238
255 214 238
255 214 238
255 214 238
255 214 238
255 214 238
255 214 238
255 226 250
255 214 238
255 214 238
255 214 238
255 214 238
255 214 238
255 214 238
255 214 238
255 214 238
255 214 238
255 214 238
255 214 238
255 214 238
255 214 238
255 214 238
255 214 238
255 214 238
255 214 238
255 214 238
255 214 238
255 214 238
255 214 238
255 214 238
255 214 238
255 214 238
255 214 238
255 214 238
255 214 238
255 214 238
255 214 238
255 214 238
255 214 238
255 214 238
255 214 238
255 214 238
255 214 238
255 214 238
255 226 250
255 214 238
255 214 238
255 214 238
255 214 238
255 214 238
255 214 238
255 214 238
255 214 238
255 214 238
255 214 238
255 214 238
255 214 238
255 214 238
255 214 238
255 214 238
255 214 238
255 214 238
255 214 238
255 214 238
255 214 238
255 214 238
255 214 238
255 214 238
255 214 238
255 214 238
255 214 238
255 214 238
255 214 238
255 214 238
255 214 238
255 214 238
255 214 238
255 214 238
255 214 238
255 214 238
255 214 238
255 226 250
255 214 238
255 214 238
255 214 238
255 214 238
255 214 238
255 214 238
255 214 238
255 214 238
255 214 238
255 214 238
255 214 238
255 214 238
255 214 238
255 214 238
255 214 238
255 214 238
255 214 238
255 214 238
255 214 238
255 214 238
255 214 238
255 214 238
255 214 238
255 214 238
255 214 238
255 214 238
255 214 238
255 214 238
255 214 238
255 214 238
255 214 238
255 214 238
255 214 238
255 214 238
255 214 238
255 214 238
255 226 250
255 214 238
255 214 238
255 214 238
255 214 238
255 214 238
255 214 238
255 214 238
255 214 238
255 214 238
255 214 238
255 214 238
255 214 238
255 214 238
255 214 238
255 214 238
255 214 238
255 214 238
255 214 238
255 214 238
255 214 238
255 214 238
255 214 238
255 214 238
255 214 238
255 214 238
255 214 238
255 214 238
255 214 238
255 214 238
255 214 238
255 214 238
255 214 238
255 214 238
255 214 238
255 214 238
255 214 238
255 226 250
255 214 238
255 214 238
255 214 238
255 214 238
255 214 238
255 214 238
255 214 238
255 214 238
255 214 238
255 214 238
255 214 238
255 214 238
255 214 238
255 214 238
255 214 238
255 214 238
255 214 238
255 214 238
255 214 238
255 214 238
255 214 238
255 214 238
255 214 238
255 214 238
255 214 238
255 214 238
255 214 238
255 214 238
255 214 238
255 214 238
255 214 238
255 214 238
255 214 238
255 214 238
255 214 238
255 214 238
255 226 250
255 214 238
255 214 238
255 214 238
255 214 238
255 214 238
255 214 238
255 214 238
255 214 238
255 214 238
255 214 238
255 214 238
255 214 238
255 214 238
255 214 238
255 214 238
255 214 238
255 214 238
255 214 238
255 214 238
255 214 238
255 214 238
255 214 238
255 214 238
255 214 238
255 214 238
255 214 238
255 214 238
255 214 238
255 214 238
255 214 238
255 214 238
255 214 238
255 214 238
255 214 238
255 214 238
255 214 238
255 214 238
255 214 238
255 214 238
255 214 238
255 214 238
255 214 238
255 214 238
255 214 238
255 214 238
255 214 238
255 214 238
255 214 238
255 214 238
255 214 238
255 214 238
255 214 238
255 214 238
255 214 238
255 214 238
255 214 238
255 214 238
255 214 238
255 214 238
255 226 250
255 214 238
255 214 238
255 214 238
255 214 238
255 214 238
255 214 238
255 214 238
255 214 238
255 214 238
255 214 238
255 214 238
255 214 238
255 214 238
255 214 238
255 214 238
255 214 238
255 214 238
255 214 238
255 214 238
255 214 238
255 214 238
255 214 238
255 214 238
255 214 238
255 214 238
255 214 238
255 214 238
255 214 238
255 214 238
255 214 238
255 214 238
255 214 238
255 214 238
255 214 238
255 214 238
255 214 238
255 226 250
255 214 238
255 214 238
255 214 238
255 214 238
255 214 238
255 214 238
255 214 238
255 214 238
255 214 238
255 214 238
255 214 238
255 214 238
255 214 238
255 214 238
255 214 238
255 214 238
255 214 238
255 214 238
255 214 238
255 214 238
255 214 238
255 214 238
255 214 238
255 214 238
255 214 238
255 214 238
255 214 238
255 214 238
255 214 238
255 214 238
255 214 238
255 214 238
255 214 238
255 214 238
255 214 238
255 214 238
255 226 250
255 214 238
255 214 238
255 214 238
255 214 238
255 214 238
255 214 238
255 214 238
255 214 238
255 214 238
255 214 238
255 214 238
255 214 238
255 214 238
255 214 238
255 214 238
255 214 238
255 214 238
255 214 238
255 214 238
255 214 238
255 214 238
255 214 238
255 214 238
255 214 238
255 214 238
255 214 238
255 214 238
255 214 238
255 214 238
255 214 238
255 214 238
255 214 238
255 214 238
255 214 238
255 214 238
255 214 238
255 226 250
255 214 238
255 214 238
255 214 238
255 214 238
255 214 238
255 214 238
255 214 238
255 214 238
255 214 238
255 214 238
255 214 238
255 214 238
255 214 238
255 214 238
255 214 238
255 214 238
255 214 238
255 214 238
255 214 238
255 214 238
255 214 238
255 214 238
255 214 238
255 214 238
255 214 238
255 214 238
255 214 238
255 214 238
255 214 238
255 214 238
255 214 238
255 214 238
255 214 238
255 214 238
255 214 238
255 214 238
255 226 250
255 214 238
255 214 238
255 214 238
255 214 238
255 214 238
255 214 238
255 214 238
255 214 238
255 214 238
255 214 238
255 214 238
255 214 238
255 214 238
255 214 238
255 214 238
255 214 238
255 214 238
255 214 238
255 214 238
255 214 238
255 214 238
255 214 238
255 214 238
255 214 238
255 214 238
255 214 238
255 214 238
255 214 238
255 214 238
255 214 238
255 214 238
255 214 238
255 214 238
255 214 238
255 214 238
255 214 238
255 226 250
255 214 238
255 214 238
255 214 238
255 214 238
255 214 238
255 214 238
255 214 238
255 214 238
255 214 238
255 214 238
255 214 238
255 214 238
255 214 238
255 214 238
255 214 238
255 214 238
255 214 238
255 214 238
255 214 238
255 214 238
255 214 238
255 214 238
255 214 238
255 214 238
255 214 238
255 214 238
255 214 238
255 214 238
255 214 238
255 214 238
255 214 238
255 214 238
255 214 238
255 214 238
255 214 238
255 214 238
255 226 250
255 214 238
255 214 238
255 214 238
255 214 238
255 214 238
255 214 238
255 214 238
255 214 238
255 214 238
255 214 238
255 214 238
255 214 238
255 214 238
255 214 238
255 214 238
255 214 238
255 214 238
255 214 238
255 214 238
255 214 238
255 214 238
255 214 238
255 214 238
255 214 238
255 214 238
255 214 238
255 214 238
255 214 238
255 214 238
255 214 238
255 214 238
255 214 238
255 214 238
255 214 238
255 214 238
255 214 238
255 226 250
255 214 238
255 214 238
255 214 238
255 214 238
255 214 238
255 214 238
255 214 238
255 214 238
255 214 238
255 214 238
255 214 238
255 214 238
255 214 238
255 214 238
255 214 238
255 214 238
255 214 238
255 214 238
255 214 238
255 214 238
255 214 238
255 214 238
255 214 238
255 214 238
255 214 238
255 214 238
255 214 238
255 214 238
255 214 238
255 214 238
255 214 238
255 214 238
255 214 238
255 214 238
255 214 238
255 214 238
255 214 238
255 214 238
255 214 238
255 214 238
255 214 238
255 214 238
255 214 238
255 214 238
255 214 238
255 214 238
255 214 238
255 214 238
255 214 238
255 214 238
255 214 238
255 214 238
255 214 238
255 214 238
255 214 238
255 214 238
255 214 238
255 214 238
255 214 238
255 226 250
255 214 238
255 214 238
255 214 238
255 214 238
255 214 238
255 214 238
255 214 238
255 214 238
255 214 238
255 214 238
255 214 238
255 214 238
255 214 238
255 214 238
255 214 238
255 214 238
255 214 238
255 214 238
255 214 238
255 214 238
255 214 238
255 214 238
255 214 238
255 214 238
255 214 238
255 214 238
255 214 238
255 214 238
255 214 238
255 214 238
255 214 238
255 214 238
255 214 238
255 214 238
255 214 238
255 214 238
255 226 250
255 214 238
255 214 238
255 214 238
255 214 238
255 214 238
255 214 238
255 214 238
255 214 238
255 214 238
255 214 238
255 214 238
255 214 238
255 214 238
255 214 238
255 214 238
255 214 238
255 214 238
255 214 238
255 214 238
255 214 238
255 214 238
255 214 238
255 214 238
255 214 238
255 214 238
255 214 238
255 214 238
255 214 238
255 214 238
255 214 238
255 214 238
255 214 238
255 214 238
255 214 238
255 214 238
255 214 238
255 226 250
255 214 238
255 214 238
255 214 238
255 214 238
255 214 238
255 214 238
255 214 238
255 214 238
255 214 238
255 214 238
255 214 238
255 214 238
255 214 238
255 214 238
255 214 238
255 214 238
255 214 238
255 214 238
255 214 238
255 214 238
255 214 238
255 214 238
255 214 238
255 214 238
255 214 238
255 214 238
255 214 238
255 214 238
255 214 238
255 214 238
255 214 238
255 214 238
255 214 238
255 214 238
255 214 238
255 214 238
255 226 250
255 214 238
255 214 238
255 214 238
255 214 238
255 214 238
255 214 238
255 214 238
255 214 238
255 214 238
255 214 238
255 214 238
255 214 238
255 214 238
255 214 238
255 214 238
255 214 238
255 214 238
255 214 238
255 214 238
255 214 238
255 214 238
255 214 238
255 214 238
255 214 238
255 214 238
255 214 238
255 214 238
255 214 238
255 214 238
255 214 238
255 214 238
255 214 238
255 214 238
255 214 238
255 214 238
255 214 238
255 226 250
255 214 238
255 214 238
255 214 238
255 214 238
255 214 238
255 214 238
255 214 238
255 214 238
255 214 238
255 214 238
255 214 238
255 214 238
255 214 238
255 214 238
255 214 238
255 214 238
255 214 238
255 214 238
255 214 238
255 214 238
255 214 238
255 214 238
255 214 238
255 214 238
255 214 238
255 214 238
255 214 238
255 214 238
255 214 238
255 214 238
255 214 238
255 214 238
255 214 238
255 214 238
255 214 238
255 214 238
255 226 250
255 214 238
255 214 238
255 214 238
255 214 238
255 214 238
255 214 238
255 214 238
255 214 238
255 214 238
255 214 238
255 214 238
255 214 238
255 214 238
255 214 238
255 214 238
255 214 238
255 214 238
255 214 238
255 214 238
255 214 238
255 214 238
255 214 238
255 214 238
255 214 238
255 214 238
255 214 238
255 214 238
255 214 238
255 214 238
255 214 238
255 214 238
255 214 238
255 214 238
255 214 238
255 214 238
255 214 238
255 226 250
255 214 238
255 214 238
255 214 238
255 214 238
255 214 238
255 214 238
255 214 238
255 214 238
255 214 238
255 214 238
255 214 238
255 214 238
255 214 238
255 214 238
255 214 238
255 214 238
255 214 238
255 214 238
255 214 238
255 214 238
255 214 238
255 214 238
255 214 238
255 214 238
255 214 238
255 214 238
255 214 238
255 214 238
255 214 238
255 214 238
255 214 238
255 214 238
255 214 238
255 214 238
255 214 238
255 214 238
255 226 250
255 214 238
255 214 238
255 214 238
255 214 238
255 214 238
255 214 238
255 214 238
255 214 238
255 214 238
255 214 238
255 214 238
255 214 238
255 214 238
255 214 238
255 214 238
255 214 238
255 214 238
255 214 238
255 214 238
255 214 238
255 214 238
255 214 238
255 214 238
255 214 238
255 214 238
255 214 238
255 214 238
255 214 238
255 214 238
255 214 238
255 214 238
255 214 238
255 214 238
255 214 238
255 214 238
255 214 238
255 214 238
255 214 238
255 214 238
255 214 238
255 214 238
255 214 238
255 214 238
255 214 238
255 214 238
255 214 238
255 214 238
255 214 238
255 214 238
255 214 238
255 214 238
255 214 238
255 214 238
255 214 238
255 214 238
255 214 238
255 214 238
255 214 238
255 214 238
255 226 250
255 214 238
255 214 238
255 214 238
255 214 238
255 214 238
255 214 238
255 214 238
255 214 238
255 214 238
255 214 238
255 214 238
255 214 238
255 214 238
255 214 238
255 214 238
255 214 238
255 214 238
255 214 238
255 214 238
255 214 238
255 214 238
255 214 238
255 214 238
255 214 238
255 214 238
255 214 238
255 214 238
255 214 238
255 214 238
255 214 238
255 214 238
255 214 238
255 214 238
255 214 238
255 214 238
255 214 238
255 226 250
255 214 238
255 214 238
255 214 238
255 214 238
255 214 238
255 214 238
255 214 238
255 214 238
255 214 238
255 214 238
255 214 238
255 214 238
255 214 238
255 214 238
255 214 238
255 214 238
255 214 238
255 214 238
255 214 238
255 214 238
255 214 238
255 214 238
255 214 238
255 214 238
255 214 238
255 214 238
255 214 238
255 214 238
255 214 238
255 214 238
255 214 238
255 214 238
255 214 238
255 214 238
255 214 238
255 214 238
255 226 250
255 214 238
255 214 238
255 214 238
255 214 238
255 214 238
255 214 238
255 214 238
255 214 238
255 214 238
255 214 238
255 214 238
255 214 238
255 214 238
255 214 238
255 214 238
255 214 238
255 214 238
255 214 238
255 214 238
255 214 238
255 214 238
255 214 238
255 214 238
255 214 238
255 214 238
255 214 238
255 214 238
255 214 238
255 214 238
255 214 238
255 214 238
255 214 238
255 214 238
255 214 238
255 214 238
255 214 238
255 226 250
255 214 238
255 214 238
255 214 238
255 214 238
255 214 238
255 214 238
255 214 238
255 214 238
255 214 238
255 214 238
255 214 238
255 214 238
255 214 238
255 214 238
255 214 238
255 214 238
255 214 238
255 214 238
255 214 238
255 214 238
255 214 238
255 214 238
255 214 238
255 214 238
255 214 238
255 214 238
255 214 238
255 214 238
255 214 238
255 214 238
255 214 238
255 214 238
255 214 238
255 214 238
255 214 238
255 214 238
255 226 250
255 214 238
255 214 238
255 214 238
255 214 238
255 214 238
255 214 238
255 214 238
255 214 238
255 214 238
255 214 238
255 214 238
255 214 238
255 214 238
255 214 238
255 214 238
255 214 238
255 214 238
255 214 238
255 214 238
255 214 238
255 214 238
255 214 238
255 214 238
255 214 238
255 214 238
255 214 238
255 214 238
255 214 238
255 214 238
255 214 238
255 214 238
255 214 238
255 214 238
255 214 238
255 214 238
255 214 238
255 226 250
255 214 238
255 214 238
255 214 238
255 214 238
255 214 238
255 214 238
255 214 238
255 214 238
255 214 238
255 214 238
255 214 238
255 214 238
255 214 238
255 214 238
255 214 238
255 214 238
255 214 238
255 214 238
255 214 238
255 214 238
255 214 238
255 214 238
255 214 238
255 214 238
255 214 238
255 214 238
255 214 238
255 214 238
255 214 238
255 214 238
255 214 238
255 214 238
255 214 238
255 214 238
255 214 238
255 214 238
255 226 250
255 214 238
255 214 238
255 214 238
255 214 238
255 214 238
255 214 238
255 214 238
255 214 238
255 214 238
255 214 238
255 214 238
255 214 238
255 214 238
255 214 238
255 214 238
255 214 238
255 214 238
255 214 238
255 214 238
255 214 238
255 214 238
255 214 238
255 214 238
255 214 238
255 214 238
255 214 238
255 214 238
255 214 238
255 214 238
255 214 238
255 214 238
255 214 238
255 214 238
255 214 238
255 214 238
255 214 238
255 226 250
255 214 238
255 214 238
255 214 238
255 214 238
255 214 238
255 214 238
255 214 238
255 214 238
255 214 238
255 214 238
255 214 238
255 214 238
255 214 238
255 214 238
255 214 238
255 214 238
255 214 238
255 214 238
255 214 238
255 214 238
255 214 238
255 214 238
255 214 238
255 214 238
255 214 238
255 214 238
255 214 238
255 214 238
255 214 238
255 214 238
255 214 238
255 214 238
255 214 238
255 214 238
255 214 238
255 214 238
255 214 238
255 214 238
255 214 238
255 214 238
255 214 238
255 214 238
255 214 238
255 214 238
255 214 238
255 214 238
255 214 238
255 214 238
255 214 238
255 214 238
255 214 238
255 214 238
255 214 238
255 214 238
255 214 238
255 214 238
255 214 238
255 214 238
255 214 238
255 226 250
255 214 238
255 214 238
255 214 238
255 214 238
255 214 238
255 214 238
255 214 238
255 214 238
255 214 238
255 214 238
255 214 238
255 214 238
255 214 238
255 214 238
255 214 238
255 214 238
255 214 238
255 214 238
255 214 238
255 214 238
255 214 238
255 214 238
255 214 238
255 214 238
255 214 238
255 214 238
255 214 238
255 214 238
255 214 238
255 214 238
255 214 238
255 214 238
255 214 238
255 214 238
255 214 238
255 214 238
255 226 250
255 214 238
255 214 238
255 214 238
255 214 238
255 214 238
255 214 238
255 214 238
255 214 238
255 214 238
255 214 238
255 214 238
255 214 238
255 214 238
255 214 238
255 214 238
255 214 238
255 214 238
255 214 238
255 214 238
255 214 238
255 214 238
255 214 238
255 214 238
255 214 238
255 214 238
255 214 238
255 214 238
255 214 238
255 214 238
255 214 238
255 214 238
255 214 238
255 214 238
255 214 238
255 214 238
255 214 238
255 226 250
255 214 238
255 214 238
255 214 238
255 214 238
255 214 238
255 214 238
255 214 238
255 214 238
255 214 238
255 214 238
255 214 238
255 214 238
255 214 238
255 214 238
255 214 238
255 214 238
255 214 238
255 214 238
255 214 238
255 214 238
255 214 238
255 214 238
255 214 238
255 214 238
255 214 238
255 214 238
255 214 238
255 214 238
255 214 238
255 214 238
255 214 238
255 214 238
255 214 238
255 214 238
255 214 238
255 214 238
255 226 250
255 214 238
255 214 238
255 214 238
255 214 238
255 214 238
255 214 238
255 214 238
255 214 238
255 214 238
255 214 238
255 214 238
255 214 238
255 214 238
255 214 238
255 214 238
255 214 238
255 214 238
255 214 238
255 214 238
255 214 238
255 214 238
255 214 238
255 214 238
255 214 238
255 214 238
255 214 238
255 214 238
255 214 238
255 214 238
255 214 238
255 214 238
255 214 238
255 214 238
255 214 238
255 214 238
255 214 238
255 226 250
255 214 238
255 214 238
255 214 238
255 214 238
255 214 238
255 214 238
255 214 238
255 214 238
255 214 238
255 214 238
255 214 238
255 214 238
255 214 238
255 214 238
255 214 238
255 214 238
255 214 238
255 214 238
255 214 238
255 214 238
255 214 238
255 214 238
255 214 238
255 214 238
255 214 238
255 214 238
255 214 238
255 214 238
255 214 238
255 214 238
255 214 238
255 214 238
255 214 238
255 214 238
255 214 238
255 214 238
255 226 250
255 214 238
255 214 238
255 214 238
255 214 238
255 214 238
255 214 238
255 214 238
255 214 238
255 214 238
255 214 238
255 214 238
255 214 238
255 214 238
255 214 238
255 214 238
255 214 238
255 214 238
255 214 238
255 214 238
255 214 238
255 214 238
255 214 238
255 214 238
255 214 238
255 214 238
255 214 238
255 214 238
255 214 238
255 214 238
255 214 238
255 214 238
255 214 238
255 214 238
255 214 238
255 214 238
255 214 238
255 226 250
255 214 238
255 214 238
255 214 238
255 214 238
255 214 238
255 214 238
255 214 238
255 214 238
255 214 238
255 214 238
255 214 238
255 214 238
255 214 238
255 214 238
255 214 238
255 214 238
255 214 238
255 214 238
255 214 238
255 214 238
255 214 238
255 214 238
255 214 238
255 214 238
255 214 238
255 214 238
255 214 238
255 214 238
255 214 238
255 214 238
255 214 238
255 214 238
255 214 238
255 214 238
255 214 238
255 214 238
255 226 250
255 214 238
255 214 238
255 214 238
255 214 238
255 214 238
255 214 238
255 214 238
255 214 238
255 214 238
255 214 238
255 214 238
255 214 238
255 214 238
255 214 238
255 214 238
255 214 238
255 214 238
255 214 238
255 214 238
255 214 238
255 214 238
255 214 238
255 214 238
255 214 238
255 214 238
255 214 238
255 214 238
255 214 238
255 214 238
255 214 238
255 214 238
255 214 238
255 214 238
255 214 238
255 214 238
255 214 238
255 214 238
255 214 238
255 214 238
255 214 238
255 214 238
255 214 238
255 214 238
255 214 238
255 214 238
255 214 238
255 214 238
255 214 238
255 214 238
255 214 238
255 214 238
255 214 238
255 214 238
255 214 238
255 214 238
255 214 238
255 214 238
255 214 238
255 214 238
255 226 250
255 214 238
255 214 238
255 214 238
255 214 238
255 214 238
255 214 238
255 214 238
255 214 238
255 214 238
255 214 238
255 214 238
255 214 238
255 214 238
255 214 238
255 214 238
255 214 238
255 214 238
255 214 238
255 214 238
255 214 238
255 214 238
255 214 238
255 214 238
255 214 238
255 214 238
255 214 238
255 214 238
255 214 238
255 214 238
255 214 238
255 214 238
255 214 238
255 214 238
255 214 238
255 214 238
255 214 238
255 226 250
255 214 238
255 214 238
255 214 238
255 214 238
255 214 238
255 214 238
255 214 238
255 214 238
255 214 238
255 214 238
255 214 238
255 214 238
255 214 238
255 214 238
255 214 238
255 214 238
255 214 238
255 214 238
255 214 238
255 214 238
255 214 238
255 214 238
255 214 238
255 214 238
255 214 238
255 214 238
255 214 238
255 214 238
255 214 238
255 214 238
255 214 238
255 214 238
255 214 238
255 214 238
255 214 238
255 214 238
255 226 250
255 214 238
255 214 238
255 214 238
255 214 238
255 214 238
255 214 238
255 214 238
255 214 238
255 214 238
255 214 238
255 214 238
255 214 238
255 214 238
255 214 238
255 214 238
255 214 238
255 214 238
255 214 238
255 214 238
255 214 238
255 214 238
255 214 238
255 214 238
255 214 238
255 214 238
255 214 238
255 214 238
255 214 238
255 214 238
255 214 238
255 214 238
255 214 238
255 214 238
255 214 238
255 214 238
255 214 238
255 226 250
255 214 238
255 214 238
255 214 238
255 214 238
255 214 238
255 214 238
255 214 238
255 214 238
255 214 238
255 214 238
255 214 238
255 214 238
255 214 238
255 214 238
255 214 238
255 214 238
255 214 238
255 214 238
255 214 238
255 214 238
255 214 238
255 214 238
255 214 238
255 214 238
255 214 238
255 214 238
255 214 238
255 214 238
255 214 238
255 214 238
255 214 238
255 214 238
255 214 238
255 214 238
255 214 238
255 214 238
255 226 250
255 214 238
255 214 238
255 214 238
255 214 238
255 214 238
255 214 238
255 214 238
255 214 238
255 214 238
255 214 238
255 214 238
255 214 238
255 214 238
255 214 238
255 214 238
255 214 238
255 214 238
255 214 238
255 214 238
255 214 238
255 214 238
255 214 238
255 214 238
255 214 238
255 214 238
255 214 238
255 214 238
255 214 238
255 214 238
255 214 238
255 214 238
255 214 238
255 214 238
255 214 238
255 214 238
255 214 238
255 226 250
255 214 238
255 214 238
255 214 238
255 214 238
255 214 238
255 214 238
255 214 238
255 214 238
255 214 238
255 214 238
255 214 238
255 214 238
255 214 238
255 214 238
255 214 238
255 214 238
255 214 238
255 214 238
255 214 238
255 214 238
255 214 238
255 214 238
255 214 238
255 214 238
255 214 238
255 214 238
255 214 238
255 214 238
255 214 238
255 214 238
255 214 238
255 214 238
255 214 238
255 214 238
255 214 238
255 214 238
255 226 250
255 214 238
255 214 238
255 214 238
255 214 238
255 214 238
255 214 238
255 214 238
255 214 238
255 214 238
255 214 238
255 214 238
255 214 238
255 214 238
255 214 238
255 214 238
255 214 238
255 214 238
255 214 238
255 214 238
255 214 238
255 214 238
255 214 238
255 214 238
255 214 238
255 214 238
255 214 238
255 214 238
255 214 238
255 214 238
255 214 238
255 214 238
255 214 238
255 214 238
255 214 238
255 214 238
255 214 238
255 226 250
255 214 238
255 214 238
255 214 238
255 214 238
255 214 238
255 214 238
255 214 238
255 214 238
255 214 238
255 214 238
255 214 238
255 214 238
255 214 238
255 214 238
255 214 238
255 214 238
255 214 238
255 214 238
255 214 238
255 214 238
255 214 238
255 214 238
255 214 238
255 214 238
255 214 238
255 214 238
255 214 238
255 214 238
255 214 238
255 214 238
255 214 238
255 214 238
255 214 238
255 214 238
255 194 228
255 194 228
255 194 228
255 194 228
255 194 228
255 194 228
255 194 228
255 194 228
255 194 228
255 194 228
255 194 228
255 194 228
255 194 228
255 194 228
255 194 228
255 194 228
255 194 228
255 194 228
255 194 228
255 194 228
255 194 228
255 194 228
255 194 228
255 194 228
255 194 228
255 206 240
255 194 228
255 194 228
255 194 228
255 194 228
255 194 228
255 194 228
255 194 228
255 194 228
255 194 228
255 194 228
255 194 228
255 194 228
255 194 228
255 194 228
255 194 228
255 194 228
255 194 228
255 194 228
255 194 228
255 194 228
255 194 228
255 194 228
255 194 228
255 194 228
255 194 228
255 194 228
255 194 228
255 194 228
255 194 228
255 194 228
255 194 228
255 194 228
255 194 228
255 194 228
255 194 228
255 194 228
255 206 240
255 194 228
255 194 228
255 194 228
255 194 228
255 194 228
255 194 228
255 194 228
255 194 228
255 194 228
255 194 228
255 194 228
255 194 228
255 194 228
255 194 228
255 194 228
255 194 228
255 194 228
255 194 228
255 194 228
255 194 228
255 194 228
255 194 228
255 194 228
255 194 228
255 194 228
255 194 228
255 194 228
255 194 228
255 194 228
255 194 228
255 194 228
255 194 228
255 194 228
255 194 228
255 194 228
255 194 228
255 206 240
255 194 228
255 194 228
255 194 228
255 194 228
255 194 228
255 194 228
255 194 228
255 194 228
255 194 228
255 194 228
255 194 228
255 194 228
255 194 228
255 194 228
255 194 228
255 194 228
255 194 228
255 194 228
255 194 228
255 194 228
255 194 228
255 194 228
255 194 228
255 194 228
255 194 228
255 194 228
255 194 228
255 194 228
255 194 228
255 194 228
255 194 228
255 194 228
255 194 228
255 194 228
255 194 228
255 194 228
255 206 240
255 194 228
255 194 228
255 194 228
255 194 228
255 194 228
255 194 228
255 194 228
255 194 228
255 194 228
255 194 228
255 194 228
255 194 228
255 194 228
255 194 228
255 194 228
255 194 228
255 194 228
255 194 228
255 194 228
255 194 228
255 194 228
255 194 228
255 194 228
255 194 228
255 194 228
255 194 228
255 194 228
255 194 228
255 194 228
255 194 228
255 194 228
255 194 228
255 194 228
255 194 228
255 194 228
255 194 228
255 206 240
255 194 228
255 194 228
255 194 228
255 194 228
255 194 228
255 194 228
255 194 228
255 194 228
255 194 228
255 194 228
255 194 228
255 194 228
255 194 228
255 194 228
255 194 228
255 194 228
255 194 228
255 194 228
255 194 228
255 194 228
255 194 228
255 194 228
255 194 228
255 194 228
255 194 228
255 194 228
255 194 228
255 194 228
255 194 228
255 194 228
255 194 228
255 194 228
255 194 228
255 194 228
255 194 228
255 194 228
255 206 240
255 194 228
255 194 228
255 194 228
255 194 228
255 194 228
255 194 228
255 194 228
255 194 228
255 194 228
255 194 228
255 194 228
255 194 228
255 194 228
255 194 228
255 194 228
255 194 228
255 194 228
255 194 228
255 194 228
255 194 228
255 194 228
255 194 228
255 194 228
255 194 228
255 194 228
255 194 228
255 194 228
255 194 228
255 194 228
255 194 228
255 194 228
255 194 228
255 194 228
255 194 228
255 194 228
255 194 228
255 206 240
255 194 228
255 194 228
255 194 228
255 194 228
255 194 228
255 194 228
255 194 228
255 194 228
255 194 228
255 194 228
255 194 228
255 194 228
255 194 228
255 194 228
255 194 228
255 194 228
255 194 228
255 194 228
255 194 228
255 194 228
255 194 228
255 194 228
255 194 228
255 194 228
255 194 228
255 194 228
255 194 228
255 194 228
255 194 228
255 194 228
255 194 228
255 194 228
255 194 228
255 194 228
255 194 228
255 194 228
255 206 240
255 194 228
255 194 228
255 194 228
255 194 228
255 194 228
255 194 228
255 194 228
255 194 228
255 194 228
255 194 228
255 194 228
255 194 228
255 194 228
255 194 228
255 194 228
255 194 228
255 194 228
255 194 228
255 194 228
255 194 228
255 194 228
255 194 228
255 194 228
255 194 228
255 194 228
255 194 228
255 194 228
255 194 228
255 194 228
255 194 228
255 194 228
255 194 228
255 194 228
255 194 228
255 194 228
255 194 228
255 194 228
255 194 228
255 194 228
255 194 228
255 194 228
255 194 228
255 194 228
255 194 228
255 194 228
255 194 228
255 194 228
255 194 228
255 194 228
255 194 228
255 194 228
255 194 228
255 194 228
255 194 228
255 194 228
255 194 228
255 194 228
255 194 228
255 194 228
255 206 240
255 194 228
255 194 228
255 194 228
255 194 228
255 194 228
255 194 228
255 194 228
255 194 228
255 194 228
255 194 228
255 194 228
255 194 228
255 194 228
255 194 228
255 194 228
255 194 228
255 194 228
255 194 228
255 194 228
255 194 228
255 194 228
255 194 228
255 194 228
255 194 228
255 194 228
255 194 228
255 194 228
255 194 228
255 194 228
255 194 228
255 194 228
255 194 228
255 194 228
255 194 228
255 194 228
255 194 228
255 206 240
255 194 228
255 194 228
255 194 228
255 194 228
255 194 228
255 194 228
255 194 228
255 194 228
255 194 228
255 194 228
255 194 228
255 194 228
255 194 228
255 194 228
255 194 228
255 194 228
255 194 228
255 194 228
255 194 228
255 194 228
255 194 228
255 194 228
255 194 228
255 194 228
255 194 228
255 194 228
255 194 228
255 194 228
255 194 228
255 194 228
255 194 228
255 194 228
255 194 228
255 194 228
255 194 228
255 194 228
255 206 240
255 194 228
255 194 228
255 194 228
255 194 228
255 194 228
255 194 228
255 194 228
255 194 228
255 194 228
255 194 228
255 194 228
255 194 228
255 194 228
255 194 228
255 194 228
255 194 228
255 194 228
255 194 228
255 194 228
255 194 228
255 194 228
255 194 228
255 194 228
255 194 228
255 194 228
255 194 228
255 194 228
255 194 228
255 194 228
255 194 228
255 194 228
255 194 228
255 194 228
255 194 228
255 194 228
255 194 228
255 206 240
255 194 228
255 194 228
255 194 228
255 194 228
255 194 228
255 194 228
255 194 228
255 194 228
255 194 228
255 194 228
255 194 228
255 194 228
255 194 228
255 194 228
255 194 228
255 194 228
255 194 228
255 194 228
255 194 228
255 194 228
255 194 228
255 194 228
255 194 228
255 194 228
255 194 228
255 194 228
255 194 228
255 194 228
255 194 228
255 194 228
255 194 228
255 194 228
255 194 228
255 194 228
255 194 228
255 194 228
255 206 240
255 194 228
255 194 228
255 194 228
255 194 228
255 194 228
255 194 228
255 194 228
255 194 228
255 194 228
255 194 228
255 194 228
255 194 228
255 194 228
255 194 228
255 194 228
255 194 228
255 194 228
255 194 228
255 194 228
255 194 228
255 194 228
255 194 228
255 194 228
255 194 228
255 194 228
255 194 228
255 194 228
255 194 228
255 194 228
255 194 228
255 194 228
255 194 228
255 194 228
255 194 228
255 194 228
255 194 228
255 206 240
255 194 228
255 194 228
255 194 228
255 194 228
255 194 228
255 194 228
255 194 228
255 194 228
255 194 228
255 194 228
255 194 228
255 194 228
255 194 228
255 194 228
255 194 228
255 194 228
255 194 228
255 194 228
255 194 228
255 194 228
255 194 228
255 194 228
255 194 228
255 194 228
255 194 228
255 194 228
255 194 228
255 194 228
255 194 228
255 194 228
255 194 228
255 194 228
255 194 228
255 194 228
255 194 228
255 194 228
255 206 240
255 194 228
255 194 228
255 194 228
255 194 228
255 194 228
255 194 228
255 194 228
255 194 228
255 194 228
255 194 228
255 194 228
255 194 228
255 194 228
255 194 228
255 194 228
255 194 228
255 194 228
255 194 228
255 194 228
255 194 228
255 194 228
255 194 228
255 194 228
255 194 228
255 194 228
255 194 228
255 194 228
255 194 228
255 194 228
255 194 228
255 194 228
255 194 228
255 194 228
255 194 228
255 194 228
255 194 228
255 206 240
255 194 228
255 194 228
255 194 228
255 194 228
255 194 228
255 194 228
255 194 228
255 194 228
255 194 228
255 194 228
255 194 228
255 194 228
255 194 228
255 194 228
255 194 228
255 194 228
255 194 228
255 194 228
255 194 228
255 194 228
255 194 228
255 194 228
255 194 228
255 194 228
255 194 228
255 194 228
255 194 228
255 194 228
255 194 228
255 194 228
255 194 228
255 194 228
255 194 228
255 194 228
255 194 228
255 194 228
255 194 228
255 194 228
255 194 228
255 194 228
255 194 228
255 194 228
255 194 228
255 194 228
255 194 228
255 194 228
255 194 228
255 194 228
255 194 228
255 194 228
255 194 228
255 194 228
255 194 228
255 194 228
255 194 228
255 194 228
255 194 228
255 194 228
255 194 228
255 206 240
255 194 228
255 194 228
255 194 228
255 194 228
255 194 228
255 194 228
255 194 228
255 194 228
255 194 228
255 194 228
255 194 228
255 194 228
255 194 228
255 194 228
255 194 228
255 194 228
255 194 228
255 194 228
255 194 228
255 194 228
255 194 228
255 194 228
255 194 228
255 194 228
255 194 228
255 194 228
255 194 228
255 194 228
255 194 228
255 194 228
255 194 228
255 194 228
255 194 228
255 194 228
255 194 228
255 194 228
255 206 240
255 194 228
255 194 228
255 194 228
255 194 228
255 194 228
255 194 228
255 194 228
255 194 228
255 194 228
255 194 228
255 194 228
255 194 228
255 194 228
255 194 228
255 194 228
255 194 228
255 194 228
255 194 228
255 194 228
255 194 228
255 194 228
255 194 228
255 194 228
255 194 228
255 194 228
255 194 228
255 194 228
255 194 228
255 194 228
255 194 228
255 194 228
255 194 228
255 194 228
255 194 228
255 194 228
255 194 228
255 206 240
255 194 228
255 194 228
255 194 228
255 194 228
255 194 228
255 194 228
255 194 228
255 194 228
255 194 228
255 194 228
255 194 228
255 194 228
255 194 228
255 194 228
255 194 228
255 194 228
255 194 228
255 194 228
255 194 228
255 194 228
255 194 228
255 194 228
255 194 228
255 194 228
255 194 228
255 194 228
255 194 228
255 194 228
255 194 228
255 194 228
255 194 228
255 194 228
255 194 228
255 194 228
255 194 228
255 194 228
255 206 240
255 194 228
255 194 228
255 194 228
255 194 228
255 194 228
255 194 228
255 194 228
255 194 228
255 194 228
255 194 228
255 194 228
255 194 228
255 194 228
255 194 228
255 194 228
255 194 228
255 194 228
255 194 228
255 194 228
255 194 228
255 194 228
255 194 228
255 194 228
255 194 228
255 194 228
255 194 228
255 194 228
255 194 228
255 194 228
255 194 228
255 194 228
255 194 228
255 194 228
255 194 228
255 194 228
255 194 228
255 206 240
255 194 228
255 194 228
255 194 228
255 194 228
255 194 228
255 194 228
255 194 228
255 194 228
255 194 228
255 194 228
255 194 228
255 194 228
255 194 228
255 194 228
255 194 228
255 194 228
255 194 228
255 194 228
255 194 228
255 194 228
255 194 228
255 194 228
255 194 228
255 194 228
255 194 228
255 194 228
255 194 228
255 194 228
255 194 228
255 194 228
255 194 228
255 194 228
255 194 228
255 194 228
255 194 228
255 194 228
255 206 240
255 194 228
255 194 228
255 194 228
255 194 228
255 194 228
255 194 228
255 194 228
255 194 228
255 194 228
255 194 228
255 194 228
255 194 228
255 194 228
255 194 228
255 194 228
255 194 228
255 194 228
255 194 228
255 194 228
255 194 228
255 194 228
255 194 228
255 194 228
255 194 228
255 194 228
255 194 228
255 194 228
255 194 228
255 194 228
255 194 228
255 194 228
255 194 228
255 194 228
255 194 228
255 194 228
255 194 228
255 206 240
255 194 228
255 194 228
255 194 228
255 194 228
255 194 228
255 194 228
255 194 228
255 194 228
255 194 228
255 194 228
255 194 228
255 194 228
255 194 228
255 194 228
255 194 228
255 194 228
255 194 228
255 194 228
255 194 228
255 194 228
255 194 228
255 194 228
255 194 228
255 194 228
255 194 228
255 194 228
255 194 228
255 194 228
255 194 228
255 194 228
255 194 228
255 194 228
255 194 228
255 194 228
255 194 228
255 194 228
255 206 240
255 194 228
255 194 228
255 194 228
255 194 228
255 194 228
255 194 228
255 194 228
255 194 228
255 194 228
255 194 228
255 194 228
255 194 228
255 194 228
255 194 228
255 194 228
255 194 228
255 194 228
255 194 228
255 194 228
255 194 228
255 194 228
255 194 228
255 194 228
255 194 228
255 194 228
255 194 228
255 194 228
255 194 228
255 194 228
255 194 228
255 194 228
255 194 228
255 194 228
255 194 228
255 194 228
255 194 228
255 206 240
255 194 228
255 194 228
255 194 228
255 194 228
255 194 228
255 194 228
255 194 228
255 194 228
255 194 228
255 194 228
255 194 228
255 194 228
255 194 228
255 194 228
255 194 228
255 194 228
255 194 228
255 194 228
255 194 228
255 194 228
255 194 228
255 194 228
255 206 240
255 194 228
255 194 228
255 194 228
255 194 228
255 194 228
255 194 228
255 194 228
255 194 228
255 194 228
255 194 228
255 194 228
255 194 228
255 194 228
255 194 228
255 194 228
255 194 228
255 194 228
255 194 228
255 194 228
255 194 228
255 194 228
255 194 228
255 194 228
255 194 228
255 194 228
255 194 228
255 194 228
255 194 228
255 194 228
255 194 228
255 194 228
255 194 228
255 194 228
255 194 228
255 194 228
255 194 228
255 206 240
255 194 228
255 194 228
255 194 228
255 194 228
255 194 228
255 194 228
255 194 228
255 194 228
255 194 228
255 194 228
255 194 228
255 194 228
255 194 228
255 194 228
255 194 228
255 194 228
255 194 228
255 194 228
255 194 228
255 194 228
255 194 228
255 194 228
255 194 228
255 194 228
255 194 228
255 194 228
255 194 228
255 194 228
255 194 228
255 194 228
255 194 228
255 194 228
255 194 228
255 194 228
255 194 228
255 194 228
255 206 240
255 194 228
255 194 228
255 194 228
255 194 228
255 194 228
255 194 228
255 194 228
255 194 228
255 194 228
255 194 228
255 194 228
255 194 228
255 194 228
255 194 228
255 194 228
255 194 228
255 194 228
255 194 228
255 194 228
255 194 228
255 194 228
255 194 228
255 194 228
255 194 228
255 194 228
255 194 228
255 194 228
255 194 228
255 194 228
255 194 228
255 194 228
255 194 228
255 194 228
255 194 228
255 194 228
255 194 228
255 206 240
255 194 228
255 194 228
255 194 228
255 194 228
255 194 228
255 194 228
255 194 228
255 194 228
255 194 228
255 194 228
255 194 228
255 194 228
255 194 228
255 194 228
255 194 228
255 194 228
255 194 228
255 194 228
255 194 228
255 194 228
255 194 228
255 194 228
255 194 228
255 194 228
255 194 228
255 194 228
255 194 228
255 194 228
255 194 228
255 194 228
255 194 228
255 194 228
255 194 228
255 194 228
255 194 228
255 194 228
255 206 240
255 194 228
255 194 228
255 194 228
255 194 228
255 194 228
255 194 228
255 194 228
255 194 228
255 194 228
255 194 228
255 194 228
255 194 228
255 194 228
255 194 228
255 194 228
255 194 228
255 194 228
255 194 228
255 194 228
255 194 228
255 194 228
255 194 228
255 194 228
255 194 228
255 194 228
255 194 228
255 194 228
255 194 228
255 194 228
255 194 228
255 194 228
255 194 228
255 194 228
255 194 228
255 194 228
255 194 228
255 206 240
255 194 228
255 194 228
255 194 228
255 194 228
255 194 228
255 194 228
255 194 228
255 194 228
255 194 228
255 194 228
255 194 228
255 194 228
255 194 228
255 194 228
255 194 228
255 194 228
255 194 228
255 194 228
255 194 228
255 194 228
255 194 228
255 194 228
255 194 228
255 194 228
255 194 228
255 194 228
255 194 228
255 194 228
255 194 228
255 194 228
255 194 228
255 194 228
255 194 228
255 194 228
255 194 228
255 194 228
255 206 240
255 194 228
255 194 228
255 194 228
255 194 228
255 194 228
255 194 228
255 194 228
255 194 228
255 194 228
255 194 228
255 194 228
255 194 228
255 194 228
255 194 228
255 194 228
255 194 228
255 194 228
255 194 228
255 194 228
255 194 228
255 194 228
255 194 228
255 194 228
255 194 228
255 194 228
255 194 228
255 194 228
255 194 228
255 194 228
255 194 228
255 194 228
255 194 228
255 194 228
255 194 228
255 194 228
255 194 228
255 206 240
255 194 228
255 194 228
255 194 228
255 194 228
255 194 228
255 194 228
255 194 228
255 194 228
255 194 228
255 194 228
255 194 228
255 194 228
255 194 228
255 194 228
255 194 228
255 194 228
255 194 228
255 194 228
255 194 228
255 194 228
255 194 228
255 194 228
255 194 228
255 194 228
255 194 228
255 194 228
255 194 228
255 194 228
255 194 228
255 194 228
255 194 228
255 194 228
255 194 228
255 194 228
255 194 228
255 194 228
255 206 240
255 194 228
255 194 228
255 194 228
255 194 228
255 194 228
255 194 228
255 194 228
255 194 228
255 194 228
255 194 228
255 194 228
255 194 228
255 194 228
255 194 228
255 194 228
255 194 228
255 194 228
255 194 228
255 194 228
255 194 228
255 194 228
255 194 228
255 206 240
255 194 228
255 194 228
255 194 228
255 194 228
255 194 228
255 194 228
255 194 228
255 194 228
255 194 228
255 194 228
255 194 228
255 194 228
255 194 228
255 194 228
255 194 228
255 194 228
255 194 228
255 194 228
255 194 228
255 194 228
255 194 228
255 194 228
255 194 228
255 194 228
255 194 228
255 194 228
255 194 228
255 194 228
255 194 228
255 194 228
255 194 228
255 194 228
255 194 228
255 194 228
255 194 228
255 194 228
255 206 240
255 194 228
255 194 228
255 194 228
255 194 228
255 194 228
255 194 228
255 194 228
255 194 228
255 194 228
255 194 228
255 194 228
255 194 228
255 194 228
255 194 228
255 194 228
255 194 228
255 194 228
255 194 228
255 194 228
255 194 228
255 194 228
255 194 228
255 194 228
255 194 228
255 194 228
255 194 228
255 194 228
255 194 228
255 194 228
255 194 228
255 194 228
255 194 228
255 194 228
255 194 228
255 194 228
255 194 228
255 206 240
255 194 228
255 194 228
255 194 228
255 194 228
255 194 228
255 194 228
255 194 228
255 194 228
255 194 228
255 194 228
255 194 228
255 194 228
255 194 228
255 194 228
255 194 228
255 194 228
255 194 228
255 194 228
255 194 228
255 194 228
255 194 228
255 194 228
255 194 228
255 194 228
255 194 228
255 194 228
255 194 228
255 194 228
255 194 228
255 194 228
255 194 228
255 194 228
255 194 228
255 194 228
255 194 228
255 194 228
255 206 240
255 194 228
255 194 228
255 194 228
255 194 228
255 194 228
255 194 228
255 194 228
255 194 228
255 194 228
255 194 228
255 194 228
255 194 228
255 194 228
255 194 228
255 194 228
255 194 228
255 194 228
255 194 228
255 194 228
255 194 228
255 194 228
255 194 228
255 194 228
255 194 228
255 194 228
255 194 228
255 194 228
255 194 228
255 194 228
255 194 228
255 194 228
255 194 228
255 194 228
255 194 228
255 194 228
255 194 228
255 206 240
255 194 228
255 194 228
255 194 228
255 194 228
255 194 228
255 194 228
255 194 228
255 194 228
255 194 228
255 194 228
255 194 228
255 194 228
255 194 228
255 194 228
255 194 228
255 194 228
255 194 228
255 194 228
255 194 228
255 194 228
255 194 228
255 194 228
255 194 228
255 194 228
255 194 228
255 194 228
255 194 228
255 194 228
255 194 228
255 194 228
255 194 228
255 194 228
255 194 228
255 194 228
255 194 228
255 194 228
255 206 240
255 194 228
255 194 228
255 194 228
255 194 228
255 194 228
255 194 228
255 194 228
255 194 228
255 194 228
255 194 228
255 194 228
255 194 228
255 194 228
255 194 228
255 194 228
255 194 228
255 194 228
255 194 228
255 194 228
255 194 228
255 194 228
255 194 228
255 194 228
255 194 228
255 194 228
255 194 228
255 194 228
255 194 228
255 194 228
255 194 228
255 194 228
255 194 228
255 194 228
255 194 228
255 194 228
255 194 228
255 206 240
255 194 228
255 194 228
255 194 228
255 194 228
255 194 228
255 194 228
255 194 228
255 194 228
255 194 228
255 194 228
255 194 228
255 194 228
255 194 228
255 194 228
255 194 228
255 194 228
255 194 228
255 194 228
255 194 228
255 194 228
255 194 228
255 194 228
255 194 228
255 194 228
255 194 228
255 194 228
255 194 228
255 194 228
255 194 228
255 194 228
255 194 228
255 194 228
255 194 228
255 194 228
255 194 228
255 194 228
255 206 240
255 194 228
255 194 228
255 194 228
255 194 228
255 194 228
255 194 228
255 194 228
255 194 228
255 194 228
255 194 228
255 194 228
255 194 228
255 194 228
255 194 228
255 194 228
255 194 228
255 194 228
255 194 228
255 194 228
255 194 228
255 194 228
255 194 228
255 194 228
255 194 228
255 194 228
255 194 228
255 194 228
255 194 228
255 194 228
255 194 228
255 194 228
255 194 228
255 194 228
255 194 228
255 194 228
255 194 228
255 206 240
255 194 228
255 194 228
255 194 228
255 194 228
255 194 228
255 194 228
255 194 228
255 194 228
255 194 228
255 194 228
255 194 228
255 194 228
255 194 228
255 194 228
255 194 228
255 194 228
255 194 228
255 194 228
255 194 228
255 194 228
255 194 228
255 194 228
255 206 240
255 194 228
255 194 228
255 194 228
255 194 228
255 194 228
255 194 228
255 194 228
255 194 228
255 194 228
255 194 228
255 194 228
255 194 228
255 194 228
255 194 228
255 194 228
255 194 228
255 194 228
255 194 228
255 194 228
255 194 228
255 194 228
255 194 228
255 194 228
255 194 228
255 194 228
255 194 228
255 194 228
255 194 228
255 194 228
255 194 228
255 194 228
255 194 228
255 194 228
255 194 228
255 194 228
255 194 228
255 206 240
255 194 228
255 194 228
255 194 228
255 194 228
255 194 228
255 194 228
255 194 228
255 194 228
255 194 228
255 194 228
255 194 228
255 194 228
255 194 228
255 194 228
255 194 228
255 194 228
255 194 228
255 194 228
255 194 228
255 194 228
255 194 228
255 194 228
255 194 228
255 194 228
255 194 228
255 194 228
255 194 228
255 194 228
255 194 228
255 194 228
255 194 228
255 194 228
255 194 228
255 194 228
255 194 228
255 194 228
255 206 240
255 194 228
255 194 228
255 194 228
255 194 228
255 194 228
255 194 228
255 194 228
255 194 228
255 194 228
255 194 228
255 194 228
255 194 228
255 194 228
255 194 228
255 194 228
255 194 228
255 194 228
255 194 228
255 194 228
255 194 228
255 194 228
255 194 228
255 194 228
255 194 228
255 194 228
255 194 228
255 194 228
255 194 228
255 194 228
255 194 228
255 194 228
255 194 228
255 194 228
255 194 228
255 194 228
255 194 228
255 206 240
255 194 228
255 194 228
255 194 228
255 194 228
255 194 228
255 194 228
255 194 228
255 194 228
255 194 228
255 194 228
255 194 228
255 194 228
255 194 228
255 194 228
255 194 228
255 194 228
255 194 228
255 194 228
255 194 228
255 194 228
255 194 228
255 194 228
255 194 228
255 194 228
255 194 228
255 194 228
255 194 228
255 194 228
255 194 228
255 194 228
255 194 228
255 194 228
255 194 228
255 194 228
255 194 228
255 194 228
255 206 240
255 194 228
255 194 228
255 194 228
255 194 228
255 194 228
255 194 228
255 194 228
255 194 228
255 194 228
255 194 228
255 194 228
255 194 228
255 194 228
255 194 228
255 194 228
255 194 228
255 194 228
255 194 228
255 194 228
255 194 228
255 194 228
255 194 228
255 194 228
255 194 228
255 194 228
255 194 228
255 194 228
255 194 228
255 194 228
255 194 228
255 194 228
255 194 228
255 194 228
255 194 228
255 194 228
255 194 228
255 206 240
255 194 228
255 194 228
255 194 228
255 194 228
255 194 228
255 194 228
255 194 228
255 194 228
255 194 228
255 194 228
255 194 228
255 194 228
255 194 228
255 194 228
255 194 228
255 194 228
255 194 228
255 194 228
255 194 228
255 194 228
255 194 228
255 194 228
255 194 228
255 194 228
255 194 228
255 194 228
255 194 228
255 194 228
255 194 228
255 194 228
255 194 228
255 194 228
255 194 228
255 194 228
255 194 228
255 194 228
255 206 240
255 194 228
255 194 228
255 194 228
255 194 228
255 194 228
255 194 228
255 194 228
255 194 228
255 194 228
255 194 228
255 194 228
255 194 228
255 194 228
255 194 228
255 194 228
255 194 228
255 194 228
255 194 228
255 194 228
255 194 228
255 194 228
255 194 228
255 194 228
255 194 228
255 194 228
255 194 228
255 194 228
255 194 228
255 194 228
255 194 228
255 194 228
255 194 228
255 194 228
255 194 228
255 194 228
255 194 228
255 206 240
255 194 228
255 194 228
255 194 228
255 194 228
255 194 228
255 194 228
255 194 228
255 194 228
255 194 228
255 194 228
255 194 228
255 194 228
255 194 228
255 194 228
255 194 228
255 194 228
255 194 228
255 194 228
255 194 228
255 194 228
255 194 228
255 194 228
255 194 228
255 194 228
255 194 228
255 194 228
255 194 228
255 194 228
255 194 228
255 194 228
255 194 228
255 194 228
255 194 228
255 194 228
255 194 228
255 194 228
255 206 240
255 194 228
255 194 228
255 194 228
255 194 228
255 194 228
255 194 228
255 194 228
255 194 228
255 194 228
255 194 228
255 194 228
255 194 228
255 194 228
255 194 228
255 194 228
255 194 228
255 194 228
255 194 228
255 194 228
255 194 228
255 194 228
255 194 228
255 206 240
255 194 228
255 194 228
255 194 228
255 194 228
255 194 228
255 194 228
255 194 228
255 194 228
255 194 228
255 194 228
255 194 228
255 194 228
255 194 228
255 194 228
255 194 228
255 194 228
255 194 228
255 194 228
255 194 228
255 194 228
255 194 228
255 194 228
255 194 228
255 194 228
255 194 228
255 194 228
255 194 228
255 194 228
255 194 228
255 194 228
255 194 228
255 194 228
255 194 228
255 194 228
255 194 228
255 194 228
255 206 240
255 194 228
255 194 228
255 194 228
255 194 228
255 194 228
255 194 228
255 194 228
255 194 228
255 194 228
255 194 228
255 194 228
255 194 228
255 194 228
255 194 228
255 194 228
255 194 228
255 194 228
255 194 228
255 194 228
255 194 228
255 194 228
255 194 228
255 194 228
255 194 228
255 194 228
255 194 228
255 194 228
255 194 228
255 194 228
255 194 228
255 194 228
255 194 228
255 194 228
255 194 228
255 194 228
255 194 228
255 206 240
255 194 228
255 194 228
255 194 228
255 194 228
255 194 228
255 194 228
255 194 228
255 194 228
255 194 228
255 194 228
255 194 228
255 194 228
255 194 228
255 194 228
255 194 228
255 194 228
255 194 228
255 194 228
255 194 228
255 194 228
255 194 228
255 194 228
255 194 228
255 194 228
255 194 228
255 194 228
255 194 228
255 194 228
255 194 228
255 194 228
255 194 228
255 194 228
255 194 228
255 194 228
255 194 228
255 194 228
255 206 240
255 194 228
255 194 228
255 194 228
255 194 228
255 194 228
255 194 228
255 194 228
255 194 228
255 194 228
255 194 228
255 194 228
255 194 228
255 194 228
255 194 228
255 194 228
255 194 228
255 194 228
255 194 228
255 194 228
255 194 228
255 194 228
255 194 228
255 194 228
255 194 228
255 194 228
255 194 228
255 194 228
255 194 228
255 194 228
255 194 228
255 194 228
255 194 228
255 194 228
255 194 228
255 194 228
255 194 228
255 206 240
255 194 228
255 194 228
255 194 228
255 194 228
255 194 228
255 194 228
255 194 228
255 194 228
255 194 228
255 194 228
255 194 228
255 194 228
255 194 228
255 194 228
255 194 228
255 194 228
255 194 228
255 194 228
255 194 228
255 194 228
255 194 228
255 194 228
255 194 228
255 194 228
255 194 228
255 194 228
255 194 228
255 194 228
255 194 228
255 194 228
255 194 228
255 194 228
255 194 228
255 194 228
255 194 228
255 194 228
255 206 240
255 194 228
255 194 228
255 194 228
255 194 228
255 194 228
255 194 228
255 194 228
255 194 228
255 194 228
255 194 228
255 194 228
255 194 228
255 194 228
255 194 228
255 194 228
255 194 228
255 194 228
255 194 228
255 194 228
255 194 228
255 194 228
255 194 228
255 194 228
255 194 228
255 194 228
255 194 228
255 194 228
255 194 228
255 194 228
255 194 228
255 194 228
255 194 228
255 194 228
255 194 228
255 194 228
255 194 228
255 206 240
255 194 228
255 194 228
255 194 228
255 194 228
255 194 228
255 194 228
255 194 228
255 194 228
255 194 228
255 194 228
255 194 228
255 194 228
255 194 228
255 194 228
255 194 228
255 194 228
255 194 228
255 194 228
255 194 228
255 194 228
255 194 228
255 194 228
255 194 228
255 194 228
255 194 228
255 194 228
255 194 228
255 194 228
255 194 228
255 194 228
255 194 228
255 194 228
255 194 228
255 194 228
255 194 228
255 194 228
255 206 240
255 194 228
255 194 228
255 194 228
255 194 228
255 194 228
255 194 228
255 194 228
255 194 228
255 194 228
255 194 228
255 194 228
255 194 228
255 194 228
255 194 228
255 194 228
255 194 228
255 194 228
255 194 228
255 194 228
255 194 228
255 194 228
255 194 228
255 194 228
255 194 228
255 194 228
255 194 228
255 194 228
255 194 228
255 194 228
255 194 228
255 194 228
255 194 228
255 194 228
255 194 228
255 194 228
255 194 228
255 206 240
255 194 228
255 194 228
255 194 228
255 194 228
255 194 228
255 194 228
255 194 228
255 194 228
255 194 228
255 194 228
255 194 228
255 194 228
255 194 228
255 194 228
255 194 228
255 194 228
255 194 228
255 194 228
255 194 228
255 194 228
255 194 228
255 194 228
255 206 240
255 194 228
255 194 228
255 194 228
255 194 228
255 194 228
255 194 228
255 194 228
255 194 228
255 194 228
255 194 228
255 194 228
255 194 228
255 194 228
255 194 228
255 194 228
255 194 228
255 194 228
255 194 228
255 194 228
255 194 228
255 194 228
255 194 228
255 194 228
255 194 228
255 194 228
255 194 228
255 194 228
255 194 228
255 194 228
255 194 228
255 194 228
255 194 228
255 194 228
255 194 228
255 194 228
255 194 228
255 206 240
255 194 228
255 194 228
255 194 228
255 194 228
255 194 228
255 194 228
255 194 228
255 194 228
255 194 228
255 194 228
255 194 228
255 194 228
255 194 228
255 194 228
255 194 228
255 194 228
255 194 228
255 194 228
255 194 228
255 194 228
255 194 228
255 194 228
255 194 228
255 194 228
255 194 228
255 194 228
255 194 228
255 194 228
255 194 228
255 194 228
255 194 228
255 194 228
255 194 228
255 194 228
255 194 228
255 194 228
255 206 240
255 194 228
255 194 228
255 194 228
255 194 228
255 194 228
255 194 228
255 194 228
255 194 228
255 194 228
255 194 228
255 194 228
255 194 228
255 194 228
255 194 228
255 194 228
255 194 228
255 194 228
255 194 228
255 194 228
255 194 228
255 194 228
255 194 228
255 194 228
255 194 228
255 194 228
255 194 228
255 194 228
255 194 228
255 194 228
255 194 228
255 194 228
255 194 228
255 194 228
255 194 228
255 194 228
255 194 228
255 206 240
255 194 228
255 194 228
255 194 228
255 194 228
255 194 228
255 194 228
255 194 228
255 194 228
255 194 228
255 194 228
255 194 228
255 194 228
255 194 228
255 194 228
255 194 228
255 194 228
255 194 228
255 194 228
255 194 228
255 194 228
255 194 228
255 194 228
255 194 228
255 194 228
255 194 228
255 194 228
255 194 228
255 194 228
255 194 228
255 194 228
255 194 228
255 194 228
255 194 228
255 194 228
255 194 228
255 194 228
255 206 240
255 194 228
255 194 228
255 194 228
255 194 228
255 194 228
255 194 228
255 194 228
255 194 228
255 194 228
255 194 228
255 194 228
255 194 228
255 194 228
255 194 228
255 194 228
255 194 228
255 194 228
255 194 228
255 194 228
255 194 228
255 194 228
255 194 228
255 194 228
255 194 228
255 194 228
255 194 228
255 194 228
255 194 228
255 194 228
255 194 228
255 194 228
255 194 228
255 194 228
255 194 228
255 194 228
255 194 228
255 206 240
255 194 228
255 194 228
255 194 228
255 194 228
255 194 228
255 194 228
255 194 228
255 194 228
255 194 228
255 194 228
255 194 228
255 194 228
255 194 228
255 194 228
255 194 228
255 194 228
255 194 228
255 194 228
255 194 228
255 194 228
255 194 228
255 194 228
255 194 228
255 194 228
255 194 228
255 194 228
255 194 228
255 194 228
255 194 228
255 194 228
255 194 228
255 194 228
255 194 228
255 194 228
255 194 228
255 194 228
255 206 240
255 194 228
255 194 228
255 194 228
255 194 228
255 194 228
255 194 228
255 194 228
255 194 228
255 194 228
255 194 228
255 194 228
255 194 228
255 194 228
255 194 228
255 194 228
255 194 228
255 194 228
255 194 228
255 194 228
255 194 228
255 194 228
255 194 228
255 194 228
255 194 228
255 194 228
255 194 228
255 194 228
255 194 228
255 194 228
255 194 228
255 194 228
255 194 228
255 194 228
255 194 228
255 194 228
255 194 228
255 206 240
255 194 228
255 194 228
255 194 228
255 194 228
255 194 228
255 194 228
255 194 228
255 194 228
255 194 228
255 194 228
255 194 228
255 194 228
255 194 228
255 194 228
255 194 228
255 194 228
255 194 228
255 194 228
255 194 228
255 194 228
255 194 228
255 194 228
255 194 228
255 194 228
255 194 228
255 194 228
255 194 228
255 194 228
255 194 228
255 194 228
255 194 228
255 194 228
255 194 228
255 194 228
255 194 228
255 194 228
255 206 240
255 194 228
255 194 228
255 194 228
255 194 228
255 194 228
255 194 228
255 194 228
255 194 228
255 194 228
255 194 228
255 194 228
255 194 228
255 194 228
255 194 228
255 194 228
255 194 228
255 194 228
255 194 228
255 194 228
255 194 228
255 194 228
255 194 228
255 206 240
255 194 228
255 194 228
255 194 228
255 194 228
255 194 228
255 194 228
255 194 228
255 194 228
255 194 228
255 194 228
255 194 228
255 194 228
255 194 228
255 194 228
255 194 228
255 194 228
255 194 228
255 194 228
255 194 228
255 194 228
255 194 228
255 194 228
255 194 228
255 194 228
255 194 228
255 194 228
255 194 228
255 194 228
255 194 228
255 194 228
255 194 228
255 194 228
255 194 228
255 194 228
255 194 228
255 194 228
255 206 240
255 194 228
255 194 228
255 194 228
255 194 228
255 194 228
255 194 228
255 194 228
255 194 228
255 194 228
255 194 228
255 194 228
255 194 228
255 194 228
255 194 228
255 194 228
255 194 228
255 194 228
255 194 228
255 194 228
255 194 228
255 194 228
255 194 228
255 194 228
255 194 228
255 194 228
255 194 228
255 194 228
255 194 228
255 194 228
255 194 228
255 194 228
255 194 228
255 194 228
255 194 228
255 194 228
255 194 228
255 206 240
255 194 228
255 194 228
255 194 228
255 194 228
255 194 228
255 194 228
255 194 228
255 194 228
255 194 228
255 194 228
255 194 228
255 194 228
255 194 228
255 194 228
255 194 228
255 194 228
255 194 228
255 194 228
255 194 228
255 194 228
255 194 228
255 194 228
255 194 228
255 194 228
255 194 228
255 194 228
255 194 228
255 194 228
255 194 228
255 194 228
255 194 228
255 194 228
255 194 228
255 194 228
255 194 228
255 194 228
255 206 240
255 194 228
255 194 228
255 194 228
255 194 228
255 194 228
255 194 228
255 194 228
255 194 228
255 194 228
255 194 228
255 194 228
255 194 228
255 194 228
255 194 228
255 194 228
255 194 228
255 194 228
255 194 228
255 194 228
255 194 228
255 194 228
255 194 228
255 194 228
255 194 228
255 194 228
255 194 228
255 194 228
255 194 228
255 194 228
255 194 228
255 194 228
255 194 228
255 194 228
255 194 228
255 194 228
255 194 228
255 206 240
255 194 228
255 194 228
255 194 228
255 194 228
255 194 228
255 194 228
255 194 228
255 194 228
255 194 228
255 194 228
255 194 228
255 194 228
255 194 228
255 194 228
255 194 228
255 194 228
255 194 228
255 194 228
255 194 228
255 194 228
255 194 228
255 194 228
255 194 228
255 194 228
255 194 228
255 194 228
255 194 228
255 194 228
255 194 228
255 194 228
255 194 228
255 194 228
255 194 228
255 194 228
255 194 228
255 194 228
255 206 240
255 194 228
255 194 228
255 194 228
255 194 228
255 194 228
255 194 228
255 194 228
255 194 228
255 194 228
255 194 228
255 194 228
255 194 228
255 194 228
255 194 228
255 194 228
255 194 228
255 194 228
255 194 228
255 194 228
255 194 228
255 194 228
255 194 228
255 194 228
255 194 228
255 194 228
255 194 228
255 194 228
255 194 228
255 194 228
255 194 228
255 194 228
255 194 228
255 194 228
255 194 228
255 194 228
255 194 228
255 206 240
255 194 228
255 194 228
255 194 228
255 194 228
255 194 228
255 194 228
255 194 228
255 194 228
255 194 228
255 194 228
255 194 228
255 194 228
255 194 228
255 194 228
255 194 228
255 194 228
255 194 228
255 194 228
255 194 228
255 194 228
255 194 228
255 194 228
255 194 228
255 194 228
255 194 228
255 194 228
255 194 228
255 194 228
255 194 228
255 194 228
255 194 228
255 194 228
255 194 228
255 194 228
255 194 228
255 194 228
255 206 240
255 194 228
255 194 228
255 194 228
255 194 228
255 194 228
255 194 228
255 194 228
255 194 228
255 194 228
255 194 228
255 194 228
255 194 228
255 194 228
255 194 228
255 194 228
255 194 228
255 194 228
255 194 228
255 194 228
255 194 228
255 194 228
255 194 228
255 194 228
255 194 228
255 194 228
255 194 228
255 194 228
255 194 228
255 194 228
255 194 228
255 194 228
255 194 228
255 194 228
255 194 228
255 194 228
255 194 228
255 206 240
255 194 228
255 194 228
255 194 228
255 194 228
255 194 228
255 194 228
255 194 228
255 194 228
255 194 228
255 194 228
255 194 228
255 194 228
255 194 228
255 194 228
255 194 228
255 194 228
255 194 228
255 194 228
255 194 228
255 194 228
255 194 228
255 194 228
255 206 240
255 194 228
255 194 228
255 194 228
255 194 228
255 194 228
255 194 228
255 194 228
255 194 228
255 194 228
255 194 228
255 194 228
255 194 228
255 194 228
255 194 228
255 194 228
255 194 228
255 194 228
255 194 228
255 194 228
255 194 228
255 194 228
255 194 228
255 194 228
255 194 228
255 194 228
255 194 228
255 194 228
255 194 228
255 194 228
255 194 228
255 194 228
255 194 228
255 194 228
255 194 228
255 194 228
255 194 228
255 206 240
255 194 228
255 194 228
255 194 228
255 194 228
255 194 228
255 194 228
255 194 228
255 194 228
255 194 228
255 194 228
255 194 228
255 194 228
255 194 228
255 194 228
255 194 228
255 194 228
255 194 228
255 194 228
255 194 228
255 194 228
255 194 228
255 194 228
255 194 228
255 194 228
255 194 228
255 194 228
255 194 228
255 194 228
255 194 228
255 194 228
255 194 228
255 194 228
255 194 228
255 194 228
255 194 228
255 194 228
255 206 240
255 194 228
255 194 228
255 194 228
255 194 228
255 194 228
255 194 228
255 194 228
255 194 228
255 194 228
255 194 228
255 194 228
255 194 228
255 194 228
255 194 228
255 194 228
255 194 228
255 194 228
255 194 228
255 194 228
255 194 228
255 194 228
255 194 228
255 194 228
255 194 228
255 194 228
255 194 228
255 194 228
255 194 228
255 194 228
255 194 228
255 194 228
255 194 228
255 194 228
255 194 228
255 194 228
255 194 228
255 206 240
255 194 228
255 194 228
255 194 228
255 194 228
255 194 228
255 194 228
255 194 228
255 194 228
255 194 228
255 194 228
255 194 228
255 194 228
255 194 228
255 194 228
255 194 228
255 194 228
255 194 228
255 194 228
255 194 228
255 194 228
255 194 228
255 194 228
255 194 228
255 194 228
255 194 228
255 194 228
255 194 228
255 194 228
255 194 228
255 194 228
255 194 228
255 194 228
255 194 228
255 194 228
255 194 228
255 194 228
255 206 240
255 194 228
255 194 228
255 194 228
255 194 228
255 194 228
255 194 228
255 194 228
255 194 228
255 194 228
255 194 228
255 194 228
255 194 228
255 194 228
255 194 228
255 194 228
255 194 228
255 194 228
255 194 228
255 194 228
255 194 228
255 194 228
255 194 228
255 194 228
255 194 228
255 194 228
255 194 228
255 194 228
255 194 228
255 194 228
255 194 228
255 194 228
255 194 228
255 194 228
255 194 228
255 194 228
255 194 228
255 206 240
255 194 228
255 194 228
255 194 228
255 194 228
255 194 228
255 194 228
255 194 228
255 194 228
255 194 228
255 194 228
255 194 228
255 194 228
255 194 228
255 194 228
255 194 228
255 194 228
255 194 228
255 194 228
255 194 228
255 194 228
255 194 228
255 194 228
255 194 228
255 194 228
255 194 228
255 194 228
255 194 228
255 194 228
255 194 228
255 194 228
255 194 228
255 194 228
255 194 228
255 194 228
255 194 228
255 194 228
255 206 240
255 194 228
255 194 228
255 194 228
255 194 228
255 194 228
255 194 228
255 194 228
255 194 228
255 194 228
255 194 228
255 194 228
255 194 228
255 194 228
255 194 228
255 194 228
255 194 228
255 194 228
255 194 228
255 194 228
255 194 228
255 194 228
255 194 228
255 194 228
255 194 228
255 194 228
255 194 228
255 194 228
255 194 228
255 194 228
255 194 228
255 194 228
255 194 228
255 194 228
255 194 228
255 194 228
255 194 228
255 206 240
255 194 228
255 194 228
255 194 228
255 194 228
255 194 228
255 194 228
255 194 228
255 194 228
255 194 228
255 194 228
255 194 228
255 194 228
255 194 228
255 194 228
255 194 228
255 194 228
255 194 228
255 194 228
255 194 228
255 194 228
255 194 228
255 194 228
255 194 228
255 194 228
255 194 228
255 194 228
255 194 228
255 194 228
255 194 228
255 194 228
255 194 228
255 194 228
255 194 228
255 194 228
255 194 228
255 194 228
255 206 240
255 194 228
255 194 228
255 194 228
255 194 228
255 194 228
255 194 228
255 194 228
255 194 228
255 194 228
255 194 228
255 194 228
255 194 228
255 194 228
255 194 228
255 194 228
255 194 228
255 194 228
255 194 228
255 194 228
255 194 228
255 194 228
255 194 228
255 206 240
255 194 228
255 194 228
255 194 228
255 194 228
255 194 228
255 194 228
255 194 228
255 194 228
255 194 228
255 194 228
255 194 228
255 194 228
255 194 228
255 194 228
255 194 228
255 194 228
255 194 228
255 194 228
255 194 228
255 194 228
255 194 228
255 194 228
255 194 228
255 194 228
255 194 228
255 194 228
255 194 228
255 194 228
255 194 228
255 194 228
255 194 228
255 194 228
255 194 228
255 194 228
255 194 228
255 194 228
255 206 240
255 194 228
255 194 228
255 194 228
255 194 228
255 194 228
255 194 228
255 194 228
255 194 228
255 194 228
255 194 228
255 194 228
255 194 228
255 194 228
255 194 228
255 194 228
255 194 228
255 194 228
255 194 228
255 194 228
255 194 228
255 194 228
255 194 228
255 194 228
255 194 228
255 194 228
255 194 228
255 194 228
255 194 228
255 194 228
255 194 228
255 194 228
255 194 228
255 194 228
255 194 228
255 194 228
255 194 228
255 206 240
255 194 228
255 194 228
255 194 228
255 194 228
255 194 228
255 194 228
255 194 228
255 194 228
255 194 228
255 194 228
255 194 228
255 194 228
255 194 228
255 194 228
255 194 228
255 194 228
255 194 228
255 194 228
255 194 228
255 194 228
255 194 228
255 194 228
255 194 228
255 194 228
255 194 228
255 194 228
255 194 228
255 194 228
255 194 228
255 194 228
255 194 228
255 194 228
255 194 228
255 194 228
255 194 228
255 194 228
255 206 240
255 194 228
255 194 228
255 194 228
255 194 228
255 194 228
255 194 228
255 194 228
255 194 228
255 194 228
255 194 228
255 194 228
255 194 228
255 194 228
255 194 228
255 194 228
255 194 228
255 194 228
255 194 228
255 194 228
255 194 228
255 194 228
255 194 228
255 194 228
255 194 228
255 194 228
255 194 228
255 194 228
255 194 228
255 194 228
255 194 228
255 194 228
255 194 228
255 194 228
255 194 228
255 194 228
255 194 228
255 206 240
255 194 228
255 194 228
255 194 228
255 194 228
255 194 228
255 194 228
255 194 228
255 194 228
255 194 228
255 194 228
255 194 228
255 194 228
255 194 228
255 194 228
255 194 228
255 194 228
255 194 228
255 194 228
255 194 228
255 194 228
255 194 228
255 194 228
255 194 228
255 194 228
255 194 228
255 194 228
255 194 228
255 194 228
255 194 228
255 194 228
255 194 228
255 194 228
255 194 228
255 194 228
255 194 228
255 194 228
255 206 240
255 194 228
255 194 228
255 194 228
255 194 228
255 194 228
255 194 228
255 194 228
255 194 228
255 194 228
255 194 228
255 194 228
255 194 228
255 194 228
255 194 228
255 194 228
255 194 228
255 194 228
255 194 228
255 194 228
255 194 228
255 194 228
255 194 228
255 194 228
255 194 228
255 194 228
255 194 228
255 194 228
255 194 228
255 194 228
255 194 228
255 194 228
255 194 228
255 194 228
255 194 228
255 194 228
255 194 228
255 206 240
255 194 228
255 194 228
255 194 228
255 194 228
255 194 228
255 194 228
255 194 228
255 194 228
255 194 228
255 194 228
255 194 228
255 194 228
255 194 228
255 194 228
255 194 228
255 194 228
255 194 228
255 194 228
255 194 228
255 194 228
255 194 228
255 194 228
255 194 228
255 194 228
255 194 228
255 194 228
255 194 228
255 194 228
255 194 228
255 194 228
255 194 228
255 194 228
255 194 228
255 194 228
255 194 228
255 194 228
255 206 240
255 194 228
255 194 228
255 194 228
255 194 228
255 194 228
255 194 228
255 194 228
255 194 228
255 194 228
255 194 228
255 194 228
255 194 228
255 194 228
255 194 228
255 194 228
255 194 228
255 194 228
255 194 228
255 194 228
255 194 228
255 194 228
255 194 228
255 194 228
255 194 228
255 194 228
255 194 228
255 194 228
255 194 228
255 194 228
255 194 228
255 194 228
255 194 228
255 194 228
255 194 228
255 194 228
255 194 228
255 206 240
255 194 228
255 194 228
255 194 228
255 194 228
255 194 228
255 194 228
255 194 228
255 194 228
255 194 228
255 194 228
255 194 228
255 194 228
255 194 228
255 194 228
255 194 228
255 194 228
255 194 228
255 194 228
255 194 228
255 194 228
255 194 228
255 194 228
255 206 240
255 194 228
255 194 228
255 194 228
255 194 228
255 194 228
255 194 228
255 194 228
255 194 228
255 194 228
255 194 228
255 194 228
255 194 228
255 194 228
255 194 228
255 194 228
255 194 228
255 194 228
255 194 228
255 194 228
255 194 228
255 194 228
255 194 228
255 194 228
255 194 228
255 194 228
255 194 228
255 194 228
255 194 228
255 194 228
255 194 228
255 194 228
255 194 228
255 194 228
255 194 228
255 194 228
255 194 228
255 206 240
255 194 228
255 194 228
255 194 228
255 194 228
255 194 228
255 194 228
255 194 228
255 194 228
255 194 228
255 194 228
255 194 228
255 194 228
255 194 228
255 194 228
255 194 228
255 194 228
255 194 228
255 194 228
255 194 228
255 194 228
255 194 228
255 194 228
255 194 228
255 194 228
255 194 228
255 194 228
255 194 228
255 194 228
255 194 228
255 194 228
255 194 228
255 194 228
255 194 228
255 194 228
255 194 228
255 194 228
255 206 240
255 194 228
255 194 228
255 194 228
255 194 228
255 194 228
255 194 228
255 194 228
255 194 228
255 194 228
255 194 228
255 194 228
255 194 228
255 194 228
255 194 228
255 194 228
255 194 228
255 194 228
255 194 228
255 194 228
255 194 228
255 194 228
255 194 228
255 194 228
255 194 228
255 194 228
255 194 228
255 194 228
255 194 228
255 194 228
255 194 228
255 194 228
255 194 228
255 194 228
255 194 228
255 194 228
255 194 228
255 206 240
255 194 228
255 194 228
255 194 228
255 194 228
255 194 228
255 194 228
255 194 228
255 194 228
255 194 228
255 194 228
255 194 228
255 194 228
255 194 228
255 194 228
255 194 228
255 194 228
255 194 228
255 194 228
255 194 228
255 194 228
255 194 228
255 194 228
255 194 228
255 194 228
255 194 228
255 194 228
255 194 228
255 194 228
255 194 228
255 194 228
255 194 228
255 194 228
255 194 228
255 194 228
255 194 228
255 194 228
255 206 240
255 194 228
255 194 228
255 194 228
255 194 228
255 194 228
255 194 228
255 194 228
255 194 228
255 194 228
255 194 228
255 194 228
255 194 228
255 194 228
255 194 228
255 194 228
255 194 228
255 194 228
255 194 228
255 194 228
255 194 228
255 194 228
255 194 228
255 194 228
255 194 228
255 194 228
255 194 228
255 194 228
255 194 228
255 194 228
255 194 228
255 194 228
255 194 228
255 194 228
255 194 228
255 194 228
255 194 228
255 206 240
255 194 228
255 194 228
255 194 228
255 194 228
255 194 228
255 194 228
255 194 228
255 194 228
255 194 228
255 194 228
255 194 228
255 194 228
255 194 228
255 194 228
255 194 228
255 194 228
255 194 228
255 194 228
255 194 228
255 194 228
255 194 228
255 194 228
255 194 228
255 194 228
255 194 228
255 194 228
255 194 228
255 194 228
255 194 228
255 194 228
255 194 228
255 194 228
255 194 228
255 194 228
255 194 228
255 194 228
255 206 240
255 194 228
255 194 228
255 194 228
255 194 228
255 194 228
255 194 228
255 194 228
255 194 228
255 194 228
255 194 228
255 194 228
255 194 228
255 194 228
255 194 228
255 194 228
255 194 228
255 194 228
255 194 228
255 194 228
255 194 228
255 194 228
255 194 228
255 194 228
255 194 228
255 194 228
255 194 228
255 194 228
255 194 228
255 194 228
255 194 228
255 194 228
255 194 228
255 194 228
255 194 228
255 194 228
255 194 228
255 206 240
255 194 228
255 194 228
255 194 228
255 194 228
255 194 228
255 194 228
255 194 228
255 194 228
255 194 228
255 194 228
255 194 228
255 194 228
255 194 228
255 194 228
255 194 228
255 194 228
255 194 228
255 194 228
255 194 228
255 194 228
255 194 228
255 194 228
255 194 228
255 194 228
255 194 228
255 194 228
255 194 228
255 194 228
255 194 228
255 194 228
255 194 228
255 194 228
255 194 228
255 194 228
255 194 228
255 194 228
255 206 240
255 194 228
255 194 228
255 194 228
255 194 228
255 194 228
255 194 228
255 194 228
255 194 228
255 194 228
255 194 228
255 194 228
255 194 228
255 194 228
255 194 228
255 194 228
255 194 228
255 194 228
255 194 228
255 194 228
255 194 228
255 194 228
255 194 228
255 206 240
255 194 228
255 194 228
255 194 228
255 194 228
255 194 228
255 194 228
255 194 228
255 194 228
255 194 228
255 194 228
255 194 228
255 194 228
255 194 228
255 194 228
255 194 228
255 194 228
255 194 228
255 194 228
255 194 228
255 194 228
255 194 228
255 194 228
255 194 228
255 194 228
255 194 228
255 194 228
255 194 228
255 194 228
255 194 228
255 194 228
255 194 228
255 194 228
255 194 228
255 194 228
255 194 228
255 194 228
255 206 240
255 194 228
255 194 228
255 194 228
255 194 228
255 194 228
255 194 228
255 194 228
255 194 228
255 194 228
255 194 228
255 194 228
255 194 228
255 194 228
255 194 228
255 194 228
255 194 228
255 194 228
255 194 228
255 194 228
255 194 228
255 194 228
255 194 228
255 194 228
255 194 228
255 194 228
255 194 228
255 194 228
255 194 228
255 194 228
255 194 228
255 194 228
255 194 228
255 194 228
255 194 228
255 194 228
255 194 228
255 206 240
255 194 228
255 194 228
255 194 228
255 194 228
255 194 228
255 194 228
255 194 228
255 194 228
255 194 228
255 194 228
255 194 228
255 194 228
255 194 228
255 194 228
255 194 228
255 194 228
255 194 228
255 194 228
255 194 228
255 194 228
255 194 228
255 194 228
255 194 228
255 194 228
255 194 228
255 194 228
255 194 228
255 194 228
255 194 228
255 194 228
255 194 228
255 194 228
255 194 228
255 194 228
255 194 228
255 194 228
255 206 240
255 194 228
255 194 228
255 194 228
255 194 228
255 194 228
255 194 228
255 194 228
255 194 228
255 194 228
255 194 228
255 194 228
255 194 228
255 194 228
255 194 228
255 194 228
255 194 228
255 194 228
255 194 228
255 194 228
255 194 228
255 194 228
255 194 228
255 194 228
255 194 228
255 194 228
255 194 228
255 194 228
255 194 228
255 194 228
255 194 228
255 194 228
255 194 228
255 194 228
255 194 228
255 194 228
255 194 228
255 206 240
255 194 228
255 194 228
255 194 228
255 194 228
255 194 228
255 194 228
255 194 228
255 194 228
255 194 228
255 194 228
255 194 228
255 194 228
255 194 228
255 194 228
255 194 228
255 194 228
255 194 228
255 194 228
255 194 228
255 194 228
255 194 228
255 194 228
255 194 228
255 194 228
255 194 228
255 194 228
255 194 228
255 194 228
255 194 228
255 194 228
255 194 228
255 194 228
255 194 228
255 194 228
255 194 228
255 194 228
255 206 240
255 194 228
255 194 228
255 194 228
255 194 228
255 194 228
255 194 228
255 194 228
255 194 228
255 194 228
255 194 228
255 194 228
255 194 228
255 194 228
255 194 228
255 194 228
255 194 228
255 194 228
255 194 228
255 194 228
255 194 228
255 194 228
255 194 228
255 194 228
255 194 228
255 194 228
255 194 228
255 194 228
255 194 228
255 194 228
255 194 228
255 194 228
255 194 228
255 194 228
255 194 228
255 194 228
255 194 228
255 206 240
255 194 228
255 194 228
255 194 228
255 194 228
255 194 228
255 194 228
255 194 228
255 194 228
255 194 228
255 194 228
255 194 228
255 194 228
255 194 228
255 194 228
255 194 228
255 194 228
255 194 228
255 194 228
255 194 228
255 194 228
255 194 228
255 194 228
255 194 228
255 194 228
255 194 228
255 194 228
255 194 228
255 194 228
255 194 228
255 194 228
255 194 228
255 194 228
255 194 228
255 194 228
255 194 228
255 194 228
255 206 240
255 194 228
255 194 228
255 194 228
255 194 228
255 194 228
255 194 228
255 194 228
255 194 228
255 194 228
255 194 228
255 194 228
255 194 228
255 194 228
255 194 228
255 194 228
255 194 228
255 194 228
255 194 228
255 194 228
255 194 228
255 194 228
255 194 228
255 194 228
255 194 228
255 194 228
255 194 228
255 194 228
255 194 228
255 194 228
255 194 228
255 194 228
255 194 228
255 194 228
255 194 228
255 194 228
255 194 228
255 206 240
255 194 228
255 194 228
255 194 228
255 194 228
255 194 228
255 194 228
255 194 228
255 194 228
255 194 228
255 194 228
255 194 228
255 194 228
255 194 228
255 194 228
255 194 228
255 194 228
255 194 228
255 194 228
255 194 228
255 194 228
255 194 228
255 194 228
255 206 240
255 194 228
255 194 228
255 194 228
255 194 228
255 194 228
255 194 228
255 194 228
255 194 228
255 194 228
255 194 228
255 194 228
255 194 228
255 194 228
255 194 228
255 194 228
255 194 228
255 194 228
255 194 228
255 194 228
255 194 228
255 194 228
255 194 228
255 194 228
255 194 228
255 194 228
255 194 228
255 194 228
255 194 228
255 194 228
255 194 228
255 194 228
255 194 228
255 194 228
255 194 228
255 194 228
255 194 228
255 206 240
255 194 228
255 194 228
255 194 228
255 194 228
255 194 228
255 194 228
255 194 228
255 194 228
255 194 228
255 194 228
255 194 228
255 194 228
255 194 228
255 194 228
255 194 228
255 194 228
255 194 228
255 194 228
255 194 228
255 194 228
255 194 228
255 194 228
255 194 228
255 194 228
255 194 228
255 194 228
255 194 228
255 194 228
255 194 228
255 194 228
255 194 228
255 194 228
255 194 228
255 194 228
255 194 228
255 194 228
255 206 240
255 194 228
255 194 228
255 194 228
255 194 228
255 194 228
255 194 228
255 194 228
255 194 228
255 194 228
255 194 228
255 194 228
255 194 228
255 194 228
255 194 228
255 194 228
255 194 228
255 194 228
255 194 228
255 194 228
255 194 228
255 194 228
255 194 228
255 194 228
255 194 228
255 194 228
255 194 228
255 194 228
255 194 228
255 194 228
255 194 228
255 194 228
255 194 228
255 194 228
255 194 228
255 194 228
255 194 228
255 206 240
255 194 228
255 194 228
255 194 228
255 194 228
255 194 228
255 194 228
255 194 228
255 194 228
255 194 228
255 194 228
255 194 228
255 194 228
255 194 228
255 194 228
255 194 228
255 194 228
255 194 228
255 194 228
255 194 228
255 194 228
255 194 228
255 194 228
255 194 228
255 194 228
255 194 228
255 194 228
255 194 228
255 194 228
255 194 228
255 194 228
255 194 228
255 194 228
255 194 228
255 194 228
255 194 228
255 194 228
255 206 240
255 194 228
255 194 228
255 194 228
255 194 228
255 194 228
255 194 228
255 194 228
255 194 228
255 194 228
255 194 228
255 194 228
255 194 228
255 194 228
255 194 228
255 194 228
255 194 228
255 194 228
255 194 228
255 194 228
255 194 228
255 194 228
255 194 228
255 194 228
255 194 228
255 194 228
255 194 228
255 194 228
255 194 228
255 194 228
255 194 228
255 194 228
255 194 228
255 194 228
255 194 228
255 194 228
255 194 228
255 206 240
255 194 228
255 194 228
255 194 228
255 194 228
255 194 228
255 194 228
255 194 228
255 194 228
255 194 228
255 194 228
255 194 228
255 194 228
255 194 228
255 194 228
255 194 228
255 194 228
255 194 228
255 194 228
255 194 228
255 194 228
255 194 228
255 194 228
255 194 228
255 194 228
255 194 228
255 194 228
255 194 228
255 194 228
255 194 228
255 194 228
255 194 228
255 194 228
255 194 228
255 194 228
255 194 228
255 194 228
255 206 240
255 194 228
255 194 228
255 194 228
255 194 228
255 194 228
255 194 228
255 194 228
255 194 228
255 194 228
255 194 228
255 194 228
255 194 228
255 194 228
255 194 228
255 194 228
255 194 228
255 194 228
255 194 228
255 194 228
255 194 228
255 194 228
255 194 228
255 194 228
255 194 228
255 194 228
255 194 228
255 194 228
255 194 228
255 194 228
255 194 228
255 194 228
255 194 228
255 194 228
255 194 228
255 194 228
255 194 228
255 206 240
255 194 228
255 194 228
255 194 228
255 194 228
255 194 228
255 194 228
255 194 228
255 194 228
255 194 228
255 194 228
255 194 228
255 194 228
255 194 228
255 194 228
255 194 228
255 194 228
255 194 228
255 194 228
255 194 228
255 194 228
255 194 228
255 194 228
255 194 228
255 194 228
255 194 228
255 194 228
255 194 228
255 194 228
255 194 228
255 194 228
255 194 228
255 194 228
255 194 228
255 194 228
255 194 228
255 194 228
255 206 240
255 194 228
255 194 228
255 194 228
255 194 228
255 194 228
255 194 228
255 194 228
255 194 228
255 194 228
255 194 228
255 194 228
255 194 228
255 194 228
255 194 228
255 194 228
255 194 228
255 194 228
255 194 228
255 194 228
255 194 228
255 194 228
255 194 228
255 206 240
255 194 228
255 194 228
255 194 228
255 194 228
255 194 228
255 194 228
255 194 228
255 194 228
255 194 228
255 194 228
255 194 228
255 194 228
255 194 228
255 194 228
255 194 228
255 194 228
255 194 228
255 194 228
255 194 228
255 194 228
255 194 228
255 194 228
255 194 228
255 194 228
255 194 228
255 194 228
255 194 228
255 194 228
255 194 228
255 194 228
255 194 228
255 194 228
255 194 228
255 194 228
255 194 228
255 194 228
255 206 240
255 194 228
255 194 228
255 194 228
255 194 228
255 194 228
255 194 228
255 194 228
255 194 228
255 194 228
255 194 228
255 194 228
255 194 228
255 194 228
255 194 228
255 194 228
255 194 228
255 194 228
255 194 228
255 194 228
255 194 228
255 194 228
255 194 228
255 194 228
255 194 228
255 194 228
255 194 228
255 194 228
255 194 228
255 194 228
255 194 228
255 194 228
255 194 228
255 194 228
255 194 228
255 194 228
255 194 228
255 206 240
255 194 228
255 194 228
255 194 228
255 194 228
255 194 228
255 194 228
255 194 228
255 194 228
255 194 228
255 194 228
255 194 228
255 194 228
255 194 228
255 194 228
255 194 228
255 194 228
255 194 228
255 194 228
255 194 228
255 194 228
255 194 228
255 194 228
255 194 228
255 194 228
255 194 228
255 194 228
255 194 228
255 194 228
255 194 228
255 194 228
255 194 228
255 194 228
255 194 228
255 194 228
255 194 228
255 194 228
255 206 240
255 194 228
255 194 228
255 194 228
255 194 228
255 194 228
255 194 228
255 194 228
255 194 228
255 194 228
255 194 228
255 194 228
255 194 228
255 194 228
255 194 228
255 194 228
255 194 228
255 194 228
255 194 228
255 194 228
255 194 228
255 194 228
255 194 228
255 194 228
255 194 228
255 194 228
255 194 228
255 194 228
255 194 228
255 194 228
255 194 228
255 194 228
255 194 228
255 194 228
255 194 228
255 194 228
255 194 228
255 206 240
255 194 228
255 194 228
255 194 228
255 194 228
255 194 228
255 194 228
255 194 228
255 194 228
255 194 228
255 194 228
255 194 228
255 194 228
255 194 228
255 194 228
255 194 228
255 194 228
255 194 228
255 194 228
255 194 228
255 194 228
255 194 228
255 194 228
255 194 228
255 194 228
255 194 228
255 194 228
255 194 228
255 194 228
255 194 228
255 194 228
255 194 228
255 194 228
255 194 228
255 194 228
255 194 228
255 194 228
255 206 240
255 194 228
255 194 228
255 194 228
255 194 228
255 194 228
255 194 228
255 194 228
255 194 228
255 194 228
255 194 228
255 194 228
255 194 228
255 194 228
255 194 228
255 194 228
255 194 228
255 194 228
255 194 228
255 194 228
255 194 228
255 194 228
255 194 228
255 194 228
255 194 228
255 194 228
255 194 228
255 194 228
255 194 228
255 194 228
255 194 228
255 194 228
255 194 228
255 194 228
255 194 228
255 194 228
255 194 228
255 206 240
255 194 228
255 194 228
255 194 228
255 194 228
255 194 228
255 194 228
255 194 228
255 194 228
255 194 228
255 194 228
255 194 228
255 194 228
255 194 228
255 194 228
255 194 228
255 194 228
255 194 228
255 194 228
255 194 228
255 194 228
255 194 228
255 194 228
255 194 228
255 194 228
255 194 228
255 194 228
255 194 228
255 194 228
255 194 228
255 194 228
255 194 228
255 194 228
255 194 228
255 194 228
255 194 228
255 194 228
255 206 240
255 194 228
255 194 228
255 194 228
255 194 228
255 194 228
255 194 228
255 194 228
255 194 228
255 194 228
255 194 228
255 194 228
255 194 228
255 194 228
255 194 228
255 194 228
255 194 228
255 194 228
255 194 228
255 194 228
255 194 228
255 194 228
255 194 228
255 194 228
255 194 228
255 194 228
255 194 228
255 194 228
255 194 228
255 194 228
255 194 228
255 194 228
255 194 228
255 194 228
255 194 228
255 194 228
255 194 228
255 206 240
255 194 228
255 194 228
255 194 228
255 194 228
255 194 228
255 194 228
255 194 228
255 194 228
255 194 228
255 194 228
255 194 228
255 194 228
255 194 228
255 194 228
255 194 228
255 194 228
255 194 228
255 194 228
255 194 228
255 194 228
255 194 228
255 194 228
255 206 240
255 194 228
255 194 228
255 194 228
255 194 228
255 194 228
255 194 228
255 194 228
255 194 228
255 194 228
255 194 228
255 194 228
255 194 228
255 194 228
255 194 228
255 194 228
255 194 228
255 194 228
255 194 228
255 194 228
255 194 228
255 194 228
255 194 228
255 194 228
255 194 228
255 194 228
255 194 228
255 194 228
255 194 228
255 194 228
255 194 228
255 194 228
255 194 228
255 194 228
255 194 228
255 194 228
255 194 228
255 206 240
255 194 228
255 194 228
255 194 228
255 194 228
255 194 228
255 194 228
255 194 228
255 194 228
255 194 228
255 194 228
255 194 228
255 194 228
255 194 228
255 194 228
255 194 228
255 194 228
255 194 228
255 194 228
255 194 228
255 194 228
255 194 228
255 194 228
255 194 228
255 194 228
255 194 228
255 194 228
255 194 228
255 194 228
255 194 228
255 194 228
255 194 228
255 194 228
255 194 228
255 194 228
255 194 228
255 194 228
255 206 240
255 194 228
255 194 228
255 194 228
255 194 228
255 194 228
255 194 228
255 194 228
255 194 228
255 194 228
255 194 228
255 194 228
255 194 228
255 194 228
255 194 228
255 194 228
255 194 228
255 194 228
255 194 228
255 194 228
255 194 228
255 194 228
255 194 228
255 194 228
255 194 228
255 194 228
255 194 228
255 194 228
255 194 228
255 194 228
255 194 228
255 194 228
255 194 228
255 194 228
255 194 228
255 194 228
255 194 228
255 206 240
255 194 228
255 194 228
255 194 228
255 194 228
255 194 228
255 194 228
255 194 228
255 194 228
255 194 228
255 194 228
255 194 228
255 194 228
255 194 228
255 194 228
255 194 228
255 194 228
255 194 228
255 194 228
255 194 228
255 194 228
255 194 228
255 194 228
255 194 228
255 194 228
255 194 228
255 194 228
255 194 228
255 194 228
255 194 228
255 194 228
255 194 228
255 194 228
255 194 228
255 194 228
255 194 228
255 194 228
255 206 240
255 194 228
255 194 228
255 194 228
255 194 228
255 194 228
255 194 228
255 194 228
255 194 228
255 194 228
255 194 228
255 194 228
255 194 228
255 194 228
255 194 228
255 194 228
255 194 228
255 194 228
255 194 228
255 194 228
255 194 228
255 194 228
255 194 228
255 194 228
255 194 228
255 194 228
255 194 228
255 194 228
255 194 228
255 194 228
255 194 228
255 194 228
255 194 228
255 194 228
255 194 228
255 194 228
255 194 228
255 206 240
255 194 228
255 194 228
255 194 228
255 194 228
255 194 228
255 194 228
255 194 228
255 194 228
255 194 228
255 194 228
255 194 228
255 194 228
255 194 228
255 194 228
255 194 228
255 194 228
255 194 228
255 194 228
255 194 228
255 194 228
255 194 228
255 194 228
255 194 228
255 194 228
255 194 228
255 194 228
255 194 228
255 194 228
255 194 228
255 194 228
255 194 228
255 194 228
255 194 228
255 194 228
255 194 228
255 194 228
255 206 240
255 194 228
255 194 228
255 194 228
255 194 228
255 194 228
255 194 228
255 194 228
255 194 228
255 194 228
255 194 228
255 194 228
255 194 228
255 194 228
255 194 228
255 194 228
255 194 228
255 194 228
255 194 228
255 194 228
255 194 228
255 194 228
255 194 228
255 194 228
255 194 228
255 194 228
255 194 228
255 194 228
255 194 228
255 194 228
255 194 228
255 194 228
255 194 228
255 194 228
255 194 228
255 194 228
255 194 228
255 206 240
255 194 228
255 194 228
255 194 228
255 194 228
255 194 228
255 194 228
255 194 228
255 194 228
255 194 228
255 194 228
255 194 228
255 194 228
255 194 228
255 194 228
255 194 228
255 194 228
255 194 228
255 194 228
255 194 228
255 194 228
255 194 228
255 194 228
255 194 228
255 194 228
255 194 228
255 194 228
255 194 228
255 194 228
255 194 228
255 194 228
255 194 228
255 194 228
255 194 228
255 194 228
255 194 228
255 194 228
255 206 240
255 194 228
255 194 228
255 194 228
255 194 228
255 194 228
255 194 228
255 194 228
255 194 228
255 194 228
255 194 228
255 194 228
255 194 228
255 194 228
255 194 228
255 194 228
255 194 228
255 194 228
255 194 228
255 194 228
255 194 228
255 194 228
255 194 228
255 206 240
255 194 228
255 194 228
255 194 228
255 194 228
255 194 228
255 194 228
255 194 228
255 194 228
255 194 228
255 194 228
255 194 228
255 194 228
255 194 228
255 194 228
255 194 228
255 194 228
255 194 228
255 194 228
255 194 228
255 194 228
255 194 228
255 194 228
255 194 228
255 194 228
255 194 228
255 194 228
255 194 228
255 194 228
255 194 228
255 194 228
255 194 228
255 194 228
255 194 228
255 194 228
255 194 228
255 194 228
255 206 240
255 194 228
255 194 228
255 194 228
255 194 228
255 194 228
255 194 228
255 194 228
255 194 228
255 194 228
255 194 228
255 194 228
255 194 228
255 194 228
255 194 228
255 194 228
255 194 228
255 194 228
255 194 228
255 194 228
255 194 228
255 194 228
255 194 228
255 194 228
255 194 228
255 194 228
255 194 228
255 194 228
255 194 228
255 194 228
255 194 228
255 194 228
255 194 228
255 194 228
255 194 228
255 194 228
255 194 228
255 206 240
255 194 228
255 194 228
255 194 228
255 194 228
255 194 228
255 194 228
255 194 228
255 194 228
255 194 228
255 194 228
255 194 228
255 194 228
255 194 228
255 194 228
255 194 228
255 194 228
255 194 228
255 194 228
255 194 228
255 194 228
255 194 228
255 194 228
255 194 228
255 194 228
255 194 228
255 194 228
255 194 228
255 194 228
255 194 228
255 194 228
255 194 228
255 194 228
255 194 228
255 194 228
255 194 228
255 194 228
255 206 240
255 194 228
255 194 228
255 194 228
255 194 228
255 194 228
255 194 228
255 194 228
255 194 228
255 194 228
255 194 228
255 194 228
255 194 228
255 194 228
255 194 228
255 194 228
255 194 228
255 194 228
255 194 228
255 194 228
255 194 228
255 194 228
255 194 228
255 194 228
255 194 228
255 194 228
255 194 228
255 194 228
255 194 228
255 194 228
255 194 228
255 194 228
255 194 228
255 194 228
255 194 228
255 194 228
255 194 228
255 206 240
255 194 228
255 194 228
255 194 228
255 194 228
255 194 228
255 194 228
255 194 228
255 194 228
255 194 228
255 194 228
255 194 228
255 194 228
255 194 228
255 194 228
255 194 228
255 194 228
255 194 228
255 194 228
255 194 228
255 194 228
255 194 228
255 194 228
255 194 228
255 194 228
255 194 228
255 194 228
255 194 228
255 194 228
255 194 228
255 194 228
255 194 228
255 194 228
255 194 228
255 194 228
255 194 228
255 194 228
255 206 240
255 194 228
255 194 228
255 194 228
255 194 228
255 194 228
255 194 228
255 194 228
255 194 228
255 194 228
255 194 228
255 194 228
255 194 228
255 194 228
255 194 228
255 194 228
255 194 228
255 194 228
255 194 228
255 194 228
255 194 228
255 194 228
255 194 228
255 194 228
255 194 228
255 194 228
255 194 228
255 194 228
255 194 228
255 194 228
255 194 228
255 194 228
255 194 228
255 194 228
255 194 228
255 194 228
255 194 228
255 206 240
255 194 228
255 194 228
255 194 228
255 194 228
255 194 228
255 194 228
255 194 228
255 194 228
255 194 228
255 194 228
255 194 228
255 194 228
255 194 228
255 194 228
255 194 228
255 194 228
255 194 228
255 194 228
255 194 228
255 194 228
255 194 228
255 194 228
255 194 228
255 194 228
255 194 228
255 194 228
255 194 228
255 194 228
255 194 228
255 194 228
255 194 228
255 194 228
255 194 228
255 194 228
255 194 228
255 194 228
255 206 240
255 194 228
255 194 228
255 194 228
255 194 228
255 194 228
255 194 228
255 194 228
255 194 228
255 194 228
255 194 228
255 194 228
255 194 228
255 194 228
255 194 228
255 194 228
255 194 228
255 194 228
255 194 228
255 194 228
255 194 228
255 194 228
255 194 228
255 194 228
255 194 228
255 194 228
255 194 228
255 194 228
255 194 228
255 194 228
255 194 228
255 194 228
255 194 228
255 194 228
255 194 228
255 194 228
255 194 228
255 206 240
255 194 228
255 194 228
255 194 228
255 194 228
255 194 228
255 194 228
255 194 228
255 194 228
255 194 228
255 194 228
255 194 228
255 194 228
255 194 228
255 194 228
255 194 228
255 194 228
255 194 228
255 194 228
255 194 228
255 194 228
255 194 228
255 194 228
255 206 240
255 194 228
255 194 228
255 194 228
255 194 228
255 194 228
255 194 228
255 194 228
255 194 228
255 194 228
255 194 228
255 194 228
255 194 228
255 194 228
255 194 228
255 194 228
255 194 228
255 194 228
255 194 228
255 194 228
255 194 228
255 194 228
255 194 228
255 194 228
255 194 228
255 194 228
255 194 228
255 194 228
255 194 228
255 194 228
255 194 228
255 194 228
255 194 228
255 194 228
255 194 228
255 194 228
255 194 228
255 206 240
255 194 228
255 194 228
255 194 228
255 194 228
255 194 228
255 194 228
255 194 228
255 194 228
255 194 228
255 194 228
255 194 228
255 194 228
255 194 228
255 194 228
255 194 228
255 194 228
255 194 228
255 194 228
255 194 228
255 194 228
255 194 228
255 194 228
255 194 228
255 194 228
255 194 228
255 194 228
255 194 228
255 194 228
255 194 228
255 194 228
255 194 228
255 194 228
255 194 228
255 194 228
255 194 228
255 194 228
255 206 240
255 194 228
255 194 228
255 194 228
255 194 228
255 194 228
255 194 228
255 194 228
255 194 228
255 194 228
255 194 228
255 194 228
255 194 228
255 194 228
255 194 228
255 194 228
255 194 228
255 194 228
255 194 228
255 194 228
255 194 228
255 194 228
255 194 228
255 194 228
255 194 228
255 194 228
255 194 228
255 194 228
255 194 228
255 194 228
255 194 228
255 194 228
255 194 228
255 194 228
255 194 228
255 194 228
255 194 228
255 206 240
255 194 228
255 194 228
255 194 228
255 194 228
255 194 228
255 194 228
255 194 228
255 194 228
255 194 228
255 194 228
255 194 228
255 194 228
255 194 228
255 194 228
255 194 228
255 194 228
255 194 228
255 194 228
255 194 228
255 194 228
255 194 228
255 194 228
255 194 228
255 194 228
255 194 228
255 194 228
255 194 228
255 194 228
255 194 228
255 194 228
255 194 228
255 194 228
255 194 228
255 194 228
255 194 228
255 194 228
255 206 240
255 194 228
255 194 228
255 194 228
255 194 228
255 194 228
255 194 228
255 194 228
255 194 228
255 194 228
255 194 228
255 194 228
255 194 228
255 194 228
255 194 228
255 194 228
255 194 228
255 194 228
255 194 228
255 194 228
255 194 228
255 194 228
255 194 228
255 194 228
255 194 228
255 194 228
255 194 228
255 194 228
255 194 228
255 194 228
255 194 228
255 194 228
255 194 228
255 194 228
255 194 228
255 194 228
255 194 228
255 206 240
255 194 228
255 194 228
255 194 228
255 194 228
255 194 228
255 194 228
255 194 228
255 194 228
255 194 228
255 194 228
255 194 228
255 194 228
255 194 228
255 194 228
255 194 228
255 194 228
255 194 228
255 194 228
255 194 228
255 194 228
255 194 228
255 194 228
255 194 228
255 194 228
255 194 228
255 194 228
255 194 228
255 194 228
255 194 228
255 194 228
255 194 228
255 194 228
255 194 228
255 194 228
255 194 228
255 194 228
255 206 240
255 194 228
255 194 228
255 194 228
255 194 228
255 194 228
255 194 228
255 194 228
255 194 228
255 194 228
255 194 228
255 194 228
255 194 228
255 194 228
255 194 228
255 194 228
255 194 228
255 194 228
255 194 228
255 194 228
255 194 228
255 194 228
255 194 228
255 194 228
255 194 228
255 194 228
255 194 228
255 194 228
255 194 228
255 194 228
255 194 228
255 194 228
255 194 228
255 194 228
255 194 228
255 194 228
255 194 228
255 206 240
255 194 228
255 194 228
255 194 228
255 194 228
255 194 228
255 194 228
255 194 228
255 194 228
255 194 228
255 194 228
255 194 228
255 194 228
255 194 228
255 194 228
255 194 228
255 194 228
255 194 228
255 194 228
255 194 228
255 194 228
255 194 228
255 194 228
255 194 228
255 194 228
255 194 228
255 194 228
255 194 228
255 194 228
255 194 228
255 194 228
255 194 228
255 194 228
255 194 228
255 194 228
255 194 228
255 194 228
255 206 240
255 194 228
255 194 228
255 194 228
255 194 228
255 194 228
255 194 228
255 194 228
255 194 228
255 194 228
255 194 228
255 194 228
255 194 228
255 194 228
255 194 228
255 194 228
255 194 228
255 194 228
255 194 228
255 194 228
255 194 228
255 194 228
255 194 228
255 206 240
255 194 228
255 194 228
255 194 228
255 194 228
255 194 228
255 194 228
255 194 228
255 194 228
255 194 228
255 194 228
255 194 228
255 194 228
255 194 228
255 194 228
255 194 228
255 194 228
255 194 228
255 194 228
255 194 228
255 194 228
255 194 228
255 194 228
255 194 228
255 194 228
255 194 228
255 194 228
255 194 228
255 194 228
255 194 228
255 194 228
255 194 228
255 194 228
255 194 228
255 194 228
255 194 228
255 194 228
255 206 240
255 194 228
255 194 228
255 194 228
255 194 228
255 194 228
255 194 228
255 194 228
255 194 228
255 194 228
255 194 228
255 194 228
255 194 228
255 194 228
255 194 228
255 194 228
255 194 228
255 194 228
255 194 228
255 194 228
255 194 228
255 194 228
255 194 228
255 194 228
255 194 228
255 194 228
255 194 228
255 194 228
255 194 228
255 194 228
255 194 228
255 194 228
255 194 228
255 194 228
255 194 228
255 194 228
255 194 228
255 206 240
255 194 228
255 194 228
255 194 228
255 194 228
255 194 228
255 194 228
255 194 228
255 194 228
255 194 228
255 194 228
255 194 228
255 194 228
255 194 228
255 194 228
255 194 228
255 194 228
255 194 228
255 194 228
255 194 228
255 194 228
255 194 228
255 194 228
255 194 228
255 194 228
255 194 228
255 194 228
255 194 228
255 194 228
255 194 228
255 194 228
255 194 228
255 194 228
255 194 228
255 194 228
255 194 228
255 194 228
255 206 240
255 194 228
255 194 228
255 194 228
255 194 228
255 194 228
255 194 228
255 194 228
255 194 228
255 194 228
255 194 228
255 194 228
255 194 228
255 194 228
255 194 228
255 194 228
255 194 228
255 194 228
255 194 228
255 194 228
255 194 228
255 194 228
255 194 228
255 194 228
255 194 228
255 194 228
255 194 228
255 194 228
255 194 228
255 194 228
255 194 228
255 194 228
255 194 228
255 194 228
255 194 228
255 194 228
255 194 228
255 206 240
255 194 228
255 194 228
255 194 228
255 194 228
255 194 228
255 194 228
255 194 228
255 194 228
255 194 228
255 194 228
255 194 228
255 194 228
255 194 228
255 194 228
255 194 228
255 194 228
255 194 228
255 194 228
255 194 228
255 194 228
255 194 228
255 194 228
255 194 228
255 194 228
255 194 228
255 194 228
255 194 228
255 194 228
255 194 228
255 194 228
255 194 228
255 194 228
255 194 228
255 194 228
255 194 228
255 194 228
255 206 240
255 194 228
255 194 228
255 194 228
255 194 228
255 194 228
255 194 228
255 194 228
255 194 228
255 194 228
255 194 228
255 194 228
255 194 228
255 194 228
255 194 228
255 194 228
255 194 228
255 194 228
255 194 228
255 194 228
255 194 228
255 194 228
255 194 228
255 194 228
255 194 228
255 194 228
255 194 228
255 194 228
255 194 228
255 194 228
255 194 228
255 194 228
255 194 228
255 194 228
255 194 228
255 194 228
255 194 228
255 206 240
255 194 228
255 194 228
255 194 228
255 194 228
255 194 228
255 194 228
255 194 228
255 194 228
255 194 228
255 194 228
255 194 228
255 194 228
255 194 228
255 194 228
255 194 228
255 194 228
255 194 228
255 194 228
255 194 228
255 194 228
255 194 228
255 194 228
255 194 228
255 194 228
255 194 228
255 194 228
255 194 228
255 194 228
255 194 228
255 194 228
255 194 228
255 194 228
255 194 228
255 194 228
255 194 228
255 194 228
255 206 240
255 194 228
255 194 228
255 194 228
255 194 228
255 194 228
255 194 228
255 194 228
255 194 228
255 194 228
255 194 228
255 194 228
255 194 228
255 194 228
255 194 228
255 194 228
255 194 228
255 194 228
255 194 228
255 194 228
255 194 228
255 194 228
255 194 228
255 194 228
255 194 228
255 194 228
255 194 228
255 194 228
255 194 228
255 194 228
255 194 228
255 194 228
255 194 228
255 194 228
255 194 228
255 194 228
255 194 228
255 206 240
255 194 228
255 194 228
255 194 228
255 194 228
255 194 228
255 194 228
255 194 228
255 194 228
255 194 228
255 194 228
255 194 228
255 194 228
255 194 228
255 194 228
255 194 228
255 194 228
255 194 228
255 194 228
255 194 228
255 194 228
255 194 228
255 194 228
255 206 240
255 194 228
255 194 228
255 194 228
255 194 228
255 194 228
255 194 228
255 194 228
255 194 228
255 194 228
255 194 228
255 194 228
255 194 228
255 194 228
255 194 228
255 194 228
255 194 228
255 194 228
255 194 228
255 194 228
255 194 228
255 194 228
255 194 228
255 194 228
255 194 228
255 194 228
255 194 228
255 194 228
255 194 228
255 194 228
255 194 228
255 194 228
255 194 228
255 194 228
255 194 228
255 194 228
255 194 228
255 206 240
255 194 228
255 194 228
255 194 228
255 194 228
255 194 228
255 194 228
255 194 228
255 194 228
255 194 228
255 194 228
255 194 228
255 194 228
255 194 228
255 194 228
255 194 228
255 194 228
255 194 228
255 194 228
255 194 228
255 194 228
255 194 228
255 194 228
255 194 228
255 194 228
255 194 228
255 194 228
255 194 228
255 194 228
255 194 228
255 194 228
255 194 228
255 194 228
255 194 228
255 194 228
255 194 228
255 194 228
255 206 240
255 194 228
255 194 228
255 194 228
255 194 228
255 194 228
255 194 228
255 194 228
255 194 228
255 194 228
255 194 228
255 194 228
255 194 228
255 194 228
255 194 228
255 194 228
255 194 228
255 194 228
255 194 228
255 194 228
255 194 228
255 194 228
255 194 228
255 194 228
255 194 228
255 194 228
255 194 228
255 194 228
255 194 228
255 194 228
255 194 228
255 194 228
255 194 228
255 194 228
255 194 228
255 194 228
255 194 228
255 206 240
255 194 228
255 194 228
255 194 228
255 194 228
255 194 228
255 194 228
255 194 228
255 194 228
255 194 228
255 194 228
255 194 228
255 194 228
255 194 228
255 194 228
255 194 228
255 194 228
255 194 228
255 194 228
255 194 228
255 194 228
255 194 228
255 194 228
255 194 228
255 194 228
255 194 228
255 194 228
255 194 228
255 194 228
255 194 228
255 194 228
255 194 228
255 194 228
255 194 228
255 194 228
255 194 228
255 194 228
255 206 240
255 194 228
255 194 228
255 194 228
255 194 228
255 194 228
255 194 228
255 194 228
255 194 228
255 194 228
255 194 228
255 194 228
255 194 228
255 194 228
255 194 228
255 194 228
255 194 228
255 194 228
255 194 228
255 194 228
255 194 228
255 194 228
255 194 228
255 194 228
255 194 228
255 194 228
255 194 228
255 194 228
255 194 228
255 194 228
255 194 228
255 194 228
255 194 228
255 194 228
255 194 228
255 194 228
255 194 228
255 206 240
255 194 228
255 194 228
255 194 228
255 194 228
255 194 228
255 194 228
255 194 228
255 194 228
255 194 228
255 194 228
255 194 228
255 194 228
255 194 228
255 194 228
255 194 228
255 194 228
255 194 228
255 194 228
255 194 228
255 194 228
255 194 228
255 194 228
255 194 228
255 194 228
255 194 228
255 194 228
255 194 228
255 194 228
255 194 228
255 194 228
255 194 228
255 194 228
255 194 228
255 194 228
255 194 228
255 194 228
255 206 240
255 194 228
255 194 228
255 194 228
255 194 228
255 194 228
255 194 228
255 194 228
255 194 228
255 194 228
255 194 228
255 194 228
255 194 228
255 194 228
255 194 228
255 194 228
255 194 228
255 194 228
255 194 228
255 194 228
255 194 228
255 194 228
255 194 228
255 194 228
255 194 228
255 194 228
255 194 228
255 194 228
255 194 228
255 194 228
255 194 228
255 194 228
255 194 228
255 194 228
255 194 228
255 194 228
255 194 228
255 206 240
255 194 228
255 194 228
255 194 228
255 194 228
255 194 228
255 194 228
255 194 228
255 194 228
255 194 228
255 194 228
255 194 228
255 194 228
255 194 228
255 194 228
255 194 228
255 194 228
255 194 228
255 194 228
255 194 228
255 194 228
255 194 228
255 194 228
255 194 228
255 194 228
255 194 228
255 194 228
255 194 228
255 194 228
255 194 228
255 194 228
255 194 228
255 194 228
255 194 228
255 194 228
255 194 228
255 194 228
255 206 240
255 194 228
255 194 228
255 194 228
255 194 228
255 194 228
255 194 228
255 194 228
255 194 228
255 194 228
255 194 228
255 194 228
255 194 228
255 194 228
255 194 228
255 194 228
255 194 228
255 194 228
255 194 228
255 194 228
255 194 228
255 194 228
255 194 228
255 206 240
255 194 228
255 194 228
255 194 228
255 194 228
255 194 228
255 194 228
255 194 228
255 194 228
255 194 228
255 194 228
255 194 228
255 194 228
255 194 228
255 194 228
255 194 228
255 194 228
255 194 228
255 194 228
255 194 228
255 194 228
255 194 228
255 194 228
255 194 228
255 194 228
255 194 228
255 194 228
255 194 228
255 194 228
255 194 228
255 194 228
255 194 228
255 194 228
255 194 228
255 194 228
255 194 228
255 194 228
255 206 240
255 194 228
255 194 228
255 194 228
255 194 228
255 194 228
255 194 228
255 194 228
255 194 228
255 194 228
255 194 228
255 194 228
255 194 228
255 194 228
255 194 228
255 194 228
255 194 228
255 194 228
255 194 228
255 194 228
255 194 228
255 194 228
255 194 228
255 194 228
255 194 228
255 194 228
255 194 228
255 194 228
255 194 228
255 194 228
255 194 228
255 194 228
255 194 228
255 194 228
255 194 228
255 194 228
255 194 228
255 206 240
255 194 228
255 194 228
255 194 228
255 194 228
255 194 228
255 194 228
255 194 228
255 194 228
255 194 228
255 194 228
255 194 228
255 194 228
255 194 228
255 194 228
255 194 228
255 194 228
255 194 228
255 194 228
255 194 228
255 194 228
255 194 228
255 194 228
255 194 228
255 194 228
255 194 228
255 194 228
255 194 228
255 194 228
255 194 228
255 194 228
255 194 228
255 194 228
255 194 228
255 194 228
255 194 228
255 194 228
255 206 240
255 194 228
255 194 228
255 194 228
255 194 228
255 194 228
255 194 228
255 194 228
255 194 228
255 194 228
255 194 228
255 194 228
255 194 228
255 194 228
255 194 228
255 194 228
255 194 228
255 194 228
255 194 228
255 194 228
255 194 228
255 194 228
255 194 228
255 194 228
255 194 228
255 194 228
255 194 228
255 194 228
255 194 228
255 194 228
255 194 228
255 194 228
255 194 228
255 194 228
255 194 228
255 194 228
255 194 228
255 206 240
255 194 228
255 194 228
255 194 228
255 194 228
255 194 228
255 194 228
255 194 228
255 194 228
255 194 228
255 194 228
255 194 228
255 194 228
255 194 228
255 194 228
255 194 228
255 194 228
255 194 228
255 194 228
255 194 228
255 194 228
255 194 228
255 194 228
255 194 228
255 194 228
255 194 228
255 194 228
255 194 228
255 194 228
255 194 228
255 194 228
255 194 228
255 194 228
255 194 228
255 194 228
255 194 228
255 194 228
255 206 240
255 194 228
255 194 228
255 194 228
255 194 228
255 194 228
255 194 228
255 194 228
255 194 228
255 194 228
255 194 228
255 194 228
255 194 228
255 194 228
255 194 228
255 194 228
255 194 228
255 194 228
255 194 228
255 194 228
255 194 228
255 194 228
255 194 228
255 194 228
255 194 228
255 194 228
255 194 228
255 194 228
255 194 228
255 194 228
255 194 228
255 194 228
255 194 228
255 194 228
255 194 228
255 194 228
255 194 228
255 206 240
255 194 228
255 194 228
255 194 228
255 194 228
255 194 228
255 194 228
255 194 228
255 194 228
255 194 228
255 194 228
255 194 228
255 194 228
255 194 228
255 194 228
255 194 228
255 194 228
255 194 228
255 194 228
255 194 228
255 194 228
255 194 228
255 194 228
255 194 228
255 194 228
255 194 228
255 194 228
255 194 228
255 194 228
255 194 228
255 194 228
255 194 228
255 194 228
255 194 228
255 194 228
255 194 228
255 194 228
255 206 240
255 194 228
255 194 228
255 194 228
255 194 228
255 194 228
255 194 228
255 194 228
255 194 228
255 194 228
255 194 228
255 194 228
255 194 228
255 194 228
255 194 228
255 194 228
255 194 228
255 194 228
255 194 228
255 194 228
255 194 228
255 194 228
255 194 228
255 194 228
255 194 228
255 194 228
255 194 228
255 194 228
255 194 228
255 194 228
255 194 228
255 194 228
255 194 228
255 194 228
255 194 228
255 194 228
255 194 228
255 206 240
255 194 228
255 194 228
255 194 228
255 194 228
255 194 228
255 194 228
255 194 228
255 194 228
255 194 228
255 194 228
255 194 228
255 194 228
255 194 228
255 194 228
255 194 228
255 194 228
255 194 228
255 194 228
255 194 228
255 194 228
255 194 228
255 194 228
255 206 240
255 194 228
255 194 228
255 194 228
255 194 228
255 194 228
255 194 228
255 194 228
255 194 228
255 194 228
255 194 228
255 194 228
255 194 228
255 194 228
255 194 228
255 194 228
255 194 228
255 194 228
255 194 228
255 194 228
255 194 228
255 194 228
255 194 228
255 194 228
255 194 228
255 194 228
255 194 228
255 194 228
255 194 228
255 194 228
255 194 228
255 194 228
255 194 228
255 194 228
255 194 228
255 194 228
255 194 228
255 206 240
255 194 228
255 194 228
255 194 228
255 194 228
255 194 228
255 194 228
255 194 228
255 194 228
255 194 228
255 194 228
255 194 228
255 194 228
255 194 228
255 194 228
255 194 228
255 194 228
255 194 228
255 194 228
255 194 228
255 194 228
255 194 228
255 194 228
255 194 228
255 194 228
255 194 228
255 194 228
255 194 228
255 194 228
255 194 228
255 194 228
255 194 228
255 194 228
255 194 228
255 194 228
255 194 228
255 194 228
255 206 240
255 194 228
255 194 228
255 194 228
255 194 228
255 194 228
255 194 228
255 194 228
255 194 228
255 194 228
255 194 228
255 194 228
255 194 228
255 194 228
255 194 228
255 194 228
255 194 228
255 194 228
255 194 228
255 194 228
255 194 228
255 194 228
255 194 228
255 194 228
255 194 228
255 194 228
255 194 228
255 194 228
255 194 228
255 194 228
255 194 228
255 194 228
255 194 228
255 194 228
255 194 228
255 194 228
255 194 228
255 206 240
255 194 228
255 194 228
255 194 228
255 194 228
255 194 228
255 194 228
255 194 228
255 194 228
255 194 228
255 194 228
255 194 228
255 194 228
255 194 228
255 194 228
255 194 228
255 194 228
255 194 228
255 194 228
255 194 228
255 194 228
255 194 228
255 194 228
255 194 228
255 194 228
255 194 228
255 194 228
255 194 228
255 194 228
255 194 228
255 194 228
255 194 228
255 194 228
255 194 228
255 194 228
255 194 228
255 194 228
255 206 240
255 194 228
255 194 228
255 194 228
255 194 228
255 194 228
255 194 228
255 194 228
255 194 228
255 194 228
255 194 228
255 194 228
255 194 228
255 194 228
255 194 228
255 194 228
255 194 228
255 194 228
255 194 228
255 194 228
255 194 228
255 194 228
255 194 228
255 194 228
255 194 228
255 194 228
255 194 228
255 194 228
255 194 228
255 194 228
255 194 228
255 194 228
255 194 228
255 194 228
255 194 228
255 194 228
255 194 228
255 206 240
255 194 228
255 194 228
255 194 228
255 194 228
255 194 228
255 194 228
255 194 228
255 194 228
255 194 228
255 194 228
255 194 228
255 194 228
255 194 228
255 194 228
255 194 228
255 194 228
255 194 228
255 194 228
255 194 228
255 194 228
255 194 228
255 194 228
255 194 228
255 194 228
255 194 228
255 194 228
255 194 228
255 194 228
255 194 228
255 194 228
255 194 228
255 194 228
255 194 228
255 194 228
255 194 228
255 194 228
255 206 240
255 194 228
255 194 228
255 194 228
255 194 228
255 194 228
255 194 228
255 194 228
255 194 228
255 194 228
255 194 228
255 194 228
255 194 228
255 194 228
255 194 228
255 194 228
255 194 228
255 194 228
255 194 228
255 194 228
255 194 228
255 194 228
255 194 228
255 194 228
255 194 228
255 194 228
255 194 228
255 194 228
255 194 228
255 194 228
255 194 228
255 194 228
255 194 228
255 194 228
255 194 228
255 194 228
255 194 228
255 206 240
255 194 228
255 194 228
255 194 228
255 194 228
255 194 228
255 194 228
255 194 228
255 194 228
255 194 228
255 194 228
255 194 228
255 194 228
255 194 228
255 194 228
255 194 228
255 194 228
255 194 228
255 194 228
255 194 228
255 194 228
255 194 228
255 194 228
255 194 228
255 194 228
255 194 228
255 194 228
255 194 228
255 194 228
255 194 228
255 194 228
255 194 228
255 194 228
255 194 228
255 194 228
255 194 228
255 194 228
255 206 240
255 194 228
255 194 228
255 194 228
255 194 228
255 194 228
255 194 228
255 194 228
255 194 228
255 194 228
255 194 228
255 194 228
255 194 228
255 194 228
255 194 228
255 194 228
255 194 228
255 194 228
255 194 228
255 194 228
255 194 228
255 194 228
255 194 228
255 206 240
255 194 228
255 194 228
255 194 228
255 194 228
255 194 228
255 194 228
255 194 228
255 194 228
255 194 228
255 194 228
255 194 228
255 194 228
255 194 228
255 194 228
255 194 228
255 194 228
255 194 228
255 194 228
255 194 228
255 194 228
255 194 228
255 194 228
255 194 228
255 194 228
255 194 228
255 194 228
255 194 228
255 194 228
255 194 228
255 194 228
255 194 228
255 194 228
255 194 228
255 194 228
255 194 228
255 194 228
255 206 240
255 194 228
255 194 228
255 194 228
255 194 228
255 194 228
255 194 228
255 194 228
255 194 228
255 194 228
255 194 228
255 194 228
255 194 228
255 194 228
255 194 228
255 194 228
255 194 228
255 194 228
255 194 228
255 194 228
255 194 228
255 194 228
255 194 228
255 194 228
255 194 228
255 194 228
255 194 228
255 194 228
255 194 228
255 194 228
255 194 228
255 194 228
255 194 228
255 194 228
255 194 228
255 194 228
255 194 228
255 206 240
255 194 228
255 194 228
255 194 228
255 194 228
255 194 228
255 194 228
255 194 228
255 194 228
255 194 228
255 194 228
255 194 228
255 194 228
255 194 228
255 194 228
255 194 228
255 194 228
255 194 228
255 194 228
255 194 228
255 194 228
255 194 228
255 194 228
255 194 228
255 194 228
255 194 228
255 194 228
255 194 228
255 194 228
255 194 228
255 194 228
255 194 228
255 194 228
255 194 228
255 194 228
255 194 228
255 194 228
255 206 240
255 194 228
255 194 228
255 194 228
255 194 228
255 194 228
255 194 228
255 194 228
255 194 228
255 194 228
255 194 228
255 194 228
255 194 228
255 194 228
255 194 228
255 194 228
255 194 228
255 194 228
255 194 228
255 194 228
255 194 228
255 194 228
255 194 228
255 194 228
255 194 228
255 194 228
255 194 228
255 194 228
255 194 228
255 194 228
255 194 228
255 194 228
255 194 228
255 194 228
255 194 228
255 194 228
255 194 228
255 206 240
255 194 228
255 194 228
255 194 228
255 194 228
255 194 228
255 194 228
255 194 228
255 194 228
255 194 228
255 194 228
255 194 228
255 194 228
255 194 228
255 194 228
255 194 228
255 194 228
255 194 228
255 194 228
255 194 228
255 194 228
255 194 228
255 194 228
255 194 228
255 194 228
255 194 228
255 194 228
255 194 228
255 194 228
255 194 228
255 194 228
255 194 228
255 194 228
255 194 228
255 194 228
255 194 228
255 194 228
255 206 240
255 194 228
255 194 228
255 194 228
255 194 228
255 194 228
255 194 228
255 194 228
255 194 228
255 194 228
255 194 228
255 194 228
255 194 228
255 194 228
255 194 228
255 194 228
255 194 228
255 194 228
255 194 228
255 194 228
255 194 228
255 194 228
255 194 228
255 194 228
255 194 228
255 194 228
255 194 228
255 194 228
255 194 228
255 194 228
255 194 228
255 194 228
255 194 228
255 194 228
255 194 228
255 194 228
255 194 228
255 206 240
255 194 228
255 194 228
255 194 228
255 194 228
255 194 228
255 194 228
255 194 228
255 194 228
255 194 228
255 194 228
255 194 228
255 194 228
255 194 228
255 194 228
255 194 228
255 194 228
255 194 228
255 194 228
255 194 228
255 194 228
255 194 228
255 194 228
255 194 228
255 194 228
255 194 228
255 194 228
255 194 228
255 194 228
255 194 228
255 194 228
255 194 228
255 194 228
255 194 228
255 194 228
255 194 228
255 194 228
255 206 240
255 194 228
255 194 228
255 194 228
255 194 228
255 194 228
255 194 228
255 194 228
255 194 228
255 194 228
255 194 228
255 194 228
255 194 228
255 194 228
255 194 228
255 194 228
255 194 228
255 194 228
255 194 228
255 194 228
255 194 228
255 194 228
255 194 228
255 194 228
255 194 228
255 194 228
255 194 228
255 194 228
255 194 228
255 194 228
255 194 228
255 194 228
255 194 228
255 194 228
255 194 228
255 194 228
255 194 228
255 206 240
255 194 228
255 194 228
255 194 228
255 194 228
255 194 228
255 194 228
255 194 228
255 194 228
255 194 228
255 194 228
255 194 228
255 194 228
255 194 228
255 194 228
255 194 228
255 194 228
255 194 228
255 194 228
255 194 228
255 194 228
255 194 228
255 194 228
255 206 240
255 194 228
255 194 228
255 194 228
255 194 228
255 194 228
255 194 228
255 194 228
255 194 228
255 194 228
255 194 228
255 194 228
255 194 228
255 194 228
255 194 228
255 194 228
255 194 228
255 194 228
255 194 228
255 194 228
255 194 228
255 194 228
255 194 228
255 194 228
255 194 228
255 194 228
255 194 228
255 194 228
255 194 228
255 194 228
255 194 228
255 194 228
255 194 228
255 194 228
255 194 228
255 194 228
255 194 228
255 206 240
255 194 228
255 194 228
255 194 228
255 194 228
255 194 228
255 194 228
255 194 228
255 194 228
255 194 228
255 194 228
255 194 228
255 194 228
255 194 228
255 194 228
255 194 228
255 194 228
255 194 228
255 194 228
255 194 228
255 194 228
255 194 228
255 194 228
255 194 228
255 194 228
255 194 228
255 194 228
255 194 228
255 194 228
255 194 228
255 194 228
255 194 228
255 194 228
255 194 228
255 194 228
255 194 228
255 194 228
255 206 240
255 194 228
255 194 228
255 194 228
255 194 228
255 194 228
255 194 228
255 194 228
255 194 228
255 194 228
255 194 228
255 194 228
255 194 228
255 194 228
255 194 228
255 194 228
255 194 228
255 194 228
255 194 228
255 194 228
255 194 228
255 194 228
255 194 228
255 194 228
255 194 228
255 194 228
255 194 228
255 194 228
255 194 228
255 194 228
255 194 228
255 194 228
255 194 228
255 194 228
255 194 228
255 194 228
255 194 228
255 206 240
255 194 228
255 194 228
255 194 228
255 194 228
255 194 228
255 194 228
255 194 228
255 194 228
255 194 228
255 194 228
255 194 228
255 194 228
255 194 228
255 194 228
255 194 228
255 194 228
255 194 228
255 194 228
255 194 228
255 194 228
255 194 228
255 194 228
255 194 228
255 194 228
255 194 228
255 194 228
255 194 228
255 194 228
255 194 228
255 194 228
255 194 228
255 194 228
255 194 228
255 194 228
255 194 228
255 194 228
255 206 240
255 194 228
255 194 228
255 194 228
255 194 228
255 194 228
255 194 228
255 194 228
255 194 228
255 194 228
255 194 228
255 194 228
255 194 228
255 194 228
255 194 228
255 194 228
255 194 228
255 194 228
255 194 228
255 194 228
255 194 228
255 194 228
255 194 228
255 194 228
255 194 228
255 194 228
255 194 228
255 194 228
255 194 228
255 194 228
255 194 228
255 194 228
255 194 228
255 194 228
255 194 228
255 194 228
255 194 228
255 206 240
255 194 228
255 194 228
255 194 228
255 194 228
255 194 228
255 194 228
255 194 228
255 194 228
255 194 228
255 194 228
255 194 228
255 194 228
255 194 228
255 194 228
255 194 228
255 194 228
255 194 228
255 194 228
255 194 228
255 194 228
255 194 228
255 194 228
255 194 228
255 194 228
255 194 228
255 194 228
255 194 228
255 194 228
255 194 228
255 194 228
255 194 228
255 194 228
255 194 228
255 194 228
255 194 228
255 194 228
255 206 240
255 194 228
255 194 228
255 194 228
255 194 228
255 194 228
255 194 228
255 194 228
255 194 228
255 194 228
255 194 228
255 194 228
255 194 228
255 194 228
255 194 228
255 194 228
255 194 228
255 194 228
255 194 228
255 194 228
255 194 228
255 194 228
255 194 228
255 194 228
255 194 228
255 194 228
255 194 228
255 194 228
255 194 228
255 194 228
255 194 228
255 194 228
255 194 228
255 194 228
255 194 228
255 194 228
255 194 228
255 206 240
255 194 228
255 194 228
255 194 228
255 194 228
255 194 228
255 194 228
255 194 228
255 194 228
255 194 228
255 194 228
255 194 228
255 194 228
255 194 228
255 194 228
255 194 228
255 194 228
255 194 228
255 194 228
255 194 228
255 194 228
255 194 228
255 194 228
255 194 228
255 194 228
255 194 228
255 194 228
255 194 228
255 194 228
255 194 228
255 194 228
255 194 228
255 194 228
255 194 228
255 194 228
255 194 228
255 194 228
255 206 240
255 194 228
255 194 228
255 194 228
255 194 228
255 194 228
255 194 228
255 194 228
255 194 228
255 194 228
255 194 228
255 194 228
255 194 228
255 194 228
255 194 228
255 194 228
255 194 228
255 194 228
255 194 228
255 194 228
255 194 228
255 194 228
255 194 228
255 206 240
255 194 228
255 194 228
255 194 228
255 194 228
255 194 228
255 194 228
255 194 228
255 194 228
255 194 228
255 194 228
255 194 228
255 194 228
255 194 228
255 194 228
255 194 228
255 194 228
255 194 228
255 194 228
255 194 228
255 194 228
255 194 228
255 194 228
255 194 228
255 194 228
255 194 228
255 194 228
255 194 228
255 194 228
255 194 228
255 194 228
255 194 228
255 194 228
255 194 228
255 194 228
255 194 228
255 194 228
255 206 240
255 194 228
255 194 228
255 194 228
255 194 228
255 194 228
255 194 228
255 194 228
255 194 228
255 194 228
255 194 228
255 194 228
255 194 228
255 194 228
255 194 228
255 194 228
255 194 228
255 194 228
255 194 228
255 194 228
255 194 228
255 194 228
255 194 228
255 194 228
255 194 228
255 194 228
255 194 228
255 194 228
255 194 228
255 194 228
255 194 228
255 194 228
255 194 228
255 194 228
255 194 228
255 194 228
255 194 228
255 206 240
255 194 228
255 194 228
255 194 228
255 194 228
255 194 228
255 194 228
255 194 228
255 194 228
255 194 228
255 194 228
255 194 228
255 194 228
255 194 228
255 194 228
255 194 228
255 194 228
255 194 228
255 194 228
255 194 228
255 194 228
255 194 228
255 194 228
255 194 228
255 194 228
255 194 228
255 194 228
255 194 228
255 194 228
255 194 228
255 194 228
255 194 228
255 194 228
255 194 228
255 194 228
255 194 228
255 194 228
255 206 240
255 194 228
255 194 228
255 194 228
255 194 228
255 194 228
255 194 228
255 194 228
255 194 228
255 194 228
255 194 228
255 194 228
255 194 228
255 194 228
255 194 228
255 194 228
255 194 228
255 194 228
255 194 228
255 194 228
255 194 228
255 194 228
255 194 228
255 194 228
255 194 228
255 194 228
255 194 228
255 194 228
255 194 228
255 194 228
255 194 228
255 194 228
255 194 228
255 194 228
255 194 228
255 194 228
255 194 228
255 206 240
255 194 228
255 194 228
255 194 228
255 194 228
255 194 228
255 194 228
255 194 228
255 194 228
255 194 228
255 194 228
255 194 228
255 194 228
255 194 228
255 194 228
255 194 228
255 194 228
255 194 228
255 194 228
255 194 228
255 194 228
255 194 228
255 194 228
255 194 228
255 194 228
255 194 228
255 194 228
255 194 228
255 194 228
255 194 228
255 194 228
255 194 228
255 194 228
255 194 228
255 194 228
255 194 228
255 194 228
255 206 240
255 194 228
255 194 228
255 194 228
255 194 228
255 194 228
255 194 228
255 194 228
255 194 228
255 194 228
255 194 228
255 194 228
255 194 228
255 194 228
255 194 228
255 194 228
255 194 228
255 194 228
255 194 228
255 194 228
255 194 228
255 194 228
255 194 228
255 194 228
255 194 228
255 194 228
255 194 228
255 194 228
255 194 228
255 194 228
255 194 228
255 194 228
255 194 228
255 194 228
255 194 228
255 194 228
255 194 228
255 206 240
255 194 228
255 194 228
255 194 228
255 194 228
255 194 228
255 194 228
255 194 228
255 194 228
255 194 228
255 194 228
255 194 228
255 194 228
255 194 228
255 194 228
255 194 228
255 194 228
255 194 228
255 194 228
255 194 228
255 194 228
255 194 228
255 194 228
255 194 228
255 194 228
255 194 228
255 194 228
255 194 228
255 194 228
255 194 228
255 194 228
255 194 228
255 194 228
255 194 228
255 194 228
255 194 228
255 194 228
255 206 240
255 194 228
255 194 228
255 194 228
255 194 228
255 194 228
255 194 228
255 194 228
255 194 228
255 194 228
255 194 228
255 194 228
255 194 228
255 194 228
255 194 228
255 194 228
255 194 228
255 194 228
255 194 228
255 194 228
255 194 228
255 194 228
255 194 228
255 194 228
255 194 228
255 194 228
255 194 228
255 194 228
255 194 228
255 194 228
255 194 228
255 194 228
255 194 228
255 194 228
255 194 228
255 194 228
255 194 228
255 206 240
255 194 228
255 194 228
255 194 228
255 194 228
255 194 228
255 194 228
255 194 228
255 194 228
255 194 228
255 194 228
255 194 228
255 194 228
255 194 228
255 194 228
255 194 228
255 194 228
255 194 228
255 194 228
255 194 228
255 194 228
255 194 228
255 194 228
255 206 240
255 194 228
255 194 228
255 194 228
255 194 228
255 194 228
255 194 228
255 194 228
255 194 228
255 194 228
255 194 228
255 194 228
255 194 228
255 194 228
255 194 228
255 194 228
255 194 228
255 194 228
255 194 228
255 194 228
255 194 228
255 194 228
255 194 228
255 194 228
255 194 228
255 194 228
255 194 228
255 194 228
255 194 228
255 194 228
255 194 228
255 194 228
255 194 228
255 194 228
255 194 228
255 194 228
255 194 228
255 206 240
255 194 228
255 194 228
255 194 228
255 194 228
255 194 228
255 194 228
255 194 228
255 194 228
255 194 228
255 194 228
255 194 228
255 194 228
255 194 228
255 194 228
255 194 228
255 194 228
255 194 228
255 194 228
255 194 228
255 194 228
255 194 228
255 194 228
255 194 228
255 194 228
255 194 228
255 194 228
255 194 228
255 194 228
255 194 228
255 194 228
255 194 228
255 194 228
255 194 228
255 194 228
255 194 228
255 194 228
255 206 240
255 194 228
255 194 228
255 194 228
255 194 228
255 194 228
255 194 228
255 194 228
255 194 228
255 194 228
255 194 228
255 194 228
255 194 228
255 194 228
255 194 228
255 194 228
255 194 228
255 194 228
255 194 228
255 194 228
255 194 228
255 194 228
255 194 228
255 194 228
255 194 228
255 194 228
255 194 228
255 194 228
255 194 228
255 194 228
255 194 228
255 194 228
255 194 228
255 194 228
255 194 228
255 194 228
255 194 228
255 206 240
255 194 228
255 194 228
255 194 228
255 194 228
255 194 228
255 194 228
255 194 228
255 194 228
255 194 228
255 194 228
255 194 228
255 194 228
255 194 228
255 194 228
255 194 228
255 194 228
255 194 228
255 194 228
255 194 228
255 194 228
255 194 228
255 194 228
255 194 228
255 194 228
255 194 228
255 194 228
255 194 228
255 194 228
255 194 228
255 194 228
255 194 228
255 194 228
255 194 228
255 194 228
255 194 228
255 194 228
255 206 240
255 194 228
255 194 228
255 194 228
255 194 228
255 194 228
255 194 228
255 194 228
255 194 228
255 194 228
255 194 228
255 194 228
255 194 228
255 194 228
255 194 228
255 194 228
255 194 228
255 194 228
255 194 228
255 194 228
255 194 228
255 194 228
255 194 228
255 194 228
255 194 228
255 194 228
255 194 228
255 194 228
255 194 228
255 194 228
255 194 228
255 194 228
255 194 228
255 194 228
255 194 228
255 194 228
255 194 228
255 206 240
255 194 228
255 194 228
255 194 228
255 194 228
255 194 228
255 194 228
255 194 228
255 194 228
255 194 228
255 194 228
255 194 228
255 194 228
255 194 228
255 194 228
255 194 228
255 194 228
255 194 228
255 194 228
255 194 228
255 194 228
255 194 228
255 194 228
255 194 228
255 194 228
255 194 228
255 194 228
255 194 228
255 194 228
255 194 228
255 194 228
255 194 228
255 194 228
255 194 228
255 194 228
255 194 228
255 194 228
255 206 240
255 194 228
255 194 228
255 194 228
255 194 228
255 194 228
255 194 228
255 194 228
255 194 228
255 194 228
255 194 228
255 194 228
255 194 228
255 194 228
255 194 228
255 194 228
255 194 228
255 194 228
255 194 228
255 194 228
255 194 228
255 194 228
255 194 228
255 194 228
255 194 228
255 194 228
255 194 228
255 194 228
255 194 228
255 194 228
255 194 228
255 194 228
255 194 228
255 194 228
255 194 228
255 194 228
255 194 228
255 206 240
255 194 228
255 194 228
255 194 228
255 194 228
255 194 228
255 194 228
255 194 228
255 194 228
255 194 228
255 194 228
255 194 228
255 194 228
255 194 228
255 194 228
255 194 228
255 194 228
255 194 228
255 194 228
255 194 228
255 194 228
255 194 228
255 194 228
255 194 228
255 194 228
255 194 228
255 194 228
255 194 228
255 194 228
255 194 228
255 194 228
255 194 228
255 194 228
255 194 228
255 194 228
255 194 228
255 194 228
255 206 240
255 194 228
255 194 228
255 194 228
255 194 228
255 194 228
255 194 228
255 194 228
255 194 228
255 194 228
255 194 228
255 194 228
255 194 228
255 194 228
255 194 228
255 194 228
255 194 228
255 194 228
255 194 228
255 194 228
255 194 228
255 194 228
255 194 228
255 194 228
255 194 228
255 194 228
255 194 228
255 194 228
255 194 228
255 194 228
255 194 228
255 194 228
255 194 228
255 194 228
255 194 228
255 194 228
255 194 228
255 194 228
255 194 228
255 194 228
255 194 228
255 194 228
255 194 228
255 194 228
255 194 228
255 194 228
255 194 228
255 194 228
255 194 228
255 194 228
255 194 228
255 194 228
255 194 228
255 194 228
255 194 228
255 194 228
255 194 228
255 194 228
255 194 228
255 194 228
255 206 240
255 194 228
255 194 228
255 194 228
255 194 228
255 194 228
255 194 228
255 194 228
255 194 228
255 194 228
255 194 228
255 194 228
255 194 228
255 194 228
255 194 228
255 194 228
255 194 228
255 194 228
255 194 228
255 194 228
255 194 228
255 194 228
255 194 228
255 194 228
255 194 228
255 194 228
255 194 228
255 194 228
255 194 228
255 194 228
255 194 228
255 194 228
255 194 228
255 194 228
255 194 228
255 194 228
255 194 228
255 206 240
255 194 228
255 194 228
255 194 228
255 194 228
255 194 228
255 194 228
255 194 228
255 194 228
255 194 228
255 194 228
255 194 228
255 194 228
255 194 228
255 194 228
255 194 228
255 194 228
255 194 228
255 194 228
255 194 228
255 194 228
255 194 228
255 194 228
255 194 228
255 194 228
255 194 228
255 194 228
255 194 228
255 194 228
255 194 228
255 194 228
255 194 228
255 194 228
255 194 228
255 194 228
255 194 228
255 194 228
255 206 240
255 194 228
255 194 228
255 194 228
255 194 228
255 194 228
255 194 228
255 194 228
255 194 228
255 194 228
255 194 228
255 194 228
255 194 228
255 194 228
255 194 228
255 194 228
255 194 228
255 194 228
255 194 228
255 194 228
255 194 228
255 194 228
255 194 228
255 194 228
255 194 228
255 194 228
255 194 228
255 194 228
255 194 228
255 194 228
255 194 228
255 194 228
255 194 228
255 194 228
255 194 228
255 194 228
255 194 228
255 206 240
255 194 228
255 194 228
255 194 228
255 194 228
255 194 228
255 194 228
255 194 228
255 194 228
255 194 228
255 194 228
255 194 228
255 194 228
255 194 228
255 194 228
255 194 228
255 194 228
255 194 228
255 194 228
255 194 228
255 194 228
255 194 228
255 194 228
255 194 228
255 194 228
255 194 228
255 194 228
255 194 228
255 194 228
255 194 228
255 194 228
255 194 228
255 194 228
255 194 228
255 194 228
255 194 228
255 194 228
255 206 240
255 194 228
255 194 228
255 194 228
255 194 228
255 194 228
255 194 228
255 194 228
255 194 228
255 194 228
255 194 228
255 194 228
255 194 228
255 194 228
255 194 228
255 194 228
255 194 228
255 194 228
255 194 228
255 194 228
255 194 228
255 194 228
255 194 228
255 194 228
255 194 228
255 194 228
255 194 228
255 194 228
255 194 228
255 194 228
255 194 228
255 194 228
255 194 228
255 194 228
255 194 228
255 194 228
255 194 228
255 206 240
255 194 228
255 194 228
255 194 228
255 194 228
255 194 228
255 194 228
255 194 228
255 194 228
255 194 228
255 194 228
255 194 228
255 194 228
255 194 228
255 194 228
255 194 228
255 194 228
255 194 228
255 194 228
255 194 228
255 194 228
255 194 228
255 194 228
255 194 228
255 194 228
255 194 228
255 194 228
255 194 228
255 194 228
255 194 228
255 194 228
255 194 228
255 194 228
255 194 228
255 194 228
255 194 228
255 194 228
255 206 240
255 194 228
255 194 228
255 194 228
255 194 228
255 194 228
255 194 228
255 194 228
255 194 228
255 194 228
255 194 228
255 194 228
255 194 228
255 194 228
255 194 228
255 194 228
255 194 228
255 194 228
255 194 228
255 194 228
255 194 228
255 194 228
255 194 228
255 194 228
255 194 228
255 194 228
255 194 228
255 194 228
255 194 228
255 194 228
255 194 228
255 194 228
255 194 228
255 194 228
255 194 228
255 194 228
255 194 228
255 206 240
255 194 228
255 194 228
255 194 228
255 194 228
255 194 228
255 194 228
255 194 228
255 194 228
255 194 228
255 194 228
255 194 228
255 194 228
255 194 228
255 194 228
255 194 228
255 194 228
255 194 228
255 194 228
255 194 228
255 194 228
255 194 228
255 194 228
255 194 228
255 194 228
255 194 228
255 194 228
255 194 228
255 194 228
255 194 228
255 194 228
255 194 228
255 194 228
255 194 228
255 194 228
255 194 228
255 194 228
255 194 228
255 194 228
255 194 228
255 194 228
255 194 228
255 194 228
255 194 228
255 194 228
255 194 228
255 194 228
255 194 228
255 194 228
255 194 228
255 194 228
255 194 228
255 194 228
255 194 228
255 194 228
255 194 228
255 194 228
255 194 228
255 194 228
255 194 228
255 206 240
255 194 228
255 194 228
255 194 228
255 194 228
255 194 228
255 194 228
255 194 228
255 194 228
255 194 228
255 194 228
255 194 228
255 194 228
255 194 228
255 194 228
255 194 228
255 194 228
255 194 228
255 194 228
255 194 228
255 194 228
255 194 228
255 194 228
255 194 228
255 194 228
255 194 228
255 194 228
255 194 228
255 194 228
255 194 228
255 194 228
255 194 228
255 194 228
255 194 228
255 194 228
255 194 228
255 194 228
255 206 240
255 194 228
255 194 228
255 194 228
255 194 228
255 194 228
255 194 228
255 194 228
255 194 228
255 194 228
255 194 228
255 194 228
255 194 228
255 194 228
255 194 228
255 194 228
255 194 228
255 194 228
255 194 228
255 194 228
255 194 228
255 194 228
255 194 228
255 194 228
255 194 228
255 194 228
255 194 228
255 194 228
255 194 228
255 194 228
255 194 228
255 194 228
255 194 228
255 194 228
255 194 228
255 194 228
255 194 228
255 206 240
255 194 228
255 194 228
255 194 228
255 194 228
255 194 228
255 194 228
255 194 228
255 194 228
255 194 228
255 194 228
255 194 228
255 194 228
255 194 228
255 194 228
255 194 228
255 194 228
255 194 228
255 194 228
255 194 228
255 194 228
255 194 228
255 194 228
255 194 228
255 194 228
255 194 228
255 194 228
255 194 228
255 194 228
255 194 228
255 194 228
255 194 228
255 194 228
255 194 228
255 194 228
255 194 228
255 194 228
255 206 240
255 194 228
255 194 228
255 194 228
255 194 228
255 194 228
255 194 228
255 194 228
255 194 228
255 194 228
255 194 228
255 194 228
255 194 228
255 194 228
255 194 228
255 194 228
255 194 228
255 194 228
255 194 228
255 194 228
255 194 228
255 194 228
255 194 228
255 194 228
255 194 228
255 194 228
255 194 228
255 194 228
255 194 228
255 194 228
255 194 228
255 194 228
255 194 228
255 194 228
255 194 228
255 194 228
255 194 228
255 206 240
255 194 228
255 194 228
255 194 228
255 194 228
255 194 228
255 194 228
255 194 228
255 194 228
255 194 228
255 194 228
255 194 228
255 194 228
255 194 228
255 194 228
255 194 228
255 194 228
255 194 228
255 194 228
255 194 228
255 194 228
255 194 228
255 194 228
255 194 228
255 194 228
255 194 228
255 194 228
255 194 228
255 194 228
255 194 228
255 194 228
255 194 228
255 194 228
255 194 228
255 194 228
255 194 228
255 194 228
255 206 240
255 194 228
255 194 228
255 194 228
255 194 228
255 194 228
255 194 228
255 194 228
255 194 228
255 194 228
255 194 228
255 194 228
255 194 228
255 194 228
255 194 228
255 194 228
255 194 228
255 194 228
255 194 228
255 194 228
255 194 228
255 194 228
255 194 228
255 194 228
255 194 228
255 194 228
255 194 228
255 194 228
255 194 228
255 194 228
255 194 228
255 194 228
255 194 228
255 194 228
255 194 228
255 194 228
255 194 228
255 206 240
255 194 228
255 194 228
255 194 228
255 194 228
255 194 228
255 194 228
255 194 228
255 194 228
255 194 228
255 194 228
255 194 228
255 194 228
255 194 228
255 194 228
255 194 228
255 194 228
255 194 228
255 194 228
255 194 228
255 194 228
255 194 228
255 194 228
255 194 228
255 194 228
255 194 228
255 194 228
255 194 228
255 194 228
255 194 228
255 194 228
255 194 228
255 194 228
255 194 228
255 194 228
255 194 228
255 194 228
255 206 240
255 194 228
255 194 228
255 194 228
255 194 228
255 194 228
255 194 228
255 194 228
255 194 228
255 194 228
255 194 228
255 194 228
255 194 228
255 194 228
255 194 228
255 194 228
255 194 228
255 194 228
255 194 228
255 194 228
255 194 228
255 194 228
255 194 228
255 194 228
255 194 228
255 194 228
255 194 228
255 194 228
255 194 228
255 194 228
255 194 228
255 194 228
255 194 228
255 194 228
255 194 228
255 194 228
255 194 228
255 194 228
255 194 228
255 194 228
255 194 228
255 194 228
255 194 228
255 194 228
255 194 228
255 194 228
255 194 228
255 194 228
255 194 228
255 194 228
255 194 228
255 194 228
255 194 228
255 194 228
255 194 228
255 194 228
255 194 228
255 194 228
255 194 228
255 194 228
255 206 240
255 194 228
255 194 228
255 194 228
255 194 228
255 194 228
255 194 228
255 194 228
255 194 228
255 194 228
255 194 228
255 194 228
255 194 228
255 194 228
255 194 228
255 194 228
255 194 228
255 194 228
255 194 228
255 194 228
255 194 228
255 194 228
255 194 228
255 194 228
255 194 228
255 194 228
255 194 228
255 194 228
255 194 228
255 194 228
255 194 228
255 194 228
255 194 228
255 194 228
255 194 228
255 194 228
255 194 228
255 206 240
255 194 228
255 194 228
255 194 228
255 194 228
255 194 228
255 194 228
255 194 228
255 194 228
255 194 228
255 194 228
255 194 228
255 194 228
255 194 228
255 194 228
255 194 228
255 194 228
255 194 228
255 194 228
255 194 228
255 194 228
255 194 228
255 194 228
255 194 228
255 194 228
255 194 228
255 194 228
255 194 228
255 194 228
255 194 228
255 194 228
255 194 228
255 194 228
255 194 228
255 194 228
255 194 228
255 194 228
255 206 240
255 194 228
255 194 228
255 194 228
255 194 228
255 194 228
255 194 228
255 194 228
255 194 228
255 194 228
255 194 228
255 194 228
255 194 228
255 194 228
255 194 228
255 194 228
255 194 228
255 194 228
255 194 228
255 194 228
255 194 228
255 194 228
255 194 228
255 194 228
255 194 228
255 194 228
255 194 228
255 194 228
255 194 228
255 194 228
255 194 228
255 194 228
255 194 228
255 194 228
255 194 228
255 194 228
255 194 228
255 206 240
255 194 228
255 194 228
255 194 228
255 194 228
255 194 228
255 194 228
255 194 228
255 194 228
255 194 228
255 194 228
255 194 228
255 194 228
255 194 228
255 194 228
255 194 228
255 194 228
255 194 228
255 194 228
255 194 228
255 194 228
255 194 228
255 194 228
255 194 228
255 194 228
255 194 228
255 194 228
255 194 228
255 194 228
255 194 228
255 194 228
255 194 228
255 194 228
255 194 228
255 194 228
255 194 228
255 194 228
255 206 240
255 194 228
255 194 228
255 194 228
255 194 228
255 194 228
255 194 228
255 194 228
255 194 228
255 194 228
255 194 228
255 194 228
255 194 228
255 194 228
255 194 228
255 194 228
255 194 228
255 194 228
255 194 228
255 194 228
255 194 228
255 194 228
255 194 228
255 194 228
255 194 228
255 194 228
255 194 228
255 194 228
255 194 228
255 194 228
255 194 228
255 194 228
255 194 228
255 194 228
255 194 228
255 194 228
255 194 228
255 206 240
255 194 228
255 194 228
255 194 228
255 194 228
255 194 228
255 194 228
255 194 228
255 194 228
255 194 228
255 194 228
255 194 228
255 194 228
255 194 228
255 194 228
255 194 228
255 194 228
255 194 228
255 194 228
255 194 228
255 194 228
255 194 228
255 194 228
255 194 228
255 194 228
255 194 228
255 194 228
255 194 228
255 194 228
255 194 228
255 194 228
255 194 228
255 194 228
255 194 228
255 194 228
255 194 228
255 194 228
255 206 240
255 194 228
255 194 228
255 194 228
255 194 228
255 194 228
255 194 228
255 194 228
255 194 228
255 194 228
255 194 228
255 194 228
255 194 228
255 194 228
255 194 228
255 194 228
255 194 228
255 194 228
255 194 228
255 194 228
255 194 228
255 194 228
255 194 228
255 194 228
255 194 228
255 194 228
255 194 228
255 194 228
255 194 228
255 194 228
255 194 228
255 194 228
255 194 228
255 194 228
255 194 228
255 194 228
255 194 228
255 206 240
255 194 228
255 194 228
255 194 228
255 194 228
255 194 228
255 194 228
255 194 228
255 194 228
255 194 228
255 194 228
255 194 228
255 194 228
255 194 228
255 194 228
255 194 228
255 194 228
255 194 228
255 194 228
255 194 228
255 194 228
255 194 228
255 194 228
255 194 228
255 194 228
255 194 228
255 194 228
255 194 228
255 194 228
255 194 228
255 194 228
255 194 228
255 194 228
255 194 228
255 194 228
255 194 228
255 194 228
255 194 228
255 194 228
255 194 228
255 194 228
255 194 228
255 194 228
255 194 228
255 194 228
255 194 228
255 194 228
255 194 228
255 194 228
255 194 228
255 194 228
255 194 228
255 194 228
255 194 228
255 194 228
255 194 228
255 194 228
255 194 228
255 194 228
255 194 228
255 206 240
255 194 228
255 194 228
255 194 228
255 194 228
255 194 228
255 194 228
255 194 228
255 194 228
255 194 228
255 194 228
255 194 228
255 194 228
255 194 228
255 194 228
255 194 228
255 194 228
255 194 228
255 194 228
255 194 228
255 194 228
255 194 228
255 194 228
255 194 228
255 194 228
255 194 228
255 194 228
255 194 228
255 194 228
255 194 228
255 194 228
255 194 228
255 194 228
255 194 228
255 194 228
255 194 228
255 194 228
255 206 240
255 194 228
255 194 228
255 194 228
255 194 228
255 194 228
255 194 228
255 194 228
255 194 228
255 194 228
255 194 228
255 194 228
255 194 228
255 194 228
255 194 228
255 194 228
255 194 228
255 194 228
255 194 228
255 194 228
255 194 228
255 194 228
255 194 228
255 194 228
255 194 228
255 194 228
255 194 228
255 194 228
255 194 228
255 194 228
255 194 228
255 194 228
255 194 228
255 194 228
255 194 228
255 194 228
255 194 228
255 206 240
255 194 228
255 194 228
255 194 228
255 194 228
255 194 228
255 194 228
255 194 228
255 194 228
255 194 228
255 194 228
255 194 228
255 194 228
255 194 228
255 194 228
255 194 228
255 194 228
255 194 228
255 194 228
255 194 228
255 194 228
255 194 228
255 194 228
255 194 228
255 194 228
255 194 228
255 194 228
255 194 228
255 194 228
255 194 228
255 194 228
255 194 228
255 194 228
255 194 228
255 194 228
255 194 228
255 194 228
255 206 240
255 194 228
255 194 228
255 194 228
255 194 228
255 194 228
255 194 228
255 194 228
255 194 228
255 194 228
255 194 228
255 194 228
255 194 228
255 194 228
255 194 228
255 194 228
255 194 228
255 194 228
255 194 228
255 194 228
255 194 228
255 194 228
255 194 228
255 194 228
255 194 228
255 194 228
255 194 228
255 194 228
255 194 228
255 194 228
255 194 228
255 194 228
255 194 228
255 194 228
255 194 228
255 194 228
255 194 228
255 206 240
255 194 228
255 194 228
255 194 228
255 194 228
255 194 228
255 194 228
255 194 228
255 194 228
255 194 228
255 194 228
255 194 228
255 194 228
255 194 228
255 194 228
255 194 228
255 194 228
255 194 228
255 194 228
255 194 228
255 194 228
255 194 228
255 194 228
255 194 228
255 194 228
255 194 228
255 194 228
255 194 228
255 194 228
255 194 228
255 194 228
255 194 228
255 194 228
255 194 228
255 194 228
255 194 228
255 194 228
255 206 240
255 194 228
255 194 228
255 194 228
255 194 228
255 194 228
255 194 228
255 194 228
255 194 228
255 194 228
255 194 228
255 194 228
255 194 228
255 194 228
255 194 228
255 194 228
255 194 228
255 194 228
255 194 228
255 194 228
255 194 228
255 194 228
255 194 228
255 194 228
255 194 228
255 194 228
255 194 228
255 194 228
255 194 228
255 194 228
255 194 228
255 194 228
255 194 228
255 194 228
255 194 228
255 194 228
255 194 228
255 206 240
255 194 228
255 194 228
255 194 228
255 194 228
255 194 228
255 194 228
255 194 228
255 194 228
255 194 228
255 194 228
255 194 228
255 194 228
255 194 228
255 194 228
255 194 228
255 194 228
255 194 228
255 194 228
255 194 228
255 194 228
255 194 228
255 194 228
255 194 228
255 194 228
255 194 228
255 194 228
255 194 228
255 194 228
255 194 228
255 194 228
255 194 228
255 194 228
255 194 228
255 194 228
255 194 228
255 194 228
255 206 240
255 194 228
255 194 228
255 194 228
255 194 228
255 194 228
255 194 228
255 194 228
255 194 228
255 194 228
255 194 228
255 194 228
255 194 228
255 194 228
255 194 228
255 194 228
255 194 228
255 194 228
255 194 228
255 194 228
255 194 228
255 194 228
255 194 228
255 194 228
255 194 228
255 194 228
255 194 228
255 194 228
255 194 228
255 194 228
255 194 228
255 194 228
255 194 228
255 194 228
255 194 228
255 194 228
255 194 228
255 194 228
255 194 228
255 194 228
255 194 228
255 194 228
255 194 228
255 194 228
255 194 228
255 194 228
255 194 228
255 194 228
255 194 228
255 194 228
255 194 228
255 194 228
255 194 228
255 194 228
255 194 228
255 194 228
255 194 228
255 194 228
255 194 228
255 194 228
255 206 240
255 194 228
255 194 228
255 194 228
255 194 228
255 194 228
255 194 228
255 194 228
255 194 228
255 194 228
255 194 228
255 194 228
255 194 228
255 194 228
255 194 228
255 194 228
255 194 228
255 194 228
255 194 228
255 194 228
255 194 228
255 194 228
255 194 228
255 194 228
255 194 228
255 194 228
255 194 228
255 194 228
255 194 228
255 194 228
255 194 228
255 194 228
255 194 228
255 194 228
255 194 228
255 194 228
255 194 228
255 206 240
255 194 228
255 194 228
255 194 228
255 194 228
255 194 228
255 194 228
255 194 228
255 194 228
255 194 228
255 194 228
255 194 228
255 194 228
255 194 228
255 194 228
255 194 228
255 194 228
255 194 228
255 194 228
255 194 228
255 194 228
255 194 228
255 194 228
255 194 228
255 194 228
255 194 228
255 194 228
255 194 228
255 194 228
255 194 228
255 194 228
255 194 228
255 194 228
255 194 228
255 194 228
255 194 228
255 194 228
255 206 240
255 194 228
255 194 228
255 194 228
255 194 228
255 194 228
255 194 228
255 194 228
255 194 228
255 194 228
255 194 228
255 194 228
255 194 228
255 194 228
255 194 228
255 194 228
255 194 228
255 194 228
255 194 228
255 194 228
255 194 228
255 194 228
255 194 228
255 194 228
255 194 228
255 194 228
255 194 228
255 194 228
255 194 228
255 194 228
255 194 228
255 194 228
255 194 228
255 194 228
255 194 228
255 194 228
255 194 228
255 206 240
255 194 228
255 194 228
255 194 228
255 194 228
255 194 228
255 194 228
255 194 228
255 194 228
255 194 228
255 194 228
255 194 228
255 194 228
255 194 228
255 194 228
255 194 228
255 194 228
255 194 228
255 194 228
255 194 228
255 194 228
255 194 228
255 194 228
255 194 228
255 194 228
255 194 228
255 194 228
255 194 228
255 194 228
255 194 228
255 194 228
255 194 228
255 194 228
255 194 228
255 194 228
255 194 228
255 194 228
255 206 240
255 194 228
255 194 228
255 194 228
255 194 228
255 194 228
255 194 228
255 194 228
255 194 228
255 194 228
255 194 228
255 194 228
255 194 228
255 194 228
255 194 228
255 194 228
255 194 228
255 194 228
255 194 228
255 194 228
255 194 228
255 194 228
255 194 228
255 194 228
255 194 228
255 194 228
255 194 228
255 194 228
255 194 228
255 194 228
255 194 228
255 194 228
255 194 228
255 194 228
255 194 228
255 194 228
255 194 228
255 206 240
255 194 228
255 194 228
255 194 228
255 194 228
255 194 228
255 194 228
255 194 228
255 194 228
255 194 228
255 194 228
255 194 228
255 194 228
255 194 228
255 194 228
255 194 228
255 194 228
255 194 228
255 194 228
255 194 228
255 194 228
255 194 228
255 194 228
255 194 228
255 194 228
255 194 228
255 194 228
255 194 228
255 194 228
255 194 228
255 194 228
255 194 228
255 194 228
255 194 228
255 194 228
255 194 228
255 194 228
255 206 240
255 194 228
255 194 228
255 194 228
255 194 228
255 194 228
255 194 228
255 194 228
255 194 228
255 194 228
255 194 228
255 194 228
255 194 228
255 194 228
255 194 228
255 194 228
255 194 228
255 194 228
255 194 228
255 194 228
255 194 228
255 194 228
255 194 228
255 194 228
255 194 228
255 194 228
255 194 228
255 194 228
255 194 228
255 194 228
255 194 228
255 194 228
255 194 228
255 194 228
255 194 228
255 194 228
255 194 228
255 206 240
255 194 228
255 194 228
255 194 228
255 194 228
255 194 228
255 194 228
255 194 228
255 194 228
255 194 228
255 194 228
255 194 228
255 194 228
255 194 228
255 194 228
255 194 228
255 194 228
255 194 228
255 194 228
255 194 228
255 194 228
255 194 228
255 194 228
255 194 228
255 194 228
255 194 228
255 194 228
255 194 228
255 194 228
255 194 228
255 194 228
255 194 228
255 194 228
255 194 228
255 194 228
255 194 228
255 194 228
255 194 228
255 194 228
255 194 228
255 194 228
255 194 228
255 194 228
255 194 228
255 194 228
255 194 228
255 194 228
255 194 228
255 194 228
255 194 228
255 194 228
255 194 228
255 194 228
255 194 228
255 194 228
255 194 228
255 194 228
255 194 228
255 194 228
255 194 228
255 206 240
255 194 228
255 194 228
255 194 228
255 194 228
255 194 228
255 194 228
255 194 228
255 194 228
255 194 228
255 194 228
255 194 228
255 194 228
255 194 228
255 194 228
255 194 228
255 194 228
255 194 228
255 194 228
255 194 228
255 194 228
255 194 228
255 194 228
255 194 228
255 194 228
255 194 228
255 194 228
255 194 228
255 194 228
255 194 228
255 194 228
255 194 228
255 194 228
255 194 228
255 194 228
255 194 228
255 194 228
255 206 240
255 194 228
255 194 228
255 194 228
255 194 228
255 194 228
255 194 228
255 194 228
255 194 228
255 194 228
255 194 228
255 194 228
255 194 228
255 194 228
255 194 228
255 194 228
255 194 228
255 194 228
255 194 228
255 194 228
255 194 228
255 194 228
255 194 228
255 194 228
255 194 228
255 194 228
255 194 228
255 194 228
255 194 228
255 194 228
255 194 228
255 194 228
255 194 228
255 194 228
255 194 228
255 194 228
255 194 228
255 206 240
255 194 228
255 194 228
255 194 228
255 194 228
255 194 228
255 194 228
255 194 228
255 194 228
255 194 228
255 194 228
255 194 228
255 194 228
255 194 228
255 194 228
255 194 228
255 194 228
255 194 228
255 194 228
255 194 228
255 194 228
255 194 228
255 194 228
255 194 228
255 194 228
255 194 228
255 194 228
255 194 228
255 194 228
255 194 228
255 194 228
255 194 228
255 194 228
255 194 228
255 194 228
255 194 228
255 194 228
255 206 240
255 194 228
255 194 228
255 194 228
255 194 228
255 194 228
255 194 228
255 194 228
255 194 228
255 194 228
255 194 228
255 194 228
255 194 228
255 194 228
255 194 228
255 194 228
255 194 228
255 194 228
255 194 228
255 194 228
255 194 228
255 194 228
255 194 228
255 194 228
255 194 228
255 194 228
255 194 228
255 194 228
255 194 228
255 194 228
255 194 228
255 194 228
255 194 228
255 194 228
255 194 228
255 194 228
255 194 228
255 206 240
255 194 228
255 194 228
255 194 228
255 194 228
255 194 228
255 194 228
255 194 228
255 194 228
255 194 228
255 194 228
255 194 228
255 194 228
255 194 228
255 194 228
255 194 228
255 194 228
255 194 228
255 194 228
255 194 228
255 194 228
255 194 228
255 194 228
255 194 228
255 194 228
255 194 228
255 194 228
255 194 228
255 194 228
255 194 228
255 194 228
255 194 228
255 194 228
255 194 228
255 194 228
255 194 228
255 194 228
255 206 240
255 194 228
255 194 228
255 194 228
255 194 228
255 194 228
255 194 228
255 194 228
255 194 228
255 194 228
255 194 228
255 194 228
255 194 228
255 194 228
255 194 228
255 194 228
255 194 228
255 194 228
255 194 228
255 194 228
255 194 228
255 194 228
255 194 228
255 194 228
255 194 228
255 194 228
255 194 228
255 194 228
255 194 228
255 194 228
255 194 228
255 194 228
255 194 228
255 194 228
255 194 228
255 194 228
255 194 228
255 206 240
255 194 228
255 194 228
255 194 228
255 194 228
255 194 228
255 194 228
255 194 228
255 194 228
255 194 228
255 194 228
255 194 228
255 194 228
255 194 228
255 194 228
255 194 228
255 194 228
255 194 228
255 194 228
255 194 228
255 194 228
255 194 228
255 194 228
255 194 228
255 194 228
255 194 228
255 194 228
255 194 228
255 194 228
255 194 228
255 194 228
255 194 228
255 194 228
255 194 228
255 194 228
255 194 228
255 194 228
255 206 240
255 194 228
255 194 228
255 194 228
255 194 228
255 194 228
255 194 228
255 194 228
255 194 228
255 194 228
255 194 228
255 194 228
255 194 228
255 194 228
255 194 228
255 194 228
255 194 228
255 194 228
255 194 228
255 194 228
255 194 228
255 194 228
255 194 228
255 194 228
255 194 228
255 194 228
255 194 228
255 194 228
255 194 228
255 194 228
255 194 228
255 194 228
255 194 228
255 194 228
255 194 228
255 194 228
255 194 228
255 194 228
255 194 228
255 194 228
255 194 228
255 194 228
255 194 228
255 194 228
255 194 228
255 194 228
255 194 228
255 194 228
255 194 228
255 194 228
255 194 228
255 194 228
255 194 228
255 194 228
255 194 228
255 194 228
255 194 228
255 194 228
255 194 228
255 194 228
255 206 240
255 194 228
255 194 228
255 194 228
255 194 228
255 194 228
255 194 228
255 194 228
255 194 228
255 194 228
255 194 228
255 194 228
255 194 228
255 194 228
255 194 228
255 194 228
255 194 228
255 194 228
255 194 228
255 194 228
255 194 228
255 194 228
255 194 228
255 194 228
255 194 228
255 194 228
255 194 228
255 194 228
255 194 228
255 194 228
255 194 228
255 194 228
255 194 228
255 194 228
255 194 228
255 194 228
255 194 228
255 206 240
255 194 228
255 194 228
255 194 228
255 194 228
255 194 228
255 194 228
255 194 228
255 194 228
255 194 228
255 194 228
255 194 228
255 194 228
255 194 228
255 194 228
255 194 228
255 194 228
255 194 228
255 194 228
255 194 228
255 194 228
255 194 228
255 194 228
255 194 228
255 194 228
255 194 228
255 194 228
255 194 228
255 194 228
255 194 228
255 194 228
255 194 228
255 194 228
255 194 228
255 194 228
255 194 228
255 194 228
255 206 240
255 194 228
255 194 228
255 194 228
255 194 228
255 194 228
255 194 228
255 194 228
255 194 228
255 194 228
255 194 228
255 194 228
255 194 228
255 194 228
255 194 228
255 194 228
255 194 228
255 194 228
255 194 228
255 194 228
255 194 228
255 194 228
255 194 228
255 194 228
255 194 228
255 194 228
255 194 228
255 194 228
255 194 228
255 194 228
255 194 228
255 194 228
255 194 228
255 194 228
255 194 228
255 194 228
255 194 228
255 206 240
255 194 228
255 194 228
255 194 228
255 194 228
255 194 228
255 194 228
255 194 228
255 194 228
255 194 228
255 194 228
255 194 228
255 194 228
255 194 228
255 194 228
255 194 228
255 194 228
255 194 228
255 194 228
255 194 228
255 194 228
255 194 228
255 194 228
255 194 228
255 194 228
255 194 228
255 194 228
255 194 228
255 194 228
255 194 228
255 194 228
255 194 228
255 194 228
255 194 228
255 194 228
255 194 228
255 194 228
255 206 240
255 194 228
255 194 228
255 194 228
255 194 228
255 194 228
255 194 228
255 194 228
255 194 228
255 194 228
255 194 228
255 194 228
255 194 228
255 194 228
255 194 228
255 194 228
255 194 228
255 194 228
255 194 228
255 194 228
255 194 228
255 194 228
255 194 228
255 194 228
255 194 228
255 194 228
255 194 228
255 194 228
255 194 228
255 194 228
255 194 228
255 194 228
255 194 228
255 194 228
255 194 228
255 194 228
255 194 228
255 206 240
255 194 228
255 194 228
255 194 228
255 194 228
255 194 228
255 194 228
255 194 228
255 194 228
255 194 228
255 194 228
255 194 228
255 194 228
255 194 228
255 194 228
255 194 228
255 194 228
255 194 228
255 194 228
255 194 228
255 194 228
255 194 228
255 194 228
255 194 228
255 194 228
255 194 228
255 194 228
255 194 228
255 194 228
255 194 228
255 194 228
255 194 228
255 194 228
255 194 228
255 194 228
255 194 228
255 194 228
255 206 240
255 194 228
255 194 228
255 194 228
255 194 228
255 194 228
255 194 228
255 194 228
255 194 228
255 194 228
255 194 228
255 194 228
255 194 228
255 194 228
255 194 228
255 194 228
255 194 228
255 194 228
255 194 228
255 194 228
255 194 228
255 194 228
255 194 228
255 194 228
255 194 228
255 194 228
255 194 228
255 194 228
255 194 228
255 194 228
255 194 228
255 194 228
255 194 228
255 194 228
255 194 228
255 194 228
255 194 228
255 206 240
255 194 228
255 194 228
255 194 228
255 194 228
255 194 228
255 194 228
255 194 228
255 194 228
255 194 228
255 194 228
255 194 228
255 194 228
255 194 228
255 194 228
255 194 228
255 194 228
255 194 228
255 194 228
255 194 228
255 194 228
255 194 228
255 194 228
255 194 228
255 194 228
255 194 228
255 194 228
255 194 228
255 194 228
255 194 228
255 194 228
255 194 228
255 194 228
255 194 228
255 194 228
255 194 228
255 194 228
255 194 228
255 194 228
255 194 228
255 194 228
255 194 228
255 194 228
255 194 228
255 194 228
255 194 228
255 194 228
255 194 228
255 194 228
255 194 228
255 194 228
255 194 228
255 194 228
255 194 228
255 194 228
255 194 228
255 194 228
255 194 228
255 194 228
255 194 228
255 206 240
255 194 228
255 194 228
255 194 228
255 194 228
255 194 228
255 194 228
255 194 228
255 194 228
255 194 228
255 194 228
255 194 228
255 194 228
255 194 228
255 194 228
255 194 228
255 194 228
255 194 228
255 194 228
255 194 228
255 194 228
255 194 228
255 194 228
255 194 228
255 194 228
255 194 228
255 194 228
255 194 228
255 194 228
255 194 228
255 194 228
255 194 228
255 194 228
255 194 228
255 194 228
255 194 228
255 194 228
255 206 240
255 194 228
255 194 228
255 194 228
255 194 228
255 194 228
255 194 228
255 194 228
255 194 228
255 194 228
255 194 228
255 194 228
255 194 228
255 194 228
255 194 228
255 194 228
255 194 228
255 194 228
255 194 228
255 194 228
255 194 228
255 194 228
255 194 228
255 194 228
255 194 228
255 194 228
255 194 228
255 194 228
255 194 228
255 194 228
255 194 228
255 194 228
255 194 228
255 194 228
255 194 228
255 194 228
255 194 228
255 206 240
255 194 228
255 194 228
255 194 228
255 194 228
255 194 228
255 194 228
255 194 228
255 194 228
255 194 228
255 194 228
255 194 228
255 194 228
255 194 228
255 194 228
255 194 228
255 194 228
255 194 228
255 194 228
255 194 228
255 194 228
255 194 228
255 194 228
255 194 228
255 194 228
255 194 228
255 194 228
255 194 228
255 194 228
255 194 228
255 194 228
255 194 228
255 194 228
255 194 228
255 194 228
255 194 228
255 194 228
255 206 240
255 194 228
255 194 228
255 194 228
255 194 228
255 194 228
255 194 228
255 194 228
255 194 228
255 194 228
255 194 228
255 194 228
255 194 228
255 194 228
255 194 228
255 194 228
255 194 228
255 194 228
255 194 228
255 194 228
255 194 228
255 194 228
255 194 228
255 194 228
255 194 228
255 194 228
255 194 228
255 194 228
255 194 228
255 194 228
255 194 228
255 194 228
255 194 228
255 194 228
255 194 228
255 194 228
255 194 228
255 206 240
255 194 228
255 194 228
255 194 228
255 194 228
255 194 228
255 194 228
255 194 228
255 194 228
255 194 228
255 194 228
255 194 228
255 194 228
255 194 228
255 194 228
255 194 228
255 194 228
255 194 228
255 194 228
255 194 228
255 194 228
255 194 228
255 194 228
255 194 228
255 194 228
255 194 228
255 194 228
255 194 228
255 194 228
255 194 228
255 194 228
255 194 228
255 194 228
255 194 228
255 194 228
255 194 228
255 194 228
255 206 240
255 194 228
255 194 228
255 194 228
255 194 228
255 194 228
255 194 228
255 194 228
255 194 228
255 194 228
255 194 228
255 194 228
255 194 228
255 194 228
255 194 228
255 194 228
255 194 228
255 194 228
255 194 228
255 194 228
255 194 228
255 194 228
255 194 228
255 194 228
255 194 228
255 194 228
255 194 228
255 194 228
255 194 228
255 194 228
255 194 228
255 194 228
255 194 228
255 194 228
255 194 228
255 194 228
255 194 228
255 206 240
255 194 228
255 194 228
255 194 228
255 194 228
255 194 228
255 194 228
255 194 228
255 194 228
255 194 228
255 194 228
255 194 228
255 194 228
255 194 228
255 194 228
255 194 228
255 194 228
255 194 228
255 194 228
255 194 228
255 194 228
255 194 228
255 194 228
255 194 228
255 194 228
255 194 228
255 194 228
255 194 228
255 194 228
255 194 228
255 194 228
255 194 228
255 194 228
255 194 228
255 194 228
255 194 228
255 194 228
255 206 240
255 194 228
255 194 228
255 194 228
255 194 228
255 194 228
255 194 228
255 194 228
255 194 228
255 194 228
255 194 228
255 194 228
255 194 228
255 194 228
255 194 228
255 194 228
255 194 228
255 194 228
255 194 228
255 194 228
255 194 228
255 194 228
255 194 228
255 194 228
255 194 228
255 194 228
255 194 228
255 194 228
255 194 228
255 194 228
255 194 228
255 194 228
255 194 228
255 194 228
255 194 228
255 194 228
255 194 228
255 194 228
255 194 228
255 194 228
255 194 228
255 194 228
255 194 228
255 194 228
255 194 228
255 194 228
255 194 228
255 194 228
255 194 228
255 194 228
255 194 228
255 194 228
255 194 228
255 194 228
255 194 228
255 194 228
255 194 228
255 194 228
255 194 228
255 194 228
255 206 240
255 194 228
255 194 228
255 194 228
255 194 228
255 194 228
255 194 228
255 194 228
255 194 228
255 194 228
255 194 228
255 194 228
255 194 228
255 194 228
255 194 228
255 194 228
255 194 228
255 194 228
255 194 228
255 194 228
255 194 228
255 194 228
255 194 228
255 194 228
255 194 228
255 194 228
255 194 228
255 194 228
255 194 228
255 194 228
255 194 228
255 194 228
255 194 228
255 194 228
255 194 228
255 194 228
255 194 228
255 206 240
255 194 228
255 194 228
255 194 228
255 194 228
255 194 228
255 194 228
255 194 228
255 194 228
255 194 228
255 194 228
255 194 228
255 194 228
255 194 228
255 194 228
255 194 228
255 194 228
255 194 228
255 194 228
255 194 228
255 194 228
255 194 228
255 194 228
255 194 228
255 194 228
255 194 228
255 194 228
255 194 228
255 194 228
255 194 228
255 194 228
255 194 228
255 194 228
255 194 228
255 194 228
255 194 228
255 194 228
255 206 240
255 194 228
255 194 228
255 194 228
255 194 228
255 194 228
255 194 228
255 194 228
255 194 228
255 194 228
255 194 228
255 194 228
255 194 228
255 194 228
255 194 228
255 194 228
255 194 228
255 194 228
255 194 228
255 194 228
255 194 228
255 194 228
255 194 228
255 194 228
255 194 228
255 194 228
255 194 228
255 194 228
255 194 228
255 194 228
255 194 228
255 194 228
255 194 228
255 194 228
255 194 228
255 194 228
255 194 228
255 206 240
255 194 228
255 194 228
255 194 228
255 194 228
255 194 228
255 194 228
255 194 228
255 194 228
255 194 228
255 194 228
255 194 228
255 194 228
255 194 228
255 194 228
255 194 228
255 194 228
255 194 228
255 194 228
255 194 228
255 194 228
255 194 228
255 194 228
255 194 228
255 194 228
255 194 228
255 194 228
255 194 228
255 194 228
255 194 228
255 194 228
255 194 228
255 194 228
255 194 228
255 194 228
255 194 228
255 194 228
255 206 240
255 194 228
255 194 228
255 194 228
255 194 228
255 194 228
255 194 228
255 194 228
255 194 228
255 194 228
255 194 228
255 194 228
255 194 228
255 194 228
255 194 228
255 194 228
255 194 228
255 194 228
255 194 228
255 194 228
255 194 228
255 194 228
255 194 228
255 194 228
255 194 228
255 194 228
255 194 228
255 194 228
255 194 228
255 194 228
255 194 228
255 194 228
255 194 228
255 194 228
255 194 228
255 194 228
255 194 228
255 206 240
255 194 228
255 194 228
255 194 228
255 194 228
255 194 228
255 194 228
255 194 228
255 194 228
255 194 228
255 194 228
255 194 228
255 194 228
255 194 228
255 194 228
255 194 228
255 194 228
255 194 228
255 194 228
255 194 228
255 194 228
255 194 228
255 194 228
255 194 228
255 194 228
255 194 228
255 194 228
255 194 228
255 194 228
255 194 228
255 194 228
255 194 228
255 194 228
255 194 228
255 194 228
255 194 228
255 194 228
255 206 240
255 194 228
255 194 228
255 194 228
255 194 228
255 194 228
255 194 228
255 194 228
255 194 228
255 194 228
255 194 228
255 194 228
255 194 228
255 194 228
255 194 228
255 194 228
255 194 228
255 194 228
255 194 228
255 194 228
255 194 228
255 194 228
255 194 228
255 194 228
255 194 228
255 194 228
255 194 228
255 194 228
255 194 228
255 194 228
255 194 228
255 194 228
255 194 228
255 194 228
255 194 228
255 194 228
255 194 228
255 206 240
255 194 228
255 194 228
255 194 228
255 194 228
255 194 228
255 194 228
255 194 228
255 194 228
255 194 228
255 194 228
255 194 228
255 194 228
255 194 228
255 194 228
255 194 228
255 194 228
255 194 228
255 194 228
255 194 228
255 194 228
255 194 228
255 194 228
255 194 228
255 194 228
255 194 228
255 194 228
255 194 228
255 194 228
255 194 228
255 194 228
255 194 228
255 194 228
255 194 228
255 194 228
255 194 228
255 194 228
255 194 228
255 194 228
255 194 228
255 194 228
255 194 228
255 194 228
255 194 228
255 194 228
255 194 228
255 194 228
255 194 228
255 194 228
255 194 228
255 194 228
255 194 228
255 194 228
255 194 228
255 194 228
255 194 228
255 194 228
255 194 228
255 194 228
255 194 228
255 206 240
255 194 228
255 194 228
255 194 228
255 194 228
255 194 228
255 194 228
255 194 228
255 194 228
255 194 228
255 194 228
255 194 228
255 194 228
255 194 228
255 194 228
255 194 228
255 194 228
255 194 228
255 194 228
255 194 228
255 194 228
255 194 228
255 194 228
255 194 228
255 194 228
255 194 228
255 194 228
255 194 228
255 194 228
255 194 228
255 194 228
255 194 228
255 194 228
255 194 228
255 194 228
255 194 228
255 194 228
255 206 240
255 194 228
255 194 228
255 194 228
255 194 228
255 194 228
255 194 228
255 194 228
255 194 228
255 194 228
255 194 228
255 194 228
255 194 228
255 194 228
255 194 228
255 194 228
255 194 228
255 194 228
255 194 228
255 194 228
255 194 228
255 194 228
255 194 228
255 194 228
255 194 228
255 194 228
255 194 228
255 194 228
255 194 228
255 194 228
255 194 228
255 194 228
255 194 228
255 194 228
255 194 228
255 194 228
255 194 228
255 206 240
255 194 228
255 194 228
255 194 228
255 194 228
255 194 228
255 194 228
255 194 228
255 194 228
255 194 228
255 194 228
255 194 228
255 194 228
255 194 228
255 194 228
255 194 228
255 194 228
255 194 228
255 194 228
255 194 228
255 194 228
255 194 228
255 194 228
255 194 228
255 194 228
255 194 228
255 194 228
255 194 228
255 194 228
255 194 228
255 194 228
255 194 228
255 194 228
255 194 228
255 194 228
255 194 228
255 194 228
255 206 240
255 194 228
255 194 228
255 194 228
255 194 228
255 194 228
255 194 228
255 194 228
255 194 228
255 194 228
255 194 228
255 194 228
255 194 228
255 194 228
255 194 228
255 194 228
255 194 228
255 194 228
255 194 228
255 194 228
255 194 228
255 194 228
255 194 228
255 194 228
255 194 228
255 194 228
255 194 228
255 194 228
255 194 228
255 194 228
255 194 228
255 194 228
255 194 228
255 194 228
255 194 228
255 194 228
255 194 228
255 206 240
255 194 228
255 194 228
255 194 228
255 194 228
255 194 228
255 194 228
255 194 228
255 194 228
255 194 228
255 194 228
255 194 228
255 194 228
255 194 228
255 194 228
255 194 228
255 194 228
255 194 228
255 194 228
255 194 228
255 194 228
255 194 228
255 194 228
255 194 228
255 194 228
255 194 228
255 194 228
255 194 228
255 194 228
255 194 228
255 194 228
255 194 228
255 194 228
255 194 228
255 194 228
255 194 228
255 194 228
255 206 240
255 194 228
255 194 228
255 194 228
255 194 228
255 194 228
255 194 228
255 194 228
255 194 228
255 194 228
255 194 228
255 194 228
255 194 228
255 194 228
255 194 228
255 194 228
255 194 228
255 194 228
255 194 228
255 194 228
255 194 228
255 194 228
255 194 228
255 194 228
255 194 228
255 194 228
255 194 228
255 194 228
255 194 228
255 194 228
255 194 228
255 194 228
255 194 228
255 194 228
255 194 228
255 194 228
255 194 228
255 206 240
255 194 228
255 194 228
255 194 228
255 194 228
255 194 228
255 194 228
255 194 228
255 194 228
255 194 228
255 194 228
255 194 228
255 194 228
255 194 228
255 194 228
255 194 228
255 194 228
255 194 228
255 194 228
255 194 228
255 194 228
255 194 228
255 194 228
255 194 228
255 194 228
255 194 228
255 194 228
255 194 228
255 194 228
255 194 228
255 194 228
255 194 228
255 194 228
255 194 228
255 194 228
255 194 228
255 194 228
255 206 240
255 194 228
255 194 228
255 194 228
255 194 228
255 194 228
255 194 228
255 194 228
255 194 228
255 194 228
255 194 228
255 194 228
255 194 228
255 194 228
255 194 228
255 194 228
255 194 228
255 194 228
255 194 228
255 194 228
255 194 228
255 194 228
255 194 228
255 194 228
255 194 228
255 194 228
255 194 228
255 194 228
255 194 228
255 194 228
255 194 228
255 194 228
255 194 228
255 194 228
255 194 228
255 194 228
255 194 228
255 194 228
255 194 228
255 194 228
255 194 228
255 194 228
255 194 228
255 194 228
255 194 228
255 194 228
255 194 228
255 194 228
255 194 228
255 194 228
255 194 228
255 194 228
255 194 228
255 194 228
255 194 228
255 194 228
255 194 228
255 194 228
255 194 228
255 194 228
255 206 240
255 194 228
255 194 228
255 194 228
255 194 228
255 194 228
255 194 228
255 194 228
255 194 228
255 194 228
255 194 228
255 194 228
255 194 228
255 194 228
255 194 228
255 194 228
255 194 228
255 194 228
255 194 228
255 194 228
255 194 228
255 194 228
255 194 228
255 194 228
255 194 228
255 194 228
255 194 228
255 194 228
255 194 228
255 194 228
255 194 228
255 194 228
255 194 228
255 194 228
255 194 228
255 194 228
255 194 228
255 206 240
255 194 228
255 194 228
255 194 228
255 194 228
255 194 228
255 194 228
255 194 228
255 194 228
255 194 228
255 194 228
255 194 228
255 194 228
255 194 228
255 194 228
255 194 228
255 194 228
255 194 228
255 194 228
255 194 228
255 194 228
255 194 228
255 194 228
255 194 228
255 194 228
255 194 228
255 194 228
255 194 228
255 194 228
255 194 228
255 194 228
255 194 228
255 194 228
255 194 228
255 194 228
255 194 228
255 194 228
255 206 240
255 194 228
255 194 228
255 194 228
255 194 228
255 194 228
255 194 228
255 194 228
255 194 228
255 194 228
255 194 228
255 194 228
255 194 228
255 194 228
255 194 228
255 194 228
255 194 228
255 194 228
255 194 228
255 194 228
255 194 228
255 194 228
255 194 228
255 194 228
255 194 228
255 194 228
255 194 228
255 194 228
255 194 228
255 194 228
255 194 228
255 194 228
255 194 228
255 194 228
255 194 228
255 194 228
255 194 228
255 206 240
255 194 228
255 194 228
255 194 228
255 194 228
255 194 228
255 194 228
255 194 228
255 194 228
255 194 228
255 194 228
255 194 228
255 194 228
255 194 228
255 194 228
255 194 228
255 194 228
255 194 228
255 194 228
255 194 228
255 194 228
255 194 228
255 194 228
255 194 228
255 194 228
255 194 228
255 194 228
255 194 228
255 194 228
255 194 228
255 194 228
255 194 228
255 194 228
255 194 228
255 194 228
255 194 228
255 194 228
255 206 240
255 194 228
255 194 228
255 194 228
255 194 228
255 194 228
255 194 228
255 194 228
255 194 228
255 194 228
255 194 228
255 194 228
255 194 228
255 194 228
255 194 228
255 194 228
255 194 228
255 194 228
255 194 228
255 194 228
255 194 228
255 194 228
255 194 228
255 194 228
255 194 228
255 194 228
255 194 228
255 194 228
255 194 228
255 194 228
255 194 228
255 194 228
255 194 228
255 194 228
255 194 228
255 194 228
255 194 228
255 206 240
255 194 228
255 194 228
255 194 228
255 194 228
255 194 228
255 194 228
255 194 228
255 194 228
255 194 228
255 194 228
255 194 228
255 194 228
255 194 228
255 194 228
255 194 228
255 194 228
255 194 228
255 194 228
255 194 228
255 194 228
255 194 228
255 194 228
255 194 228
255 194 228
255 194 228
255 194 228
255 194 228
255 194 228
255 194 228
255 194 228
255 194 228
255 194 228
255 194 228
255 194 228
255 194 228
255 194 228
255 206 240
255 194 228
255 194 228
255 194 228
255 194 228
255 194 228
255 194 228
255 194 228
255 194 228
255 194 228
255 194 228
255 194 228
255 194 228
255 194 228
255 194 228
255 194 228
255 194 228
255 194 228
255 194 228
255 194 228
255 194 228
255 194 228
255 194 228
255 194 228
255 194 228
255 194 228
255 194 228
255 194 228
255 194 228
255 194 228
255 194 228
255 194 228
255 194 228
255 194 228
255 194 228
255 194 228
255 194 228
255 206 240
255 194 228
255 194 228
255 194 228
255 194 228
255 194 228
255 194 228
255 194 228
255 194 228
255 194 228
255 194 228
255 194 228
255 194 228
255 194 228
255 194 228
255 194 228
255 194 228
255 194 228
255 194 228
255 194 228
255 194 228
255 194 228
255 194 228
255 194 228
255 194 228
255 194 228
255 194 228
255 194 228
255 194 228
255 194 228
255 194 228
255 194 228
255 194 228
255 194 228
255 194 228
255 194 228
255 194 228
255 194 228
255 194 228
255 194 228
255 194 228
255 194 228
255 194 228
255 194 228
255 194 228
255 194 228
255 194 228
255 194 228
255 194 228
255 194 228
255 194 228
255 194 228
255 194 228
255 194 228
255 194 228
255 194 228
255 194 228
255 194 228
255 194 228
255 194 228
255 206 240
255 194 228
255 194 228
255 194 228
255 194 228
255 194 228
255 194 228
255 194 228
255 194 228
255 194 228
255 194 228
255 194 228
255 194 228
255 194 228
255 194 228
255 194 228
255 194 228
255 194 228
255 194 228
255 194 228
255 194 228
255 194 228
255 194 228
255 194 228
255 194 228
255 194 228
255 194 228
255 194 228
255 194 228
255 194 228
255 194 228
255 194 228
255 194 228
255 194 228
255 194 228
255 194 228
255 194 228
255 206 240
255 194 228
255 194 228
255 194 228
255 194 228
255 194 228
255 194 228
255 194 228
255 194 228
255 194 228
255 194 228
255 194 228
255 194 228
255 194 228
255 194 228
255 194 228
255 194 228
255 194 228
255 194 228
255 194 228
255 194 228
255 194 228
255 194 228
255 194 228
255 194 228
255 194 228
255 194 228
255 194 228
255 194 228
255 194 228
255 194 228
255 194 228
255 194 228
255 194 228
255 194 228
255 194 228
255 194 228
255 206 240
255 194 228
255 194 228
255 194 228
255 194 228
255 194 228
255 194 228
255 194 228
255 194 228
255 194 228
255 194 228
255 194 228
255 194 228
255 194 228
255 194 228
255 194 228
255 194 228
255 194 228
255 194 228
255 194 228
255 194 228
255 194 228
255 194 228
255 194 228
255 194 228
255 194 228
255 194 228
255 194 228
255 194 228
255 194 228
255 194 228
255 194 228
255 194 228
255 194 228
255 194 228
255 194 228
255 194 228
255 206 240
255 194 228
255 194 228
255 194 228
255 194 228
255 194 228
255 194 228
255 194 228
255 194 228
255 194 228
255 194 228
255 194 228
255 194 228
255 194 228
255 194 228
255 194 228
255 194 228
255 194 228
255 194 228
255 194 228
255 194 228
255 194 228
255 194 228
255 194 228
255 194 228
255 194 228
255 194 228
255 194 228
255 194 228
255 194 228
255 194 228
255 194 228
255 194 228
255 194 228
255 194 228
255 194 228
255 194 228
255 206 240
255 194 228
255 194 228
255 194 228
255 194 228
255 194 228
255 194 228
255 194 228
255 194 228
255 194 228
255 194 228
255 194 228
255 194 228
255 194 228
255 194 228
255 194 228
255 194 228
255 194 228
255 194 228
255 194 228
255 194 228
255 194 228
255 194 228
255 194 228
255 194 228
255 194 228
255 194 228
255 194 228
255 194 228
255 194 228
255 194 228
255 194 228
255 194 228
255 194 228
255 194 228
255 194 228
255 194 228
255 206 240
255 194 228
255 194 228
255 194 228
255 194 228
255 194 228
255 194 228
255 194 228
255 194 228
255 194 228
255 194 228
255 194 228
255 194 228
255 194 228
255 194 228
255 194 228
255 194 228
255 194 228
255 194 228
255 194 228
255 194 228
255 194 228
255 194 228
255 194 228
255 194 228
255 194 228
255 194 228
255 194 228
255 194 228
255 194 228
255 194 228
255 194 228
255 194 228
255 194 228
255 194 228
255 194 228
255 194 228
255 206 240
255 194 228
255 194 228
255 194 228
255 194 228
255 194 228
255 194 228
255 194 228
255 194 228
255 194 228
255 194 228
255 194 228
255 194 228
255 194 228
255 194 228
255 194 228
255 194 228
255 194 228
255 194 228
255 194 228
255 194 228
255 194 228
255 194 228
255 194 228
255 194 228
255 194 228
255 194 228
255 194 228
255 194 228
255 194 228
255 194 228
255 194 228
255 194 228
255 194 228
255 194 228
255 194 228
255 194 228
255 206 240
255 194 228
255 194 228
255 194 228
255 194 228
255 194 228
255 194 228
255 194 228
255 194 228
255 194 228
255 194 228
255 194 228
255 194 228
255 194 228
255 194 228
255 194 228
255 194 228
255 194 228
255 194 228
255 194 228
255 194 228
255 194 228
255 194 228
255 194 228
255 194 228
255 194 228
255 194 228
255 194 228
255 194 228
255 194 228
255 194 228
255 194 228
255 194 228
255 194 228
255 194 228
255 194 228
255 194 228
255 194 228
255 194 228
255 194 228
255 194 228
255 194 228
255 194 228
255 194 228
255 194 228
255 194 228
255 194 228
255 194 228
255 194 228
255 194 228
255 194 228
255 194 228
255 194 228
255 194 228
255 194 228
255 194 228
255 194 228
255 194 228
255 194 228
255 194 228
255 206 240
255 194 228
255 194 228
255 194 228
255 194 228
255 194 228
255 194 228
255 194 228
255 194 228
255 194 228
255 194 228
255 194 228
255 194 228
255 194 228
255 194 228
255 194 228
255 194 228
255 194 228
255 194 228
255 194 228
255 194 228
255 194 228
255 194 228
255 194 228
255 194 228
255 194 228
255 194 228
255 194 228
255 194 228
255 194 228
255 194 228
255 194 228
255 194 228
255 194 228
255 194 228
255 194 228
255 194 228
255 206 240
255 194 228
255 194 228
255 194 228
255 194 228
255 194 228
255 194 228
255 194 228
255 194 228
255 194 228
255 194 228
255 194 228
255 194 228
255 194 228
255 194 228
255 194 228
255 194 228
255 194 228
255 194 228
255 194 228
255 194 228
255 194 228
255 194 228
255 194 228
255 194 228
255 194 228
255 194 228
255 194 228
255 194 228
255 194 228
255 194 228
255 194 228
255 194 228
255 194 228
255 194 228
255 194 228
255 194 228
255 206 240
255 194 228
255 194 228
255 194 228
255 194 228
255 194 228
255 194 228
255 194 228
255 194 228
255 194 228
255 194 228
255 194 228
255 194 228
255 194 228
255 194 228
255 194 228
255 194 228
255 194 228
255 194 228
255 194 228
255 194 228
255 194 228
255 194 228
255 194 228
255 194 228
255 194 228
255 194 228
255 194 228
255 194 228
255 194 228
255 194 228
255 194 228
255 194 228
255 194 228
255 194 228
255 194 228
255 194 228
255 206 240
255 194 228
255 194 228
255 194 228
255 194 228
255 194 228
255 194 228
255 194 228
255 194 228
255 194 228
255 194 228
255 194 228
255 194 228
255 194 228
255 194 228
255 194 228
255 194 228
255 194 228
255 194 228
255 194 228
255 194 228
255 194 228
255 194 228
255 194 228
255 194 228
255 194 228
255 194 228
255 194 228
255 194 228
255 194 228
255 194 228
255 194 228
255 194 228
255 194 228
255 194 228
255 194 228
255 194 228
255 206 240
255 194 228
255 194 228
255 194 228
255 194 228
255 194 228
255 194 228
255 194 228
255 194 228
255 194 228
255 194 228
255 194 228
255 194 228
255 194 228
255 194 228
255 194 228
255 194 228
255 194 228
255 194 228
255 194 228
255 194 228
255 194 228
255 194 228
255 194 228
255 194 228
255 194 228
255 194 228
255 194 228
255 194 228
255 194 228
255 194 228
255 194 228
255 194 228
255 194 228
255 194 228
255 194 228
255 194 228
255 206 240
255 194 228
255 194 228
255 194 228
255 194 228
255 194 228
255 194 228
255 194 228
255 194 228
255 194 228
255 194 228
255 194 228
255 194 228
255 194 228
255 194 228
255 194 228
255 194 228
255 194 228
255 194 228
255 194 228
255 194 228
255 194 228
255 194 228
255 194 228
255 194 228
255 194 228
255 194 228
255 194 228
255 194 228
255 194 228
255 194 228
255 194 228
255 194 228
255 194 228
255 194 228
255 194 228
255 194 228
255 206 240
255 194 228
255 194 228
255 194 228
255 194 228
255 194 228
255 194 228
255 194 228
255 194 228
255 194 228
255 194 228
255 194 228
255 194 228
255 194 228
255 194 228
255 194 228
255 194 228
255 194 228
255 194 228
255 194 228
255 194 228
255 194 228
255 194 228
255 194 228
255 194 228
255 194 228
255 194 228
255 194 228
255 194 228
255 194 228
255 194 228
255 194 228
255 194 228
255 194 228
255 194 228
255 194 228
255 194 228
255 206 240
255 194 228
255 194 228
255 194 228
255 194 228
255 194 228
255 194 228
255 194 228
255 194 228
255 194 228
255 194 228
255 194 228
255 194 228
255 194 228
255 194 228
255 194 228
255 194 228
255 194 228
255 194 228
255 194 228
255 194 228
255 194 228
255 194 228
255 194 228
255 194 228
255 194 228
255 194 228
255 194 228
255 194 228
255 194 228
255 194 228
255 194 228
255 194 228
255 194 228
255 194 228
255 194 228
255 194 228
255 194 228
255 194 228
255 194 228
255 194 228
255 194 228
255 194 228
255 194 228
255 194 228
255 194 228
255 194 228
255 194 228
255 194 228
255 194 228
255 194 228
255 194 228
255 194 228
255 194 228
255 194 228
255 194 228
255 194 228
255 194 228
255 194 228
255 194 228
255 206 240
255 194 228
255 194 228
255 194 228
255 194 228
255 194 228
255 194 228
255 194 228
255 194 228
255 194 228
255 194 228
255 194 228
255 194 228
255 194 228
255 194 228
255 194 228
255 194 228
255 194 228
255 194 228
255 194 228
255 194 228
255 194 228
255 194 228
255 194 228
255 194 228
255 194 228
255 194 228
255 194 228
255 194 228
255 194 228
255 194 228
255 194 228
255 194 228
255 194 228
255 194 228
255 194 228
255 194 228
255 206 240
255 194 228
255 194 228
255 194 228
255 194 228
255 194 228
255 194 228
255 194 228
255 194 228
255 194 228
255 194 228
255 194 228
255 194 228
255 194 228
255 194 228
255 194 228
255 194 228
255 194 228
255 194 228
255 194 228
255 194 228
255 194 228
255 194 228
255 194 228
255 194 228
255 194 228
255 194 228
255 194 228
255 194 228
255 194 228
255 194 228
255 194 228
255 194 228
255 194 228
255 194 228
255 194 228
255 194 228
255 206 240
255 194 228
255 194 228
255 194 228
255 194 228
255 194 228
255 194 228
255 194 228
255 194 228
255 194 228
255 194 228
255 194 228
255 194 228
255 194 228
255 194 228
255 194 228
255 194 228
255 194 228
255 194 228
255 194 228
255 194 228
255 194 228
255 194 228
255 194 228
255 194 228
255 194 228
255 194 228
255 194 228
255 194 228
255 194 228
255 194 228
255 194 228
255 194 228
255 194 228
255 194 228
255 194 228
255 194 228
255 206 240
255 194 228
255 194 228
255 194 228
255 194 228
255 194 228
255 194 228
255 194 228
255 194 228
255 194 228
255 194 228
255 194 228
255 194 228
255 194 228
255 194 228
255 194 228
255 194 228
255 194 228
255 194 228
255 194 228
255 194 228
255 194 228
255 194 228
255 194 228
255 194 228
255 194 228
255 194 228
255 194 228
255 194 228
255 194 228
255 194 228
255 194 228
255 194 228
255 194 228
255 194 228
255 194 228
255 194 228
255 206 240
255 194 228
255 194 228
255 194 228
255 194 228
255 194 228
255 194 228
255 194 228
255 194 228
255 194 228
255 194 228
255 194 228
255 194 228
255 194 228
255 194 228
255 194 228
255 194 228
255 194 228
255 194 228
255 194 228
255 194 228
255 194 228
255 194 228
255 194 228
255 194 228
255 194 228
255 194 228
255 194 228
255 194 228
255 194 228
255 194 228
255 194 228
255 194 228
255 194 228
255 194 228
255 194 228
255 194 228
255 206 240
255 194 228
255 194 228
255 194 228
255 194 228
255 194 228
255 194 228
255 194 228
255 194 228
255 194 228
255 194 228
255 194 228
255 194 228
255 194 228
255 194 228
255 194 228
255 194 228
255 194 228
255 194 228
255 194 228
255 194 228
255 194 228
255 194 228
255 194 228
255 194 228
255 194 228
255 194 228
255 194 228
255 194 228
255 194 228
255 194 228
255 194 228
255 194 228
255 194 228
255 194 228
255 194 228
255 194 228
255 206 240
255 194 228
255 194 228
255 194 228
255 194 228
255 194 228
255 194 228
255 194 228
255 194 228
255 194 228
255 194 228
255 194 228
255 194 228
255 194 228
255 194 228
255 194 228
255 194 228
255 194 228
255 194 228
255 194 228
255 194 228
255 194 228
255 194 228
255 194 228
255 194 228
255 194 228
255 194 228
255 194 228
255 194 228
255 194 228
255 194 228
255 194 228
255 194 228
255 194 228
255 194 228
255 194 228
255 194 228
255 206 240
255 194 228
255 194 228
255 194 228
255 194 228
255 194 228
255 194 228
255 194 228
255 194 228
255 194 228
255 194 228
255 194 228
255 194 228
255 194 228
255 194 228
255 194 228
255 194 228
255 194 228
255 194 228
255 194 228
255 194 228
255 194 228
255 194 228
255 194 228
255 194 228
255 194 228
255 194 228
255 194 228
255 194 228
255 194 228
255 194 228
255 194 228
255 194 228
255 194 228
255 194 228
255 194 228
255 194 228
255 206 240
255 194 228
255 194 228
255 194 228
255 194 228
255 194 228
255 194 228
255 194 228
255 194 228
255 194 228
255 194 228
255 194 228
255 194 228
255 194 228
255 194 228
255 194 228
255 194 228
255 194 228
255 194 228
255 194 228
255 194 228
255 194 228
255 194 228
255 206 240
255 194 228
255 194 228
255 194 228
255 194 228
255 194 228
255 194 228
255 194 228
255 194 228
255 194 228
255 194 228
255 194 228
255 194 228
255 194 228
255 194 228
255 194 228
255 194 228
255 194 228
255 194 228
255 194 228
255 194 228
255 194 228
255 194 228
255 194 228
255 194 228
255 194 228
255 194 228
255 194 228
255 194 228
255 194 228
255 194 228
255 194 228
255 194 228
255 194 228
255 194 228
255 194 228
255 194 228
255 206 240
255 194 228
255 194 228
255 194 228
255 194 228
255 194 228
255 194 228
255 194 228
255 194 228
255 194 228
255 194 228
255 194 228
255 194 228
255 194 228
255 194 228
255 194 228
255 194 228
255 194 228
255 194 228
255 194 228
255 194 228
255 194 228
255 194 228
255 194 228
255 194 228
255 194 228
255 194 228
255 194 228
255 194 228
255 194 228
255 194 228
255 194 228
255 194 228
255 194 228
255 194 228
255 194 228
255 194 228
255 206 240
255 194 228
255 194 228
255 194 228
255 194 228
255 194 228
255 194 228
255 194 228
255 194 228
255 194 228
255 194 228
255 194 228
255 194 228
255 194 228
255 194 228
255 194 228
255 194 228
255 194 228
255 194 228
255 194 228
255 194 228
255 194 228
255 194 228
255 194 228
255 194 228
255 194 228
255 194 228
255 194 228
255 194 228
255 194 228
255 194 228
255 194 228
255 194 228
255 194 228
255 194 228
255 194 228
255 194 228
255 206 240
255 194 228
255 194 228
255 194 228
255 194 228
255 194 228
255 194 228
255 194 228
255 194 228
255 194 228
255 194 228
255 194 228
255 194 228
255 194 228
255 194 228
255 194 228
255 194 228
255 194 228
255 194 228
255 194 228
255 194 228
255 194 228
255 194 228
255 194 228
255 194 228
255 194 228
255 194 228
255 194 228
255 194 228
255 194 228
255 194 228
255 194 228
255 194 228
255 194 228
255 194 228
255 194 228
255 194 228
255 206 240
255 194 228
255 194 228
255 194 228
255 194 228
255 194 228
255 194 228
255 194 228
255 194 228
255 194 228
255 194 228
255 194 228
255 194 228
255 194 228
255 194 228
255 194 228
255 194 228
255 194 228
255 194 228
255 194 228
255 194 228
255 194 228
255 194 228
255 194 228
255 194 228
255 194 228
255 194 228
255 194 228
255 194 228
255 194 228
255 194 228
255 194 228
255 194 228
255 194 228
255 194 228
255 194 228
255 194 228
255 206 240
255 194 228
255 194 228
255 194 228
255 194 228
255 194 228
255 194 228
255 194 228
255 194 228
255 194 228
255 194 228
255 194 228
255 194 228
255 194 228
255 194 228
255 194 228
255 194 228
255 194 228
255 194 228
255 194 228
255 194 228
255 194 228
255 194 228
255 194 228
255 194 228
255 194 228
255 194 228
255 194 228
255 194 228
255 194 228
255 194 228
255 194 228
255 194 228
255 194 228
255 194 228
255 194 228
255 194 228
255 206 240
255 194 228
255 194 228
255 194 228
255 194 228
255 194 228
255 194 228
255 194 228
255 194 228
255 194 228
255 194 228
255 194 228
255 194 228
255 194 228
255 194 228
255 194 228
255 194 228
255 194 228
255 194 228
255 194 228
255 194 228
255 194 228
255 194 228
255 194 228
255 194 228
255 194 228
255 194 228
255 194 228
255 194 228
255 194 228
255 194 228
255 194 228
255 194 228
255 194 228
255 194 228
255 194 228
255 194 228
255 206 240
255 194 228
255 194 228
255 194 228
255 194 228
255 194 228
255 194 228
255 194 228
255 194 228
255 194 228
255 194 228
255 194 228
255 194 228
255 194 228
255 194 228
255 194 228
255 194 228
255 194 228
255 194 228
255 194 228
255 194 228
255 194 228
255 194 228
255 194 228
255 194 228
255 194 228
255 194 228
255 194 228
255 194 228
255 194 228
255 194 228
255 194 228
255 194 228
255 194 228
255 194 228
255 194 228
255 194 228
255 206 240
255 194 228
255 194 228
255 194 228
255 194 228
255 194 228
255 194 228
255 194 228
255 194 228
255 194 228
255 194 228
255 194 228
255 194 228
255 194 228
255 194 228
255 194 228
255 194 228
255 194 228
255 194 228
255 194 228
255 194 228
255 194 228
255 194 228
255 206 240
255 194 228
255 194 228
255 194 228
255 194 228
255 194 228
255 194 228
255 194 228
255 194 228
255 194 228
255 194 228
255 194 228
255 194 228
255 194 228
255 194 228
255 194 228
255 194 228
255 194 228
255 194 228
255 194 228
255 194 228
255 194 228
255 194 228
255 194 228
255 194 228
255 194 228
255 194 228
255 194 228
255 194 228
255 194 228
255 194 228
255 194 228
255 194 228
255 194 228
255 194 228
255 194 228
255 194 228
255 206 240
255 194 228
255 194 228
255 194 228
255 194 228
255 194 228
255 194 228
255 194 228
255 194 228
255 194 228
255 194 228
255 194 228
255 194 228
255 194 228
255 194 228
255 194 228
255 194 228
255 194 228
255 194 228
255 194 228
255 194 228
255 194 228
255 194 228
255 194 228
255 194 228
255 194 228
255 194 228
255 194 228
255 194 228
255 194 228
255 194 228
255 194 228
255 194 228
255 194 228
255 194 228
255 194 228
255 194 228
255 206 240
255 194 228
255 194 228
255 194 228
255 194 228
255 194 228
255 194 228
255 194 228
255 194 228
255 194 228
255 194 228
255 194 228
255 194 228
255 194 228
255 194 228
255 194 228
255 194 228
255 194 228
255 194 228
255 194 228
255 194 228
255 194 228
255 194 228
255 194 228
255 194 228
255 194 228
255 194 228
255 194 228
255 194 228
255 194 228
255 194 228
255 194 228
255 194 228
255 194 228
255 194 228
255 194 228
255 194 228
255 206 240
255 194 228
255 194 228
255 194 228
255 194 228
255 194 228
255 194 228
255 194 228
255 194 228
255 194 228
255 194 228
255 194 228
255 194 228
255 194 228
255 194 228
255 194 228
255 194 228
255 194 228
255 194 228
255 194 228
255 194 228
255 194 228
255 194 228
255 194 228
255 194 228
255 194 228
255 194 228
255 194 228
255 194 228
255 194 228
255 194 228
255 194 228
255 194 228
255 194 228
255 194 228
255 194 228
255 194 228
255 206 240
255 194 228
255 194 228
255 194 228
255 194 228
255 194 228
255 194 228
255 194 228
255 194 228
255 194 228
255 194 228
255 194 228
255 194 228
255 194 228
255 194 228
255 194 228
255 194 228
255 194 228
255 194 228
255 194 228
255 194 228
255 194 228
255 194 228
255 194 228
255 194 228
255 194 228
255 194 228
255 194 228
255 194 228
255 194 228
255 194 228
255 194 228
255 194 228
255 194 228
255 194 228
255 194 228
255 194 228
255 206 240
255 194 228
255 194 228
255 194 228
255 194 228
255 194 228
255 194 228
255 194 228
255 194 228
255 194 228
255 194 228
255 194 228
255 194 228
255 194 228
255 194 228
255 194 228
255 194 228
255 194 228
255 194 228
255 194 228
255 194 228
255 194 228
255 194 228
255 194 228
255 194 228
255 194 228
255 194 228
255 194 228
255 194 228
255 194 228
255 194 228
255 194 228
255 194 228
255 194 228
255 194 228
255 194 228
255 194 228
255 206 240
255 194 228
255 194 228
255 194 228
255 194 228
255 194 228
255 194 228
255 194 228
255 194 228
255 194 228
255 194 228
255 194 228
255 194 228
255 194 228
255 194 228
255 194 228
255 194 228
255 194 228
255 194 228
255 194 228
255 194 228
255 194 228
255 194 228
255 194 228
255 194 228
255 194 228
255 194 228
255 194 228
255 194 228
255 194 228
255 194 228
255 194 228
255 194 228
255 194 228
255 194 228
255 194 228
255 194 228
255 206 240
255 194 228
255 194 228
255 194 228
255 194 228
255 194 228
255 194 228
255 194 228
255 194 228
255 194 228
255 194 228
255 194 228
255 194 228
255 194 228
255 194 228
255 194 228
255 194 228
255 194 228
255 194 228
255 194 228
255 194 228
255 194 228
255 194 228
255 194 228
255 194 228
255 194 228
255 194 228
255 194 228
255 194 228
255 194 228
255 194 228
255 194 228
255 194 228
255 194 228
255 194 228
255 194 228
255 194 228
255 206 240
255 194 228
255 194 228
255 194 228
255 194 228
255 194 228
255 194 228
255 194 228
255 194 228
255 194 228
255 194 228
255 194 228
255 194 228
255 194 228
255 194 228
255 194 228
255 194 228
255 194 228
255 194 228
255 194 228
255 194 228
255 194 228
255 194 228
255 206 240
255 194 228
255 194 228
255 194 228
255 194 228
255 194 228
255 194 228
255 194 228
255 194 228
255 194 228
255 194 228
255 194 228
255 194 228
255 194 228
255 194 228
255 194 228
255 194 228
255 194 228
255 194 228
255 194 228
255 194 228
255 194 228
255 194 228
255 194 228
255 194 228
255 194 228
255 194 228
255 194 228
255 194 228
255 194 228
255 194 228
255 194 228
255 194 228
255 194 228
255 194 228
255 194 228
255 194 228
255 206 240
255 194 228
255 194 228
255 194 228
255 194 228
255 194 228
255 194 228
255 194 228
255 194 228
255 194 228
255 194 228
255 194 228
255 194 228
255 194 228
255 194 228
255 194 228
255 194 228
255 194 228
255 194 228
255 194 228
255 194 228
255 194 228
255 194 228
255 194 228
255 194 228
255 194 228
255 194 228
255 194 228
255 194 228
255 194 228
255 194 228
255 194 228
255 194 228
255 194 228
255 194 228
255 194 228
255 194 228
255 206 240
255 194 228
255 194 228
255 194 228
255 194 228
255 194 228
255 194 228
255 194 228
255 194 228
255 194 228
255 194 228
255 194 228
255 194 228
255 194 228
255 194 228
255 194 228
255 194 228
255 194 228
255 194 228
255 194 228
255 194 228
255 194 228
255 194 228
255 194 228
255 194 228
255 194 228
255 194 228
255 194 228
255 194 228
255 194 228
255 194 228
255 194 228
255 194 228
255 194 228
255 194 228
255 194 228
255 194 228
255 206 240
255 194 228
255 194 228
255 194 228
255 194 228
255 194 228
255 194 228
255 194 228
255 194 228
255 194 228
255 194 228
255 194 228
255 194 228
255 194 228
255 194 228
255 194 228
255 194 228
255 194 228
255 194 228
255 194 228
255 194 228
255 194 228
255 194 228
255 194 228
255 194 228
255 194 228
255 194 228
255 194 228
255 194 228
255 194 228
255 194 228
255 194 228
255 194 228
255 194 228
255 194 228
255 194 228
255 194 228
255 206 240
255 194 228
255 194 228
255 194 228
255 194 228
255 194 228
255 194 228
255 194 228
255 194 228
255 194 228
255 194 228
255 194 228
255 194 228
255 194 228
255 194 228
255 194 228
255 194 228
255 194 228
255 194 228
255 194 228
255 194 228
255 194 228
255 194 228
255 194 228
255 194 228
255 194 228
255 194 228
255 194 228
255 194 228
255 194 228
255 194 228
255 194 228
255 194 228
255 194 228
255 194 228
255 194 228
255 194 228
255 206 240
255 194 228
255 194 228
255 194 228
255 194 228
255 194 228
255 194 228
255 194 228
255 194 228
255 194 228
255 194 228
255 194 228
255 194 228
255 194 228
255 194 228
255 194 228
255 194 228
255 194 228
255 194 228
255 194 228
255 194 228
255 194 228
255 194 228
255 194 228
255 194 228
255 194 228
255 194 228
255 194 228
255 194 228
255 194 228
255 194 228
255 194 228
255 194 228
255 194 228
255 194 228
255 194 228
255 194 228
255 206 240
255 194 228
255 194 228
255 194 228
255 194 228
255 194 228
255 194 228
255 194 228
255 194 228
255 194 228
255 194 228
255 194 228
255 194 228
255 194 228
255 194 228
255 194 228
255 194 228
255 194 228
255 194 228
255 194 228
255 194 228
255 194 228
255 194 228
255 194 228
255 194 228
255 194 228
255 194 228
255 194 228
255 194 228
255 194 228
255 194 228
255 194 228
255 194 228
255 194 228
255 194 228
255 194 228
255 194 228
255 206 240
255 194 228
255 194 228
255 194 228
255 194 228
255 194 228
255 194 228
255 194 228
255 194 228
255 194 228
255 194 228
255 194 228
255 194 228
255 194 228
255 194 228
255 194 228
255 194 228
255 194 228
255 194 228
255 194 228
255 194 228
255 194 228
255 194 228
255 194 228
255 194 228
255 194 228
255 194 228
255 194 228
255 194 228
255 194 228
255 194 228
255 194 228
255 194 228
255 194 228
255 194 228
255 194 228
255 194 228
255 206 240
255 194 228
255 194 228
255 194 228
255 194 228
255 194 228
255 194 228
255 194 228
255 194 228
255 194 228
255 194 228
255 194 228
255 194 228
255 194 228
255 194 228
255 194 228
255 194 228
255 194 228
255 194 228
255 194 228
255 194 228
255 194 228
255 194 228
255 206 240
255 194 228
255 194 228
255 194 228
255 194 228
255 194 228
255 194 228
255 194 228
255 194 228
255 194 228
255 194 228
255 194 228
255 194 228
255 194 228
255 194 228
255 194 228
255 194 228
255 194 228
255 194 228
255 194 228
255 194 228
255 194 228
255 194 228
255 194 228
255 194 228
255 194 228
255 194 228
255 194 228
255 194 228
255 194 228
255 194 228
255 194 228
255 194 228
255 194 228
255 194 228
255 194 228
255 194 228
255 206 240
255 194 228
255 194 228
255 194 228
255 194 228
255 194 228
255 194 228
255 194 228
255 194 228
255 194 228
255 194 228
255 194 228
255 194 228
255 194 228
255 194 228
255 194 228
255 194 228
255 194 228
255 194 228
255 194 228
255 194 228
255 194 228
255 194 228
255 194 228
255 194 228
255 194 228
255 194 228
255 194 228
255 194 228
255 194 228
255 194 228
255 194 228
255 194 228
255 194 228
255 194 228
255 194 228
255 194 228
255 206 240
255 194 228
255 194 228
255 194 228
255 194 228
255 194 228
255 194 228
255 194 228
255 194 228
255 194 228
255 194 228
255 194 228
255 194 228
255 194 228
255 194 228
255 194 228
255 194 228
255 194 228
255 194 228
255 194 228
255 194 228
255 194 228
255 194 228
255 194 228
255 194 228
255 194 228
255 194 228
255 194 228
255 194 228
255 194 228
255 194 228
255 194 228
255 194 228
255 194 228
255 194 228
255 194 228
255 194 228
255 206 240
255 194 228
255 194 228
255 194 228
255 194 228
255 194 228
255 194 228
255 194 228
255 194 228
255 194 228
255 194 228
255 194 228
255 194 228
255 194 228
255 194 228
255 194 228
255 194 228
255 194 228
255 194 228
255 194 228
255 194 228
255 194 228
255 194 228
255 194 228
255 194 228
255 194 228
255 194 228
255 194 228
255 194 228
255 194 228
255 194 228
255 194 228
255 194 228
255 194 228
255 194 228
255 194 228
255 194 228
255 206 240
255 194 228
255 194 228
255 194 228
255 194 228
255 194 228
255 194 228
255 194 228
255 194 228
255 194 228
255 194 228
255 194 228
255 194 228
255 194 228
255 194 228
255 194 228
255 194 228
255 194 228
255 194 228
255 194 228
255 194 228
255 194 228
255 194 228
255 194 228
255 194 228
255 194 228
255 194 228
255 194 228
255 194 228
255 194 228
255 194 228
255 194 228
255 194 228
255 194 228
255 194 228
255 194 228
255 194 228
255 206 240
255 194 228
255 194 228
255 194 228
255 194 228
255 194 228
255 194 228
255 194 228
255 194 228
255 194 228
255 194 228
255 194 228
255 194 228
255 194 228
255 194 228
255 194 228
255 194 228
255 194 228
255 194 228
255 194 228
255 194 228
255 194 228
255 194 228
255 194 228
255 194 228
255 194 228
255 194 228
255 194 228
255 194 228
255 194 228
255 194 228
255 194 228
255 194 228
255 194 228
255 194 228
255 194 228
255 194 228
255 206 240
255 194 228
255 194 228
255 194 228
255 194 228
255 194 228
255 194 228
255 194 228
255 194 228
255 194 228
255 194 228
255 194 228
255 194 228
255 194 228
255 194 228
255 194 228
255 194 228
255 194 228
255 194 228
255 194 228
255 194 228
255 194 228
255 194 228
255 194 228
255 194 228
255 194 228
255 194 228
255 194 228
255 194 228
255 194 228
255 194 228
255 194 228
255 194 228
255 194 228
255 194 228
255 194 228
255 194 228
255 206 240
255 194 228
255 194 228
255 194 228
255 194 228
255 194 228
255 194 228
255 194 228
255 194 228
255 194 228
255 194 228
255 194 228
255 194 228
255 194 228
255 194 228
255 194 228
255 194 228
255 194 228
255 194 228
255 194 228
255 194 228
255 194 228
255 194 228
255 194 228
255 194 228
255 194 228
255 194 228
255 194 228
255 194 228
255 194 228
255 194 228
255 194 228
255 194 228
255 194 228
255 194 228
255 194 228
255 194 228
255 206 240
255 194 228
255 194 228
255 194 228
255 194 228
255 194 228
255 194 228
255 194 228
255 194 228
255 194 228
255 194 228
255 194 228
255 194 228
255 194 228
255 194 228
255 194 228
255 194 228
255 194 228
255 194 228
255 194 228
255 194 228
255 194 228
255 194 228
255 206 240
255 194 228
255 194 228
255 194 228
255 194 228
255 194 228
255 194 228
255 194 228
255 194 228
255 194 228
255 194 228
255 194 228
255 194 228
255 194 228
255 194 228
255 194 228
255 194 228
255 194 228
255 194 228
255 194 228
255 194 228
255 194 228
255 194 228
255 194 228
255 194 228
255 194 228
255 194 228
255 194 228
255 194 228
255 194 228
255 194 228
255 194 228
255 194 228
255 194 228
255 194 228
255 194 228
255 194 228
255 206 240
255 194 228
255 194 228
255 194 228
255 194 228
255 194 228
255 194 228
255 194 228
255 194 228
255 194 228
255 194 228
255 194 228
255 194 228
255 194 228
255 194 228
255 194 228
255 194 228
255 194 228
255 194 228
255 194 228
255 194 228
255 194 228
255 194 228
255 194 228
255 194 228
255 194 228
255 194 228
255 194 228
255 194 228
255 194 228
255 194 228
255 194 228
255 194 228
255 194 228
255 194 228
255 194 228
255 194 228
255 206 240
255 194 228
255 194 228
255 194 228
255 194 228
255 194 228
255 194 228
255 194 228
255 194 228
255 194 228
255 194 228
255 194 228
255 194 228
255 194 228
255 194 228
255 194 228
255 194 228
255 194 228
255 194 228
255 194 228
255 194 228
255 194 228
255 194 228
255 194 228
255 194 228
255 194 228
255 194 228
255 194 228
255 194 228
255 194 228
255 194 228
255 194 228
255 194 228
255 194 228
255 194 228
255 194 228
255 194 228
255 206 240
255 194 228
255 194 228
255 194 228
255 194 228
255 194 228
255 194 228
255 194 228
255 194 228
255 194 228
255 194 228
255 194 228
255 194 228
255 194 228
255 194 228
255 194 228
255 194 228
255 194 228
255 194 228
255 194 228
255 194 228
255 194 228
255 194 228
255 194 228
255 194 228
255 194 228
255 194 228
255 194 228
255 194 228
255 194 228
255 194 228
255 194 228
255 194 228
255 194 228
255 194 228
255 194 228
255 194 228
255 206 240
255 194 228
255 194 228
255 194 228
255 194 228
255 194 228
255 194 228
255 194 228
255 194 228
255 194 228
255 194 228
255 194 228
255 194 228
255 194 228
255 194 228
255 194 228
255 194 228
255 194 228
255 194 228
255 194 228
255 194 228
255 194 228
255 194 228
255 194 228
255 194 228
255 194 228
255 194 228
255 194 228
255 194 228
255 194 228
255 194 228
255 194 228
255 194 228
255 194 228
255 194 228
255 194 228
255 194 228
255 206 240
255 194 228
255 194 228
255 194 228
255 194 228
255 194 228
255 194 228
255 194 228
255 194 228
255 194 228
255 194 228
255 194 228
255 194 228
255 194 228
255 194 228
255 194 228
255 194 228
255 194 228
255 194 228
255 194 228
255 194 228
255 194 228
255 194 228
255 194 228
255 194 228
255 194 228
255 194 228
255 194 228
255 194 228
255 194 228
255 194 228
255 194 228
255 194 228
255 194 228
255 194 228
255 194 228
255 194 228
255 206 240
255 194 228
255 194 228
255 194 228
255 194 228
255 194 228
255 194 228
255 194 228
255 194 228
255 194 228
255 194 228
255 194 228
255 194 228
255 194 228
255 194 228
255 194 228
255 194 228
255 194 228
255 194 228
255 194 228
255 194 228
255 194 228
255 194 228
255 194 228
255 194 228
255 194 228
255 194 228
255 194 228
255 194 228
255 194 228
255 194 228
255 194 228
255 194 228
255 194 228
255 194 228
255 194 228
255 194 228
255 206 240
255 194 228
255 194 228
255 194 228
255 194 228
255 194 228
255 194 228
255 194 228
255 194 228
255 194 228
255 194 228
255 194 228
255 194 228
255 194 228
255 194 228
255 194 228
255 194 228
255 194 228
255 194 228
255 194 228
255 194 228
255 194 228
255 194 228
255 194 228
255 194 228
255 194 228
255 194 228
255 194 228
255 194 228
255 194 228
255 194 228
255 194 228
255 194 228
255 194 228
255 194 228
255 194 228
255 194 228
255 206 240
255 194 228
255 194 228
255 194 228
255 194 228
255 194 228
255 194 228
255 194 228
255 194 228
255 194 228
255 194 228
255 194 228
255 194 228
255 194 228
255 194 228
255 194 228
255 194 228
255 194 228
255 194 228
255 194 228
255 194 228
255 194 228
255 194 228
255 206 240
255 194 228
255 194 228
255 194 228
255 194 228
255 194 228
255 194 228
255 194 228
255 194 228
255 194 228
255 194 228
255 194 228
255 194 228
255 194 228
255 194 228
255 194 228
255 194 228
255 194 228
255 194 228
255 194 228
255 194 228
255 194 228
255 194 228
255 194 228
255 194 228
255 194 228
255 194 228
255 194 228
255 194 228
255 194 228
255 194 228
255 194 228
255 194 228
255 194 228
255 194 228
255 194 228
255 194 228
255 206 240
255 194 228
255 194 228
255 194 228
255 194 228
255 194 228
255 194 228
255 194 228
255 194 228
255 194 228
255 194 228
255 194 228
255 194 228
255 194 228
255 194 228
255 194 228
255 194 228
255 194 228
255 194 228
255 194 228
255 194 228
255 194 228
255 194 228
255 194 228
255 194 228
255 194 228
255 194 228
255 194 228
255 194 228
255 194 228
255 194 228
255 194 228
255 194 228
255 194 228
255 194 228
255 194 228
255 194 228
255 206 240
255 194 228
255 194 228
255 194 228
255 194 228
255 194 228
255 194 228
255 194 228
255 194 228
255 194 228
255 194 228
255 194 228
255 194 228
255 194 228
255 194 228
255 194 228
255 194 228
255 194 228
255 194 228
255 194 228
255 194 228
255 194 228
255 194 228
255 194 228
255 194 228
255 194 228
255 194 228
255 194 228
255 194 228
255 194 228
255 194 228
255 194 228
255 194 228
255 194 228
255 194 228
255 194 228
255 194 228
255 206 240
255 194 228
255 194 228
255 194 228
255 194 228
255 194 228
255 194 228
255 194 228
255 194 228
255 194 228
255 194 228
255 194 228
255 194 228
255 194 228
255 194 228
255 194 228
255 194 228
255 194 228
255 194 228
255 194 228
255 194 228
255 194 228
255 194 228
255 194 228
255 194 228
255 194 228
255 194 228
255 194 228
255 194 228
255 194 228
255 194 228
255 194 228
255 194 228
255 194 228
255 194 228
255 194 228
255 194 228
255 206 240
255 194 228
255 194 228
255 194 228
255 194 228
255 194 228
255 194 228
255 194 228
255 194 228
255 194 228
255 194 228
255 194 228
255 194 228
255 194 228
255 194 228
255 194 228
255 194 228
255 194 228
255 194 228
255 194 228
255 194 228
255 194 228
255 194 228
255 194 228
255 194 228
255 194 228
255 194 228
255 194 228
255 194 228
255 194 228
255 194 228
255 194 228
255 194 228
255 194 228
255 194 228
255 194 228
255 194 228
255 206 240
255 194 228
255 194 228
255 194 228
255 194 228
255 194 228
255 194 228
255 194 228
255 194 228
255 194 228
255 194 228
255 194 228
255 194 228
255 194 228
255 194 228
255 194 228
255 194 228
255 194 228
255 194 228
255 194 228
255 194 228
255 194 228
255 194 228
255 194 228
255 194 228
255 194 228
255 194 228
255 194 228
255 194 228
255 194 228
255 194 228
255 194 228
255 194 228
255 194 228
255 194 228
255 194 228
255 194 228
255 206 240
255 194 228
255 194 228
255 194 228
255 194 228
255 194 228
255 194 228
255 194 228
255 194 228
255 194 228
255 194 228
255 194 228
255 194 228
255 194 228
255 194 228
255 194 228
255 194 228
255 194 228
255 194 228
255 194 228
255 194 228
255 194 228
255 194 228
255 194 228
255 194 228
255 194 228
255 194 228
255 194 228
255 194 228
255 194 228
255 194 228
255 194 228
255 194 228
255 194 228
255 194 228
255 194 228
255 194 228
255 206 240
255 194 228
255 194 228
255 194 228
255 194 228
255 194 228
255 194 228
255 194 228
255 194 228
255 194 228
255 194 228
255 194 228
255 194 228
255 194 228
255 194 228
255 194 228
255 194 228
255 194 228
255 194 228
255 194 228
255 194 228
255 194 228
255 194 228
255 194 228
255 194 228
255 194 228
255 194 228
255 194 228
255 194 228
255 194 228
255 194 228
255 194 228
255 194 228
255 194 228
255 194 228
255 194 228
255 194 228
255 206 240
255 194 228
255 194 228
255 194 228
255 194 228
255 194 228
255 194 228
255 194 228
255 194 228
255 194 228
255 194 228
255 194 228
255 194 228
255 194 228
255 194 228
255 194 228
255 194 228
255 194 228
255 194 228
255 194 228
255 194 228
255 194 228
255 194 228
255 206 240
255 194 228
255 194 228
255 194 228
255 194 228
255 194 228
255 194 228
255 194 228
255 194 228
255 194 228
255 194 228
255 194 228
255 194 228
255 194 228
255 194 228
255 194 228
255 194 228
255 194 228
255 194 228
255 194 228
255 194 228
255 194 228
255 194 228
255 194 228
255 194 228
255 194 228
255 194 228
255 194 228
255 194 228
255 194 228
255 194 228
255 194 228
255 194 228
255 194 228
255 194 228
255 194 228
255 194 228
255 206 240
255 194 228
255 194 228
255 194 228
255 194 228
255 194 228
255 194 228
255 194 228
255 194 228
255 194 228
255 194 228
255 194 228
255 194 228
255 194 228
255 194 228
255 194 228
255 194 228
255 194 228
255 194 228
255 194 228
255 194 228
255 194 228
255 194 228
255 194 228
255 194 228
255 194 228
255 194 228
255 194 228
255 194 228
255 194 228
255 194 228
255 194 228
255 194 228
255 194 228
255 194 228
255 194 228
255 194 228
255 206 240
255 194 228
255 194 228
255 194 228
255 194 228
255 194 228
255 194 228
255 194 228
255 194 228
255 194 228
255 194 228
255 194 228
255 194 228
255 194 228
255 194 228
255 194 228
255 194 228
255 194 228
255 194 228
255 194 228
255 194 228
255 194 228
255 194 228
255 194 228
255 194 228
255 194 228
255 194 228
255 194 228
255 194 228
255 194 228
255 194 228
255 194 228
255 194 228
255 194 228
255 194 228
255 194 228
255 194 228
255 206 240
255 194 228
255 194 228
255 194 228
255 194 228
255 194 228
255 194 228
255 194 228
255 194 228
255 194 228
255 194 228
255 194 228
255 194 228
255 194 228
255 194 228
255 194 228
255 194 228
255 194 228
255 194 228
255 194 228
255 194 228
255 194 228
255 194 228
255 194 228
255 194 228
255 194 228
255 194 228
255 194 228
255 194 228
255 194 228
255 194 228
255 194 228
255 194 228
255 194 228
255 194 228
255 194 228
255 194 228
255 206 240
255 194 228
255 194 228
255 194 228
255 194 228
255 194 228
255 194 228
255 194 228
255 194 228
255 194 228
255 194 228
255 194 228
255 194 228
255 194 228
255 194 228
255 194 228
255 194 228
255 194 228
255 194 228
255 194 228
255 194 228
255 194 228
255 194 228
255 194 228
255 194 228
255 194 228
255 194 228
255 194 228
255 194 228
255 194 228
255 194 228
255 194 228
255 194 228
255 194 228
255 194 228
255 194 228
255 194 228
255 206 240
255 194 228
255 194 228
255 194 228
255 194 228
255 194 228
255 194 228
255 194 228
255 194 228
255 194 228
255 194 228
255 194 228
255 194 228
255 194 228
255 194 228
255 194 228
255 194 228
255 194 228
255 194 228
255 194 228
255 194 228
255 194 228
255 194 228
255 194 228
255 194 228
255 194 228
255 194 228
255 194 228
255 194 228
255 194 228
255 194 228
255 194 228
255 194 228
255 194 228
255 194 228
255 194 228
255 194 228
255 206 240
255 194 228
255 194 228
255 194 228
255 194 228
255 194 228
255 194 228
255 194 228
255 194 228
255 194 228
255 194 228
255 194 228
255 194 228
255 194 228
255 194 228
255 194 228
255 194 228
255 194 228
255 194 228
255 194 228
255 194 228
255 194 228
255 194 228
255 194 228
255 194 228
255 194 228
255 194 228
255 194 228
255 194 228
255 194 228
255 194 228
255 194 228
255 194 228
255 194 228
255 194 228
255 194 228
255 194 228
255 206 240
255 194 228
255 194 228
255 194 228
255 194 228
255 194 228
255 194 228
255 194 228
255 194 228
255 194 228
255 194 228
255 194 228
255 194 228
255 194 228
255 194 228
255 194 228
255 194 228
255 194 228
255 194 228
255 194 228
255 194 228
255 194 228
255 194 228
255 194 228
255 194 228
255 194 228
255 194 228
255 194 228
255 194 228
255 194 228
255 194 228
255 194 228
255 194 228
255 194 228
255 194 228
255 194 228
255 194 228
255 206 240
255 194 228
255 194 228
255 194 228
255 194 228
255 194 228
255 194 228
255 194 228
255 194 228
255 194 228
255 194 228
255 194 228
255 194 228
255 194 228
255 194 228
255 194 228
255 194 228
255 194 228
255 194 228
255 194 228
255 194 228
255 194 228
255 194 228
255 206 240
255 194 228
255 194 228
255 194 228
255 194 228
255 194 228
255 194 228
255 194 228
255 194 228
255 194 228
255 194 228
255 194 228
255 194 228
255 194 228
255 194 228
255 194 228
255 194 228
255 194 228
255 194 228
255 194 228
255 194 228
255 194 228
255 194 228
255 194 228
255 194 228
255 194 228
255 194 228
255 194 228
255 194 228
255 194 228
255 194 228
255 194 228
255 194 228
255 194 228
255 194 228
255 194 228
255 194 228
255 206 240
255 194 228
255 194 228
255 194 228
255 194 228
255 194 228
255 194 228
255 194 228
255 194 228
255 194 228
255 194 228
255 194 228
255 194 228
255 194 228
255 194 228
255 194 228
255 194 228
255 194 228
255 194 228
255 194 228
255 194 228
255 194 228
255 194 228
255 194 228
255 194 228
255 194 228
255 194 228
255 194 228
255 194 228
255 194 228
255 194 228
255 194 228
255 194 228
255 194 228
255 194 228
255 194 228
255 194 228
255 206 240
255 194 228
255 194 228
255 194 228
255 194 228
255 194 228
255 194 228
255 194 228
255 194 228
255 194 228
255 194 228
255 194 228
255 194 228
255 194 228
255 194 228
255 194 228
255 194 228
255 194 228
255 194 228
255 194 228
255 194 228
255 194 228
255 194 228
255 194 228
255 194 228
255 194 228
255 194 228
255 194 228
255 194 228
255 194 228
255 194 228
255 194 228
255 194 228
255 194 228
255 194 228
255 194 228
255 194 228
255 206 240
255 194 228
255 194 228
255 194 228
255 194 228
255 194 228
255 194 228
255 194 228
255 194 228
255 194 228
255 194 228
255 194 228
255 194 228
255 194 228
255 194 228
255 194 228
255 194 228
255 194 228
255 194 228
255 194 228
255 194 228
255 194 228
255 194 228
255 194 228
255 194 228
255 194 228
255 194 228
255 194 228
255 194 228
255 194 228
255 194 228
255 194 228
255 194 228
255 194 228
255 194 228
255 194 228
255 194 228
255 206 240
255 194 228
255 194 228
255 194 228
255 194 228
255 194 228
255 194 228
255 194 228
255 194 228
255 194 228
255 194 228
255 194 228
255 194 228
255 194 228
255 194 228
255 194 228
255 194 228
255 194 228
255 194 228
255 194 228
255 194 228
255 194 228
255 194 228
255 194 228
255 194 228
255 194 228
255 194 228
255 194 228
255 194 228
255 194 228
255 194 228
255 194 228
255 194 228
255 194 228
255 194 228
255 194 228
255 194 228
255 206 240
255 194 228
255 194 228
255 194 228
255 194 228
255 194 228
255 194 228
255 194 228
255 194 228
255 194 228
255 194 228
255 194 228
255 194 228
255 194 228
255 194 228
255 194 228
255 194 228
255 194 228
255 194 228
255 194 228
255 194 228
255 194 228
255 194 228
255 194 228
255 194 228
255 194 228
255 194 228
255 194 228
255 194 228
255 194 228
255 194 228
255 194 228
255 194 228
255 194 228
255 194 228
255 194 228
255 194 228
255 206 240
255 194 228
255 194 228
255 194 228
255 194 228
255 194 228
255 194 228
255 194 228
255 194 228
255 194 228
255 194 228
255 194 228
255 194 228
255 194 228
255 194 228
255 194 228
255 194 228
255 194 228
255 194 228
255 194 228
255 194 228
255 194 228
255 194 228
255 194 228
255 194 228
255 194 228
255 194 228
255 194 228
255 194 228
255 194 228
255 194 228
255 194 228
255 194 228
255 194 228
255 194 228
255 194 228
255 194 228
255 206 240
255 194 228
255 194 228
255 194 228
255 194 228
255 194 228
255 194 228
255 194 228
255 194 228
255 194 228
255 194 228
255 194 228
255 194 228
255 194 228
255 194 228
255 194 228
255 194 228
255 194 228
255 194 228
255 194 228
255 194 228
255 194 228
255 194 228
255 194 228
255 194 228
255 194 228
255 194 228
255 194 228
255 194 228
255 194 228
255 194 228
255 194 228
255 194 228
255 194 228
255 194 228
255 194 228
255 194 228
255 206 240
255 194 228
255 194 228
255 194 228
255 194 228
255 194 228
255 194 228
255 194 228
255 194 228
255 194 228
255 194 228
255 194 228
255 194 228
255 194 228
255 194 228
255 194 228
255 194 228
255 194 228
255 194 228
255 194 228
255 194 228
255 194 228
255 194 228
255 206 240
255 194 228
255 194 228
255 194 228
255 194 228
255 194 228
255 194 228
255 194 228
255 194 228
255 194 228
255 194 228
255 194 228
255 194 228
255 194 228
255 194 228
255 194 228
255 194 228
255 194 228
255 194 228
255 194 228
255 194 228
255 194 228
255 194 228
255 194 228
255 194 228
255 194 228
255 194 228
255 194 228
255 194 228
255 194 228
255 194 228
255 194 228
255 194 228
255 194 228
255 194 228
255 194 228
255 194 228
255 206 240
255 194 228
255 194 228
255 194 228
255 194 228
255 194 228
255 194 228
255 194 228
255 194 228
255 194 228
255 194 228
255 194 228
255 194 228
255 194 228
255 194 228
255 194 228
255 194 228
255 194 228
255 194 228
255 194 228
255 194 228
255 194 228
255 194 228
255 194 228
255 194 228
255 194 228
255 194 228
255 194 228
255 194 228
255 194 228
255 194 228
255 194 228
255 194 228
255 194 228
255 194 228
255 194 228
255 194 228
255 206 240
255 194 228
255 194 228
255 194 228
255 194 228
255 194 228
255 194 228
255 194 228
255 194 228
255 194 228
255 194 228
255 194 228
255 194 228
255 194 228
255 194 228
255 194 228
255 194 228
255 194 228
255 194 228
255 194 228
255 194 228
255 194 228
255 194 228
255 194 228
255 194 228
255 194 228
255 194 228
255 194 228
255 194 228
255 194 228
255 194 228
255 194 228
255 194 228
255 194 228
255 194 228
255 194 228
255 194 228
255 206 240
255 194 228
255 194 228
255 194 228
255 194 228
255 194 228
255 194 228
255 194 228
255 194 228
255 194 228
255 194 228
255 194 228
255 194 228
255 194 228
255 194 228
255 194 228
255 194 228
255 194 228
255 194 228
255 194 228
255 194 228
255 194 228
255 194 228
255 194 228
255 194 228
255 194 228
255 194 228
255 194 228
255 194 228
255 194 228
255 194 228
255 194 228
255 194 228
255 194 228
255 194 228
255 194 228
255 194 228
255 206 240
255 194 228
255 194 228
255 194 228
255 194 228
255 194 228
255 194 228
255 194 228
255 194 228
255 194 228
255 194 228
255 194 228
255 194 228
255 194 228
255 194 228
255 194 228
255 194 228
255 194 228
255 194 228
255 194 228
255 194 228
255 194 228
255 194 228
255 194 228
255 194 228
255 194 228
255 194 228
255 194 228
255 194 228
255 194 228
255 194 228
255 194 228
255 194 228
255 194 228
255 194 228
255 194 228
255 194 228
255 206 240
255 194 228
255 194 228
255 194 228
255 194 228
255 194 228
255 194 228
255 194 228
255 194 228
255 194 228
255 194 228
255 194 228
255 194 228
255 194 228
255 194 228
255 194 228
255 194 228
255 194 228
255 194 228
255 194 228
255 194 228
255 194 228
255 194 228
255 194 228
255 194 228
255 194 228
255 194 228
255 194 228
255 194 228
255 194 228
255 194 228
255 194 228
255 194 228
255 194 228
255 194 228
255 194 228
255 194 228
255 206 240
255 194 228
255 194 228
255 194 228
255 194 228
255 194 228
255 194 228
255 194 228
255 194 228
255 194 228
255 194 228
255 194 228
255 194 228
255 194 228
255 194 228
255 194 228
255 194 228
255 194 228
255 194 228
255 194 228
255 194 228
255 194 228
255 194 228
255 194 228
255 194 228
255 194 228
255 194 228
255 194 228
255 194 228
255 194 228
255 194 228
255 194 228
255 194 228
255 194 228
255 194 228
255 194 228
255 194 228
255 206 240
255 194 228
255 194 228
255 194 228
255 194 228
255 194 228
255 194 228
255 194 228
255 194 228
255 194 228
255 194 228
255 194 228
255 194 228
255 194 228
255 194 228
255 194 228
255 194 228
255 194 228
255 194 228
255 194 228
255 194 228
255 194 228
255 194 228
255 194 228
255 194 228
255 194 228
255 194 228
255 194 228
255 194 228
255 194 228
255 194 228
255 194 228
255 194 228
255 194 228
255 194 228
255 194 228
255 194 228
255 206 240
255 194 228
255 194 228
255 194 228
255 194 228
255 194 228
255 194 228
255 194 228
255 194 228
255 194 228
255 194 228
255 194 228
255 194 228
255 194 228
255 194 228
255 194 228
255 194 228
255 194 228
255 194 228
255 194 228
255 194 228
255 194 228
255 194 228
255 206 240
255 194 228
255 194 228
255 194 228
255 194 228
255 194 228
255 194 228
255 194 228
255 194 228
255 194 228
255 194 228
255 194 228
255 194 228
255 194 228
255 194 228
255 194 228
255 194 228
255 194 228
255 194 228
255 194 228
255 194 228
255 194 228
255 194 228
255 194 228
255 194 228
255 194 228
255 194 228
255 194 228
255 194 228
255 194 228
255 194 228
255 194 228
255 194 228
255 194 228
255 194 228
255 194 228
255 194 228
255 206 240
255 194 228
255 194 228
255 194 228
255 194 228
255 194 228
255 194 228
255 194 228
255 194 228
255 194 228
255 194 228
255 194 228
255 194 228
255 194 228
255 194 228
255 194 228
255 194 228
255 194 228
255 194 228
255 194 228
255 194 228
255 194 228
255 194 228
255 194 228
255 194 228
255 194 228
255 194 228
255 194 228
255 194 228
255 194 228
255 194 228
255 194 228
255 194 228
255 194 228
255 194 228
255 194 228
255 194 228
255 206 240
255 194 228
255 194 228
255 194 228
255 194 228
255 194 228
255 194 228
255 194 228
255 194 228
255 194 228
255 194 228
255 194 228
255 194 228
255 194 228
255 194 228
255 194 228
255 194 228
255 194 228
255 194 228
255 194 228
255 194 228
255 194 228
255 194 228
255 194 228
255 194 228
255 194 228
255 194 228
255 194 228
255 194 228
255 194 228
255 194 228
255 194 228
255 194 228
255 194 228
255 194 228
255 194 228
255 194 228
255 206 240
255 194 228
255 194 228
255 194 228
255 194 228
255 194 228
255 194 228
255 194 228
255 194 228
255 194 228
255 194 228
255 194 228
255 194 228
255 194 228
255 194 228
255 194 228
255 194 228
255 194 228
255 194 228
255 194 228
255 194 228
255 194 228
255 194 228
255 194 228
255 194 228
255 194 228
255 194 228
255 194 228
255 194 228
255 194 228
255 194 228
255 194 228
255 194 228
255 194 228
255 194 228
255 194 228
255 194 228
255 206 240
255 194 228
255 194 228
255 194 228
255 194 228
255 194 228
255 194 228
255 194 228
255 194 228
255 194 228
255 194 228
255 194 228
255 194 228
255 194 228
255 194 228
255 194 228
255 194 228
255 194 228
255 194 228
255 194 228
255 194 228
255 194 228
255 194 228
255 194 228
255 194 228
255 194 228
255 194 228
255 194 228
255 194 228
255 194 228
255 194 228
255 194 228
255 194 228
255 194 228
255 194 228
255 194 228
255 194 228
255 206 240
255 194 228
255 194 228
255 194 228
255 194 228
255 194 228
255 194 228
255 194 228
255 194 228
255 194 228
255 194 228
255 194 228
255 194 228
255 194 228
255 194 228
255 194 228
255 194 228
255 194 228
255 194 228
255 194 228
255 194 228
255 194 228
255 194 228
255 194 228
255 194 228
255 194 228
255 194 228
255 194 228
255 194 228
255 194 228
255 194 228
255 194 228
255 194 228
255 194 228
255 194 228
255 194 228
255 194 228
255 206 240
255 194 228
255 194 228
255 194 228
255 194 228
255 194 228
255 194 228
255 194 228
255 194 228
255 194 228
255 194 228
255 194 228
255 194 228
255 194 228
255 194 228
255 194 228
255 194 228
255 194 228
255 194 228
255 194 228
255 194 228
255 194 228
255 194 228
255 194 228
255 194 228
255 194 228
255 194 228
255 194 228
255 194 228
255 194 228
255 194 228
255 194 228
255 194 228
255 194 228
255 194 228
255 194 228
255 194 228
255 206 240
255 194 228
255 194 228
255 194 228
255 194 228
255 194 228
255 194 228
255 194 228
255 194 228
255 194 228
255 194 228
255 194 228
255 194 228
255 194 228
255 194 228
255 194 228
255 194 228
255 194 228
255 194 228
255 194 228
255 194 228
255 194 228
255 194 228
255 194 228
255 194 228
255 194 228
255 194 228
255 194 228
255 194 228
255 194 228
255 194 228
255 194 228
255 194 228
255 194 228
255 194 228
255 194 228
255 194 228
255 206 240
255 194 228
255 194 228
255 194 228
255 194 228
255 194 228
255 194 228
255 194 228
255 194 228
255 194 228
255 194 228
255 194 228
255 194 228
255 194 228
255 194 228
255 194 228
255 194 228
255 194 228
255 194 228
255 194 228
255 194 228
255 194 228
255 194 228
255 206 240
255 194 228
255 194 228
255 194 228
255 194 228
255 194 228
255 194 228
255 194 228
255 194 228
255 194 228
255 194 228
255 194 228
255 194 228
255 194 228
255 194 228
255 194 228
255 194 228
255 194 228
255 194 228
255 194 228
255 194 228
255 194 228
255 194 228
255 194 228
255 194 228
255 194 228
255 194 228
255 194 228
255 194 228
255 194 228
255 194 228
255 194 228
255 194 228
255 194 228
255 194 228
255 194 228
255 194 228
255 206 240
255 194 228
255 194 228
255 194 228
255 194 228
255 194 228
255 194 228
255 194 228
255 194 228
255 194 228
255 194 228
255 194 228
255 194 228
255 194 228
255 194 228
255 194 228
255 194 228
255 194 228
255 194 228
255 194 228
255 194 228
255 194 228
255 194 228
255 194 228
255 194 228
255 194 228
255 194 228
255 194 228
255 194 228
255 194 228
255 194 228
255 194 228
255 194 228
255 194 228
255 194 228
255 194 228
255 194 228
255 206 240
255 194 228
255 194 228
255 194 228
255 194 228
255 194 228
255 194 228
255 194 228
255 194 228
255 194 228
255 194 228
255 194 228
255 194 228
255 194 228
255 194 228
255 194 228
255 194 228
255 194 228
255 194 228
255 194 228
255 194 228
255 194 228
255 194 228
255 194 228
255 194 228
255 194 228
255 194 228
255 194 228
255 194 228
255 194 228
255 194 228
255 194 228
255 194 228
255 194 228
255 194 228
255 194 228
255 194 228
255 206 240
255 194 228
255 194 228
255 194 228
255 194 228
255 194 228
255 194 228
255 194 228
255 194 228
255 194 228
255 194 228
255 194 228
255 194 228
255 194 228
255 194 228
255 194 228
255 194 228
255 194 228
255 194 228
255 194 228
255 194 228
255 194 228
255 194 228
255 194 228
255 194 228
255 194 228
255 194 228
255 194 228
255 194 228
255 194 228
255 194 228
255 194 228
255 194 228
255 194 228
255 194 228
255 194 228
255 194 228
255 206 240
255 194 228
255 194 228
255 194 228
255 194 228
255 194 228
255 194 228
255 194 228
255 194 228
255 194 228
255 194 228
255 194 228
255 194 228
255 194 228
255 194 228
255 194 228
255 194 228
255 194 228
255 194 228
255 194 228
255 194 228
255 194 228
255 194 228
255 194 228
255 194 228
255 194 228
255 194 228
255 194 228
255 194 228
255 194 228
255 194 228
255 194 228
255 194 228
255 194 228
255 194 228
255 194 228
255 194 228
255 206 240
255 194 228
255 194 228
255 194 228
255 194 228
255 194 228
255 194 228
255 194 228
255 194 228
255 194 228
255 194 228
255 194 228
255 194 228
255 194 228
255 194 228
255 194 228
255 194 228
255 194 228
255 194 228
255 194 228
255 194 228
255 194 228
255 194 228
255 194 228
255 194 228
255 194 228
255 194 228
255 194 228
255 194 228
255 194 228
255 194 228
255 194 228
255 194 228
255 194 228
255 194 228
255 194 228
255 194 228
255 206 240
255 194 228
255 194 228
255 194 228
255 194 228
255 194 228
255 194 228
255 194 228
255 194 228
255 194 228
255 194 228
255 194 228
255 194 228
255 194 228
255 194 228
255 194 228
255 194 228
255 194 228
255 194 228
255 194 228
255 194 228
255 194 228
255 194 228
255 194 228
255 194 228
255 194 228
255 194 228
255 194 228
255 194 228
255 194 228
255 194 228
255 194 228
255 194 228
255 194 228
255 194 228
255 194 228
255 194 228
255 206 240
255 194 228
255 194 228
255 194 228
255 194 228
255 194 228
255 194 228
255 194 228
255 194 228
255 194 228
255 194 228
255 194 228
255 194 228
255 194 228
255 194 228
255 194 228
255 194 228
255 194 228
255 194 228
255 194 228
255 194 228
255 194 228
255 194 228
255 194 228
255 194 228
255 194 228
255 194 228
255 194 228
255 194 228
255 194 228
255 194 228
255 194 228
255 194 228
255 194 228
255 194 228
255 194 228
255 194 228
255 206 240
255 194 228
255 194 228
255 194 228
255 194 228
255 194 228
255 194 228
255 194 228
255 194 228
255 194 228
255 194 228
255 194 228
255 194 228
255 194 228
255 194 228
255 194 228
255 194 228
255 194 228
255 194 228
255 194 228
255 194 228
255 194 228
255 194 228
255 206 240
255 194 228
255 194 228
255 194 228
255 194 228
255 194 228
255 194 228
255 194 228
255 194 228
255 194 228
255 194 228
255 194 228
255 194 228
255 194 228
255 194 228
255 194 228
255 194 228
255 194 228
255 194 228
255 194 228
255 194 228
255 194 228
255 194 228
255 194 228
255 194 228
255 194 228
255 194 228
255 194 228
255 194 228
255 194 228
255 194 228
255 194 228
255 194 228
255 194 228
255 194 228
255 194 228
255 194 228
255 206 240
255 194 228
255 194 228
255 194 228
255 194 228
255 194 228
255 194 228
255 194 228
255 194 228
255 194 228
255 194 228
255 194 228
255 194 228
255 194 228
255 194 228
255 194 228
255 194 228
255 194 228
255 194 228
255 194 228
255 194 228
255 194 228
255 194 228
255 194 228
255 194 228
255 194 228
255 194 228
255 194 228
255 194 228
255 194 228
255 194 228
255 194 228
255 194 228
255 194 228
255 194 228
255 194 228
255 194 228
255 206 240
255 194 228
255 194 228
255 194 228
255 194 228
255 194 228
255 194 228
255 194 228
255 194 228
255 194 228
255 194 228
255 194 228
255 194 228
255 194 228
255 194 228
255 194 228
255 194 228
255 194 228
255 194 228
255 194 228
255 194 228
255 194 228
255 194 228
255 194 228
255 194 228
255 194 228
255 194 228
255 194 228
255 194 228
255 194 228
255 194 228
255 194 228
255 194 228
255 194 228
255 194 228
255 194 228
255 194 228
255 206 240
255 194 228
255 194 228
255 194 228
255 194 228
255 194 228
255 194 228
255 194 228
255 194 228
255 194 228
255 194 228
255 194 228
255 194 228
255 194 228
255 194 228
255 194 228
255 194 228
255 194 228
255 194 228
255 194 228
255 194 228
255 194 228
255 194 228
255 194 228
255 194 228
255 194 228
255 194 228
255 194 228
255 194 228
255 194 228
255 194 228
255 194 228
255 194 228
255 194 228
255 194 228
255 194 228
255 194 228
255 206 240
255 194 228
255 194 228
255 194 228
255 194 228
255 194 228
255 194 228
255 194 228
255 194 228
255 194 228
255 194 228
255 194 228
255 194 228
255 194 228
255 194 228
255 194 228
255 194 228
255 194 228
255 194 228
255 194 228
255 194 228
255 194 228
255 194 228
255 194 228
255 194 228
255 194 228
255 194 228
255 194 228
255 194 228
255 194 228
255 194 228
255 194 228
255 194 228
255 194 228
255 194 228
255 194 228
255 194 228
255 206 240
255 194 228
255 194 228
255 194 228
255 194 228
255 194 228
255 194 228
255 194 228
255 194 228
255 194 228
255 194 228
255 194 228
255 194 228
255 194 228
255 194 228
255 194 228
255 194 228
255 194 228
255 194 228
255 194 228
255 194 228
255 194 228
255 194 228
255 194 228
255 194 228
255 194 228
255 194 228
255 194 228
255 194 228
255 194 228
255 194 228
255 194 228
255 194 228
255 194 228
255 194 228
255 194 228
255 194 228
255 206 240
255 194 228
255 194 228
255 194 228
255 194 228
255 194 228
255 194 228
255 194 228
255 194 228
255 194 228
255 194 228
255 194 228
255 194 228
255 194 228
255 194 228
255 194 228
255 194 228
255 194 228
255 194 228
255 194 228
255 194 228
255 194 228
255 194 228
255 194 228
255 194 228
255 194 228
255 194 228
255 194 228
255 194 228
255 194 228
255 194 228
255 194 228
255 194 228
255 194 228
255 194 228
255 194 228
255 194 228
255 206 240
255 194 228
255 194 228
255 194 228
255 194 228
255 194 228
255 194 228
255 194 228
255 194 228
255 194 228
255 194 228
255 194 228
255 194 228
255 194 228
255 194 228
255 194 228
255 194 228
255 194 228
255 194 228
255 194 228
255 194 228
255 194 228
255 194 228
255 194 228
255 194 228
255 194 228
255 194 228
255 194 228
255 194 228
255 194 228
255 194 228
255 194 228
255 194 228
255 194 228
255 194 228
255 194 228
255 194 228
255 206 240
255 194 228
255 194 228
255 194 228
255 194 228
255 194 228
255 194 228
255 194 228
255 194 228
255 194 228
255 194 228
255 194 228
255 194 228
255 194 228
255 194 228
255 194 228
255 194 228
255 194 228
255 194 228
255 194 228
255 194 228
255 194 228
255 194 228
255 206 240
255 194 228
255 194 228
255 194 228
255 194 228
255 194 228
255 194 228
255 194 228
255 194 228
255 194 228
255 194 228
255 194 228
255 194 228
255 194 228
255 194 228
255 194 228
255 194 228
255 194 228
255 194 228
255 194 228
255 194 228
255 194 228
255 194 228
255 194 228
255 194 228
255 194 228
255 194 228
255 194 228
255 194 228
255 194 228
255 194 228
255 194 228
255 194 228
255 194 228
255 194 228
255 194 228
255 194 228
255 206 240
255 194 228
255 194 228
255 194 228
255 194 228
255 194 228
255 194 228
255 194 228
255 194 228
255 194 228
255 194 228
255 194 228
255 194 228
255 194 228
255 194 228
255 194 228
255 194 228
255 194 228
255 194 228
255 194 228
255 194 228
255 194 228
255 194 228
255 194 228
255 194 228
255 194 228
255 194 228
255 194 228
255 194 228
255 194 228
255 194 228
255 194 228
255 194 228
255 194 228
255 194 228
255 194 228
255 194 228
255 206 240
255 194 228
255 194 228
255 194 228
255 194 228
255 194 228
255 194 228
255 194 228
255 194 228
255 194 228
255 194 228
255 194 228
255 194 228
255 194 228
255 194 228
255 194 228
255 194 228
255 194 228
255 194 228
255 194 228
255 194 228
255 194 228
255 194 228
255 194 228
255 194 228
255 194 228
255 194 228
255 194 228
255 194 228
255 194 228
255 194 228
255 194 228
255 194 228
255 194 228
255 194 228
255 194 228
255 194 228
255 206 240
255 194 228
255 194 228
255 194 228
255 194 228
255 194 228
255 194 228
255 194 228
255 194 228
255 194 228
255 194 228
255 194 228
255 194 228
255 194 228
255 194 228
255 194 228
255 194 228
255 194 228
255 194 228
255 194 228
255 194 228
255 194 228
255 194 228
255 194 228
255 194 228
255 194 228
255 194 228
255 194 228
255 194 228
255 194 228
255 194 228
255 194 228
255 194 228
255 194 228
255 194 228
255 194 228
255 194 228
255 206 240
255 194 228
255 194 228
255 194 228
255 194 228
255 194 228
255 194 228
255 194 228
255 194 228
255 194 228
255 194 228
255 194 228
255 194 228
255 194 228
255 194 228
255 194 228
255 194 228
255 194 228
255 194 228
255 194 228
255 194 228
255 194 228
255 194 228
255 194 228
255 194 228
255 194 228
255 194 228
255 194 228
255 194 228
255 194 228
255 194 228
255 194 228
255 194 228
255 194 228
255 194 228
255 194 228
255 194 228
255 206 240
255 194 228
255 194 228
255 194 228
255 194 228
255 194 228
255 194 228
255 194 228
255 194 228
255 194 228
255 194 228
255 194 228
255 194 228
255 194 228
255 194 228
255 194 228
255 194 228
255 194 228
255 194 228
255 194 228
255 194 228
255 194 228
255 194 228
255 194 228
255 194 228
255 194 228
255 194 228
255 194 228
255 194 228
255 194 228
255 194 228
255 194 228
255 194 228
255 194 228
255 194 228
255 194 228
255 194 228
255 206 240
255 194 228
255 194 228
255 194 228
255 194 228
255 194 228
255 194 228
255 194 228
255 194 228
255 194 228
255 194 228
255 194 228
255 194 228
255 194 228
255 194 228
255 194 228
255 194 228
255 194 228
255 194 228
255 194 228
255 194 228
255 194 228
255 194 228
255 194 228
255 194 228
255 194 228
255 194 228
255 194 228
255 194 228
255 194 228
255 194 228
255 194 228
255 194 228
255 194 228
255 194 228
255 194 228
255 194 228
255 206 240
255 194 228
255 194 228
255 194 228
255 194 228
255 194 228
255 194 228
255 194 228
255 194 228
255 194 228
255 194 228
255 194 228
255 194 228
255 194 228
255 194 228
255 194 228
255 194 228
255 194 228
255 194 228
255 194 228
255 194 228
255 194 228
255 194 228
255 194 228
255 194 228
255 194 228
255 194 228
255 194 228
255 194 228
255 194 228
255 194 228
255 194 228
255 194 228
255 194 228
255 194 228
255 194 228
255 194 228
255 206 240
255 194 228
255 194 228
255 194 228
255 194 228
255 194 228
255 194 228
255 194 228
255 194 228
255 194 228
255 194 228
255 194 228
255 194 228
255 194 228
255 194 228
255 194 228
255 194 228
255 194 228
255 194 228
255 194 228
255 194 228
255 194 228
255 194 228
255 206 240
255 194 228
255 194 228
255 194 228
255 194 228
255 194 228
255 194 228
255 194 228
255 194 228
255 194 228
255 194 228
255 194 228
255 194 228
255 194 228
255 194 228
255 194 228
255 194 228
255 194 228
255 194 228
255 194 228
255 194 228
255 194 228
255 194 228
255 194 228
255 194 228
255 194 228
255 194 228
255 194 228
255 194 228
255 194 228
255 194 228
255 194 228
255 194 228
255 194 228
255 194 228
255 194 228
255 194 228
255 206 240
255 194 228
255 194 228
255 194 228
255 194 228
255 194 228
255 194 228
255 194 228
255 194 228
255 194 228
255 194 228
255 194 228
255 194 228
255 194 228
255 194 228
255 194 228
255 194 228
255 194 228
255 194 228
255 194 228
255 194 228
255 194 228
255 194 228
255 194 228
255 194 228
255 194 228
255 194 228
255 194 228
255 194 228
255 194 228
255 194 228
255 194 228
255 194 228
255 194 228
255 194 228
255 194 228
255 194 228
255 206 240
255 194 228
255 194 228
255 194 228
255 194 228
255 194 228
255 194 228
255 194 228
255 194 228
255 194 228
255 194 228
255 194 228
255 194 228
255 194 228
255 194 228
255 194 228
255 194 228
255 194 228
255 194 228
255 194 228
255 194 228
255 194 228
255 194 228
255 194 228
255 194 228
255 194 228
255 194 228
255 194 228
255 194 228
255 194 228
255 194 228
255 194 228
255 194 228
255 194 228
255 194 228
255 194 228
255 194 228
255 206 240
255 194 228
255 194 228
255 194 228
255 194 228
255 194 228
255 194 228
255 194 228
255 194 228
255 194 228
255 194 228
255 194 228
255 194 228
255 194 228
255 194 228
255 194 228
255 194 228
255 194 228
255 194 228
255 194 228
255 194 228
255 194 228
255 194 228
255 194 228
255 194 228
255 194 228
255 194 228
255 194 228
255 194 228
255 194 228
255 194 228
255 194 228
255 194 228
255 194 228
255 194 228
255 194 228
255 194 228
255 206 240
255 194 228
255 194 228
255 194 228
255 194 228
255 194 228
255 194 228
255 194 228
255 194 228
255 194 228
255 194 228
255 194 228
255 194 228
255 194 228
255 194 228
255 194 228
255 194 228
255 194 228
255 194 228
255 194 228
255 194 228
255 194 228
255 194 228
255 194 228
255 194 228
255 194 228
255 194 228
255 194 228
255 194 228
255 194 228
255 194 228
255 194 228
255 194 228
255 194 228
255 194 228
255 194 228
255 194 228
255 206 240
255 194 228
255 194 228
255 194 228
255 194 228
255 194 228
255 194 228
255 194 228
255 194 228
255 194 228
255 194 228
255 194 228
255 194 228
255 194 228
255 194 228
255 194 228
255 194 228
255 194 228
255 194 228
255 194 228
255 194 228
255 194 228
255 194 228
255 194 228
255 194 228
255 194 228
255 194 228
255 194 228
255 194 228
255 194 228
255 194 228
255 194 228
255 194 228
255 194 228
255 194 228
255 194 228
255 194 228
255 206 240
255 194 228
255 194 228
255 194 228
255 194 228
255 194 228
255 194 228
255 194 228
255 194 228
255 194 228
255 194 228
255 194 228
255 194 228
255 194 228
255 194 228
255 194 228
255 194 228
255 194 228
255 194 228
255 194 228
255 194 228
255 194 228
255 194 228
255 194 228
255 194 228
255 194 228
255 194 228
255 194 228
255 194 228
255 194 228
255 194 228
255 194 228
255 194 228
255 194 228
255 194 228
255 194 228
255 194 228
255 206 240
255 194 228
255 194 228
255 194 228
255 194 228
255 194 228
255 194 228
255 194 228
255 194 228
255 194 228
255 194 228
255 194 228
255 194 228
255 194 228
255 194 228
255 194 228
255 194 228
255 194 228
255 194 228
255 194 228
255 194 228
255 194 228
255 194 228
255 194 228
255 194 228
255 194 228
255 194 228
255 194 228
255 194 228
255 194 228
255 194 228
255 194 228
255 194 228
255 194 228
255 194 228
255 194 228
255 194 228
255 206 240
255 194 228
255 194 228
255 194 228
255 194 228
255 194 228
255 194 228
255 194 228
255 194 228
255 194 228
255 194 228
255 194 228
255 194 228
255 194 228
255 194 228
255 194 228
255 194 228
255 194 228
255 194 228
255 194 228
255 194 228
255 194 228
255 194 228
255 206 240
255 194 228
255 194 228
255 194 228
255 194 228
255 194 228
255 194 228
255 194 228
255 194 228
255 194 228
255 194 228
255 194 228
255 194 228
255 194 228
255 194 228
255 194 228
255 194 228
255 194 228
255 194 228
255 194 228
255 194 228
255 194 228
255 194 228
255 194 228
255 194 228
255 194 228
255 194 228
255 194 228
255 194 228
255 194 228
255 194 228
255 194 228
255 194 228
255 194 228
255 194 228
255 194 228
255 194 228
255 206 240
255 194 228
255 194 228
255 194 228
255 194 228
255 194 228
255 194 228
255 194 228
255 194 228
255 194 228
255 194 228
255 194 228
255 194 228
255 194 228
255 194 228
255 194 228
255 194 228
255 194 228
255 194 228
255 194 228
255 194 228
255 194 228
255 194 228
255 194 228
255 194 228
255 194 228
255 194 228
255 194 228
255 194 228
255 194 228
255 194 228
255 194 228
255 194 228
255 194 228
255 194 228
255 194 228
255 194 228
255 206 240
255 194 228
255 194 228
255 194 228
255 194 228
255 194 228
255 194 228
255 194 228
255 194 228
255 194 228
255 194 228
255 194 228
255 194 228
255 194 228
255 194 228
255 194 228
255 194 228
255 194 228
255 194 228
255 194 228
255 194 228
255 194 228
255 194 228
255 194 228
255 194 228
255 194 228
255 194 228
255 194 228
255 194 228
255 194 228
255 194 228
255 194 228
255 194 228
255 194 228
255 194 228
255 194 228
255 194 228
255 206 240
255 194 228
255 194 228
255 194 228
255 194 228
255 194 228
255 194 228
255 194 228
255 194 228
255 194 228
255 194 228
255 194 228
255 194 228
255 194 228
255 194 228
255 194 228
255 194 228
255 194 228
255 194 228
255 194 228
255 194 228
255 194 228
255 194 228
255 194 228
255 194 228
255 194 228
255 194 228
255 194 228
255 194 228
255 194 228
255 194 228
255 194 228
255 194 228
255 194 228
255 194 228
255 194 228
255 194 228
255 206 240
255 194 228
255 194 228
255 194 228
255 194 228
255 194 228
255 194 228
255 194 228
255 194 228
255 194 228
255 194 228
255 194 228
255 194 228
255 194 228
255 194 228
255 194 228
255 194 228
255 194 228
255 194 228
255 194 228
255 194 228
255 194 228
255 194 228
255 194 228
255 194 228
255 194 228
255 194 228
255 194 228
255 194 228
255 194 228
255 194 228
255 194 228
255 194 228
255 194 228
255 194 228
255 194 228
255 194 228
255 206 240
255 194 228
255 194 228
255 194 228
255 194 228
255 194 228
255 194 228
255 194 228
255 194 228
255 194 228
255 194 228
255 194 228
255 194 228
255 194 228
255 194 228
255 194 228
255 194 228
255 194 228
255 194 228
255 194 228
255 194 228
255 194 228
255 194 228
255 194 228
255 194 228
255 194 228
255 194 228
255 194 228
255 194 228
255 194 228
255 194 228
255 194 228
255 194 228
255 194 228
255 194 228
255 194 228
255 194 228
255 206 240
255 194 228
255 194 228
255 194 228
255 194 228
255 194 228
255 194 228
255 194 228
255 194 228
255 194 228
255 194 228
255 194 228
255 194 228
255 194 228
255 194 228
255 194 228
255 194 228
255 194 228
255 194 228
255 194 228
255 194 228
255 194 228
255 194 228
255 194 228
255 194 228
255 194 228
255 194 228
255 194 228
255 194 228
255 194 228
255 194 228
255 194 228
255 194 228
255 194 228
255 194 228
255 194 228
255 194 228
255 206 240
255 194 228
255 194 228
255 194 228
255 194 228
255 194 228
255 194 228
255 194 228
255 194 228
255 194 228
255 194 228
255 194 228
255 194 228
255 194 228
255 194 228
255 194 228
255 194 228
255 194 228
255 194 228
255 194 228
255 194 228
255 194 228
255 194 228
255 194 228
255 194 228
255 194 228
255 194 228
255 194 228
255 194 228
255 194 228
255 194 228
255 194 228
255 194 228
255 194 228
255 194 228
255 194 228
255 194 228
255 206 240
255 194 228
255 194 228
255 194 228
255 194 228
255 194 228
255 194 228
255 194 228
255 194 228
255 194 228
255 194 228
255 194 228
255 194 228
255 194 228
255 194 228
255 194 228
255 194 228
255 194 228
255 194 228
255 194 228
255 194 228
255 194 228
255 194 228
255 206 240
255 194 228
255 194 228
255 194 228
255 194 228
255 194 228
255 194 228
255 194 228
255 194 228
255 194 228
255 194 228
255 194 228
255 194 228
255 194 228
255 194 228
255 194 228
255 194 228
255 194 228
255 194 228
255 194 228
255 194 228
255 194 228
255 194 228
255 194 228
255 194 228
255 194 228
255 194 228
255 194 228
255 194 228
255 194 228
255 194 228
255 194 228
255 194 228
255 194 228
255 194 228
255 194 228
255 194 228
255 206 240
255 194 228
255 194 228
255 194 228
255 194 228
255 194 228
255 194 228
255 194 228
255 194 228
255 194 228
255 194 228
255 194 228
255 194 228
255 194 228
255 194 228
255 194 228
255 194 228
255 194 228
255 194 228
255 194 228
255 194 228
255 194 228
255 194 228
255 194 228
255 194 228
255 194 228
255 194 228
255 194 228
255 194 228
255 194 228
255 194 228
255 194 228
255 194 228
255 194 228
255 194 228
255 194 228
255 194 228
255 206 240
255 194 228
255 194 228
255 194 228
255 194 228
255 194 228
255 194 228
255 194 228
255 194 228
255 194 228
255 194 228
255 194 228
255 194 228
255 194 228
255 194 228
255 194 228
255 194 228
255 194 228
255 194 228
255 194 228
255 194 228
255 194 228
255 194 228
255 194 228
255 194 228
255 194 228
255 194 228
255 194 228
255 194 228
255 194 228
255 194 228
255 194 228
255 194 228
255 194 228
255 194 228
255 194 228
255 194 228
255 206 240
255 194 228
255 194 228
255 194 228
255 194 228
255 194 228
255 194 228
255 194 228
255 194 228
255 194 228
255 194 228
255 194 228
255 194 228
255 194 228
255 194 228
255 194 228
255 194 228
255 194 228
255 194 228
255 194 228
255 194 228
255 194 228
255 194 228
255 194 228
255 194 228
255 194 228
255 194 228
255 194 228
255 194 228
255 194 228
255 194 228
255 194 228
255 194 228
255 194 228
255 194 228
255 194 228
255 194 228
255 206 240
255 194 228
255 194 228
255 194 228
255 194 228
255 194 228
255 194 228
255 194 228
255 194 228
255 194 228
255 194 228
255 194 228
255 194 228
255 194 228
255 194 228
255 194 228
255 194 228
255 194 228
255 194 228
255 194 228
255 194 228
255 194 228
255 194 228
255 194 228
255 194 228
255 194 228
255 194 228
255 194 228
255 194 228
255 194 228
255 194 228
255 194 228
255 194 228
255 194 228
255 194 228
255 194 228
255 194 228
255 206 240
255 194 228
255 194 228
255 194 228
255 194 228
255 194 228
255 194 228
255 194 228
255 194 228
255 194 228
255 194 228
255 194 228
255 194 228
255 194 228
255 194 228
255 194 228
255 194 228
255 194 228
255 194 228
255 194 228
255 194 228
255 194 228
255 194 228
255 194 228
255 194 228
255 194 228
255 194 228
255 194 228
255 194 228
255 194 228
255 194 228
255 194 228
255 194 228
255 194 228
255 194 228
255 194 228
255 194 228
255 206 240
255 194 228
255 194 228
255 194 228
255 194 228
255 194 228
255 194 228
255 194 228
255 194 228
255 194 228
255 194 228
255 194 228
255 194 228
255 194 228
255 194 228
255 194 228
255 194 228
255 194 228
255 194 228
255 194 228
255 194 228
255 194 228
255 194 228
255 194 228
255 194 228
255 194 228
255 194 228
255 194 228
255 194 228
255 194 228
255 194 228
255 194 228
255 194 228
255 194 228
255 194 228
255 194 228
255 194 228
255 206 240
255 194 228
255 194 228
255 194 228
255 194 228
255 194 228
255 194 228
255 194 228
255 194 228
255 194 228
255 194 228
255 194 228
255 194 228
255 194 228
255 194 228
255 194 228
255 194 228
255 194 228
255 194 228
255 194 228
255 194 228
255 194 228
255 194 228
255 194 228
255 194 228
255 194 228
255 194 228
255 194 228
255 194 228
255 194 228
255 194 228
255 194 228
255 194 228
255 194 228
255 194 228
255 194 228
255 194 228
255 206 240
255 194 228
255 194 228
255 194 228
255 194 228
255 194 228
255 194 228
255 194 228
255 194 228
255 194 228
255 194 228
255 194 228
255 194 228
255 194 228
255 194 228
255 194 228
255 194 228
255 194 228
255 194 228
255 194 228
255 194 228
255 194 228
255 194 228
255 206 240
255 194 228
255 194 228
255 194 228
255 194 228
255 194 228
255 194 228
255 194 228
255 194 228
255 194 228
255 194 228
255 194 228
255 194 228
255 194 228
255 194 228
255 194 228
255 194 228
255 194 228
255 194 228
255 194 228
255 194 228
255 194 228
255 194 228
255 194 228
255 194 228
255 194 228
255 194 228
255 194 228
255 194 228
255 194 228
255 194 228
255 194 228
255 194 228
255 194 228
255 194 228
255 194 228
255 194 228
255 206 240
255 194 228
255 194 228
255 194 228
255 194 228
255 194 228
255 194 228
255 194 228
255 194 228
255 194 228
255 194 228
255 194 228
255 194 228
255 194 228
255 194 228
255 194 228
255 194 228
255 194 228
255 194 228
255 194 228
255 194 228
255 194 228
255 194 228
255 194 228
255 194 228
255 194 228
255 194 228
255 194 228
255 194 228
255 194 228
255 194 228
255 194 228
255 194 228
255 194 228
255 194 228
255 194 228
255 194 228
255 206 240
255 194 228
255 194 228
255 194 228
255 194 228
255 194 228
255 194 228
255 194 228
255 194 228
255 194 228
255 194 228
255 194 228
255 194 228
255 194 228
255 194 228
255 194 228
255 194 228
255 194 228
255 194 228
255 194 228
255 194 228
255 194 228
255 194 228
255 194 228
255 194 228
255 194 228
255 194 228
255 194 228
255 194 228
255 194 228
255 194 228
255 194 228
255 194 228
255 194 228
255 194 228
255 194 228
255 194 228
255 206 240
255 194 228
255 194 228
255 194 228
255 194 228
255 194 228
255 194 228
255 194 228
255 194 228
255 194 228
255 194 228
255 194 228
255 194 228
255 194 228
255 194 228
255 194 228
255 194 228
255 194 228
255 194 228
255 194 228
255 194 228
255 194 228
255 194 228
255 194 228
255 194 228
255 194 228
255 194 228
255 194 228
255 194 228
255 194 228
255 194 228
255 194 228
255 194 228
255 194 228
255 194 228
255 194 228
255 194 228
255 206 240
255 194 228
255 194 228
255 194 228
255 194 228
255 194 228
255 194 228
255 194 228
255 194 228
255 194 228
255 194 228
255 194 228
255 194 228
255 194 228
255 194 228
255 194 228
255 194 228
255 194 228
255 194 228
255 194 228
255 194 228
255 194 228
255 194 228
255 194 228
255 194 228
255 194 228
255 194 228
255 194 228
255 194 228
255 194 228
255 194 228
255 194 228
255 194 228
255 194 228
255 194 228
255 194 228
255 194 228
255 206 240
255 194 228
255 194 228
255 194 228
255 194 228
255 194 228
255 194 228
255 194 228
255 194 228
255 194 228
255 194 228
255 194 228
255 194 228
255 194 228
255 194 228
255 194 228
255 194 228
255 194 228
255 194 228
255 194 228
255 194 228
255 194 228
255 194 228
255 194 228
255 194 228
255 194 228
255 194 228
255 194 228
255 194 228
255 194 228
255 194 228
255 194 228
255 194 228
255 194 228
255 194 228
255 194 228
255 194 228
255 206 240
255 194 228
255 194 228
255 194 228
255 194 228
255 194 228
255 194 228
255 194 228
255 194 228
255 194 228
255 194 228
255 194 228
255 194 228
255 194 228
255 194 228
255 194 228
255 194 228
255 194 228
255 194 228
255 194 228
255 194 228
255 194 228
255 194 228
255 194 228
255 194 228
255 194 228
255 194 228
255 194 228
255 194 228
255 194 228
255 194 228
255 194 228
255 194 228
255 194 228
255 194 228
255 194 228
255 194 228
255 206 240
255 194 228
255 194 228
255 194 228
255 194 228
255 194 228
255 194 228
255 194 228
255 194 228
255 194 228
255 194 228
255 194 228
255 194 228
255 194 228
255 194 228
255 194 228
255 194 228
255 194 228
255 194 228
255 194 228
255 194 228
255 194 228
255 194 228
255 194 228
255 194 228
255 194 228
255 194 228
255 194 228
255 194 228
255 194 228
255 194 228
255 194 228
255 194 228
255 194 228
255 194 228
255 194 228
255 194 228
255 206 240
255 194 228
255 194 228
255 194 228
255 194 228
255 194 228
255 194 228
255 194 228
255 194 228
255 194 228
255 194 228
255 194 228
255 194 228
255 194 228
255 194 228
255 194 228
255 194 228
255 194 228
255 194 228
255 194 228
255 194 228
255 194 228
255 194 228
255 206 240
255 194 228
255 194 228
255 194 228
255 194 228
255 194 228
255 194 228
255 194 228
255 194 228
255 194 228
255 194 228
255 194 228
255 194 228
255 194 228
255 194 228
255 194 228
255 194 228
255 194 228
255 194 228
255 194 228
255 194 228
255 194 228
255 194 228
255 194 228
255 194 228
255 194 228
255 194 228
255 194 228
255 194 228
255 194 228
255 194 228
255 194 228
255 194 228
255 194 228
255 194 228
255 194 228
255 194 228
255 206 240
255 194 228
255 194 228
255 194 228
255 194 228
255 194 228
255 194 228
255 194 228
255 194 228
255 194 228
255 194 228
255 194 228
255 194 228
255 194 228
255 194 228
255 194 228
255 194 228
255 194 228
255 194 228
255 194 228
255 194 228
255 194 228
255 194 228
255 194 228
255 194 228
255 194 228
255 194 228
255 194 228
255 194 228
255 194 228
255 194 228
255 194 228
255 194 228
255 194 228
255 194 228
255 194 228
255 194 228
255 206 240
255 194 228
255 194 228
255 194 228
255 194 228
255 194 228
255 194 228
255 194 228
255 194 228
255 194 228
255 194 228
255 194 228
255 194 228
255 194 228
255 194 228
255 194 228
255 194 228
255 194 228
255 194 228
255 194 228
255 194 228
255 194 228
255 194 228
255 194 228
255 194 228
255 194 228
255 194 228
255 194 228
255 194 228
255 194 228
255 194 228
255 194 228
255 194 228
255 194 228
255 194 228
255 194 228
255 194 228
255 206 240
255 194 228
255 194 228
255 194 228
255 194 228
255 194 228
255 194 228
255 194 228
255 194 228
255 194 228
255 194 228
255 194 228
255 194 228
255 194 228
255 194 228
255 194 228
255 194 228
255 194 228
255 194 228
255 194 228
255 194 228
255 194 228
255 194 228
255 194 228
255 194 228
255 194 228
255 194 228
255 194 228
255 194 228
255 194 228
255 194 228
255 194 228
255 194 228
255 194 228
255 194 228
255 194 228
255 194 228
255 206 240
255 194 228
255 194 228
255 194 228
255 194 228
255 194 228
255 194 228
255 194 228
255 194 228
255 194 228
255 194 228
255 194 228
255 194 228
255 194 228
255 194 228
255 194 228
255 194 228
255 194 228
255 194 228
255 194 228
255 194 228
255 194 228
255 194 228
255 194 228
255 194 228
255 194 228
255 194 228
255 194 228
255 194 228
255 194 228
255 194 228
255 194 228
255 194 228
255 194 228
255 194 228
255 194 228
255 194 228
255 206 240
255 194 228
255 194 228
255 194 228
255 194 228
255 194 228
255 194 228
255 194 228
255 194 228
255 194 228
255 194 228
255 194 228
255 194 228
255 194 228
255 194 228
255 194 228
255 194 228
255 194 228
255 194 228
255 194 228
255 194 228
255 194 228
255 194 228
255 194 228
255 194 228
255 194 228
255 194 228
255 194 228
255 194 228
255 194 228
255 194 228
255 194 228
255 194 228
255 194 228
255 194 228
255 194 228
255 194 228
255 206 240
255 194 228
255 194 228
255 194 228
255 194 228
255 194 228
255 194 228
255 194 228
255 194 228
255 194 228
255 194 228
255 194 228
255 194 228
255 194 228
255 194 228
255 194 228
255 194 228
255 194 228
255 194 228
255 194 228
255 194 228
255 194 228
255 194 228
255 194 228
255 194 228
255 194 228
255 194 228
255 194 228
255 194 228
255 194 228
255 194 228
255 194 228
255 194 228
255 194 228
255 194 228
255 194 228
255 194 228
255 206 240
255 194 228
255 194 228
255 194 228
255 194 228
255 194 228
255 194 228
255 194 228
255 194 228
255 194 228
255 194 228
255 194 228
255 194 228
255 194 228
255 194 228
255 194 228
255 194 228
255 194 228
255 194 228
255 194 228
255 194 228
255 194 228
255 194 228
255 194 228
255 194 228
255 194 228
255 194 228
255 194 228
255 194 228
255 194 228
255 194 228
255 194 228
255 194 228
255 194 228
255 194 228
255 194 228
255 194 228
255 206 240
255 194 228
255 194 228
255 194 228
255 194 228
255 194 228
255 194 228
255 194 228
255 194 228
255 194 228
255 194 228
255 194 228
255 194 228
255 194 228
255 194 228
255 194 228
255 194 228
255 194 228
255 194 228
255 194 228
255 194 228
255 194 228
255 194 228
255 206 240
255 194 228
255 194 228
255 194 228
255 194 228
255 194 228
255 194 228
255 194 228
255 194 228
255 194 228
255 194 228
255 194 228
255 194 228
255 194 228
255 194 228
255 194 228
255 194 228
255 194 228
255 194 228
255 194 228
255 194 228
255 194 228
255 194 228
255 194 228
255 194 228
255 194 228
255 194 228
255 194 228
255 194 228
255 194 228
255 194 228
255 194 228
255 194 228
255 194 228
255 194 228
255 194 228
255 194 228
255 206 240
255 194 228
255 194 228
255 194 228
255 194 228
255 194 228
255 194 228
255 194 228
255 194 228
255 194 228
255 194 228
255 194 228
255 194 228
255 194 228
255 194 228
255 194 228
255 194 228
255 194 228
255 194 228
255 194 228
255 194 228
255 194 228
255 194 228
255 194 228
255 194 228
255 194 228
255 194 228
255 194 228
255 194 228
255 194 228
255 194 228
255 194 228
255 194 228
255 194 228
255 194 228
255 194 228
255 194 228
255 206 240
255 194 228
255 194 228
255 194 228
255 194 228
255 194 228
255 194 228
255 194 228
255 194 228
255 194 228
255 194 228
255 194 228
255 194 228
255 194 228
255 194 228
255 194 228
255 194 228
255 194 228
255 194 228
255 194 228
255 194 228
255 194 228
255 194 228
255 194 228
255 194 228
255 194 228
255 194 228
255 194 228
255 194 228
255 194 228
255 194 228
255 194 228
255 194 228
255 194 228
255 194 228
255 194 228
255 194 228
255 206 240
255 194 228
255 194 228
255 194 228
255 194 228
255 194 228
255 194 228
255 194 228
255 194 228
255 194 228
255 194 228
255 194 228
255 194 228
255 194 228
255 194 228
255 194 228
255 194 228
255 194 228
255 194 228
255 194 228
255 194 228
255 194 228
255 194 228
255 194 228
255 194 228
255 194 228
255 194 228
255 194 228
255 194 228
255 194 228
255 194 228
255 194 228
255 194 228
255 194 228
255 194 228
255 194 228
255 194 228
255 206 240
255 194 228
255 194 228
255 194 228
255 194 228
255 194 228
255 194 228
255 194 228
255 194 228
255 194 228
255 194 228
255 194 228
255 194 228
255 194 228
255 194 228
255 194 228
255 194 228
255 194 228
255 194 228
255 194 228
255 194 228
255 194 228
255 194 228
255 194 228
255 194 228
255 194 228
255 194 228
255 194 228
255 194 228
255 194 228
255 194 228
255 194 228
255 194 228
255 194 228
255 194 228
255 194 228
255 194 228
255 206 240
255 194 228
255 194 228
255 194 228
255 194 228
255 194 228
255 194 228
255 194 228
255 194 228
255 194 228
255 194 228
255 194 228
255 194 228
255 194 228
255 194 228
255 194 228
255 194 228
255 194 228
255 194 228
255 194 228
255 194 228
255 194 228
255 194 228
255 194 228
255 194 228
255 194 228
255 194 228
255 194 228
255 194 228
255 194 228
255 194 228
255 194 228
255 194 228
255 194 228
255 194 228
255 194 228
255 194 228
255 206 240
255 194 228
255 194 228
255 194 228
255 194 228
255 194 228
255 194 228
255 194 228
255 194 228
255 194 228
255 194 228
255 194 228
255 194 228
255 194 228
255 194 228
255 194 228
255 194 228
255 194 228
255 194 228
255 194 228
255 194 228
255 194 228
255 194 228
255 194 228
255 194 228
255 194 228
255 194 228
255 194 228
255 194 228
255 194 228
255 194 228
255 194 228
255 194 228
255 194 228
255 194 228
255 194 228
255 194 228
255 206 240
255 194 228
255 194 228
255 194 228
255 194 228
255 194 228
255 194 228
255 194 228
255 194 228
255 194 228
255 194 228
255 194 228
255 194 228
255 194 228
255 194 228
255 194 228
255 194 228
255 194 228
255 194 228
255 194 228
255 194 228
255 194 228
255 194 228
255 194 228
255 194 228
255 194 228
255 194 228
255 194 228
255 194 228
255 194 228
255 194 228
255 194 228
255 194 228
255 194 228
255 194 228
255 194 228
255 194 228
255 206 240
255 194 228
255 194 228
255 194 228
255 194 228
255 194 228
255 194 228
255 194 228
255 194 228
255 194 228
255 194 228
255 194 228
255 194 228
255 194 228
255 194 228
255 194 228
255 194 228
255 194 228
255 194 228
255 194 228
255 194 228
255 194 228
255 194 228
255 206 240
255 194 228
255 194 228
255 194 228
255 194 228
255 194 228
255 194 228
255 194 228
255 194 228
255 194 228
255 194 228
255 194 228
255 194 228
255 194 228
255 194 228
255 194 228
255 194 228
255 194 228
255 194 228
255 194 228
255 194 228
255 194 228
255 194 228
255 194 228
255 194 228
255 194 228
255 194 228
255 194 228
255 194 228
255 194 228
255 194 228
255 194 228
255 194 228
255 194 228
255 194 228
255 194 228
255 194 228
255 206 240
255 194 228
255 194 228
255 194 228
255 194 228
255 194 228
255 194 228
255 194 228
255 194 228
255 194 228
255 194 228
255 194 228
255 194 228
255 194 228
255 194 228
255 194 228
255 194 228
255 194 228
255 194 228
255 194 228
255 194 228
255 194 228
255 194 228
255 194 228
255 194 228
255 194 228
255 194 228
255 194 228
255 194 228
255 194 228
255 194 228
255 194 228
255 194 228
255 194 228
255 194 228
255 194 228
255 194 228
255 206 240
255 194 228
255 194 228
255 194 228
255 194 228
255 194 228
255 194 228
255 194 228
255 194 228
255 194 228
255 194 228
255 194 228
255 194 228
255 194 228
255 194 228
255 194 228
255 194 228
255 194 228
255 194 228
255 194 228
255 194 228
255 194 228
255 194 228
255 194 228
255 194 228
255 194 228
255 194 228
255 194 228
255 194 228
255 194 228
255 194 228
255 194 228
255 194 228
255 194 228
255 194 228
255 194 228
255 194 228
255 206 240
255 194 228
255 194 228
255 194 228
255 194 228
255 194 228
255 194 228
255 194 228
255 194 228
255 194 228
255 194 228
255 194 228
255 194 228
255 194 228
255 194 228
255 194 228
255 194 228
255 194 228
255 194 228
255 194 228
255 194 228
255 194 228
255 194 228
255 194 228
255 194 228
255 194 228
255 194 228
255 194 228
255 194 228
255 194 228
255 194 228
255 194 228
255 194 228
255 194 228
255 194 228
255 194 228
255 194 228
255 206 240
255 194 228
255 194 228
255 194 228
255 194 228
255 194 228
255 194 228
255 194 228
255 194 228
255 194 228
255 194 228
255 194 228
255 194 228
255 194 228
255 194 228
255 194 228
255 194 228
255 194 228
255 194 228
255 194 228
255 194 228
255 194 228
255 194 228
255 194 228
255 194 228
255 194 228
255 194 228
255 194 228
255 194 228
255 194 228
255 194 228
255 194 228
255 194 228
255 194 228
255 194 228
255 194 228
255 194 228
255 206 240
255 194 228
255 194 228
255 194 228
255 194 228
255 194 228
255 194 228
255 194 228
255 194 228
255 194 228
255 194 228
255 194 228
255 194 228
255 194 228
255 194 228
255 194 228
255 194 228
255 194 228
255 194 228
255 194 228
255 194 228
255 194 228
255 194 228
255 194 228
255 194 228
255 194 228
255 194 228
255 194 228
255 194 228
255 194 228
255 194 228
255 194 228
255 194 228
255 194 228
255 194 228
255 194 228
255 194 228
255 206 240
255 194 228
255 194 228
255 194 228
255 194 228
255 194 228
255 194 228
255 194 228
255 194 228
255 194 228
255 194 228
255 194 228
255 194 228
255 194 228
255 194 228
255 194 228
255 194 228
255 194 228
255 194 228
255 194 228
255 194 228
255 194 228
255 194 228
255 194 228
255 194 228
255 194 228
255 194 228
255 194 228
255 194 228
255 194 228
255 194 228
255 194 228
255 194 228
255 194 228
255 194 228
255 194 228
255 194 228
255 206 240
255 194 228
255 194 228
255 194 228
255 194 228
255 194 228
255 194 228
255 194 228
255 194 228
255 194 228
255 194 228
255 194 228
255 194 228
255 194 228
255 194 228
255 194 228
255 194 228
255 194 228
255 194 228
255 194 228
255 194 228
255 194 228
255 194 228
255 194 228
255 194 228
255 194 228
255 194 228
255 194 228
255 194 228
255 194 228
255 194 228
255 194 228
255 194 228
255 194 228
255 194 228
255 194 228
255 194 228
255 206 240
255 194 228
255 194 228
255 194 228
255 194 228
255 194 228
255 194 228
255 194 228
255 194 228
255 194 228
255 194 228
255 194 228
255 194 228
255 194 228
255 194 228
255 194 228
255 194 228
255 194 228
255 194 228
255 194 228
255 194 228
255 194 228
255 194 228
255 206 240
255 194 228
255 194 228
255 194 228
255 194 228
255 194 228
255 194 228
255 194 228
255 194 228
255 194 228
255 194 228
255 194 228
255 194 228
255 194 228
255 194 228
255 194 228
255 194 228
255 194 228
255 194 228
255 194 228
255 194 228
255 194 228
255 194 228
255 194 228
255 194 228
255 194 228
255 194 228
255 194 228
255 194 228
255 194 228
255 194 228
255 194 228
255 194 228
255 194 228
255 194 228
255 194 228
255 194 228
255 206 240
255 194 228
255 194 228
255 194 228
255 194 228
255 194 228
255 194 228
255 194 228
255 194 228
255 194 228
255 194 228
255 194 228
255 194 228
255 194 228
255 194 228
255 194 228
255 194 228
255 194 228
255 194 228
255 194 228
255 194 228
255 194 228
255 194 228
255 194 228
255 194 228
255 194 228
255 194 228
255 194 228
255 194 228
255 194 228
255 194 228
255 194 228
255 194 228
255 194 228
255 194 228
255 194 228
255 194 228
255 206 240
255 194 228
255 194 228
255 194 228
255 194 228
255 194 228
255 194 228
255 194 228
255 194 228
255 194 228
255 194 228
255 194 228
255 194 228
255 194 228
255 194 228
255 194 228
255 194 228
255 194 228
255 194 228
255 194 228
255 194 228
255 194 228
255 194 228
255 194 228
255 194 228
255 194 228
255 194 228
255 194 228
255 194 228
255 194 228
255 194 228
255 194 228
255 194 228
255 194 228
255 194 228
255 194 228
255 194 228
255 206 240
255 194 228
255 194 228
255 194 228
255 194 228
255 194 228
255 194 228
255 194 228
255 194 228
255 194 228
255 194 228
255 194 228
255 194 228
255 194 228
255 194 228
255 194 228
255 194 228
255 194 228
255 194 228
255 194 228
255 194 228
255 194 228
255 194 228
255 194 228
255 194 228
255 194 228
255 194 228
255 194 228
255 194 228
255 194 228
255 194 228
255 194 228
255 194 228
255 194 228
255 194 228
255 194 228
255 194 228
255 206 240
255 194 228
255 194 228
255 194 228
255 194 228
255 194 228
255 194 228
255 194 228
255 194 228
255 194 228
255 194 228
255 194 228
255 194 228
255 194 228
255 194 228
255 194 228
255 194 228
255 194 228
255 194 228
255 194 228
255 194 228
255 194 228
255 194 228
255 194 228
255 194 228
255 194 228
255 194 228
255 194 228
255 194 228
255 194 228
255 194 228
255 194 228
255 194 228
255 194 228
255 194 228
255 194 228
255 194 228
255 206 240
255 194 228
255 194 228
255 194 228
255 194 228
255 194 228
255 194 228
255 194 228
255 194 228
255 194 228
255 194 228
255 194 228
255 194 228
255 194 228
255 194 228
255 194 228
255 194 228
255 194 228
255 194 228
255 194 228
255 194 228
255 194 228
255 194 228
255 194 228
255 194 228
255 194 228
255 194 228
255 194 228
255 194 228
255 194 228
255 194 228
255 194 228
255 194 228
255 194 228
255 194 228
255 194 228
255 194 228
255 206 240
255 194 228
255 194 228
255 194 228
255 194 228
255 194 228
255 194 228
255 194 228
255 194 228
255 194 228
255 194 228
255 194 228
255 194 228
255 194 228
255 194 228
255 194 228
255 194 228
255 194 228
255 194 228
255 194 228
255 194 228
255 194 228
255 194 228
255 194 228
255 194 228
255 194 228
255 194 228
255 194 228
255 194 228
255 194 228
255 194 228
255 194 228
255 194 228
255 194 228
255 194 228
255 194 228
255 194 228
255 206 240
255 194 228
255 194 228
255 194 228
255 194 228
255 194 228
255 194 228
255 194 228
255 194 228
255 194 228
255 194 228
255 194 228
255 194 228
255 194 228
255 194 228
255 194 228
255 194 228
255 194 228
255 194 228
255 194 228
255 194 228
255 194 228
255 194 228
255 194 228
255 194 228
255 194 228
255 194 228
255 194 228
255 194 228
255 194 228
255 194 228
255 194 228
255 194 228
255 194 228
255 194 228
255 194 228
255 194 228
255 206 240
255 194 228
255 194 228
255 194 228
255 194 228
255 194 228
255 194 228
255 194 228
255 194 228
255 194 228
255 194 228
255 194 228
255 194 228
255 194 228
255 194 228
255 194 228
255 194 228
255 194 228
255 194 228
255 194 228
255 194 228
255 194 228
255 194 228
255 206 240
255 194 228
255 194 228
255 194 228
255 194 228
255 194 228
255 194 228
255 194 228
255 194 228
255 194 228
255 194 228
255 194 228
255 194 228
255 194 228
255 194 228
255 194 228
255 194 228
255 194 228
255 194 228
255 194 228
255 194 228
255 194 228
255 194 228
255 194 228
255 194 228
255 194 228
255 194 228
255 194 228
255 194 228
255 194 228
255 194 228
255 194 228
255 194 228
255 194 228
255 194 228
255 194 228
255 194 228
255 206 240
255 194 228
255 194 228
255 194 228
255 194 228
255 194 228
255 194 228
255 194 228
255 194 228
255 194 228
255 194 228
255 194 228
255 194 228
255 194 228
255 194 228
255 194 228
255 194 228
255 194 228
255 194 228
255 194 228
255 194 228
255 194 228
255 194 228
255 194 228
255 194 228
255 194 228
255 194 228
255 194 228
255 194 228
255 194 228
255 194 228
255 194 228
255 194 228
255 194 228
255 194 228
255 194 228
255 194 228
255 206 240
255 194 228
255 194 228
255 194 228
255 194 228
255 194 228
255 194 228
255 194 228
255 194 228
255 194 228
255 194 228
255 194 228
255 194 228
255 194 228
255 194 228
255 194 228
255 194 228
255 194 228
255 194 228
255 194 228
255 194 228
255 194 228
255 194 228
255 194 228
255 194 228
255 194 228
255 194 228
255 194 228
255 194 228
255 194 228
255 194 228
255 194 228
255 194 228
255 194 228
255 194 228
255 194 228
255 194 228
255 206 240
255 194 228
255 194 228
255 194 228
255 194 228
255 194 228
255 194 228
255 194 228
255 194 228
255 194 228
255 194 228
255 194 228
255 194 228
255 194 228
255 194 228
255 194 228
255 194 228
255 194 228
255 194 228
255 194 228
255 194 228
255 194 228
255 194 228
255 194 228
255 194 228
255 194 228
255 194 228
255 194 228
255 194 228
255 194 228
255 194 228
255 194 228
255 194 228
255 194 228
255 194 228
255 194 228
255 194 228
255 206 240
255 194 228
255 194 228
255 194 228
255 194 228
255 194 228
255 194 228
255 194 228
255 194 228
255 194 228
255 194 228
255 194 228
255 194 228
255 194 228
255 194 228
255 194 228
255 194 228
255 194 228
255 194 228
255 194 228
255 194 228
255 194 228
255 194 228
255 194 228
255 194 228
255 194 228
255 194 228
255 194 228
255 194 228
255 194 228
255 194 228
255 194 228
255 194 228
255 194 228
255 194 228
255 194 228
255 194 228
255 206 240
255 194 228
255 194 228
255 194 228
255 194 228
255 194 228
255 194 228
255 194 228
255 194 228
255 194 228
255 194 228
255 194 228
255 194 228
255 194 228
255 194 228
255 194 228
255 194 228
255 194 228
255 194 228
255 194 228
255 194 228
255 194 228
255 194 228
255 194 228
255 194 228
255 194 228
255 194 228
255 194 228
255 194 228
255 194 228
255 194 228
255 194 228
255 194 228
255 194 228
255 194 228
255 194 228
255 194 228
255 206 240
255 194 228
255 194 228
255 194 228
255 194 228
255 194 228
255 194 228
255 194 228
255 194 228
255 194 228
255 194 228
255 194 228
255 194 228
255 194 228
255 194 228
255 194 228
255 194 228
255 194 228
255 194 228
255 194 228
255 194 228
255 194 228
255 194 228
255 194 228
255 194 228
255 194 228
255 194 228
255 194 228
255 194 228
255 194 228
255 194 228
255 194 228
255 194 228
255 194 228
255 194 228
255 194 228
255 194 228
255 206 240
255 194 228
255 194 228
255 194 228
255 194 228
255 194 228
255 194 228
255 194 228
255 194 228
255 194 228
255 194 228
255 194 228
255 194 228
255 194 228
255 194 228
255 194 228
255 194 228
255 194 228
255 194 228
255 194 228
255 194 228
255 194 228
255 194 228
255 194 228
255 194 228
255 194 228
255 194 228
255 194 228
255 194 228
255 194 228
255 194 228
255 194 228
255 194 228
255 194 228
255 194 228
255 194 228
255 194 228
255 206 240
255 194 228
255 194 228
255 194 228
255 194 228
255 194 228
255 194 228
255 194 228
255 194 228
255 194 228
255 194 228
255 194 228
255 194 228
255 194 228
255 194 228
255 194 228
255 194 228
255 194 228
255 194 228
255 194 228
255 194 228
255 194 228
255 194 228
255 206 240
255 194 228
255 194 228
255 194 228
255 194 228
255 194 228
255 194 228
255 194 228
255 194 228
255 194 228
255 194 228
255 194 228
255 194 228
255 194 228
255 194 228
255 194 228
255 194 228
255 194 228
255 194 228
255 194 228
255 194 228
255 194 228
255 194 228
255 194 228
255 194 228
255 194 228
255 194 228
255 194 228
255 194 228
255 194 228
255 194 228
255 194 228
255 194 228
255 194 228
255 194 228
255 194 228
255 194 228
255 206 240
255 194 228
255 194 228
255 194 228
255 194 228
255 194 228
255 194 228
255 194 228
255 194 228
255 194 228
255 194 228
255 194 228
255 194 228
255 194 228
255 194 228
255 194 228
255 194 228
255 194 228
255 194 228
255 194 228
255 194 228
255 194 228
255 194 228
255 194 228
255 194 228
255 194 228
255 194 228
255 194 228
255 194 228
255 194 228
255 194 228
255 194 228
255 194 228
255 194 228
255 194 228
255 194 228
255 194 228
255 206 240
255 194 228
255 194 228
255 194 228
255 194 228
255 194 228
255 194 228
255 194 228
255 194 228
255 194 228
255 194 228
255 194 228
255 194 228
255 194 228
255 194 228
255 194 228
255 194 228
255 194 228
255 194 228
255 194 228
255 194 228
255 194 228
255 194 228
255 194 228
255 194 228
255 194 228
255 194 228
255 194 228
255 194 228
255 194 228
255 194 228
255 194 228
255 194 228
255 194 228
255 194 228
255 194 228
255 194 228
255 206 240
255 194 228
255 194 228
255 194 228
255 194 228
255 194 228
255 194 228
255 194 228
255 194 228
255 194 228
255 194 228
255 194 228
255 194 228
255 194 228
255 194 228
255 194 228
255 194 228
255 194 228
255 194 228
255 194 228
255 194 228
255 194 228
255 194 228
255 194 228
255 194 228
255 194 228
255 194 228
255 194 228
255 194 228
255 194 228
255 194 228
255 194 228
255 194 228
255 194 228
255 194 228
255 194 228
255 194 228
255 206 240
255 194 228
255 194 228
255 194 228
255 194 228
255 194 228
255 194 228
255 194 228
255 194 228
255 194 228
255 194 228
255 194 228
255 194 228
255 194 228
255 194 228
255 194 228
255 194 228
255 194 228
255 194 228
255 194 228
255 194 228
255 194 228
255 194 228
255 194 228
255 194 228
255 194 228
255 194 228
255 194 228
255 194 228
255 194 228
255 194 228
255 194 228
255 194 228
255 194 228
255 194 228
255 194 228
255 194 228
255 206 240
255 194 228
255 194 228
255 194 228
255 194 228
255 194 228
255 194 228
255 194 228
255 194 228
255 194 228
255 194 228
255 194 228
255 194 228
255 194 228
255 194 228
255 194 228
255 194 228
255 194 228
255 194 228
255 194 228
255 194 228
255 194 228
255 194 228
255 194 228
255 194 228
255 194 228
255 194 228
255 194 228
255 194 228
255 194 228
255 194 228
255 194 228
255 194 228
255 194 228
255 194 228
255 194 228
255 194 228
255 206 240
255 194 228
255 194 228
255 194 228
255 194 228
255 194 228
255 194 228
255 194 228
255 194 228
255 194 228
255 194 228
255 194 228
255 194 228
255 194 228
255 194 228
255 194 228
255 194 228
255 194 228
255 194 228
255 194 228
255 194 228
255 194 228
255 194 228
255 194 228
255 194 228
255 194 228
255 194 228
255 194 228
255 194 228
255 194 228
255 194 228
255 194 228
255 194 228
255 194 228
255 194 228
255 194 228
255 194 228
255 206 240
255 194 228
255 194 228
255 194 228
255 194 228
255 194 228
255 194 228
255 194 228
255 194 228
255 194 228
255 194 228
255 194 228
255 194 228
255 194 228
255 194 228
255 194 228
255 194 228
255 194 228
255 194 228
255 194 228
255 194 228
255 194 228
255 194 228
255 194 228
255 194 228
255 194 228
255 194 228
255 194 228
255 194 228
255 194 228
255 194 228
255 194 228
255 194 228
255 194 228
255 194 228
255 194 228
255 194 228
255 206 240
255 194 228
255 194 228
255 194 228
255 194 228
255 194 228
255 194 228
255 194 228
255 194 228
255 194 228
255 194 228
255 194 228
255 194 228
255 194 228
255 194 228
255 194 228
255 194 228
255 194 228
255 194 228
255 194 228
255 194 228
255 194 228
255 194 228
255 194 228
255 194 228
255 194 228
255 194 228
255 194 228
255 194 228
255 194 228
255 194 228
255 194 228
255 194 228
255 194 228
255 194 228
255 194 228
255 194 228
255 194 228
255 194 228
255 194 228
255 194 228
255 194 228
255 194 228
255 194 228
255 194 228
255 194 228
255 194 228
255 194 228
255 194 228
255 194 228
255 194 228
255 194 228
255 194 228
255 194 228
255 194 228
255 194 228
255 194 228
255 194 228
255 194 228
255 194 228
255 206 240
255 194 228
255 194 228
255 194 228
255 194 228
255 194 228
255 194 228
255 194 228
255 194 228
255 194 228
255 194 228
255 194 228
255 194 228
255 194 228
255 194 228
255 194 228
255 194 228
255 194 228
255 194 228
255 194 228
255 194 228
255 194 228
255 194 228
255 194 228
255 194 228
255 194 228
255 194 228
255 194 228
255 194 228
255 194 228
255 194 228
255 194 228
255 194 228
255 194 228
255 194 228
255 194 228
255 194 228
255 206 240
255 194 228
255 194 228
255 194 228
255 194 228
255 194 228
255 194 228
255 194 228
255 194 228
255 194 228
255 194 228
255 194 228
255 194 228
255 194 228
255 194 228
255 194 228
255 194 228
255 194 228
255 194 228
255 194 228
255 194 228
255 194 228
255 194 228
255 194 228
255 194 228
255 194 228
255 194 228
255 194 228
255 194 228
255 194 228
255 194 228
255 194 228
255 194 228
255 194 228
255 194 228
255 194 228
255 194 228
255 206 240
255 194 228
255 194 228
255 194 228
255 194 228
255 194 228
255 194 228
255 194 228
255 194 228
255 194 228
255 194 228
255 194 228
255 194 228
255 194 228
255 194 228
255 194 228
255 194 228
255 194 228
255 194 228
255 194 228
255 194 228
255 194 228
255 194 228
255 194 228
255 194 228
255 194 228
255 194 228
255 194 228
255 194 228
255 194 228
255 194 228
255 194 228
255 194 228
255 194 228
255 194 228
255 194 228
255 194 228
255 206 240
255 194 228
255 194 228
255 194 228
255 194 228
255 194 228
255 194 228
255 194 228
255 194 228
255 194 228
255 194 228
255 194 228
255 194 228
255 194 228
255 194 228
255 194 228
255 194 228
255 194 228
255 194 228
255 194 228
255 194 228
255 194 228
255 194 228
255 194 228
255 194 228
255 194 228
255 194 228
255 194 228
255 194 228
255 194 228
255 194 228
255 194 228
255 194 228
255 194 228
255 194 228
255 194 228
255 194 228
255 206 240
255 194 228
255 194 228
255 194 228
255 194 228
255 194 228
255 194 228
255 194 228
255 194 228
255 194 228
255 194 228
255 194 228
255 194 228
255 194 228
255 194 228
255 194 228
255 194 228
255 194 228
255 194 228
255 194 228
255 194 228
255 194 228
255 194 228
255 194 228
255 194 228
255 194 228
255 194 228
255 194 228
255 194 228
255 194 228
255 194 228
255 194 228
255 194 228
255 194 228
255 194 228
255 194 228
255 194 228
255 206 240
255 194 228
255 194 228
255 194 228
255 194 228
255 194 228
255 194 228
255 194 228
255 194 228
255 194 228
255 194 228
255 194 228
255 194 228
255 194 228
255 194 228
255 194 228
255 194 228
255 194 228
255 194 228
255 194 228
255 194 228
255 194 228
255 194 228
255 194 228
255 194 228
255 194 228
255 194 228
255 194 228
255 194 228
255 194 228
255 194 228
255 194 228
255 194 228
255 194 228
255 194 228
255 194 228
255 194 228
255 206 240
255 194 228
255 194 228
255 194 228
255 194 228
255 194 228
255 194 228
255 194 228
255 194 228
255 194 228
255 194 228
255 194 228
255 194 228
255 194 228
255 194 228
255 194 228
255 194 228
255 194 228
255 194 228
255 194 228
255 194 228
255 194 228
255 194 228
255 194 228
255 194 228
255 194 228
255 194 228
255 194 228
255 194 228
255 194 228
255 194 228
255 194 228
255 194 228
255 194 228
255 194 228
255 194 228
255 194 228
255 206 240
255 194 228
255 194 228
255 194 228
255 194 228
255 194 228
255 194 228
255 194 228
255 194 228
255 194 228
255 194 228
255 194 228
255 194 228
255 194 228
255 194 228
255 194 228
255 194 228
255 194 228
255 194 228
255 194 228
255 194 228
255 194 228
255 194 228
255 194 228
255 194 228
255 194 228
255 194 228
255 194 228
255 194 228
255 194 228
255 194 228
255 194 228
255 194 228
255 194 228
255 194 228
255 194 228
255 194 228
255 194 228
255 194 228
255 194 228
255 194 228
255 194 228
255 194 228
255 194 228
255 194 228
255 194 228
255 194 228
255 194 228
255 194 228
255 194 228
255 194 228
255 194 228
255 194 228
255 194 228
255 194 228
255 194 228
255 194 228
255 194 228
255 194 228
255 194 228
255 206 240
255 194 228
255 194 228
255 194 228
255 194 228
255 194 228
255 194 228
255 194 228
255 194 228
255 194 228
255 194 228
255 194 228
255 194 228
255 194 228
255 194 228
255 194 228
255 194 228
255 194 228
255 194 228
255 194 228
255 194 228
255 194 228
255 194 228
255 194 228
255 194 228
255 194 228
255 194 228
255 194 228
255 194 228
255 194 228
255 194 228
255 194 228
255 194 228
255 194 228
255 194 228
255 194 228
255 194 228
255 206 240
255 194 228
255 194 228
255 194 228
255 194 228
255 194 228
255 194 228
255 194 228
255 194 228
255 194 228
255 194 228
255 194 228
255 194 228
255 194 228
255 194 228
255 194 228
255 194 228
255 194 228
255 194 228
255 194 228
255 194 228
255 194 228
255 194 228
255 194 228
255 194 228
255 194 228
255 194 228
255 194 228
255 194 228
255 194 228
255 194 228
255 194 228
255 194 228
255 194 228
255 194 228
255 194 228
255 194 228
255 206 240
255 194 228
255 194 228
255 194 228
255 194 228
255 194 228
255 194 228
255 194 228
255 194 228
255 194 228
255 194 228
255 194 228
255 194 228
255 194 228
255 194 228
255 194 228
255 194 228
255 194 228
255 194 228
255 194 228
255 194 228
255 194 228
255 194 228
255 194 228
255 194 228
255 194 228
255 194 228
255 194 228
255 194 228
255 194 228
255 194 228
255 194 228
255 194 228
255 194 228
255 194 228
255 194 228
255 194 228
255 206 240
255 194 228
255 194 228
255 194 228
255 194 228
255 194 228
255 194 228
255 194 228
255 194 228
255 194 228
255 194 228
255 194 228
255 194 228
255 194 228
255 194 228
255 194 228
255 194 228
255 194 228
255 194 228
255 194 228
255 194 228
255 194 228
255 194 228
255 194 228
255 194 228
255 194 228
255 194 228
255 194 228
255 194 228
255 194 228
255 194 228
255 194 228
255 194 228
255 194 228
255 194 228
255 194 228
255 194 228
255 206 240
255 194 228
255 194 228
255 194 228
255 194 228
255 194 228
255 194 228
255 194 228
255 194 228
255 194 228
255 194 228
255 194 228
255 194 228
255 194 228
255 194 228
255 194 228
255 194 228
255 194 228
255 194 228
255 194 228
255 194 228
255 194 228
255 194 228
255 194 228
255 194 228
255 194 228
255 194 228
255 194 228
255 194 228
255 194 228
255 194 228
255 194 228
255 194 228
255 194 228
255 194 228
255 194 228
255 194 228
255 206 240
255 194 228
255 194 228
255 194 228
255 194 228
255 194 228
255 194 228
255 194 228
255 194 228
255 194 228
255 194 228
255 194 228
255 194 228
255 194 228
255 194 228
255 194 228
255 194 228
255 194 228
255 194 228
255 194 228
255 194 228
255 194 228
255 194 228
255 194 228
255 194 228
255 194 228
255 194 228
255 194 228
255 194 228
255 194 228
255 194 228
255 194 228
255 194 228
255 194 228
255 194 228
255 194 228
255 194 228
255 206 240
255 194 228
255 194 228
255 194 228
255 194 228
255 194 228
255 194 228
255 194 228
255 194 228
255 194 228
255 194 228
255 194 228
255 194 228
255 194 228
255 194 228
255 194 228
255 194 228
255 194 228
255 194 228
255 194 228
255 194 228
255 194 228
255 194 228
255 194 228
255 194 228
255 194 228
255 194 228
255 194 228
255 194 228
255 194 228
255 194 228
255 194 228
255 194 228
255 194 228
255 194 228
255 194 228
255 194 228
255 206 240
255 194 228
255 194 228
255 194 228
255 194 228
255 194 228
255 194 228
255 194 228
255 194 228
255 194 228
255 194 228
255 194 228
255 194 228
255 194 228
255 194 228
255 194 228
255 194 228
255 194 228
255 194 228
255 194 228
255 194 228
255 194 228
255 194 228
255 194 228
255 194 228
255 194 228
255 194 228
255 194 228
255 194 228
255 194 228
255 194 228
255 194 228
255 194 228
255 194 228
255 194 228
255 194 228
255 194 228
255 194 228
255 194 228
255 194 228
255 194 228
255 194 228
255 194 228
255 194 228
255 194 228
255 194 228
255 194 228
255 194 228
255 194 228
255 194 228
255 194 228
255 194 228
255 194 228
255 194 228
255 194 228
255 194 228
255 194 228
255 194 228
255 194 228
255 194 228
255 206 240
255 194 228
255 194 228
255 194 228
255 194 228
255 194 228
255 194 228
255 194 228
255 194 228
255 194 228
255 194 228
255 194 228
255 194 228
255 194 228
255 194 228
255 194 228
255 194 228
255 194 228
255 194 228
255 194 228
255 194 228
255 194 228
255 194 228
255 194 228
255 194 228
255 194 228
255 194 228
255 194 228
255 194 228
255 194 228
255 194 228
255 194 228
255 194 228
255 194 228
255 194 228
255 194 228
255 194 228
255 206 240
255 194 228
255 194 228
255 194 228
255 194 228
255 194 228
255 194 228
255 194 228
255 194 228
255 194 228
255 194 228
255 194 228
255 194 228
255 194 228
255 194 228
255 194 228
255 194 228
255 194 228
255 194 228
255 194 228
255 194 228
255 194 228
255 194 228
255 194 228
255 194 228
255 194 228
255 194 228
255 194 228
255 194 228
255 194 228
255 194 228
255 194 228
255 194 228
255 194 228
255 194 228
255 194 228
255 194 228
255 206 240
255 194 228
255 194 228
255 194 228
255 194 228
255 194 228
255 194 228
255 194 228
255 194 228
255 194 228
255 194 228
255 194 228
255 194 228
255 194 228
255 194 228
255 194 228
255 194 228
255 194 228
255 194 228
255 194 228
255 194 228
255 194 228
255 194 228
255 194 228
255 194 228
255 194 228
255 194 228
255 194 228
255 194 228
255 194 228
255 194 228
255 194 228
255 194 228
255 194 228
255 194 228
255 194 228
255 194 228
255 206 240
255 194 228
255 194 228
255 194 228
255 194 228
255 194 228
255 194 228
255 194 228
255 194 228
255 194 228
255 194 228
255 194 228
255 194 228
255 194 228
255 194 228
255 194 228
255 194 228
255 194 228
255 194 228
255 194 228
255 194 228
255 194 228
255 194 228
255 194 228
255 194 228
255 194 228
255 194 228
255 194 228
255 194 228
255 194 228
255 194 228
255 194 228
255 194 228
255 194 228
255 194 228
255 194 228
255 194 228
255 206 240
255 194 228
255 194 228
255 194 228
255 194 228
255 194 228
255 194 228
255 194 228
255 194 228
255 194 228
255 194 228
255 194 228
255 194 228
255 194 228
255 194 228
255 194 228
255 194 228
255 194 228
255 194 228
255 194 228
255 194 228
255 194 228
255 194 228
255 194 228
255 194 228
255 194 228
255 194 228
255 194 228
255 194 228
255 194 228
255 194 228
255 194 228
255 194 228
255 194 228
255 194 228
255 194 228
255 194 228
255 206 240
255 194 228
255 194 228
255 194 228
255 194 228
255 194 228
255 194 228
255 194 228
255 194 228
255 194 228
255 194 228
255 194 228
255 194 228
255 194 228
255 194 228
255 194 228
255 194 228
255 194 228
255 194 228
255 194 228
255 194 228
255 194 228
255 194 228
255 194 228
255 194 228
255 194 228
255 194 228
255 194 228
255 194 228
255 194 228
255 194 228
255 194 228
255 194 228
255 194 228
255 194 228
255 194 228
255 194 228
255 206 240
255 194 228
255 194 228
255 194 228
255 194 228
255 194 228
255 194 228
255 194 228
255 194 228
255 194 228
255 194 228
255 194 228
255 194 228
255 194 228
255 194 228
255 194 228
255 194 228
255 194 228
255 194 228
255 194 228
255 194 228
255 194 228
255 194 228
255 194 228
255 194 228
255 194 228
255 194 228
255 194 228
255 194 228
255 194 228
255 194 228
255 194 228
255 194 228
255 194 228
255 194 228
255 194 228
255 194 228
255 206 240
255 194 228
255 194 228
255 194 228
255 194 228
255 194 228
255 194 228
255 194 228
255 194 228
255 194 228
255 194 228
255 194 228
255 194 228
255 194 228
255 194 228
255 194 228
255 194 228
255 194 228
255 194 228
255 194 228
255 194 228
255 194 228
255 194 228
255 194 228
255 194 228
255 194 228
255 194 228
255 194 228
255 194 228
255 194 228
255 194 228
255 194 228
255 194 228
255 194 228
255 194 228
255 194 228
255 194 228
255 194 228
255 194 228
255 194 228
255 194 228
255 194 228
255 194 228
255 194 228
255 194 228
255 194 228
255 194 228
255 194 228
255 194 228
255 194 228
255 194 228
255 194 228
255 194 228
255 194 228
255 194 228
255 194 228
255 194 228
255 194 228
255 194 228
255 194 228
255 206 240
255 194 228
255 194 228
255 194 228
255 194 228
255 194 228
255 194 228
255 194 228
255 194 228
255 194 228
255 194 228
255 194 228
255 194 228
255 194 228
255 194 228
255 194 228
255 194 228
255 194 228
255 194 228
255 194 228
255 194 228
255 194 228
255 194 228
255 194 228
255 194 228
255 194 228
255 194 228
255 194 228
255 194 228
255 194 228
255 194 228
255 194 228
255 194 228
255 194 228
255 194 228
255 194 228
255 194 228
255 206 240
255 194 228
255 194 228
255 194 228
255 194 228
255 194 228
255 194 228
255 194 228
255 194 228
255 194 228
255 194 228
255 194 228
255 194 228
255 194 228
255 194 228
255 194 228
255 194 228
255 194 228
255 194 228
255 194 228
255 194 228
255 194 228
255 194 228
255 194 228
255 194 228
255 194 228
255 194 228
255 194 228
255 194 228
255 194 228
255 194 228
255 194 228
255 194 228
255 194 228
255 194 228
255 194 228
255 194 228
255 206 240
255 194 228
255 194 228
255 194 228
255 194 228
255 194 228
255 194 228
255 194 228
255 194 228
255 194 228
255 194 228
255 194 228
255 194 228
255 194 228
255 194 228
255 194 228
255 194 228
255 194 228
255 194 228
255 194 228
255 194 228
255 194 228
255 194 228
255 194 228
255 194 228
255 194 228
255 194 228
255 194 228
255 194 228
255 194 228
255 194 228
255 194 228
255 194 228
255 194 228
255 194 228
255 194 228
255 194 228
255 206 240
255 194 228
255 194 228
255 194 228
255 194 228
255 194 228
255 194 228
255 194 228
255 194 228
255 194 228
255 194 228
255 194 228
255 194 228
255 194 228
255 194 228
255 194 228
255 194 228
255 194 228
255 194 228
255 194 228
255 194 228
255 194 228
255 194 228
255 194 228
255 194 228
255 194 228
255 194 228
255 194 228
255 194 228
255 194 228
255 194 228
255 194 228
255 194 228
255 194 228
255 194 228
255 194 228
255 194 228
255 206 240
255 194 228
255 194 228
255 194 228
255 194 228
255 194 228
255 194 228
255 194 228
255 194 228
255 194 228
255 194 228
255 194 228
255 194 228
255 194 228
255 194 228
255 194 228
255 194 228
255 194 228
255 194 228
255 194 228
255 194 228
255 194 228
255 194 228
255 194 228
255 194 228
255 194 228
255 194 228
255 194 228
255 194 228
255 194 228
255 194 228
255 194 228
255 194 228
255 194 228
255 194 228
255 194 228
255 194 228
255 206 240
255 194 228
255 194 228
255 194 228
255 194 228
255 194 228
255 194 228
255 194 228
255 194 228
255 194 228
255 194 228
255 194 228
255 194 228
255 194 228
255 194 228
255 194 228
255 194 228
255 194 228
255 194 228
255 194 228
255 194 228
255 194 228
255 194 228
255 194 228
255 194 228
255 194 228
255 194 228
255 194 228
255 194 228
255 194 228
255 194 228
255 194 228
255 194 228
255 194 228
255 194 228
255 194 228
255 194 228
255 206 240
255 194 228
255 194 228
255 194 228
255 194 228
255 194 228
255 194 228
255 194 228
255 194 228
255 194 228
255 194 228
255 194 228
255 194 228
255 194 228
255 194 228
255 194 228
255 194 228
255 194 228
255 194 228
255 194 228
255 194 228
255 194 228
255 194 228
255 194 228
255 194 228
255 194 228
255 194 228
255 194 228
255 194 228
255 194 228
255 194 228
255 194 228
255 194 228
255 194 228
255 194 228
255 194 228
255 194 228
255 206 240
255 194 228
255 194 228
255 194 228
255 194 228
255 194 228
255 194 228
255 194 228
255 194 228
255 194 228
255 194 228
255 194 228
255 194 228
255 194 228
255 194 228
255 194 228
255 194 228
255 194 228
255 194 228
255 194 228
255 194 228
255 194 228
255 194 228
255 194 228
255 194 228
255 194 228
255 194 228
255 194 228
255 194 228
255 194 228
255 194 228
255 194 228
255 194 228
255 194 228
255 194 228
255 194 228
255 194 228
255 194 228
255 194 228
255 194 228
255 194 228
255 194 228
255 194 228
255 194 228
255 194 228
255 194 228
255 194 228
255 194 228
255 194 228
255 194 228
255 194 228
255 194 228
255 194 228
255 194 228
255 194 228
255 194 228
255 194 228
255 194 228
255 194 228
255 194 228
255 206 240
255 194 228
255 194 228
255 194 228
255 194 228
255 194 228
255 194 228
255 194 228
255 194 228
255 194 228
255 194 228
255 194 228
255 194 228
255 194 228
255 194 228
255 194 228
255 194 228
255 194 228
255 194 228
255 194 228
255 194 228
255 194 228
255 194 228
255 194 228
255 194 228
255 194 228
255 194 228
255 194 228
255 194 228
255 194 228
255 194 228
255 194 228
255 194 228
255 194 228
255 194 228
255 194 228
255 194 228
255 206 240
255 194 228
255 194 228
255 194 228
255 194 228
255 194 228
255 194 228
255 194 228
255 194 228
255 194 228
255 194 228
255 194 228
255 194 228
255 194 228
255 194 228
255 194 228
255 194 228
255 194 228
255 194 228
255 194 228
255 194 228
255 194 228
255 194 228
255 194 228
255 194 228
255 194 228
255 194 228
255 194 228
255 194 228
255 194 228
255 194 228
255 194 228
255 194 228
255 194 228
255 194 228
255 194 228
255 194 228
255 206 240
255 194 228
255 194 228
255 194 228
255 194 228
255 194 228
255 194 228
255 194 228
255 194 228
255 194 228
255 194 228
255 194 228
255 194 228
255 194 228
255 194 228
255 194 228
255 194 228
255 194 228
255 194 228
255 194 228
255 194 228
255 194 228
255 194 228
255 194 228
255 194 228
255 194 228
255 194 228
255 194 228
255 194 228
255 194 228
255 194 228
255 194 228
255 194 228
255 194 228
255 194 228
255 194 228
255 194 228
255 206 240
255 194 228
255 194 228
255 194 228
255 194 228
255 194 228
255 194 228
255 194 228
255 194 228
255 194 228
255 194 228
255 194 228
255 194 228
255 194 228
255 194 228
255 194 228
255 194 228
255 194 228
255 194 228
255 194 228
255 194 228
255 194 228
255 194 228
255 194 228
255 194 228
255 194 228
255 194 228
255 194 228
255 194 228
255 194 228
255 194 228
255 194 228
255 194 228
255 194 228
255 194 228
255 194 228
255 194 228
255 206 240
255 194 228
255 194 228
255 194 228
255 194 228
255 194 228
255 194 228
255 194 228
255 194 228
255 194 228
255 194 228
255 194 228
255 194 228
255 194 228
255 194 228
255 194 228
255 194 228
255 194 228
255 194 228
255 194 228
255 194 228
255 194 228
255 194 228
255 194 228
255 194 228
255 194 228
255 194 228
255 194 228
255 194 228
255 194 228
255 194 228
255 194 228
255 194 228
255 194 228
255 194 228
255 194 228
255 194 228
255 206 240
255 194 228
255 194 228
255 194 228
255 194 228
255 194 228
255 194 228
255 194 228
255 194 228
255 194 228
255 194 228
255 194 228
255 194 228
255 194 228
255 194 228
255 194 228
255 194 228
255 194 228
255 194 228
255 194 228
255 194 228
255 194 228
255 194 228
255 194 228
255 194 228
255 194 228
255 194 228
255 194 228
255 194 228
255 194 228
255 194 228
255 194 228
255 194 228
255 194 228
255 194 228
255 194 228
255 194 228
255 206 240
255 194 228
255 194 228
255 194 228
255 194 228
255 194 228
255 194 228
255 194 228
255 194 228
255 194 228
255 194 228
255 194 228
255 194 228
255 194 228
255 194 228
255 194 228
255 194 228
255 194 228
255 194 228
255 194 228
255 194 228
255 194 228
255 194 228
255 194 228
255 194 228
255 194 228
255 194 228
255 194 228
255 194 228
255 194 228
255 194 228
255 194 228
255 194 228
255 194 228
255 194 228
255 194 228
255 194 228
255 206 240
255 194 228
255 194 228
255 194 228
255 194 228
255 194 228
255 194 228
255 194 228
255 194 228
255 194 228
255 194 228
255 194 228
255 194 228
255 194 228
255 194 228
255 194 228
255 194 228
255 194 228
255 194 228
255 194 228
255 194 228
255 194 228
255 194 228
255 194 228
255 194 228
255 194 228
255 194 228
255 194 228
255 194 228
255 194 228
255 194 228
255 194 228
255 194 228
255 194 228
255 194 228
255 194 228
255 194 228
255 194 228
255 194 228
255 194 228
255 194 228
255 194 228
255 194 228
255 194 228
255 194 228
255 194 228
255 194 228
255 194 228
255 194 228
255 194 228
255 194 228
255 194 228
255 194 228
255 194 228
255 194 228
255 194 228
255 194 228
255 194 228
255 194 228
255 194 228
255 206 240
255 194 228
255 194 228
255 194 228
255 194 228
255 194 228
255 194 228
255 194 228
255 194 228
255 194 228
255 194 228
255 194 228
255 194 228
255 194 228
255 194 228
255 194 228
255 194 228
255 194 228
255 194 228
255 194 228
255 194 228
255 194 228
255 194 228
255 194 228
255 194 228
255 194 228
255 194 228
255 194 228
255 194 228
255 194 228
255 194 228
255 194 228
255 194 228
255 194 228
255 194 228
255 194 228
255 194 228
255 206 240
255 194 228
255 194 228
255 194 228
255 194 228
255 194 228
255 194 228
255 194 228
255 194 228
255 194 228
255 194 228
255 194 228
255 194 228
255 194 228
255 194 228
255 194 228
255 194 228
255 194 228
255 194 228
255 194 228
255 194 228
255 194 228
255 194 228
255 194 228
255 194 228
255 194 228
255 194 228
255 194 228
255 194 228
255 194 228
255 194 228
255 194 228
255 194 228
255 194 228
255 194 228
255 194 228
255 194 228
255 206 240
255 194 228
255 194 228
255 194 228
255 194 228
255 194 228
255 194 228
255 194 228
255 194 228
255 194 228
255 194 228
255 194 228
255 194 228
255 194 228
255 194 228
255 194 228
255 194 228
255 194 228
255 194 228
255 194 228
255 194 228
255 194 228
255 194 228
255 194 228
255 194 228
255 194 228
255 194 228
255 194 228
255 194 228
255 194 228
255 194 228
255 194 228
255 194 228
255 194 228
255 194 228
255 194 228
255 194 228
255 206 240
255 194 228
255 194 228
255 194 228
255 194 228
255 194 228
255 194 228
255 194 228
255 194 228
255 194 228
255 194 228
255 194 228
255 194 228
255 194 228
255 194 228
255 194 228
255 194 228
255 194 228
255 194 228
255 194 228
255 194 228
255 194 228
255 194 228
255 194 228
255 194 228
255 194 228
255 194 228
255 194 228
255 194 228
255 194 228
255 194 228
255 194 228
255 194 228
255 194 228
255 194 228
255 194 228
255 194 228
255 206 240
255 194 228
255 194 228
255 194 228
255 194 228
255 194 228
255 194 228
255 194 228
255 194 228
255 194 228
255 194 228
255 194 228
255 194 228
255 194 228
255 194 228
255 194 228
255 194 228
255 194 228
255 194 228
255 194 228
255 194 228
255 194 228
255 194 228
255 194 228
255 194 228
255 194 228
255 194 228
255 194 228
255 194 228
255 194 228
255 194 228
255 194 228
255 194 228
255 194 228
255 194 228
255 194 228
255 194 228
255 206 240
255 194 228
255 194 228
255 194 228
255 194 228
255 194 228
255 194 228
255 194 228
255 194 228
255 194 228
255 194 228
255 194 228
255 194 228
255 194 228
255 194 228
255 194 228
255 194 228
255 194 228
255 194 228
255 194 228
255 194 228
255 194 228
255 194 228
255 194 228
255 194 228
255 194 228
255 194 228
255 194 228
255 194 228
255 194 228
255 194 228
255 194 228
255 194 228
255 194 228
255 194 228
255 194 228
255 194 228
255 206 240
255 194 228
255 194 228
255 194 228
255 194 228
255 194 228
255 194 228
255 194 228
255 194 228
255 194 228
255 194 228
255 194 228
255 194 228
255 194 228
255 194 228
255 194 228
255 194 228
255 194 228
255 194 228
255 194 228
255 194 228
255 194 228
255 194 228
255 194 228
255 194 228
255 194 228
255 194 228
255 194 228
255 194 228
255 194 228
255 194 228
255 194 228
255 194 228
255 194 228
255 194 228
255 194 228
255 194 228
255 206 240
255 194 228
255 194 228
255 194 228
255 194 228
255 194 228
255 194 228
255 194 228
255 194 228
255 194 228
255 194 228
255 194 228
255 194 228
255 194 228
255 194 228
255 194 228
255 194 228
255 194 228
255 194 228
255 194 228
255 194 228
255 194 228
255 194 228
255 194 228
255 194 228
255 194 228
255 194 228
255 194 228
255 194 228
255 194 228
255 194 228
255 194 228
255 194 228
255 194 228
255 194 228
255 194 228
255 194 228
255 194 228
255 194 228
255 194 228
255 194 228
255 194 228
255 194 228
255 194 228
255 194 228
255 194 228
255 194 228
255 194 228
255 194 228
255 194 228
255 194 228
255 194 228
255 194 228
255 194 228
255 194 228
255 194 228
255 194 228
255 194 228
255 194 228
255 194 228
255 206 240
255 194 228
255 194 228
255 194 228
255 194 228
255 194 228
255 194 228
255 194 228
255 194 228
255 194 228
255 194 228
255 194 228
255 194 228
255 194 228
255 194 228
255 194 228
255 194 228
255 194 228
255 194 228
255 194 228
255 194 228
255 194 228
255 194 228
255 194 228
255 194 228
255 194 228
255 194 228
255 194 228
255 194 228
255 194 228
255 194 228
255 194 228
255 194 228
255 194 228
255 194 228
255 194 228
255 194 228
255 206 240
255 194 228
255 194 228
255 194 228
255 194 228
255 194 228
255 194 228
255 194 228
255 194 228
255 194 228
255 194 228
255 194 228
255 194 228
255 194 228
255 194 228
255 194 228
255 194 228
255 194 228
255 194 228
255 194 228
255 194 228
255 194 228
255 194 228
255 194 228
255 194 228
255 194 228
255 194 228
255 194 228
255 194 228
255 194 228
255 194 228
255 194 228
255 194 228
255 194 228
255 194 228
255 194 228
255 194 228
255 206 240
255 194 228
255 194 228
255 194 228
255 194 228
255 194 228
255 194 228
255 194 228
255 194 228
255 194 228
255 194 228
255 194 228
255 194 228
255 194 228
255 194 228
255 194 228
255 194 228
255 194 228
255 194 228
255 194 228
255 194 228
255 194 228
255 194 228
255 194 228
255 194 228
255 194 228
255 194 228
255 194 228
255 194 228
255 194 228
255 194 228
255 194 228
255 194 228
255 194 228
255 194 228
255 194 228
255 194 228
255 206 240
255 194 228
255 194 228
255 194 228
255 194 228
255 194 228
255 194 228
255 194 228
255 194 228
255 194 228
255 194 228
255 194 228
255 194 228
255 194 228
255 194 228
255 194 228
255 194 228
255 194 228
255 194 228
255 194 228
255 194 228
255 194 228
255 194 228
255 194 228
255 194 228
255 194 228
255 194 228
255 194 228
255 194 228
255 194 228
255 194 228
255 194 228
255 194 228
255 194 228
255 194 228
255 194 228
255 194 228
255 206 240
255 194 228
255 194 228
255 194 228
255 194 228
255 194 228
255 194 228
255 194 228
255 194 228
255 194 228
255 194 228
255 194 228
255 194 228
255 194 228
255 194 228
255 194 228
255 194 228
255 194 228
255 194 228
255 194 228
255 194 228
255 194 228
255 194 228
255 194 228
255 194 228
255 194 228
255 194 228
255 194 228
255 194 228
255 194 228
255 194 228
255 194 228
255 194 228
255 194 228
255 194 228
255 194 228
255 194 228
255 206 240
255 194 228
255 194 228
255 194 228
255 194 228
255 194 228
255 194 228
255 194 228
255 194 228
255 194 228
255 194 228
255 194 228
255 194 228
255 194 228
255 194 228
255 194 228
255 194 228
255 194 228
255 194 228
255 194 228
255 194 228
255 194 228
255 194 228
255 194 228
255 194 228
255 194 228
255 194 228
255 194 228
255 194 228
255 194 228
255 194 228
255 194 228
255 194 228
255 194 228
255 194 228
255 194 228
255 194 228
255 206 240
255 194 228
255 194 228
255 194 228
255 194 228
255 194 228
255 194 228
255 194 228
255 194 228
255 194 228
255 194 228
255 194 228
255 194 228
255 194 228
255 194 228
255 194 228
255 194 228
255 194 228
255 194 228
255 194 228
255 194 228
255 194 228
255 194 228
255 194 228
255 194 228
255 194 228
255 194 228
255 194 228
255 194 228
255 194 228
255 194 228
255 194 228
255 194 228
255 194 228
255 194 228
255 194 228
255 194 228
255 206 240
255 194 228
255 194 228
255 194 228
255 194 228
255 194 228
255 194 228
255 194 228
255 194 228
255 194 228
255 194 228
255 194 228
255 194 228
255 194 228
255 194 228
255 194 228
255 194 228
255 194 228
255 194 228
255 194 228
255 194 228
255 194 228
255 194 228
255 194 228
255 194 228
255 194 228
255 194 228
255 194 228
255 194 228
255 194 228
255 194 228
255 194 228
255 194 228
255 194 228
255 194 228
255 194 228
255 194 228
255 194 228
255 194 228
255 194 228
255 194 228
255 194 228
255 194 228
255 194 228
255 194 228
255 194 228
255 194 228
255 194 228
255 194 228
255 194 228
255 194 228
255 194 228
255 194 228
255 194 228
255 194 228
255 194 228
255 194 228
255 194 228
255 194 228
255 194 228
255 206 240
255 194 228
255 194 228
255 194 228
255 194 228
255 194 228
255 194 228
255 194 228
255 194 228
255 194 228
255 194 228
255 194 228
255 194 228
255 194 228
255 194 228
255 194 228
255 194 228
255 194 228
255 194 228
255 194 228
255 194 228
255 194 228
255 194 228
255 194 228
255 194 228
255 194 228
255 194 228
255 194 228
255 194 228
255 194 228
255 194 228
255 194 228
255 194 228
255 194 228
255 194 228
255 194 228
255 194 228
255 206 240
255 194 228
255 194 228
255 194 228
255 194 228
255 194 228
255 194 228
255 194 228
255 194 228
255 194 228
255 194 228
255 194 228
255 194 228
255 194 228
255 194 228
255 194 228
255 194 228
255 194 228
255 194 228
255 194 228
255 194 228
255 194 228
255 194 228
255 194 228
255 194 228
255 194 228
255 194 228
255 194 228
255 194 228
255 194 228
255 194 228
255 194 228
255 194 228
255 194 228
255 194 228
255 194 228
255 194 228
255 206 240
255 194 228
255 194 228
255 194 228
255 194 228
255 194 228
255 194 228
255 194 228
255 194 228
255 194 228
255 194 228
255 194 228
255 194 228
255 194 228
255 194 228
255 194 228
255 194 228
255 194 228
255 194 228
255 194 228
255 194 228
255 194 228
255 194 228
255 194 228
255 194 228
255 194 228
255 194 228
255 194 228
255 194 228
255 194 228
255 194 228
255 194 228
255 194 228
255 194 228
255 194 228
255 194 228
255 194 228
255 206 240
255 194 228
255 194 228
255 194 228
255 194 228
255 194 228
255 194 228
255 194 228
255 194 228
255 194 228
255 194 228
255 194 228
255 194 228
255 194 228
255 194 228
255 194 228
255 194 228
255 194 228
255 194 228
255 194 228
255 194 228
255 194 228
255 194 228
255 194 228
255 194 228
255 194 228
255 194 228
255 194 228
255 194 228
255 194 228
255 194 228
255 194 228
255 194 228
255 194 228
255 194 228
255 194 228
255 194 228
255 206 240
255 194 228
255 194 228
255 194 228
255 194 228
255 194 228
255 194 228
255 194 228
255 194 228
255 194 228
255 194 228
255 194 228
255 194 228
255 194 228
255 194 228
255 194 228
255 194 228
255 194 228
255 194 228
255 194 228
255 194 228
255 194 228
255 194 228
255 194 228
255 194 228
255 194 228
255 194 228
255 194 228
255 194 228
255 194 228
255 194 228
255 194 228
255 194 228
255 194 228
255 194 228
255 194 228
255 194 228
255 206 240
255 194 228
255 194 228
255 194 228
255 194 228
255 194 228
255 194 228
255 194 228
255 194 228
255 194 228
255 194 228
255 194 228
255 194 228
255 194 228
255 194 228
255 194 228
255 194 228
255 194 228
255 194 228
255 194 228
255 194 228
255 194 228
255 194 228
255 194 228
255 194 228
255 194 228
255 194 228
255 194 228
255 194 228
255 194 228
255 194 228
255 194 228
255 194 228
255 194 228
255 194 228
255 194 228
255 194 228
255 206 240
255 194 228
255 194 228
255 194 228
255 194 228
255 194 228
255 194 228
255 194 228
255 194 228
255 194 228
255 194 228
255 194 228
255 194 228
255 194 228
255 194 228
255 194 228
255 194 228
255 194 228
255 194 228
255 194 228
255 194 228
255 194 228
255 194 228
255 194 228
255 194 228
255 194 228
255 194 228
255 194 228
255 194 228
255 194 228
255 194 228
255 194 228
255 194 228
255 194 228
255 194 228
255 194 228
255 194 228
255 206 240
255 194 228
255 194 228
255 194 228
255 194 228
255 194 228
255 194 228
255 194 228
255 194 228
255 194 228
255 194 228
255 194 228
255 194 228
255 194 228
255 194 228
255 194 228
255 194 228
255 194 228
255 194 228
255 194 228
255 194 228
255 194 228
255 194 228
255 194 228
255 194 228
255 194 228
255 194 228
255 194 228
255 194 228
255 194 228
255 194 228
255 194 228
255 194 228
255 194 228
255 194 228
255 194 228
255 194 228
255 194 228
255 194 228
255 194 228
255 194 228
255 194 228
255 194 228
255 194 228
255 194 228
255 194 228
255 194 228
255 194 228
255 194 228
255 194 228
255 194 228
255 194 228
255 194 228
255 194 228
255 194 228
255 194 228
255 194 228
255 194 228
255 194 228
255 194 228
255 206 240
255 194 228
255 194 228
255 194 228
255 194 228
255 194 228
255 194 228
255 194 228
255 194 228
255 194 228
255 194 228
255 194 228
255 194 228
255 194 228
255 194 228
255 194 228
255 194 228
255 194 228
255 194 228
255 194 228
255 194 228
255 194 228
255 194 228
255 194 228
255 194 228
255 194 228
255 194 228
255 194 228
255 194 228
255 194 228
255 194 228
255 194 228
255 194 228
255 194 228
255 194 228
255 194 228
255 194 228
255 206 240
255 194 228
255 194 228
255 194 228
255 194 228
255 194 228
255 194 228
255 194 228
255 194 228
255 194 228
255 194 228
255 194 228
255 194 228
255 194 228
255 194 228
255 194 228
255 194 228
255 194 228
255 194 228
255 194 228
255 194 228
255 194 228
255 194 228
255 194 228
255 194 228
255 194 228
255 194 228
255 194 228
255 194 228
255 194 228
255 194 228
255 194 228
255 194 228
255 194 228
255 194 228
255 194 228
255 194 228
255 206 240
255 194 228
255 194 228
255 194 228
255 194 228
255 194 228
255 194 228
255 194 228
255 194 228
255 194 228
255 194 228
255 194 228
255 194 228
255 194 228
255 194 228
255 194 228
255 194 228
255 194 228
255 194 228
255 194 228
255 194 228
255 194 228
255 194 228
255 194 228
255 194 228
255 194 228
255 194 228
255 194 228
255 194 228
255 194 228
255 194 228
255 194 228
255 194 228
255 194 228
255 194 228
255 194 228
255 194 228
255 206 240
255 194 228
255 194 228
255 194 228
255 194 228
255 194 228
255 194 228
255 194 228
255 194 228
255 194 228
255 194 228
255 194 228
255 194 228
255 194 228
255 194 228
255 194 228
255 194 228
255 194 228
255 194 228
255 194 228
255 194 228
255 194 228
255 194 228
255 194 228
255 194 228
255 194 228
255 194 228
255 194 228
255 194 228
255 194 228
255 194 228
255 194 228
255 194 228
255 194 228
255 194 228
255 194 228
255 194 228
255 206 240
255 194 228
255 194 228
255 194 228
255 194 228
255 194 228
255 194 228
255 194 228
255 194 228
255 194 228
255 194 228
255 194 228
255 194 228
255 194 228
255 194 228
255 194 228
255 194 228
255 194 228
255 194 228
255 194 228
255 194 228
255 194 228
255 194 228
255 194 228
255 194 228
255 194 228
255 194 228
255 194 228
255 194 228
255 194 228
255 194 228
255 194 228
255 194 228
255 194 228
255 194 228
255 194 228
255 194 228
255 206 240
255 194 228
255 194 228
255 194 228
255 194 228
255 194 228
255 194 228
255 194 228
255 194 228
255 194 228
255 194 228
255 194 228
255 194 228
255 194 228
255 194 228
255 194 228
255 194 228
255 194 228
255 194 228
255 194 228
255 194 228
255 194 228
255 194 228
255 194 228
255 194 228
255 194 228
255 194 228
255 194 228
255 194 228
255 194 228
255 194 228
255 194 228
255 194 228
255 194 228
255 194 228
255 194 228
255 194 228
255 206 240
255 194 228
255 194 228
255 194 228
255 194 228
255 194 228
255 194 228
255 194 228
255 194 228
255 194 228
255 194 228
255 194 228
255 194 228
255 194 228
255 194 228
255 194 228
255 194 228
255 194 228
255 194 228
255 194 228
255 194 228
255 194 228
255 194 228
255 194 228
255 194 228
255 194 228
255 194 228
255 194 228
255 194 228
255 194 228
255 194 228
255 194 228
255 194 228
255 194 228
255 194 228
255 194 228
255 194 228
255 206 240
255 194 228
255 194 228
255 194 228
255 194 228
255 194 228
255 194 228
255 194 228
255 194 228
255 194 228
255 194 228
255 194 228
255 194 228
255 194 228
255 194 228
255 194 228
255 194 228
255 194 228
255 194 228
255 194 228
255 194 228
255 194 228
255 194 228
255 194 228
255 194 228
255 194 228
255 194 228
255 194 228
255 194 228
255 194 228
255 194 228
255 194 228
255 194 228
255 194 228
255 194 228
255 194 228
255 194 228
255 194 228
255 194 228
255 194 228
255 194 228
255 194 228
255 194 228
255 194 228
255 194 228
255 194 228
255 194 228
255 194 228
255 194 228
255 194 228
255 194 228
255 194 228
255 194 228
255 194 228
255 194 228
255 194 228
255 194 228
255 194 228
255 194 228
255 194 228
255 206 240
255 194 228
255 194 228
255 194 228
255 194 228
255 194 228
255 194 228
255 194 228
255 194 228
255 194 228
255 194 228
255 194 228
255 194 228
255 194 228
255 194 228
255 194 228
255 194 228
255 194 228
255 194 228
255 194 228
255 194 228
255 194 228
255 194 228
255 194 228
255 194 228
255 194 228
255 194 228
255 194 228
255 194 228
255 194 228
255 194 228
255 194 228
255 194 228
255 194 228
255 194 228
255 194 228
255 194 228
255 206 240
255 194 228
255 194 228
255 194 228
255 194 228
255 194 228
255 194 228
255 194 228
255 194 228
255 194 228
255 194 228
255 194 228
255 194 228
255 194 228
255 194 228
255 194 228
255 194 228
255 194 228
255 194 228
255 194 228
255 194 228
255 194 228
255 194 228
255 194 228
255 194 228
255 194 228
255 194 228
255 194 228
255 194 228
255 194 228
255 194 228
255 194 228
255 194 228
255 194 228
255 194 228
255 194 228
255 194 228
255 206 240
255 194 228
255 194 228
255 194 228
255 194 228
255 194 228
255 194 228
255 194 228
255 194 228
255 194 228
255 194 228
255 194 228
255 194 228
255 194 228
255 194 228
255 194 228
255 194 228
255 194 228
255 194 228
255 194 228
255 194 228
255 194 228
255 194 228
255 194 228
255 194 228
255 194 228
255 194 228
255 194 228
255 194 228
255 194 228
255 194 228
255 194 228
255 194 228
255 194 228
255 194 228
255 194 228
255 194 228
255 206 240
255 194 228
255 194 228
255 194 228
255 194 228
255 194 228
255 194 228
255 194 228
255 194 228
255 194 228
255 194 228
255 194 228
255 194 228
255 194 228
255 194 228
255 194 228
255 194 228
255 194 228
255 194 228
255 194 228
255 194 228
255 194 228
255 194 228
255 194 228
255 194 228
255 194 228
255 194 228
255 194 228
255 194 228
255 194 228
255 194 228
255 194 228
255 194 228
255 194 228
255 194 228
255 194 228
255 194 228
255 206 240
255 194 228
255 194 228
255 194 228
255 194 228
255 194 228
255 194 228
255 194 228
255 194 228
255 194 228
255 194 228
255 194 228
255 194 228
255 194 228
255 194 228
255 194 228
255 194 228
255 194 228
255 194 228
255 194 228
255 194 228
255 194 228
255 194 228
255 194 228
255 194 228
255 194 228
255 194 228
255 194 228
255 194 228
255 194 228
255 194 228
255 194 228
255 194 228
255 194 228
255 194 228
255 194 228
255 194 228
255 206 240
255 194 228
255 194 228
255 194 228
255 194 228
255 194 228
255 194 228
255 194 228
255 194 228
255 194 228
255 194 228
255 194 228
255 194 228
255 194 228
255 194 228
255 194 228
255 194 228
255 194 228
255 194 228
255 194 228
255 194 228
255 194 228
255 194 228
255 194 228
255 194 228
255 194 228
255 194 228
255 194 228
255 194 228
255 194 228
255 194 228
255 194 228
255 194 228
255 194 228
255 194 228
255 194 228
255 194 228
255 206 240
255 194 228
255 194 228
255 194 228
255 194 228
255 194 228
255 194 228
255 194 228
255 194 228
255 194 228
255 194 228
255 194 228
255 194 228
255 194 228
255 194 228
255 194 228
255 194 228
255 194 228
255 194 228
255 194 228
255 194 228
255 194 228
255 194 228
255 194 228
255 194 228
255 194 228
255 194 228
255 194 228
255 194 228
255 194 228
255 194 228
255 194 228
255 194 228
255 194 228
255 194 228
255 194 228
255 194 228
255 206 240
255 194 228
255 194 228
255 194 228
255 194 228
255 194 228
255 194 228
255 194 228
255 194 228
255 194 228
255 194 228
255 194 228
255 194 228
255 194 228
255 194 228
255 194 228
255 194 228
255 194 228
255 194 228
255 194 228
255 194 228
255 194 228
255 194 228
255 194 228
255 194 228
255 194 228
255 194 228
255 194 228
255 194 228
255 194 228
255 194 228
255 194 228
255 194 228
255 194 228
255 194 228
255 194 228
255 194 228
255 194 228
255 194 228
255 194 228
255 194 228
255 194 228
255 194 228
255 194 228
255 194 228
255 194 228
255 194 228
255 194 228
255 194 228
255 194 228
255 194 228
255 194 228
255 194 228
255 194 228
255 194 228
255 194 228
255 194 228
255 194 228
255 194 228
255 194 228
255 206 240
255 194 228
255 194 228
255 194 228
255 194 228
255 194 228
255 194 228
255 194 228
255 194 228
255 194 228
255 194 228
255 194 228
255 194 228
255 194 228
255 194 228
255 194 228
255 194 228
255 194 228
255 194 228
255 194 228
255 194 228
255 194 228
255 194 228
255 194 228
255 194 228
255 194 228
255 194 228
255 194 228
255 194 228
255 194 228
255 194 228
255 194 228
255 194 228
255 194 228
255 194 228
255 194 228
255 194 228
255 206 240
255 194 228
255 194 228
255 194 228
255 194 228
255 194 228
255 194 228
255 194 228
255 194 228
255 194 228
255 194 228
255 194 228
255 194 228
255 194 228
255 194 228
255 194 228
255 194 228
255 194 228
255 194 228
255 194 228
255 194 228
255 194 228
255 194 228
255 194 228
255 194 228
255 194 228
255 194 228
255 194 228
255 194 228
255 194 228
255 194 228
255 194 228
255 194 228
255 194 228
255 194 228
255 194 228
255 194 228
255 206 240
255 194 228
255 194 228
255 194 228
255 194 228
255 194 228
255 194 228
255 194 228
255 194 228
255 194 228
255 194 228
255 194 228
255 194 228
255 194 228
255 194 228
255 194 228
255 194 228
255 194 228
255 194 228
255 194 228
255 194 228
255 194 228
255 194 228
255 194 228
255 194 228
255 194 228
255 194 228
255 194 228
255 194 228
255 194 228
255 194 228
255 194 228
255 194 228
255 194 228
255 194 228
255 194 228
255 194 228
255 206 240
255 194 228
255 194 228
255 194 228
255 194 228
255 194 228
255 194 228
255 194 228
255 194 228
255 194 228
255 194 228
255 194 228
255 194 228
255 194 228
255 194 228
255 194 228
255 194 228
255 194 228
255 194 228
255 194 228
255 194 228
255 194 228
255 194 228
255 194 228
255 194 228
255 194 228
255 194 228
255 194 228
255 194 228
255 194 228
255 194 228
255 194 228
255 194 228
255 194 228
255 194 228
255 194 228
255 194 228
255 206 240
255 194 228
255 194 228
255 194 228
255 194 228
255 194 228
255 194 228
255 194 228
255 194 228
255 194 228
255 194 228
255 194 228
255 194 228
255 194 228
255 194 228
255 194 228
255 194 228
255 194 228
255 194 228
255 194 228
255 194 228
255 194 228
255 194 228
255 194 228
255 194 228
255 194 228
255 194 228
255 194 228
255 194 228
255 194 228
255 194 228
255 194 228
255 194 228
255 194 228
255 194 228
255 194 228
255 194 228
255 206 240
255 194 228
255 194 228
255 194 228
255 194 228
255 194 228
255 194 228
255 194 228
255 194 228
255 194 228
255 194 228
255 194 228
255 194 228
255 194 228
255 194 228
255 194 228
255 194 228
255 194 228
255 194 228
255 194 228
255 194 228
255 194 228
255 194 228
255 194 228
255 194 228
255 194 228
255 194 228
255 194 228
255 194 228
255 194 228
255 194 228
255 194 228
255 194 228
255 194 228
255 194 228
255 194 228
255 194 228
255 206 240
255 194 228
255 194 228
255 194 228
255 194 228
255 194 228
255 194 228
255 194 228
255 194 228
255 194 228
255 194 228
255 194 228
255 194 228
255 194 228
255 194 228
255 194 228
255 194 228
255 194 228
255 194 228
255 194 228
255 194 228
255 194 228
255 194 228
255 194 228
255 194 228
255 194 228
255 194 228
255 194 228
255 194 228
255 194 228
255 194 228
255 194 228
255 194 228
255 194 228
255 194 228
255 194 228
255 194 228
255 206 240
255 194 228
255 194 228
255 194 228
255 194 228
255 194 228
255 194 228
255 194 228
255 194 228
255 194 228
255 194 228
255 194 228
255 194 228
255 194 228
255 194 228
255 194 228
255 194 228
255 194 228
255 194 228
255 194 228
255 194 228
255 194 228
255 194 228
255 194 228
255 194 228
255 194 228
255 194 228
255 194 228
255 194 228
255 194 228
255 194 228
255 194 228
255 194 228
255 194 228
255 194 228
255 194 228
255 194 228
255 194 228
255 194 228
255 194 228
255 194 228
255 194 228
255 194 228
255 194 228
255 194 228
255 194 228
255 194 228
255 194 228
255 194 228
255 194 228
255 194 228
255 194 228
255 194 228
255 194 228
255 194 228
255 194 228
255 194 228
255 194 228
255 194 228
255 194 228
255 206 240
255 194 228
255 194 228
255 194 228
255 194 228
255 194 228
255 194 228
255 194 228
255 194 228
255 194 228
255 194 228
255 194 228
255 194 228
255 194 228
255 194 228
255 194 228
255 194 228
255 194 228
255 194 228
255 194 228
255 194 228
255 194 228
255 194 228
255 194 228
255 194 228
255 194 228
255 194 228
255 194 228
255 194 228
255 194 228
255 194 228
255 194 228
255 194 228
255 194 228
255 194 228
255 194 228
255 194 228
255 206 240
255 194 228
255 194 228
255 194 228
255 194 228
255 194 228
255 194 228
255 194 228
255 194 228
255 194 228
255 194 228
255 194 228
255 194 228
255 194 228
255 194 228
255 194 228
255 194 228
255 194 228
255 194 228
255 194 228
255 194 228
255 194 228
255 194 228
255 194 228
255 194 228
255 194 228
255 194 228
255 194 228
255 194 228
255 194 228
255 194 228
255 194 228
255 194 228
255 194 228
255 194 228
255 194 228
255 194 228
255 206 240
255 194 228
255 194 228
255 194 228
255 194 228
255 194 228
255 194 228
255 194 228
255 194 228
255 194 228
255 194 228
255 194 228
255 194 228
255 194 228
255 194 228
255 194 228
255 194 228
255 194 228
255 194 228
255 194 228
255 194 228
255 194 228
255 194 228
255 194 228
255 194 228
255 194 228
255 194 228
255 194 228
255 194 228
255 194 228
255 194 228
255 194 228
255 194 228
255 194 228
255 194 228
255 194 228
255 194 228
255 206 240
255 194 228
255 194 228
255 194 228
255 194 228
255 194 228
255 194 228
255 194 228
255 194 228
255 194 228
255 194 228
255 194 228
255 194 228
255 194 228
255 194 228
255 194 228
255 194 228
255 194 228
255 194 228
255 194 228
255 194 228
255 194 228
255 194 228
255 194 228
255 194 228
255 194 228
255 194 228
255 194 228
255 194 228
255 194 228
255 194 228
255 194 228
255 194 228
255 194 228
255 194 228
255 194 228
255 194 228
255 206 240
255 194 228
255 194 228
255 194 228
255 194 228
255 194 228
255 194 228
255 194 228
255 194 228
255 194 228
255 194 228
255 194 228
255 194 228
255 194 228
255 194 228
255 194 228
255 194 228
255 194 228
255 194 228
255 194 228
255 194 228
255 194 228
255 194 228
255 194 228
255 194 228
255 194 228
255 194 228
255 194 228
255 194 228
255 194 228
255 194 228
255 194 228
255 194 228
255 194 228
255 194 228
255 194 228
255 194 228
255 206 240
255 194 228
255 194 228
255 194 228
255 194 228
255 194 228
255 194 228
255 194 228
255 194 228
255 194 228
255 194 228
255 194 228
255 194 228
255 194 228
255 194 228
255 194 228
255 194 228
255 194 228
255 194 228
255 194 228
255 194 228
255 194 228
255 194 228
255 194 228
255 194 228
255 194 228
255 194 228
255 194 228
255 194 228
255 194 228
255 194 228
255 194 228
255 194 228
255 194 228
255 194 228
255 194 228
255 194 228
255 206 240
255 194 228
255 194 228
255 194 228
255 194 228
255 194 228
255 194 228
255 194 228
255 194 228
255 194 228
255 194 228
255 194 228
255 194 228
255 194 228
255 194 228
255 194 228
255 194 228
255 194 228
255 194 228
255 194 228
255 194 228
255 194 228
255 194 228
255 194 228
255 194 228
255 194 228
255 194 228
255 194 228
255 194 228
255 194 228
255 194 228
255 194 228
255 194 228
255 194 228
255 194 228
255 194 228
255 194 228
255 206 240
255 194 228
255 194 228
255 194 228
255 194 228
255 194 228
255 194 228
255 194 228
255 194 228
255 194 228
255 194 228
255 194 228
255 194 228
255 194 228
255 194 228
255 194 228
255 194 228
255 194 228
255 194 228
255 194 228
255 194 228
255 194 228
255 194 228
255 194 228
255 194 228
255 194 228
255 194 228
255 194 228
255 194 228
255 194 228
255 194 228
255 194 228
255 194 228
255 194 228
255 194 228
255 194 228
255 194 228
255 194 228
255 194 228
255 194 228
255 194 228
255 194 228
255 194 228
255 194 228
255 194 228
255 194 228
255 194 228
255 194 228
255 194 228
255 194 228
255 194 228
255 194 228
255 194 228
255 194 228
255 194 228
255 194 228
255 194 228
255 194 228
255 194 228
255 194 228
255 206 240
255 194 228
255 194 228
255 194 228
255 194 228
255 194 228
255 194 228
255 194 228
255 194 228
255 194 228
255 194 228
255 194 228
255 194 228
255 194 228
255 194 228
255 194 228
255 194 228
255 194 228
255 194 228
255 194 228
255 194 228
255 194 228
255 194 228
255 194 228
255 194 228
255 194 228
255 194 228
255 194 228
255 194 228
255 194 228
255 194 228
255 194 228
255 194 228
255 194 228
255 194 228
255 194 228
255 194 228
255 206 240
255 194 228
255 194 228
255 194 228
255 194 228
255 194 228
255 194 228
255 194 228
255 194 228
255 194 228
255 194 228
255 194 228
255 194 228
255 194 228
255 194 228
255 194 228
255 194 228
255 194 228
255 194 228
255 194 228
255 194 228
255 194 228
255 194 228
255 194 228
255 194 228
255 194 228
255 194 228
255 194 228
255 194 228
255 194 228
255 194 228
255 194 228
255 194 228
255 194 228
255 194 228
255 194 228
255 194 228
255 206 240
255 194 228
255 194 228
255 194 228
255 194 228
255 194 228
255 194 228
255 194 228
255 194 228
255 194 228
255 194 228
255 194 228
255 194 228
255 194 228
255 194 228
255 194 228
255 194 228
255 194 228
255 194 228
255 194 228
255 194 228
255 194 228
255 194 228
255 194 228
255 194 228
255 194 228
255 194 228
255 194 228
255 194 228
255 194 228
255 194 228
255 194 228
255 194 228
255 194 228
255 194 228
255 194 228
255 194 228
255 206 240
255 194 228
255 194 228
255 194 228
255 194 228
255 194 228
255 194 228
255 194 228
255 194 228
255 194 228
255 194 228
255 194 228
255 194 228
255 194 228
255 194 228
255 194 228
255 194 228
255 194 228
255 194 228
255 194 228
255 194 228
255 194 228
255 194 228
255 194 228
255 194 228
255 194 228
255 194 228
255 194 228
255 194 228
255 194 228
255 194 228
255 194 228
255 194 228
255 194 228
255 194 228
255 194 228
255 194 228
255 206 240
255 194 228
255 194 228
255 194 228
255 194 228
255 194 228
255 194 228
255 194 228
255 194 228
255 194 228
255 194 228
255 194 228
255 194 228
255 194 228
255 194 228
255 194 228
255 194 228
255 194 228
255 194 228
255 194 228
255 194 228
255 194 228
255 194 228
255 194 228
255 194 228
255 194 228
255 194 228
255 194 228
255 194 228
255 194 228
255 194 228
255 194 228
255 194 228
255 194 228
255 194 228
255 194 228
255 194 228
255 206 240
255 194 228
255 194 228
255 194 228
255 194 228
255 194 228
255 194 228
255 194 228
255 194 228
255 194 228
255 194 228
255 194 228
255 194 228
255 194 228
255 194 228
255 194 228
255 194 228
255 194 228
255 194 228
255 194 228
255 194 228
255 194 228
255 194 228
255 194 228
255 194 228
255 194 228
255 194 228
255 194 228
255 194 228
255 194 228
255 194 228
255 194 228
255 194 228
255 194 228
255 194 228
255 194 228
255 194 228
255 206 240
255 194 228
255 194 228
255 194 228
255 194 228
255 194 228
255 194 228
255 194 228
255 194 228
255 194 228
255 194 228
255 194 228
255 194 228
255 194 228
255 194 228
255 194 228
255 194 228
255 194 228
255 194 228
255 194 228
255 194 228
255 194 228
255 194 228
255 194 228
255 194 228
255 194 228
255 194 228
255 194 228
255 194 228
255 194 228
255 194 228
255 194 228
255 194 228
255 194 228
255 194 228
255 194 228
255 194 228
255 206 240
255 194 228
255 194 228
255 194 228
255 194 228
255 194 228
255 194 228
255 194 228
255 194 228
255 194 228
255 194 228
255 194 228
255 194 228
255 194 228
255 194 228
255 194 228
255 194 228
255 194 228
255 194 228
255 194 228
255 194 228
255 194 228
255 194 228
255 194 228
255 194 228
255 194 228
255 194 228
255 194 228
255 194 228
255 194 228
255 194 228
255 194 228
255 194 228
255 194 228
255 194 228
255 194 228
255 194 228
255 194 228
255 194 228
255 194 228
255 194 228
255 194 228
255 194 228
255 194 228
255 194 228
255 194 228
255 194 228
255 194 228
255 194 228
255 194 228
255 194 228
255 194 228
255 194 228
255 194 228
255 194 228
255 194 228
255 194 228
255 194 228
255 194 228
255 194 228
255 206 240
255 194 228
255 194 228
255 194 228
255 194 228
255 194 228
255 194 228
255 194 228
255 194 228
255 194 228
255 194 228
255 194 228
255 194 228
255 194 228
255 194 228
255 194 228
255 194 228
255 194 228
255 194 228
255 194 228
255 194 228
255 194 228
255 194 228
255 194 228
255 194 228
255 194 228
255 194 228
255 194 228
255 194 228
255 194 228
255 194 228
255 194 228
255 194 228
255 194 228
255 194 228
255 194 228
255 194 228
255 206 240
255 194 228
255 194 228
255 194 228
255 194 228
255 194 228
255 194 228
255 194 228
255 194 228
255 194 228
255 194 228
255 194 228
255 194 228
255 194 228
255 194 228
255 194 228
255 194 228
255 194 228
255 194 228
255 194 228
255 194 228
255 194 228
255 194 228
255 194 228
255 194 228
255 194 228
255 194 228
255 194 228
255 194 228
255 194 228
255 194 228
255 194 228
255 194 228
255 194 228
255 194 228
255 194 228
255 194 228
255 206 240
255 194 228
255 194 228
255 194 228
255 194 228
255 194 228
255 194 228
255 194 228
255 194 228
255 194 228
255 194 228
255 194 228
255 194 228
255 194 228
255 194 228
255 194 228
255 194 228
255 194 228
255 194 228
255 194 228
255 194 228
255 194 228
255 194 228
255 194 228
255 194 228
255 194 228
255 194 228
255 194 228
255 194 228
255 194 228
255 194 228
255 194 228
255 194 228
255 194 228
255 194 228
255 194 228
255 194 228
255 206 240
255 194 228
255 194 228
255 194 228
255 194 228
255 194 228
255 194 228
255 194 228
255 194 228
255 194 228
255 194 228
255 194 228
255 194 228
255 194 228
255 194 228
255 194 228
255 194 228
255 194 228
255 194 228
255 194 228
255 194 228
255 194 228
255 194 228
255 194 228
255 194 228
255 194 228
255 194 228
255 194 228
255 194 228
255 194 228
255 194 228
255 194 228
255 194 228
255 194 228
255 194 228
255 194 228
255 194 228
255 206 240
255 194 228
255 194 228
255 194 228
255 194 228
255 194 228
255 194 228
255 194 228
255 194 228
255 194 228
255 194 228
255 194 228
255 194 228
255 194 228
255 194 228
255 194 228
255 194 228
255 194 228
255 194 228
255 194 228
255 194 228
255 194 228
255 194 228
255 194 228
255 194 228
255 194 228
255 194 228
255 194 228
255 194 228
255 194 228
255 194 228
255 194 228
255 194 228
255 194 228
255 194 228
255 194 228
255 194 228
255 206 240
255 194 228
255 194 228
255 194 228
255 194 228
255 194 228
255 194 228
255 194 228
255 194 228
255 194 228
255 194 228
255 194 228
255 194 228
255 194 228
255 194 228
255 194 228
255 194 228
255 194 228
255 194 228
255 194 228
255 194 228
255 194 228
255 194 228
255 194 228
255 194 228
255 194 228
255 194 228
255 194 228
255 194 228
255 194 228
255 194 228
255 194 228
255 194 228
255 194 228
255 194 228
255 194 228
255 194 228
255 206 240
255 194 228
255 194 228
255 194 228
255 194 228
255 194 228
255 194 228
255 194 228
255 194 228
255 194 228
255 194 228
255 194 228
255 194 228
255 194 228
255 194 228
255 194 228
255 194 228
255 194 228
255 194 228
255 194 228
255 194 228
255 194 228
255 194 228
255 194 228
255 194 228
255 194 228
255 194 228
255 194 228
255 194 228
255 194 228
255 194 228
255 194 228
255 194 228
255 194 228
255 194 228
255 194 228
255 194 228
255 206 240
255 194 228
255 194 228
255 194 228
255 194 228
255 194 228
255 194 228
255 194 228
255 194 228
255 194 228
255 194 228
255 194 228
255 194 228
255 194 228
255 194 228
255 194 228
255 194 228
255 194 228
255 194 228
255 194 228
255 194 228
255 194 228
255 194 228
255 194 228
255 194 228
255 194 228
255 194 228
255 194 228
255 194 228
255 194 228
255 194 228
255 194 228
255 194 228
255 194 228
255 194 228
255 194 228
255 194 228
255 206 240
255 194 228
255 194 228
255 194 228
255 194 228
255 194 228
255 194 228
255 194 228
255 194 228
255 194 228
255 194 228
255 194 228
255 194 228
255 194 228
255 194 228
255 194 228
255 194 228
255 194 228
255 194 228
255 194 228
255 194 228
255 194 228
255 194 228
255 206 240
255 194 228
255 194 228
255 194 228
255 194 228
255 194 228
255 194 228
255 194 228
255 194 228
255 194 228
255 194 228
255 194 228
255 194 228
255 194 228
255 194 228
255 194 228
255 194 228
255 194 228
255 194 228
255 194 228
255 194 228
255 194 228
255 194 228
255 194 228
255 194 228
255 194 228
255 194 228
255 194 228
255 194 228
255 194 228
255 194 228
255 194 228
255 194 228
255 194 228
255 194 228
255 194 228
255 194 228
255 206 240
255 194 228
255 194 228
255 194 228
255 194 228
255 194 228
255 194 228
255 194 228
255 194 228
255 194 228
255 194 228
255 194 228
255 194 228
255 194 228
255 194 228
255 194 228
255 194 228
255 194 228
255 194 228
255 194 228
255 194 228
255 194 228
255 194 228
255 194 228
255 194 228
255 194 228
255 194 228
255 194 228
255 194 228
255 194 228
255 194 228
255 194 228
255 194 228
255 194 228
255 194 228
255 194 228
255 194 228
255 206 240
255 194 228
255 194 228
255 194 228
255 194 228
255 194 228
255 194 228
255 194 228
255 194 228
255 194 228
255 194 228
255 194 228
255 194 228
255 194 228
255 194 228
255 194 228
255 194 228
255 194 228
255 194 228
255 194 228
255 194 228
255 194 228
255 194 228
255 194 228
255 194 228
255 194 228
255 194 228
255 194 228
255 194 228
255 194 228
255 194 228
255 194 228
255 194 228
255 194 228
255 194 228
255 194 228
255 194 228
255 206 240
255 194 228
255 194 228
255 194 228
255 194 228
255 194 228
255 194 228
255 194 228
255 194 228
255 194 228
255 194 228
255 194 228
255 194 228
255 194 228
255 194 228
255 194 228
255 194 228
255 194 228
255 194 228
255 194 228
255 194 228
255 194 228
255 194 228
255 194 228
255 194 228
255 194 228
255 194 228
255 194 228
255 194 228
255 194 228
255 194 228
255 194 228
255 194 228
255 194 228
255 194 228
255 194 228
255 194 228
255 206 240
255 194 228
255 194 228
255 194 228
255 194 228
255 194 228
255 194 228
255 194 228
255 194 228
255 194 228
255 194 228
255 194 228
255 194 228
255 194 228
255 194 228
255 194 228
255 194 228
255 194 228
255 194 228
255 194 228
255 194 228
255 194 228
255 194 228
255 194 228
255 194 228
255 194 228
255 194 228
255 194 228
255 194 228
255 194 228
255 194 228
255 194 228
255 194 228
255 194 228
255 194 228
255 194 228
255 194 228
255 206 240
255 194 228
255 194 228
255 194 228
255 194 228
255 194 228
255 194 228
255 194 228
255 194 228
255 194 228
255 194 228
255 194 228
255 194 228
255 194 228
255 194 228
255 194 228
255 194 228
255 194 228
255 194 228
255 194 228
255 194 228
255 194 228
255 194 228
255 194 228
255 194 228
255 194 228
255 194 228
255 194 228
255 194 228
255 194 228
255 194 228
255 194 228
255 194 228
255 194 228
255 194 228
255 194 228
255 194 228
255 206 240
255 194 228
255 194 228
255 194 228
255 194 228
255 194 228
255 194 228
255 194 228
255 194 228
255 194 228
255 194 228
255 194 228
255 194 228
255 194 228
255 194 228
255 194 228
255 194 228
255 194 228
255 194 228
255 194 228
255 194 228
255 194 228
255 194 228
255 194 228
255 194 228
255 194 228
255 194 228
255 194 228
255 194 228
255 194 228
255 194 228
255 194 228
255 194 228
255 194 228
255 194 228
255 194 228
255 194 228
255 206 240
255 194 228
255 194 228
255 194 228
255 194 228
255 194 228
255 194 228
255 194 228
255 194 228
255 194 228
255 194 228
255 194 228
255 194 228
255 194 228
255 194 228
255 194 228
255 194 228
255 194 228
255 194 228
255 194 228
255 194 228
255 194 228
255 194 228
255 194 228
255 194 228
255 194 228
255 194 228
255 194 228
255 194 228
255 194 228
255 194 228
255 194 228
255 194 228
255 194 228
255 194 228
255 194 228
255 194 228
255 206 240
255 194 228
255 194 228
255 194 228
255 194 228
255 194 228
255 194 228
255 194 228
255 194 228
255 194 228
255 194 228
255 194 228
255 194 228
255 194 228
255 194 228
255 194 228
255 194 228
255 194 228
255 194 228
255 194 228
255 194 228
255 194 228
255 194 228
255 206 240
255 194 228
255 194 228
255 194 228
255 194 228
255 194 228
255 194 228
255 194 228
255 194 228
255 194 228
255 194 228
255 194 228
255 194 228
255 194 228
255 194 228
255 194 228
255 194 228
255 194 228
255 194 228
255 194 228
255 194 228
255 194 228
255 194 228
255 194 228
255 194 228
255 194 228
255 194 228
255 194 228
255 194 228
255 194 228
255 194 228
255 194 228
255 194 228
255 194 228
255 194 228
255 194 228
255 194 228
255 206 240
255 194 228
255 194 228
255 194 228
255 194 228
255 194 228
255 194 228
255 194 228
255 194 228
255 194 228
255 194 228
255 194 228
255 194 228
255 194 228
255 194 228
255 194 228
255 194 228
255 194 228
255 194 228
255 194 228
255 194 228
255 194 228
255 194 228
255 194 228
255 194 228
255 194 228
255 194 228
255 194 228
255 194 228
255 194 228
255 194 228
255 194 228
255 194 228
255 194 228
255 194 228
255 194 228
255 194 228
255 206 240
255 194 228
255 194 228
255 194 228
255 194 228
255 194 228
255 194 228
255 194 228
255 194 228
255 194 228
255 194 228
255 194 228
255 194 228
255 194 228
255 194 228
255 194 228
255 194 228
255 194 228
255 194 228
255 194 228
255 194 228
255 194 228
255 194 228
255 194 228
255 194 228
255 194 228
255 194 228
255 194 228
255 194 228
255 194 228
255 194 228
255 194 228
255 194 228
255 194 228
255 194 228
255 194 228
255 194 228
255 206 240
255 194 228
255 194 228
255 194 228
255 194 228
255 194 228
255 194 228
255 194 228
255 194 228
255 194 228
255 194 228
255 194 228
255 194 228
255 194 228
255 194 228
255 194 228
255 194 228
255 194 228
255 194 228
255 194 228
255 194 228
255 194 228
255 194 228
255 194 228
255 194 228
255 194 228
255 194 228
255 194 228
255 194 228
255 194 228
255 194 228
255 194 228
255 194 228
255 194 228
255 194 228
255 194 228
255 194 228
255 206 240
255 194 228
255 194 228
255 194 228
255 194 228
255 194 228
255 194 228
255 194 228
255 194 228
255 194 228
255 194 228
255 194 228
255 194 228
255 194 228
255 194 228
255 194 228
255 194 228
255 194 228
255 194 228
255 194 228
255 194 228
255 194 228
255 194 228
255 194 228
255 194 228
255 194 228
255 194 228
255 194 228
255 194 228
255 194 228
255 194 228
255 194 228
255 194 228
255 194 228
255 194 228
255 194 228
255 194 228
255 206 240
255 194 228
255 194 228
255 194 228
255 194 228
255 194 228
255 194 228
255 194 228
255 194 228
255 194 228
255 194 228
255 194 228
255 194 228
255 194 228
255 194 228
255 194 228
255 194 228
255 194 228
255 194 228
255 194 228
255 194 228
255 194 228
255 194 228
255 194 228
255 194 228
255 194 228
255 194 228
255 194 228
255 194 228
255 194 228
255 194 228
255 194 228
255 194 228
255 194 228
255 194 228
255 194 228
255 194 228
255 206 240
255 194 228
255 194 228
255 194 228
255 194 228
255 194 228
255 194 228
255 194 228
255 194 228
255 194 228
255 194 228
255 194 228
255 194 228
255 194 228
255 194 228
255 194 228
255 194 228
255 194 228
255 194 228
255 194 228
255 194 228
255 194 228
255 194 228
255 194 228
255 194 228
255 194 228
255 194 228
255 194 228
255 194 228
255 194 228
255 194 228
255 194 228
255 194 228
255 194 228
255 194 228
255 194 228
255 194 228
255 206 240
255 194 228
255 194 228
255 194 228
255 194 228
255 194 228
255 194 228
255 194 228
255 194 228
255 194 228
255 194 228
255 194 228
255 194 228
255 194 228
255 194 228
255 194 228
255 194 228
255 194 228
255 194 228
255 194 228
255 194 228
255 194 228
255 194 228
255 194 228
255 194 228
255 194 228
255 194 228
255 194 228
255 194 228
255 194 228
255 194 228
255 194 228
255 194 228
255 194 228
255 194 228
255 194 228
255 194 228
255 206 240
255 194 228
255 194 228
255 194 228
255 194 228
255 194 228
255 194 228
255 194 228
255 194 228
255 194 228
255 194 228
255 194 228
255 194 228
255 194 228
255 194 228
255 194 228
255 194 228
255 194 228
255 194 228
255 194 228
255 194 228
255 194 228
255 194 228
255 206 240
255 194 228
255 194 228
255 194 228
255 194 228
255 194 228
255 194 228
255 194 228
255 194 228
255 194 228
255 194 228
255 194 228
255 194 228
255 194 228
255 194 228
255 194 228
255 194 228
255 194 228
255 194 228
255 194 228
255 194 228
255 194 228
255 194 228
255 194 228
255 194 228
255 194 228
255 194 228
255 194 228
255 194 228
255 194 228
255 194 228
255 194 228
255 194 228
255 194 228
255 194 228
255 194 228
255 194 228
255 206 240
255 194 228
255 194 228
255 194 228
255 194 228
255 194 228
255 194 228
255 194 228
255 194 228
255 194 228
255 194 228
255 194 228
255 194 228
255 194 228
255 194 228
255 194 228
255 194 228
255 194 228
255 194 228
255 194 228
255 194 228
255 194 228
255 194 228
255 194 228
255 194 228
255 194 228
255 194 228
255 194 228
255 194 228
255 194 228
255 194 228
255 194 228
255 194 228
255 194 228
255 194 228
255 194 228
255 194 228
255 206 240
255 194 228
255 194 228
255 194 228
255 194 228
255 194 228
255 194 228
255 194 228
255 194 228
255 194 228
255 194 228
255 194 228
255 194 228
255 194 228
255 194 228
255 194 228
255 194 228
255 194 228
255 194 228
255 194 228
255 194 228
255 194 228
255 194 228
255 194 228
255 194 228
255 194 228
255 194 228
255 194 228
255 194 228
255 194 228
255 194 228
255 194 228
255 194 228
255 194 228
255 194 228
255 194 228
255 194 228
255 206 240
255 194 228
255 194 228
255 194 228
255 194 228
255 194 228
255 194 228
255 194 228
255 194 228
255 194 228
255 194 228
255 194 228
255 194 228
255 194 228
255 194 228
255 194 228
255 194 228
255 194 228
255 194 228
255 194 228
255 194 228
255 194 228
255 194 228
255 194 228
255 194 228
255 194 228
255 194 228
255 194 228
255 194 228
255 194 228
255 194 228
255 194 228
255 194 228
255 194 228
255 194 228
255 194 228
255 194 228
255 206 240
255 194 228
255 194 228
255 194 228
255 194 228
255 194 228
255 194 228
255 194 228
255 194 228
255 194 228
255 194 228
255 194 228
255 194 228
255 194 228
255 194 228
255 194 228
255 194 228
255 194 228
255 194 228
255 194 228
255 194 228
255 194 228
255 194 228
255 194 228
255 194 228
255 194 228
255 194 228
255 194 228
255 194 228
255 194 228
255 194 228
255 194 228
255 194 228
255 194 228
255 194 228
255 194 228
255 194 228
255 206 240
255 194 228
255 194 228
255 194 228
255 194 228
255 194 228
255 194 228
255 194 228
255 194 228
255 194 228
255 194 228
255 194 228
255 194 228
255 194 228
255 194 228
255 194 228
255 194 228
255 194 228
255 194 228
255 194 228
255 194 228
255 194 228
255 194 228
255 194 228
255 194 228
255 194 228
255 194 228
255 194 228
255 194 228
255 194 228
255 194 228
255 194 228
255 194 228
255 194 228
255 194 228
255 194 228
255 194 228
255 206 240
255 194 228
255 194 228
255 194 228
255 194 228
255 194 228
255 194 228
255 194 228
255 194 228
255 194 228
255 194 228
255 194 228
255 194 228
255 194 228
255 194 228
255 194 228
255 194 228
255 194 228
255 194 228
255 194 228
255 194 228
255 194 228
255 194 228
255 194 228
255 194 228
255 194 228
255 194 228
255 194 228
255 194 228
255 194 228
255 194 228
255 194 228
255 194 228
255 194 228
255 194 228
255 194 228
255 194 228
255 206 240
255 194 228
255 194 228
255 194 228
255 194 228
255 194 228
255 194 228
255 194 228
255 194 228
255 194 228
255 194 228
255 194 228
255 194 228
255 194 228
255 194 228
255 194 228
255 194 228
255 194 228
255 194 228
255 194 228
255 194 228
255 194 228
255 194 228
255 194 228
255 194 228
255 194 228
255 194 228
255 194 228
255 194 228
255 194 228
255 194 228
255 194 228
255 194 228
255 194 228
255 194 228
255 194 228
255 194 228
255 206 240
255 194 228
255 194 228
255 194 228