P3
320 240
255
239 255 255
227 244 255
227 244 255
227 244 255
227 244 255
227 244 255
227 244 255
227 244 255
227 244 255
227 244 255
227 244 255
227 244 255
227 244 255
227 244 255
227 244 255
227 244 255
227 244 255
227 244 255
227 244 255
227 244 255
227 244 255
227 244 255
227 244 255
227 244 255
227 244 255
227 244 255
227 244 255
227 244 255
227 244 255
227 244 255
227 244 255
227 244 255
227 244 255
227 244 255
227 244 255
227 244 255
227 244 255
239 255 255
227 244 255
227 244 255
227 244 255
227 244 255
227 244 255
227 244 255
227 244 255
227 244 255
227 244 255
227 244 255
227 244 255
227 244 255
227 244 255
227 244 255
227 244 255
227 244 255
227 244 255
227 244 255
227 244 255
227 244 255
227 244 255
227 244 255
227 244 255
227 244 255
227 244 255
227 244 255
227 244 255
227 244 255
227 244 255
227 244 255
227 244 255
227 244 255
227 244 255
227 244 255
227 244 255
227 244 255
239 255 255
227 244 255
227 244 255
227 244 255
227 244 255
227 244 255
227 244 255
227 244 255
227 244 255
227 244 255
227 244 255
227 244 255
227 244 255
227 244 255
227 244 255
227 244 255
227 244 255
227 244 255
227 244 255
227 244 255
227 244 255
227 244 255
227 244 255
227 244 255
227 244 255
227 244 255
227 244 255
227 244 255
227 244 255
227 244 255
227 244 255
227 244 255
227 244 255
227 244 255
227 244 255
227 244 255
227 244 255
239 255 255
227 244 255
227 244 255
227 244 255
227 244 255
227 244 255
227 244 255
227 244 255
227 244 255
227 244 255
227 244 255
227 244 255
227 244 255
227 244 255
227 244 255
227 244 255
227 244 255
227 244 255
227 244 255
227 244 255
227 244 255
227 244 255
227 244 255
227 244 255
227 244 255
227 244 255
227 244 255
227 244 255
227 244 255
227 244 255
227 244 255
227 244 255
227 244 255
227 244 255
227 244 255
227 244 255
227 244 255
239 255 255
227 244 255
227 244 255
227 244 255
227 244 255
227 244 255
227 244 255
227 244 255
227 244 255
227 244 255
227 244 255
227 244 255
227 244 255
227 244 255
227 244 255
227 244 255
227 244 255
227 244 255
227 244 255
227 244 255
227 244 255
227 244 255
227 244 255
227 244 255
227 244 255
227 244 255
227 244 255
227 244 255
227 244 255
227 244 255
227 244 255
227 244 255
227 244 255
227 244 255
227 244 255
227 244 255
227 244 255
239 255 255
227 244 255
227 244 255
227 244 255
227 244 255
227 244 255
227 244 255
227 244 255
227 244 255
227 244 255
227 244 255
227 244 255
227 244 255
227 244 255
227 244 255
227 244 255
227 244 255
227 244 255
227 244 255
227 244 255
227 244 255
227 244 255
227 244 255
227 244 255
227 244 255
227 244 255
227 244 255
227 244 255
227 244 255
227 244 255
227 244 255
227 244 255
227 244 255
227 244 255
227 244 255
227 244 255
227 244 255
239 255 255
227 244 255
227 244 255
227 244 255
227 244 255
227 244 255
227 244 255
227 244 255
227 244 255
227 244 255
227 244 255
227 244 255
227 244 255
227 244 255
227 244 255
227 244 255
227 244 255
227 244 255
227 244 255
227 244 255
227 244 255
227 244 255
227 244 255
227 244 255
227 244 255
227 244 255
227 244 255
227 244 255
227 244 255
227 244 255
227 244 255
227 244 255
227 244 255
227 244 255
227 244 255
227 244 255
227 244 255
239 255 255
227 244 255
227 244 255
227 244 255
227 244 255
227 244 255
227 244 255
227 244 255
227 244 255
227 244 255
227 244 255
227 244 255
227 244 255
227 244 255
227 244 255
227 244 255
227 244 255
227 244 255
227 244 255
227 244 255
227 244 255
227 244 255
227 244 255
227 244 255
227 244 255
227 244 255
227 244 255
227 244 255
227 244 255
227 244 255
227 244 255
227 244 255
227 244 255
227 244 255
227 244 255
227 244 255
227 244 255
239 255 255
227 244 255
227 244 255
227 244 255
227 244 255
227 244 255
227 244 255
227 244 255
227 244 255
227 244 255
227 244 255
227 244 255
227 244 255
227 244 255
227 244 255
227 244 255
227 244 255
227 244 255
227 244 255
227 244 255
227 244 255
227 244 255
227 244 255
227 244 255
227 244 255
227 244 255
227 244 255
227 244 255
227 244 255
227 244 255
227 244 255
227 244 255
227 244 255
227 244 255
227 244 255
227 244 255
227 244 255
227 244 255
227 244 255
227 244 255
227 244 255
227 244 255
227 244 255
227 244 255
227 244 255
227 244 255
227 244 255
227 244 255
227 244 255
227 244 255
227 244 255
227 244 255
227 244 255
227 244 255
227 244 255
227 244 255
227 244 255
227 244 255
227 244 255
227 244 255
239 255 255
227 244 255
227 244 255
227 244 255
227 244 255
227 244 255
227 244 255
227 244 255
227 244 255
227 244 255
227 244 255
227 244 255
227 244 255
227 244 255
227 244 255
227 244 255
227 244 255
227 244 255
227 244 255
227 244 255
227 244 255
227 244 255
227 244 255
227 244 255
227 244 255
227 244 255
227 244 255
227 244 255
227 244 255
227 244 255
227 244 255
227 244 255
227 244 255
227 244 255
227 244 255
227 244 255
227 244 255
239 255 255
227 244 255
227 244 255
227 244 255
227 244 255
227 244 255
227 244 255
227 244 255
227 244 255
227 244 255
227 244 255
227 244 255
227 244 255
227 244 255
227 244 255
227 244 255
227 244 255
227 244 255
227 244 255
227 244 255
227 244 255
227 244 255
227 244 255
227 244 255
227 244 255
227 244 255
227 244 255
227 244 255
227 244 255
227 244 255
227 244 255
227 244 255
227 244 255
227 244 255
227 244 255
227 244 255
227 244 255
239 255 255
227 244 255
227 244 255
227 244 255
227 244 255
227 244 255
227 244 255
227 244 255
227 244 255
227 244 255
227 244 255
227 244 255
227 244 255
227 244 255
227 244 255
227 244 255
227 244 255
227 244 255
227 244 255
227 244 255
227 244 255
227 244 255
227 244 255
227 244 255
227 244 255
227 244 255
227 244 255
227 244 255
227 244 255
227 244 255
227 244 255
227 244 255
227 244 255
227 244 255
227 244 255
227 244 255
227 244 255
239 255 255
227 244 255
227 244 255
227 244 255
227 244 255
227 244 255
227 244 255
227 244 255
227 244 255
227 244 255
227 244 255
227 244 255
227 244 255
227 244 255
227 244 255
227 244 255
227 244 255
227 244 255
227 244 255
227 244 255
227 244 255
227 244 255
227 244 255
227 244 255
227 244 255
227 244 255
227 244 255
227 244 255
227 244 255
227 244 255
227 244 255
227 244 255
227 244 255
227 244 255
227 244 255
227 244 255
227 244 255
239 255 255
227 244 255
227 244 255
227 244 255
227 244 255
227 244 255
227 244 255
227 244 255
227 244 255
227 244 255
227 244 255
227 244 255
227 244 255
227 244 255
227 244 255
227 244 255
227 244 255
227 244 255
227 244 255
227 244 255
227 244 255
227 244 255
227 244 255
227 244 255
227 244 255
227 244 255
227 244 255
227 244 255
227 244 255
227 244 255
227 244 255
227 244 255
227 244 255
227 244 255
227 244 255
227 244 255
227 244 255
239 255 255
227 244 255
227 244 255
227 244 255
227 244 255
227 244 255
227 244 255
227 244 255
227 244 255
227 244 255
227 244 255
227 244 255
227 244 255
227 244 255
227 244 255
227 244 255
227 244 255
227 244 255
227 244 255
227 244 255
227 244 255
227 244 255
227 244 255
227 244 255
227 244 255
227 244 255
227 244 255
227 244 255
227 244 255
227 244 255
227 244 255
227 244 255
227 244 255
227 244 255
227 244 255
227 244 255
227 244 255
239 255 255
227 244 255
227 244 255
227 244 255
227 244 255
227 244 255
227 244 255
227 244 255
227 244 255
227 244 255
227 244 255
227 244 255
227 244 255
227 244 255
227 244 255
227 244 255
227 244 255
227 244 255
227 244 255
227 244 255
227 244 255
227 244 255
227 244 255
227 244 255
227 244 255
227 244 255
227 244 255
227 244 255
227 244 255
227 244 255
227 244 255
227 244 255
227 244 255
227 244 255
227 244 255
227 244 255
227 244 255
239 255 255
227 244 255
227 244 255
227 244 255
227 244 255
227 244 255
227 244 255
227 244 255
227 244 255
227 244 255
227 244 255
227 244 255
227 244 255
227 244 255
227 244 255
227 244 255
227 244 255
227 244 255
227 244 255
227 244 255
227 244 255
227 244 255
227 244 255
227 244 255
227 244 255
227 244 255
227 244 255
227 244 255
227 244 255
227 244 255
227 244 255
227 244 255
227 244 255
227 244 255
227 244 255
227 244 255
227 244 255
227 244 255
227 244 255
227 244 255
227 244 255
227 244 255
227 244 255
227 244 255
227 244 255
227 244 255
227 244 255
227 244 255
227 244 255
227 244 255
227 244 255
227 244 255
227 244 255
227 244 255
227 244 255
227 244 255
227 244 255
227 244 255
227 244 255
227 244 255
239 255 255
227 244 255
227 244 255
227 244 255
227 244 255
227 244 255
227 244 255
227 244 255
227 244 255
227 244 255
227 244 255
227 244 255
227 244 255
227 244 255
227 244 255
227 244 255
227 244 255
227 244 255
227 244 255
227 244 255
227 244 255
227 244 255
227 244 255
227 244 255
227 244 255
227 244 255
227 244 255
227 244 255
227 244 255
227 244 255
227 244 255
227 244 255
227 244 255
227 244 255
227 244 255
227 244 255
227 244 255
239 255 255
227 244 255
227 244 255
227 244 255
227 244 255
227 244 255
227 244 255
227 244 255
227 244 255
227 244 255
227 244 255
227 244 255
227 244 255
227 244 255
227 244 255
227 244 255
227 244 255
227 244 255
227 244 255
227 244 255
227 244 255
227 244 255
227 244 255
227 244 255
227 244 255
227 244 255
227 244 255
227 244 255
227 244 255
227 244 255
227 244 255
227 244 255
227 244 255
227 244 255
227 244 255
227 244 255
227 244 255
239 255 255
227 244 255
227 244 255
227 244 255
227 244 255
227 244 255
227 244 255
227 244 255
227 244 255
227 244 255
227 244 255
227 244 255
227 244 255
227 244 255
227 244 255
227 244 255
227 244 255
227 244 255
227 244 255
227 244 255
227 244 255
227 244 255
227 244 255
227 244 255
227 244 255
227 244 255
227 244 255
227 244 255
227 244 255
227 244 255
227 244 255
227 244 255
227 244 255
227 244 255
227 244 255
227 244 255
227 244 255
239 255 255
227 244 255
227 244 255
227 244 255
227 244 255
227 244 255
227 244 255
227 244 255
227 244 255
227 244 255
227 244 255
227 244 255
227 244 255
227 244 255
227 244 255
227 244 255
227 244 255
227 244 255
227 244 255
227 244 255
227 244 255
227 244 255
227 244 255
227 244 255
227 244 255
227 244 255
227 244 255
227 244 255
227 244 255
227 244 255
227 244 255
227 244 255
227 244 255
227 244 255
227 244 255
227 244 255
227 244 255
239 255 255
227 244 255
227 244 255
227 244 255
227 244 255
227 244 255
227 244 255
227 244 255
227 244 255
227 244 255
227 244 255
227 244 255
227 244 255
227 244 255
227 244 255
227 244 255
227 244 255
227 244 255
227 244 255
227 244 255
227 244 255
227 244 255
227 244 255
227 244 255
227 244 255
227 244 255
227 244 255
227 244 255
227 244 255
227 244 255
227 244 255
227 244 255
227 244 255
227 244 255
227 244 255
227 244 255
227 244 255
239 255 255
227 244 255
227 244 255
227 244 255
227 244 255
227 244 255
227 244 255
227 244 255
227 244 255
227 244 255
227 244 255
227 244 255
227 244 255
227 244 255
227 244 255
227 244 255
227 244 255
227 244 255
227 244 255
227 244 255
227 244 255
227 244 255
227 244 255
227 244 255
227 244 255
227 244 255
227 244 255
227 244 255
227 244 255
227 244 255
227 244 255
227 244 255
227 244 255
227 244 255
227 244 255
227 244 255
227 244 255
239 255 255
227 244 255
227 244 255
227 244 255
227 244 255
227 244 255
227 244 255
227 244 255
227 244 255
227 244 255
227 244 255
227 244 255
227 244 255
227 244 255
227 244 255
227 244 255
227 244 255
227 244 255
227 244 255
227 244 255
227 244 255
227 244 255
227 244 255
227 244 255
227 244 255
227 244 255
227 244 255
227 244 255
227 244 255
227 244 255
227 244 255
227 244 255
227 244 255
227 244 255
227 244 255
227 244 255
227 244 255
239 255 255
227 244 255
227 244 255
227 244 255
227 244 255
227 244 255
227 244 255
227 244 255
227 244 255
227 244 255
227 244 255
227 244 255
227 244 255
227 244 255
227 244 255
227 244 255
227 244 255
227 244 255
227 244 255
227 244 255
227 244 255
227 244 255
227 244 255
227 244 255
227 244 255
227 244 255
227 244 255
227 244 255
227 244 255
227 244 255
227 244 255
227 244 255
227 244 255
227 244 255
227 244 255
227 244 255
227 244 255
227 244 255
227 244 255
227 244 255
227 244 255
227 244 255
227 244 255
227 244 255
227 244 255
227 244 255
227 244 255
227 244 255
227 244 255
227 244 255
227 244 255
227 244 255
227 244 255
227 244 255
227 244 255
227 244 255
227 244 255
227 244 255
227 244 255
227 244 255
239 255 255
227 244 255
227 244 255
227 244 255
227 244 255
227 244 255
227 244 255
227 244 255
227 244 255
227 244 255
227 244 255
227 244 255
227 244 255
227 244 255
227 244 255
227 244 255
227 244 255
227 244 255
227 244 255
227 244 255
227 244 255
227 244 255
227 244 255
227 244 255
227 244 255
227 244 255
227 244 255
227 244 255
227 244 255
227 244 255
227 244 255
227 244 255
227 244 255
227 244 255
227 244 255
227 244 255
227 244 255
239 255 255
227 244 255
227 244 255
227 244 255
227 244 255
227 244 255
227 244 255
227 244 255
227 244 255
227 244 255
227 244 255
227 244 255
227 244 255
227 244 255
227 244 255
227 244 255
227 244 255
227 244 255
227 244 255
227 244 255
227 244 255
227 244 255
227 244 255
227 244 255
227 244 255
227 244 255
227 244 255
227 244 255
227 244 255
227 244 255
227 244 255
227 244 255
227 244 255
227 244 255
227 244 255
227 244 255
227 244 255
239 255 255
227 244 255
227 244 255
227 244 255
227 244 255
227 244 255
227 244 255
227 244 255
227 244 255
227 244 255
227 244 255
227 244 255
227 244 255
227 244 255
227 244 255
227 244 255
227 244 255
227 244 255
227 244 255
227 244 255
227 244 255
227 244 255
227 244 255
227 244 255
227 244 255
227 244 255
227 244 255
227 244 255
227 244 255
227 244 255
227 244 255
227 244 255
227 244 255
227 244 255
227 244 255
227 244 255
227 244 255
239 255 255
227 244 255
227 244 255
227 244 255
227 244 255
227 244 255
227 244 255
227 244 255
227 244 255
227 244 255
227 244 255
227 244 255
227 244 255
227 244 255
227 244 255
227 244 255
227 244 255
227 244 255
227 244 255
227 244 255
227 244 255
227 244 255
227 244 255
227 244 255
227 244 255
227 244 255
227 244 255
227 244 255
227 244 255
227 244 255
227 244 255
227 244 255
227 244 255
227 244 255
227 244 255
227 244 255
227 244 255
239 255 255
227 244 255
227 244 255
227 244 255
227 244 255
227 244 255
227 244 255
227 244 255
227 244 255
227 244 255
227 244 255
227 244 255
227 244 255
227 244 255
227 244 255
227 244 255
227 244 255
227 244 255
227 244 255
227 244 255
227 244 255
227 244 255
227 244 255
227 244 255
227 244 255
227 244 255
227 244 255
227 244 255
227 244 255
227 244 255
227 244 255
227 244 255
227 244 255
227 244 255
227 244 255
227 244 255
227 244 255
239 255 255
227 244 255
227 244 255
227 244 255
227 244 255
227 244 255
227 244 255
227 244 255
227 244 255
227 244 255
227 244 255
227 244 255
227 244 255
227 244 255
227 244 255
227 244 255
227 244 255
227 244 255
227 244 255
227 244 255
227 244 255
227 244 255
227 244 255
227 244 255
227 244 255
227 244 255
227 244 255
227 244 255
227 244 255
227 244 255
227 244 255
227 244 255
227 244 255
227 244 255
227 244 255
227 244 255
227 244 255
239 255 255
227 244 255
227 244 255
227 244 255
227 244 255
227 244 255
227 244 255
227 244 255
227 244 255
227 244 255
227 244 255
227 244 255
227 244 255
227 244 255
227 244 255
227 244 255
227 244 255
227 244 255
227 244 255
227 244 255
227 244 255
227 244 255
227 244 255
227 244 255
227 244 255
227 244 255
227 244 255
227 244 255
227 244 255
227 244 255
227 244 255
227 244 255
227 244 255
227 244 255
227 244 255
227 244 255
227 244 255
239 255 255
227 244 255
227 244 255
227 244 255
227 244 255
227 244 255
227 244 255
227 244 255
227 244 255
227 244 255
227 244 255
227 244 255
227 244 255
227 244 255
227 244 255
227 244 255
227 244 255
227 244 255
227 244 255
227 244 255
227 244 255
227 244 255
227 244 255
227 244 255
227 244 255
227 244 255
227 244 255
227 244 255
227 244 255
227 244 255
227 244 255
227 244 255
227 244 255
227 244 255
227 244 255
227 244 255
227 244 255
227 244 255
227 244 255
227 244 255
227 244 255
227 244 255
227 244 255
227 244 255
227 244 255
227 244 255
227 244 255
227 244 255
227 244 255
227 244 255
227 244 255
227 244 255
227 244 255
227 244 255
227 244 255
227 244 255
227 244 255
227 244 255
227 244 255
227 244 255
239 255 255
227 244 255
227 244 255
227 244 255
227 244 255
227 244 255
227 244 255
227 244 255
227 244 255
227 244 255
227 244 255
227 244 255
227 244 255
227 244 255
227 244 255
227 244 255
227 244 255
227 244 255
227 244 255
227 244 255
227 244 255
227 244 255
227 244 255
227 244 255
227 244 255
227 244 255
227 244 255
227 244 255
227 244 255
227 244 255
227 244 255
227 244 255
227 244 255
227 244 255
227 244 255
227 244 255
227 244 255
239 255 255
227 244 255
227 244 255
227 244 255
227 244 255
227 244 255
227 244 255
227 244 255
227 244 255
227 244 255
227 244 255
227 244 255
227 244 255
227 244 255
227 244 255
227 244 255
227 244 255
227 244 255
227 244 255
227 244 255
227 244 255
227 244 255
227 244 255
227 244 255
227 244 255
227 244 255
227 244 255
227 244 255
227 244 255
227 244 255
227 244 255
227 244 255
227 244 255
227 244 255
227 244 255
227 244 255
227 244 255
239 255 255
227 244 255
227 244 255
227 244 255
227 244 255
227 244 255
227 244 255
227 244 255
227 244 255
227 244 255
227 244 255
227 244 255
227 244 255
227 244 255
227 244 255
227 244 255
227 244 255
227 244 255
227 244 255
227 244 255
227 244 255
227 244 255
227 244 255
227 244 255
227 244 255
227 244 255
227 244 255
227 244 255
227 244 255
227 244 255
227 244 255
227 244 255
227 244 255
227 244 255
227 244 255
227 244 255
227 244 255
239 255 255
227 244 255
227 244 255
227 244 255
227 244 255
227 244 255
227 244 255
227 244 255
227 244 255
227 244 255
227 244 255
227 244 255
227 244 255
227 244 255
227 244 255
227 244 255
227 244 255
227 244 255
227 244 255
227 244 255
227 244 255
227 244 255
227 244 255
227 244 255
227 244 255
227 244 255
227 244 255
227 244 255
227 244 255
227 244 255
227 244 255
227 244 255
227 244 255
227 244 255
227 244 255
227 244 255
227 244 255
239 255 255
227 244 255
227 244 255
227 244 255
227 244 255
227 244 255
227 244 255
227 244 255
227 244 255
227 244 255
227 244 255
227 244 255
227 244 255
227 244 255
227 244 255
227 244 255
227 244 255
227 244 255
227 244 255
227 244 255
227 244 255
227 244 255
227 244 255
227 244 255
227 244 255
227 244 255
227 244 255
227 244 255
227 244 255
227 244 255
227 244 255
227 244 255
227 244 255
227 244 255
227 244 255
227 244 255
227 244 255
239 255 255
227 244 255
227 244 255
227 244 255
227 244 255
227 244 255
227 244 255
227 244 255
227 244 255
227 244 255
227 244 255
227 244 255
227 244 255
227 244 255
227 244 255
227 244 255
227 244 255
227 244 255
227 244 255
227 244 255
227 244 255
227 244 255
227 244 255
227 244 255
227 244 255
227 244 255
227 244 255
227 244 255
227 244 255
227 244 255
227 244 255
227 244 255
227 244 255
227 244 255
227 244 255
227 244 255
227 244 255
239 255 255
227 244 255
227 244 255
227 244 255
227 244 255
227 244 255
227 244 255
227 244 255
227 244 255
227 244 255
227 244 255
227 244 255
227 244 255
227 244 255
227 244 255
227 244 255
227 244 255
227 244 255
227 244 255
227 244 255
227 244 255
227 244 255
227 244 255
227 244 255
227 244 255
227 244 255
227 244 255
227 244 255
227 244 255
227 244 255
227 244 255
227 244 255
227 244 255
227 244 255
227 244 255
227 244 255
227 244 255
239 255 255
227 244 255
227 244 255
227 244 255
227 244 255
227 244 255
227 244 255
227 244 255
227 244 255
227 244 255
227 244 255
227 244 255
227 244 255
227 244 255
227 244 255
227 244 255
227 244 255
227 244 255
227 244 255
227 244 255
227 244 255
227 244 255
227 244 255
227 244 255
227 244 255
227 244 255
227 244 255
227 244 255
227 244 255
227 244 255
227 244 255
227 244 255
227 244 255
227 244 255
227 244 255
227 244 255
227 244 255
227 244 255
227 244 255
227 244 255
227 244 255
227 244 255
227 244 255
227 244 255
227 244 255
227 244 255
227 244 255
227 244 255
227 244 255
227 244 255
227 244 255
227 244 255
227 244 255
227 244 255
227 244 255
227 244 255
227 244 255
227 244 255
227 244 255
227 244 255
239 255 255
227 244 255
227 244 255
227 244 255
227 244 255
227 244 255
227 244 255
227 244 255
227 244 255
227 244 255
227 244 255
227 244 255
227 244 255
227 244 255
227 244 255
227 244 255
227 244 255
227 244 255
227 244 255
227 244 255
227 244 255
227 244 255
227 244 255
227 244 255
227 244 255
227 244 255
227 244 255
227 244 255
227 244 255
227 244 255
227 244 255
227 244 255
227 244 255
227 244 255
227 244 255
227 244 255
227 244 255
239 255 255
227 244 255
227 244 255
227 244 255
227 244 255
227 244 255
227 244 255
227 244 255
227 244 255
227 244 255
227 244 255
227 244 255
227 244 255
227 244 255
227 244 255
227 244 255
227 244 255
227 244 255
227 244 255
227 244 255
227 244 255
227 244 255
227 244 255
227 244 255
227 244 255
227 244 255
227 244 255
227 244 255
227 244 255
227 244 255
227 244 255
227 244 255
227 244 255
227 244 255
227 244 255
227 244 255
227 244 255
239 255 255
227 244 255
227 244 255
227 244 255
227 244 255
227 244 255
227 244 255
227 244 255
227 244 255
227 244 255
227 244 255
227 244 255
227 244 255
227 244 255
227 244 255
227 244 255
227 244 255
227 244 255
227 244 255
227 244 255
227 244 255
227 244 255
227 244 255
227 244 255
227 244 255
227 244 255
227 244 255
227 244 255
227 244 255
227 244 255
227 244 255
227 244 255
227 244 255
227 244 255
227 244 255
227 244 255
227 244 255
239 255 255
227 244 255
227 244 255
227 244 255
227 244 255
227 244 255
227 244 255
227 244 255
227 244 255
227 244 255
227 244 255
227 244 255
227 244 255
227 244 255
227 244 255
227 244 255
227 244 255
227 244 255
227 244 255
227 244 255
227 244 255
227 244 255
227 244 255
227 244 255
227 244 255
227 244 255
227 244 255
227 244 255
227 244 255
227 244 255
227 244 255
227 244 255
227 244 255
227 244 255
227 244 255
227 244 255
227 244 255
239 255 255
227 244 255
227 244 255
227 244 255
227 244 255
227 244 255
227 244 255
227 244 255
227 244 255
227 244 255
227 244 255
227 244 255
227 244 255
227 244 255
227 244 255
227 244 255
227 244 255
227 244 255
227 244 255
227 244 255
227 244 255
227 244 255
227 244 255
227 244 255
227 244 255
227 244 255
227 244 255
227 244 255
227 244 255
227 244 255
227 244 255
227 244 255
227 244 255
227 244 255
227 244 255
227 244 255
227 244 255
239 255 255
227 244 255
227 244 255
227 244 255
227 244 255
227 244 255
227 244 255
227 244 255
227 244 255
227 244 255
227 244 255
227 244 255
227 244 255
227 244 255
227 244 255
227 244 255
227 244 255
227 244 255
227 244 255
227 244 255
227 244 255
227 244 255
227 244 255
227 244 255
227 244 255
227 244 255
227 244 255
227 244 255
227 244 255
227 244 255
227 244 255
227 244 255
227 244 255
227 244 255
227 244 255
227 244 255
227 244 255
239 255 255
227 244 255
227 244 255
227 244 255
227 244 255
227 244 255
227 244 255
227 244 255
227 244 255
227 244 255
227 244 255
227 244 255
227 244 255
227 244 255
227 244 255
227 244 255
227 244 255
227 244 255
227 244 255
227 244 255
227 244 255
227 244 255
227 244 255
227 244 255
227 244 255
227 244 255
227 244 255
227 244 255
227 244 255
227 244 255
227 244 255
227 244 255
227 244 255
227 244 255
227 244 255
227 244 255
227 244 255
239 255 255
227 244 255
227 244 255
227 244 255
227 244 255
227 244 255
227 244 255
227 244 255
227 244 255
227 244 255
227 244 255
227 244 255
227 244 255
227 244 255
227 244 255
227 244 255
227 244 255
227 244 255
227 244 255
227 244 255
227 244 255
227 244 255
227 244 255
227 244 255
227 244 255
227 244 255
227 244 255
227 244 255
227 244 255
227 244 255
227 244 255
227 244 255
227 244 255
227 244 255
227 244 255
227 244 255
227 244 255
227 244 255
227 244 255
227 244 255
227 244 255
227 244 255
227 244 255
227 244 255
227 244 255
227 244 255
227 244 255
227 244 255
227 244 255
227 244 255
227 244 255
227 244 255
227 244 255
227 244 255
227 244 255
227 244 255
227 244 255
227 244 255
227 244 255
227 244 255
239 255 255
227 244 255
227 244 255
227 244 255
227 244 255
227 244 255
227 244 255
227 244 255
227 244 255
227 244 255
227 244 255
227 244 255
227 244 255
227 244 255
227 244 255
227 244 255
227 244 255
227 244 255
227 244 255
227 244 255
227 244 255
227 244 255
227 244 255
227 244 255
227 244 255
227 244 255
227 244 255
227 244 255
227 244 255
227 244 255
227 244 255
227 244 255
227 244 255
227 244 255
227 244 255
227 244 255
227 244 255
239 255 255
227 244 255
227 244 255
227 244 255
227 244 255
227 244 255
227 244 255
227 244 255
227 244 255
227 244 255
227 244 255
227 244 255
227 244 255
227 244 255
227 244 255
227 244 255
227 244 255
227 244 255
227 244 255
227 244 255
227 244 255
227 244 255
227 244 255
227 244 255
227 244 255
227 244 255
227 244 255
227 244 255
227 244 255
227 244 255
227 244 255
227 244 255
227 244 255
227 244 255
227 244 255
227 244 255
227 244 255
239 255 255
227 244 255
227 244 255
227 244 255
227 244 255
227 244 255
227 244 255
227 244 255
227 244 255
227 244 255
227 244 255
227 244 255
227 244 255
227 244 255
227 244 255
227 244 255
227 244 255
227 244 255
227 244 255
227 244 255
227 244 255
227 244 255
227 244 255
227 244 255
227 244 255
227 244 255
227 244 255
227 244 255
227 244 255
227 244 255
227 244 255
227 244 255
227 244 255
227 244 255
227 244 255
227 244 255
227 244 255
239 255 255
227 244 255
227 244 255
227 244 255
227 244 255
227 244 255
227 244 255
227 244 255
227 244 255
227 244 255
227 244 255
227 244 255
227 244 255
227 244 255
227 244 255
227 244 255
227 244 255
227 244 255
227 244 255
227 244 255
227 244 255
227 244 255
227 244 255
227 244 255
227 244 255
227 244 255
227 244 255
227 244 255
227 244 255
227 244 255
227 244 255
227 244 255
227 244 255
227 244 255
227 244 255
227 244 255
227 244 255
239 255 255
227 244 255
227 244 255
227 244 255
227 244 255
227 244 255
227 244 255
227 244 255
227 244 255
227 244 255
227 244 255
227 244 255
227 244 255
227 244 255
227 244 255
227 244 255
227 244 255
227 244 255
227 244 255
227 244 255
227 244 255
227 244 255
227 244 255
227 244 255
227 244 255
227 244 255
227 244 255
227 244 255
227 244 255
227 244 255
227 244 255
227 244 255
227 244 255
227 244 255
227 244 255
227 244 255
227 244 255
239 255 255
227 244 255
227 244 255
227 244 255
227 244 255
227 244 255
227 244 255
227 244 255
227 244 255
227 244 255
227 244 255
227 244 255
227 244 255
227 244 255
227 244 255
227 244 255
227 244 255
227 244 255
227 244 255
227 244 255
227 244 255
227 244 255
227 244 255
227 244 255
227 244 255
227 244 255
227 244 255
227 244 255
227 244 255
227 244 255
227 244 255
227 244 255
227 244 255
227 244 255
227 244 255
227 244 255
227 244 255
239 255 255
227 244 255
227 244 255
227 244 255
227 244 255
227 244 255
227 244 255
227 244 255
227 244 255
227 244 255
227 244 255
227 244 255
227 244 255
227 244 255
227 244 255
227 244 255
227 244 255
227 244 255
227 244 255
227 244 255
227 244 255
227 244 255
227 244 255
227 244 255
227 244 255
227 244 255
227 244 255
227 244 255
227 244 255
227 244 255
227 244 255
227 244 255
227 244 255
227 244 255
227 244 255
227 244 255
227 244 255
239 255 255
227 244 255
227 244 255
227 244 255
227 244 255
227 244 255
227 244 255
227 244 255
227 244 255
227 244 255
227 244 255
227 244 255
227 244 255
227 244 255
227 244 255
227 244 255
227 244 255
227 244 255
227 244 255
227 244 255
227 244 255
227 244 255
227 244 255
227 244 255
227 244 255
227 244 255
227 244 255
227 244 255
227 244 255
227 244 255
227 244 255
227 244 255
227 244 255
227 244 255
227 244 255
227 244 255
227 244 255
227 244 255
227 244 255
227 244 255
227 244 255
227 244 255
227 244 255
227 244 255
227 244 255
227 244 255
227 244 255
227 244 255
227 244 255
227 244 255
227 244 255
227 244 255
227 244 255
227 244 255
227 244 255
227 244 255
227 244 255
227 244 255
227 244 255
227 244 255
239 255 255
227 244 255
227 244 255
227 244 255
227 244 255
227 244 255
227 244 255
227 244 255
227 244 255
227 244 255
227 244 255
227 244 255
227 244 255
227 244 255
227 244 255
227 244 255
227 244 255
227 244 255
227 244 255
227 244 255
227 244 255
227 244 255
227 244 255
227 244 255
227 244 255
227 244 255
227 244 255
227 244 255
227 244 255
227 244 255
227 244 255
227 244 255
227 244 255
227 244 255
227 244 255
227 244 255
227 244 255
239 255 255
227 244 255
227 244 255
227 244 255
227 244 255
227 244 255
227 244 255
227 244 255
227 244 255
227 244 255
227 244 255
227 244 255
227 244 255
227 244 255
227 244 255
227 244 255
227 244 255
227 244 255
227 244 255
227 244 255
227 244 255
227 244 255
227 244 255
227 244 255
227 244 255
227 244 255
227 244 255
227 244 255
227 244 255
227 244 255
227 244 255
227 244 255
227 244 255
227 244 255
227 244 255
227 244 255
227 244 255
239 255 255
227 244 255
227 244 255
227 244 255
227 244 255
227 244 255
227 244 255
227 244 255
227 244 255
227 244 255
227 244 255
227 244 255
227 244 255
227 244 255
227 244 255
227 244 255
227 244 255
227 244 255
227 244 255
227 244 255
227 244 255
227 244 255
227 244 255
227 244 255
227 244 255
227 244 255
227 244 255
227 244 255
227 244 255
227 244 255
227 244 255
227 244 255
227 244 255
227 244 255
227 244 255
227 244 255
227 244 255
239 255 255
227 244 255
227 244 255
227 244 255
227 244 255
227 244 255
227 244 255
227 244 255
227 244 255
227 244 255
227 244 255
227 244 255
227 244 255
227 244 255
227 244 255
227 244 255
227 244 255
227 244 255
227 244 255
227 244 255
227 244 255
227 244 255
227 244 255
227 244 255
227 244 255
227 244 255
227 244 255
227 244 255
227 244 255
227 244 255
227 244 255
227 244 255
227 244 255
227 244 255
227 244 255
227 244 255
227 244 255
239 255 255
227 244 255
227 244 255
227 244 255
227 244 255
227 244 255
227 244 255
227 244 255
227 244 255
227 244 255
227 244 255
227 244 255
227 244 255
227 244 255
227 244 255
227 244 255
227 244 255
227 244 255
227 244 255
227 244 255
227 244 255
227 244 255
227 244 255
227 244 255
227 244 255
227 244 255
227 244 255
227 244 255
227 244 255
227 244 255
227 244 255
227 244 255
227 244 255
227 244 255
227 244 255
227 244 255
227 244 255
239 255 255
227 244 255
227 244 255
227 244 255
227 244 255
227 244 255
227 244 255
227 244 255
227 244 255
227 244 255
227 244 255
227 244 255
227 244 255
227 244 255
227 244 255
227 244 255
227 244 255
227 244 255
227 244 255
227 244 255
227 244 255
227 244 255
227 244 255
227 244 255
227 244 255
227 244 255
227 244 255
227 244 255
227 244 255
227 244 255
227 244 255
227 244 255
227 244 255
227 244 255
227 244 255
227 244 255
227 244 255
239 255 255
227 244 255
227 244 255
227 244 255
227 244 255
227 244 255
227 244 255
227 244 255
227 244 255
227 244 255
227 244 255
227 244 255
227 244 255
227 244 255
227 244 255
227 244 255
227 244 255
227 244 255
227 244 255
227 244 255
227 244 255
227 244 255
227 244 255
227 244 255
227 244 255
227 244 255
227 244 255
227 244 255
227 244 255
227 244 255
227 244 255
227 244 255
227 244 255
227 244 255
227 244 255
227 244 255
227 244 255
239 255 255
227 244 255
227 244 255
227 244 255
227 244 255
227 244 255
227 244 255
227 244 255
227 244 255
227 244 255
227 244 255
227 244 255
227 244 255
227 244 255
227 244 255
227 244 255
227 244 255
227 244 255
227 244 255
227 244 255
227 244 255
227 244 255
227 244 255
227 244 255
227 244 255
227 244 255
227 244 255
227 244 255
227 244 255
227 244 255
227 244 255
227 244 255
227 244 255
227 244 255
227 244 255
227 244 255
227 244 255
227 244 255
227 244 255
227 244 255
227 244 255
227 244 255
227 244 255
227 244 255
227 244 255
227 244 255
227 244 255
227 244 255
227 244 255
227 244 255
227 244 255
227 244 255
227 244 255
227 244 255
227 244 255
227 244 255
227 244 255
227 244 255
227 244 255
227 244 255
239 255 255
227 244 255
227 244 255
227 244 255
227 244 255
227 244 255
227 244 255
227 244 255
227 244 255
227 244 255
227 244 255
227 244 255
227 244 255
227 244 255
227 244 255
227 244 255
227 244 255
227 244 255
227 244 255
227 244 255
227 244 255
227 244 255
227 244 255
227 244 255
227 244 255
227 244 255
227 244 255
227 244 255
227 244 255
227 244 255
227 244 255
227 244 255
227 244 255
227 244 255
227 244 255
227 244 255
227 244 255
239 255 255
227 244 255
227 244 255
227 244 255
227 244 255
227 244 255
227 244 255
227 244 255
227 244 255
227 244 255
227 244 255
227 244 255
227 244 255
227 244 255
227 244 255
227 244 255
227 244 255
227 244 255
227 244 255
227 244 255
227 244 255
227 244 255
227 244 255
227 244 255
227 244 255
227 244 255
227 244 255
227 244 255
227 244 255
227 244 255
227 244 255
227 244 255
227 244 255
227 244 255
227 244 255
227 244 255
227 244 255
239 255 255
227 244 255
227 244 255
227 244 255
227 244 255
227 244 255
227 244 255
227 244 255
227 244 255
227 244 255
227 244 255
227 244 255
227 244 255
227 244 255
227 244 255
227 244 255
227 244 255
227 244 255
227 244 255
227 244 255
227 244 255
227 244 255
227 244 255
227 244 255
227 244 255
227 244 255
227 244 255
227 244 255
227 244 255
227 244 255
227 244 255
227 244 255
227 244 255
227 244 255
227 244 255
227 244 255
227 244 255
239 255 255
227 244 255
227 244 255
227 244 255
227 244 255
227 244 255
227 244 255
227 244 255
227 244 255
227 244 255
227 244 255
227 244 255
227 244 255
227 244 255
227 244 255
227 244 255
227 244 255
227 244 255
227 244 255
227 244 255
227 244 255
227 244 255
227 244 255
227 244 255
227 244 255
227 244 255
227 244 255
227 244 255
227 244 255
227 244 255
227 244 255
227 244 255
227 244 255
227 244 255
227 244 255
227 244 255
227 244 255
239 255 255
227 244 255
227 244 255
227 244 255
227 244 255
227 244 255
227 244 255
227 244 255
227 244 255
227 244 255
227 244 255
227 244 255
227 244 255
227 244 255
227 244 255
227 244 255
227 244 255
227 244 255
227 244 255
227 244 255
227 244 255
227 244 255
227 244 255
227 244 255
227 244 255
227 244 255
227 244 255
227 244 255
227 244 255
227 244 255
227 244 255
227 244 255
227 244 255
227 244 255
227 244 255
227 244 255
227 244 255
239 255 255
227 244 255
227 244 255
227 244 255
227 244 255
227 244 255
227 244 255
227 244 255
227 244 255
227 244 255
227 244 255
227 244 255
227 244 255
227 244 255
227 244 255
227 244 255
227 244 255
227 244 255
227 244 255
227 244 255
227 244 255
227 244 255
227 244 255
227 244 255
227 244 255
227 244 255
227 244 255
227 244 255
227 244 255
227 244 255
227 244 255
227 244 255
227 244 255
227 244 255
227 244 255
227 244 255
227 244 255
239 255 255
227 244 255
227 244 255
227 244 255
227 244 255
227 244 255
227 244 255
227 244 255
227 244 255
227 244 255
227 244 255
227 244 255
227 244 255
227 244 255
227 244 255
227 244 255
227 244 255
227 244 255
227 244 255
227 244 255
227 244 255
227 244 255
227 244 255
227 244 255
227 244 255
227 244 255
227 244 255
227 244 255
227 244 255
227 244 255
227 244 255
227 244 255
227 244 255
227 244 255
227 244 255
227 244 255
227 244 255
239 255 255
227 244 255
227 244 255
227 244 255
227 244 255
227 244 255
227 244 255
227 244 255
227 244 255
227 244 255
227 244 255
227 244 255
227 244 255
227 244 255
227 244 255
227 244 255
227 244 255
227 244 255
227 244 255
227 244 255
227 244 255
227 244 255
227 244 255
227 244 255
227 244 255
227 244 255
227 244 255
227 244 255
227 244 255
227 244 255
227 244 255
227 244 255
227 244 255
227 244 255
227 244 255
227 244 255
227 244 255
227 244 255
227 244 255
227 244 255
227 244 255
227 244 255
227 244 255
227 244 255
227 244 255
227 244 255
227 244 255
227 244 255
227 244 255
227 244 255
227 244 255
227 244 255
227 244 255
227 244 255
227 244 255
227 244 255
227 244 255
227 244 255
227 244 255
227 244 255
239 255 255
227 244 255
227 244 255
227 244 255
227 244 255
227 244 255
227 244 255
227 244 255
227 244 255
227 244 255
227 244 255
227 244 255
227 244 255
227 244 255
227 244 255
227 244 255
227 244 255
227 244 255
227 244 255
227 244 255
227 244 255
227 244 255
227 244 255
227 244 255
227 244 255
227 244 255
227 244 255
227 244 255
227 244 255
227 244 255
227 244 255
227 244 255
227 244 255
227 244 255
227 244 255
227 244 255
227 244 255
239 255 255
227 244 255
227 244 255
227 244 255
227 244 255
227 244 255
227 244 255
227 244 255
227 244 255
227 244 255
227 244 255
227 244 255
227 244 255
227 244 255
227 244 255
227 244 255
227 244 255
227 244 255
227 244 255
227 244 255
227 244 255
227 244 255
227 244 255
227 244 255
227 244 255
227 244 255
227 244 255
227 244 255
227 244 255
227 244 255
227 244 255
227 244 255
227 244 255
227 244 255
227 244 255
227 244 255
227 244 255
239 255 255
227 244 255
227 244 255
227 244 255
227 244 255
227 244 255
227 244 255
227 244 255
227 244 255
227 244 255
227 244 255
227 244 255
227 244 255
227 244 255
227 244 255
227 244 255
227 244 255
227 244 255
227 244 255
227 244 255
227 244 255
227 244 255
227 244 255
227 244 255
227 244 255
227 244 255
227 244 255
227 244 255
227 244 255
227 244 255
227 244 255
227 244 255
227 244 255
227 244 255
227 244 255
227 244 255
227 244 255
239 255 255
227 244 255
227 244 255
227 244 255
227 244 255
227 244 255
227 244 255
227 244 255
227 244 255
227 244 255
227 244 255
227 244 255
227 244 255
227 244 255
227 244 255
227 244 255
227 244 255
227 244 255
227 244 255
227 244 255
227 244 255
227 244 255
227 244 255
227 244 255
227 244 255
227 244 255
227 244 255
227 244 255
227 244 255
227 244 255
227 244 255
227 244 255
227 244 255
227 244 255
227 244 255
227 244 255
227 244 255
239 255 255
227 244 255
227 244 255
227 244 255
227 244 255
227 244 255
227 244 255
227 244 255
227 244 255
227 244 255
227 244 255
227 244 255
227 244 255
227 244 255
227 244 255
227 244 255
227 244 255
227 244 255
227 244 255
227 244 255
227 244 255
227 244 255
227 244 255
227 244 255
227 244 255
227 244 255
227 244 255
227 244 255
227 244 255
227 244 255
227 244 255
227 244 255
227 244 255
227 244 255
227 244 255
227 244 255
227 244 255
239 255 255
227 244 255
227 244 255
227 244 255
227 244 255
227 244 255
227 244 255
227 244 255
227 244 255
227 244 255
227 244 255
227 244 255
227 244 255
227 244 255
227 244 255
227 244 255
227 244 255
227 244 255
227 244 255
227 244 255
227 244 255
227 244 255
227 244 255
227 244 255
227 244 255
227 244 255
227 244 255
227 244 255
227 244 255
227 244 255
227 244 255
227 244 255
227 244 255
227 244 255
227 244 255
227 244 255
227 244 255
239 255 255
227 244 255
227 244 255
227 244 255
227 244 255
227 244 255
227 244 255
227 244 255
227 244 255
227 244 255
227 244 255
227 244 255
227 244 255
227 244 255
227 244 255
227 244 255
227 244 255
227 244 255
227 244 255
227 244 255
227 244 255
227 244 255
227 244 255
227 244 255
227 244 255
227 244 255
227 244 255
227 244 255
227 244 255
227 244 255
227 244 255
227 244 255
227 244 255
227 244 255
227 244 255
227 244 255
227 244 255
239 255 255
227 244 255
227 244 255
227 244 255
227 244 255
227 244 255
227 244 255
227 244 255
227 244 255
227 244 255
227 244 255
227 244 255
227 244 255
227 244 255
227 244 255
227 244 255
227 244 255
227 244 255
227 244 255
227 244 255
227 244 255
227 244 255
227 244 255
227 244 255
227 244 255
227 244 255
227 244 255
227 244 255
227 244 255
227 244 255
227 244 255
227 244 255
227 244 255
227 244 255
227 244 255
227 244 255
227 244 255
227 244 255
227 244 255
227 244 255
227 244 255
227 244 255
227 244 255
227 244 255
227 244 255
227 244 255
227 244 255
227 244 255
227 244 255
227 244 255
227 244 255
227 244 255
227 244 255
227 244 255
227 244 255
227 244 255
227 244 255
227 244 255
227 244 255
227 244 255
239 255 255
227 244 255
227 244 255
227 244 255
227 244 255
227 244 255
227 244 255
227 244 255
227 244 255
227 244 255
227 244 255
227 244 255
227 244 255
227 244 255
227 244 255
227 244 255
227 244 255
227 244 255
227 244 255
227 244 255
227 244 255
227 244 255
227 244 255
227 244 255
227 244 255
227 244 255
227 244 255
227 244 255
227 244 255
227 244 255
227 244 255
227 244 255
227 244 255
227 244 255
227 244 255
227 244 255
227 244 255
239 255 255
227 244 255
227 244 255
227 244 255
227 244 255
227 244 255
227 244 255
227 244 255
227 244 255
227 244 255
227 244 255
227 244 255
227 244 255
227 244 255
227 244 255
227 244 255
227 244 255
227 244 255
227 244 255
227 244 255
227 244 255
227 244 255
227 244 255
227 244 255
227 244 255
227 244 255
227 244 255
227 244 255
227 244 255
227 244 255
227 244 255
227 244 255
227 244 255
227 244 255
227 244 255
227 244 255
227 244 255
239 255 255
227 244 255
227 244 255
227 244 255
227 244 255
227 244 255
227 244 255
227 244 255
227 244 255
227 244 255
227 244 255
227 244 255
227 244 255
227 244 255
227 244 255
227 244 255
227 244 255
227 244 255
227 244 255
227 244 255
227 244 255
227 244 255
227 244 255
227 244 255
227 244 255
227 244 255
227 244 255
227 244 255
227 244 255
227 244 255
227 244 255
227 244 255
227 244 255
227 244 255
227 244 255
227 244 255
227 244 255
239 255 255
227 244 255
227 244 255
227 244 255
227 244 255
227 244 255
227 244 255
227 244 255
227 244 255
227 244 255
227 244 255
227 244 255
227 244 255
227 244 255
227 244 255
227 244 255
227 244 255
227 244 255
227 244 255
227 244 255
227 244 255
227 244 255
227 244 255
227 244 255
227 244 255
227 244 255
227 244 255
227 244 255
227 244 255
227 244 255
227 244 255
227 244 255
227 244 255
227 244 255
227 244 255
227 244 255
227 244 255
239 255 255
227 244 255
227 244 255
227 244 255
227 244 255
227 244 255
227 244 255
227 244 255
227 244 255
227 244 255
227 244 255
227 244 255
227 244 255
227 244 255
227 244 255
227 244 255
227 244 255
227 244 255
227 244 255
227 244 255
227 244 255
227 244 255
227 244 255
227 244 255
227 244 255
227 244 255
227 244 255
227 244 255
227 244 255
227 244 255
227 244 255
227 244 255
227 244 255
227 244 255
227 244 255
227 244 255
227 244 255
239 255 255
227 244 255
227 244 255
227 244 255
227 244 255
227 244 255
227 244 255
227 244 255
227 244 255
227 244 255
227 244 255
227 244 255
227 244 255
227 244 255
227 244 255
227 244 255
227 244 255
227 244 255
227 244 255
227 244 255
227 244 255
227 244 255
227 244 255
227 244 255
227 244 255
227 244 255
227 244 255
227 244 255
227 244 255
227 244 255
227 244 255
227 244 255
227 244 255
227 244 255
227 244 255
227 244 255
227 244 255
239 255 255
227 244 255
227 244 255
227 244 255
227 244 255
227 244 255
227 244 255
227 244 255
227 244 255
227 244 255
227 244 255
227 244 255
227 244 255
227 244 255
227 244 255
227 244 255
227 244 255
227 244 255
227 244 255
227 244 255
227 244 255
227 244 255
227 244 255
227 244 255
227 244 255
227 244 255
227 244 255
227 244 255
227 244 255
227 244 255
227 244 255
227 244 255
227 244 255
227 244 255
227 244 255
227 244 255
227 244 255
239 255 255
227 244 255
227 244 255
227 244 255
227 244 255
227 244 255
227 244 255
227 244 255
227 244 255
227 244 255
227 244 255
227 244 255
227 244 255
227 244 255
227 244 255
227 244 255
227 244 255
227 244 255
227 244 255
227 244 255
227 244 255
227 244 255
227 244 255
227 244 255
227 244 255
227 244 255
227 244 255
227 244 255
227 244 255
227 244 255
227 244 255
227 244 255
227 244 255
227 244 255
227 244 255
227 244 255
227 244 255
227 244 255
227 244 255
227 244 255
227 244 255
227 244 255
227 244 255
227 244 255
227 244 255
227 244 255
227 244 255
227 244 255
227 244 255
227 244 255
227 244 255
227 244 255
227 244 255
227 244 255
227 244 255
227 244 255
227 244 255
227 244 255
227 244 255
227 244 255
239 255 255
227 244 255
227 244 255
227 244 255
227 244 255
227 244 255
227 244 255
227 244 255
227 244 255
227 244 255
227 244 255
227 244 255
227 244 255
227 244 255
227 244 255
227 244 255
227 244 255
227 244 255
227 244 255
227 244 255
227 244 255
227 244 255
227 244 255
227 244 255
227 244 255
227 244 255
227 244 255
227 244 255
227 244 255
227 244 255
227 244 255
227 244 255
227 244 255
227 244 255
227 244 255
227 244 255
227 244 255
239 255 255
227 244 255
227 244 255
227 244 255
227 244 255
227 244 255
227 244 255
227 244 255
227 244 255
227 244 255
227 244 255
227 244 255
227 244 255
227 244 255
227 244 255
227 244 255
227 244 255
227 244 255
227 244 255
227 244 255
227 244 255
227 244 255
227 244 255
227 244 255
227 244 255
227 244 255
227 244 255
227 244 255
227 244 255
227 244 255
227 244 255
227 244 255
227 244 255
227 244 255
227 244 255
227 244 255
227 244 255
239 255 255
227 244 255
227 244 255
227 244 255
227 244 255
227 244 255
227 244 255
227 244 255
227 244 255
227 244 255
227 244 255
227 244 255
227 244 255
227 244 255
227 244 255
227 244 255
227 244 255
227 244 255
227 244 255
227 244 255
227 244 255
227 244 255
227 244 255
227 244 255
227 244 255
227 244 255
227 244 255
227 244 255
227 244 255
227 244 255
227 244 255
227 244 255
227 244 255
227 244 255
227 244 255
227 244 255
227 244 255
239 255 255
227 244 255
227 244 255
227 244 255
227 244 255
227 244 255
227 244 255
227 244 255
227 244 255
227 244 255
227 244 255
227 244 255
227 244 255
227 244 255
227 244 255
227 244 255
227 244 255
227 244 255
227 244 255
227 244 255
227 244 255
227 244 255
227 244 255
227 244 255
227 244 255
227 244 255
227 244 255
227 244 255
227 244 255
227 244 255
227 244 255
227 244 255
227 244 255
227 244 255
227 244 255
227 244 255
227 244 255
239 255 255
227 244 255
227 244 255
227 244 255
227 244 255
227 244 255
227 244 255
227 244 255
227 244 255
227 244 255
227 244 255
227 244 255
227 244 255
227 244 255
227 244 255
227 244 255
227 244 255
227 244 255
227 244 255
227 244 255
227 244 255
227 244 255
227 244 255
227 244 255
227 244 255
227 244 255
227 244 255
227 244 255
227 244 255
227 244 255
227 244 255
227 244 255
227 244 255
227 244 255
227 244 255
227 244 255
227 244 255
239 255 255
227 244 255
227 244 255
227 244 255
227 244 255
227 244 255
227 244 255
227 244 255
227 244 255
227 244 255
227 244 255
227 244 255
227 244 255
227 244 255
227 244 255
227 244 255
227 244 255
227 244 255
227 244 255
227 244 255
227 244 255
227 244 255
227 244 255
227 244 255
227 244 255
227 244 255
227 244 255
227 244 255
227 244 255
227 244 255
227 244 255
227 244 255
227 244 255
227 244 255
227 244 255
227 244 255
227 244 255
239 255 255
227 244 255
227 244 255
227 244 255
227 244 255
227 244 255
227 244 255
227 244 255
227 244 255
227 244 255
227 244 255
227 244 255
227 244 255
227 244 255
227 244 255
227 244 255
227 244 255
227 244 255
227 244 255
227 244 255
227 244 255
227 244 255
227 244 255
227 244 255
227 244 255
227 244 255
227 244 255
227 244 255
227 244 255
227 244 255
227 244 255
227 244 255
227 244 255
227 244 255
227 244 255
227 244 255
227 244 255
239 255 255
227 244 255
227 244 255
227 244 255
227 244 255
227 244 255
227 244 255
227 244 255
227 244 255
227 244 255
227 244 255
227 244 255
227 244 255
227 244 255
227 244 255
227 244 255
227 244 255
227 244 255
227 244 255
227 244 255
227 244 255
227 244 255
227 244 255
227 244 255
227 244 255
227 244 255
227 244 255
227 244 255
227 244 255
227 244 255
227 244 255
227 244 255
227 244 255
227 244 255
227 244 255
227 244 255
227 244 255
227 244 255
227 244 255
227 244 255
227 244 255
227 244 255
227 244 255
227 244 255
227 244 255
227 244 255
227 244 255
227 244 255
227 244 255
227 244 255
227 244 255
227 244 255
227 244 255
227 244 255
227 244 255
227 244 255
227 244 255
227 244 255
227 244 255
227 244 255
239 255 255
227 244 255
227 244 255
227 244 255
227 244 255
227 244 255
227 244 255
227 244 255
227 244 255
227 244 255
227 244 255
227 244 255
227 244 255
227 244 255
227 244 255
227 244 255
227 244 255
227 244 255
227 244 255
227 244 255
227 244 255
227 244 255
227 244 255
227 244 255
227 244 255
227 244 255
227 244 255
227 244 255
227 244 255
227 244 255
227 244 255
227 244 255
227 244 255
227 244 255
227 244 255
227 244 255
227 244 255
239 255 255
227 244 255
227 244 255
227 244 255
227 244 255
227 244 255
227 244 255
227 244 255
227 244 255
227 244 255
227 244 255
227 244 255
227 244 255
227 244 255
227 244 255
227 244 255
227 244 255
227 244 255
227 244 255
227 244 255
227 244 255
227 244 255
227 244 255
227 244 255
227 244 255
227 244 255
227 244 255
227 244 255
227 244 255
227 244 255
227 244 255
227 244 255
227 244 255
227 244 255
227 244 255
227 244 255
227 244 255
239 255 255
227 244 255
227 244 255
227 244 255
227 244 255
227 244 255
227 244 255
227 244 255
227 244 255
227 244 255
227 244 255
227 244 255
227 244 255
227 244 255
227 244 255
227 244 255
227 244 255
227 244 255
227 244 255
227 244 255
227 244 255
227 244 255
227 244 255
227 244 255
227 244 255
227 244 255
227 244 255
227 244 255
227 244 255
227 244 255
227 244 255
227 244 255
227 244 255
227 244 255
227 244 255
227 244 255
227 244 255
239 255 255
227 244 255
227 244 255
227 244 255
227 244 255
227 244 255
227 244 255
227 244 255
227 244 255
227 244 255
227 244 255
227 244 255
227 244 255
227 244 255
227 244 255
227 244 255
227 244 255
227 244 255
227 244 255
227 244 255
227 244 255
227 244 255
227 244 255
227 244 255
227 244 255
227 244 255
227 244 255
227 244 255
227 244 255
227 244 255
227 244 255
227 244 255
227 244 255
227 244 255
227 244 255
227 244 255
227 244 255
239 255 255
227 244 255
227 244 255
227 244 255
227 244 255
227 244 255
227 244 255
227 244 255
227 244 255
227 244 255
227 244 255
227 244 255
227 244 255
227 244 255
227 244 255
227 244 255
227 244 255
227 244 255
227 244 255
227 244 255
227 244 255
227 244 255
227 244 255
227 244 255
227 244 255
227 244 255
227 244 255
227 244 255
227 244 255
227 244 255
227 244 255
227 244 255
227 244 255
227 244 255
227 244 255
227 244 255
227 244 255
239 255 255
227 244 255
227 244 255
227 244 255
227 244 255
227 244 255
227 244 255
227 244 255
227 244 255
227 244 255
227 244 255
227 244 255
227 244 255
227 244 255
227 244 255
227 244 255
227 244 255
227 244 255
227 244 255
227 244 255
227 244 255
227 244 255
227 244 255
227 244 255
227 244 255
227 244 255
227 244 255
227 244 255
227 244 255
227 244 255
227 244 255
227 244 255
227 244 255
227 244 255
227 244 255
227 244 255
227 244 255
239 255 255
227 244 255
227 244 255
227 244 255
227 244 255
227 244 255
227 244 255
227 244 255
227 244 255
227 244 255
227 244 255
227 244 255
227 244 255
227 244 255
227 244 255
227 244 255
227 244 255
227 244 255
227 244 255
227 244 255
227 244 255
227 244 255
227 244 255
227 244 255
227 244 255
227 244 255
227 244 255
227 244 255
227 244 255
227 244 255
227 244 255
227 244 255
227 244 255
227 244 255
227 244 255
227 244 255
227 244 255
239 255 255
227 244 255
227 244 255
227 244 255
227 244 255
227 244 255
227 244 255
227 244 255
227 244 255
227 244 255
227 244 255
227 244 255
227 244 255
227 244 255
227 244 255
227 244 255
227 244 255
227 244 255
227 244 255
227 244 255
227 244 255
227 244 255
227 244 255
227 244 255
227 244 255
227 244 255
227 244 255
227 244 255
227 244 255
227 244 255
227 244 255
227 244 255
227 244 255
227 244 255
227 244 255
227 244 255
227 244 255
227 244 255
227 244 255
227 244 255
227 244 255
227 244 255
227 244 255
227 244 255
227 244 255
227 244 255
227 244 255
227 244 255
227 244 255
227 244 255
227 244 255
227 244 255
227 244 255
227 244 255
227 244 255
227 244 255
227 244 255
227 244 255
227 244 255
227 244 255
239 255 255
227 244 255
227 244 255
227 244 255
227 244 255
227 244 255
227 244 255
227 244 255
227 244 255
227 244 255
227 244 255
227 244 255
227 244 255
227 244 255
227 244 255
227 244 255
227 244 255
227 244 255
227 244 255
227 244 255
227 244 255
227 244 255
227 244 255
227 244 255
227 244 255
227 244 255
227 244 255
227 244 255
227 244 255
227 244 255
227 244 255
227 244 255
227 244 255
227 244 255
227 244 255
227 244 255
227 244 255
239 255 255
227 244 255
227 244 255
227 244 255
227 244 255
227 244 255
227 244 255
227 244 255
227 244 255
227 244 255
227 244 255
227 244 255
227 244 255
227 244 255
227 244 255
227 244 255
227 244 255
227 244 255
227 244 255
227 244 255
227 244 255
227 244 255
227 244 255
227 244 255
227 244 255
227 244 255
227 244 255
227 244 255
227 244 255
227 244 255
227 244 255
227 244 255
227 244 255
227 244 255
227 244 255
227 244 255
227 244 255
239 255 255
227 244 255
227 244 255
227 244 255
227 244 255
227 244 255
227 244 255
227 244 255
227 244 255
227 244 255
227 244 255
227 244 255
227 244 255
227 244 255
227 244 255
227 244 255
227 244 255
227 244 255
227 244 255
227 244 255
227 244 255
227 244 255
227 244 255
227 244 255
227 244 255
227 244 255
227 244 255
227 244 255
227 244 255
227 244 255
227 244 255
227 244 255
227 244 255
227 244 255
227 244 255
227 244 255
227 244 255
239 255 255
227 244 255
227 244 255
227 244 255
227 244 255
227 244 255
227 244 255
227 244 255
227 244 255
227 244 255
227 244 255
227 244 255
227 244 255
227 244 255
227 244 255
227 244 255
227 244 255
227 244 255
227 244 255
227 244 255
227 244 255
227 244 255
227 244 255
227 244 255
227 244 255
227 244 255
227 244 255
227 244 255
227 244 255
227 244 255
227 244 255
227 244 255
227 244 255
227 244 255
227 244 255
227 244 255
227 244 255
239 255 255
227 244 255
227 244 255
227 244 255
227 244 255
227 244 255
227 244 255
227 244 255
227 244 255
227 244 255
227 244 255
227 244 255
227 244 255
227 244 255
227 244 255
227 244 255
227 244 255
227 244 255
227 244 255
227 244 255
227 244 255
227 244 255
227 244 255
227 244 255
227 244 255
227 244 255
227 244 255
227 244 255
227 244 255
227 244 255
227 244 255
227 244 255
227 244 255
227 244 255
227 244 255
227 244 255
227 244 255
239 255 255
227 244 255
227 244 255
227 244 255
227 244 255
227 244 255
227 244 255
227 244 255
227 244 255
227 244 255
227 244 255
227 244 255
227 244 255
227 244 255
227 244 255
227 244 255
227 244 255
227 244 255
227 244 255
227 244 255
227 244 255
227 244 255
227 244 255
227 244 255
227 244 255
227 244 255
227 244 255
227 244 255
227 244 255
227 244 255
227 244 255
227 244 255
227 244 255
227 244 255
227 244 255
227 244 255
227 244 255
239 255 255
227 244 255
227 244 255
227 244 255
227 244 255
227 244 255
227 244 255
227 244 255
227 244 255
227 244 255
227 244 255
227 244 255
227 244 255
227 244 255
227 244 255
227 244 255
227 244 255
227 244 255
227 244 255
227 244 255
227 244 255
227 244 255
227 244 255
227 244 255
227 244 255
227 244 255
227 244 255
227 244 255
227 244 255
227 244 255
227 244 255
227 244 255
227 244 255
227 244 255
227 244 255
227 244 255
227 244 255
239 255 255
227 244 255
227 244 255
227 244 255
227 244 255
227 244 255
227 244 255
227 244 255
227 244 255
227 244 255
227 244 255
227 244 255
227 244 255
227 244 255
227 244 255
227 244 255
227 244 255
227 244 255
227 244 255
227 244 255
227 244 255
227 244 255
227 244 255
227 244 255
227 244 255
227 244 255
227 244 255
227 244 255
227 244 255
227 244 255
227 244 255
227 244 255
227 244 255
227 244 255
227 244 255
227 244 255
227 244 255
227 244 255
227 244 255
227 244 255
227 244 255
227 244 255
227 244 255
227 244 255
227 244 255
227 244 255
227 244 255
227 244 255
227 244 255
227 244 255
227 244 255
227 244 255
227 244 255
227 244 255
227 244 255
227 244 255
227 244 255
227 244 255
227 244 255
227 244 255
239 255 255
227 244 255
227 244 255
227 244 255
227 244 255
227 244 255
227 244 255
227 244 255
227 244 255
227 244 255
227 244 255
227 244 255
227 244 255
227 244 255
227 244 255
227 244 255
227 244 255
227 244 255
227 244 255
227 244 255
227 244 255
227 244 255
227 244 255
227 244 255
227 244 255
227 244 255
227 244 255
227 244 255
227 244 255
227 244 255
227 244 255
227 244 255
227 244 255
227 244 255
227 244 255
227 244 255
227 244 255
239 255 255
227 244 255
227 244 255
227 244 255
227 244 255
227 244 255
227 244 255
227 244 255
227 244 255
227 244 255
227 244 255
227 244 255
227 244 255
227 244 255
227 244 255
227 244 255
227 244 255
227 244 255
227 244 255
227 244 255
227 244 255
227 244 255
227 244 255
227 244 255
227 244 255
227 244 255
227 244 255
227 244 255
227 244 255
227 244 255
227 244 255
227 244 255
227 244 255
227 244 255
227 244 255
227 244 255
227 244 255
239 255 255
227 244 255
227 244 255
227 244 255
227 244 255
227 244 255
227 244 255
227 244 255
227 244 255
227 244 255
227 244 255
227 244 255
227 244 255
227 244 255
227 244 255
227 244 255
227 244 255
227 244 255
227 244 255
227 244 255
227 244 255
227 244 255
227 244 255
227 244 255
227 244 255
227 244 255
227 244 255
227 244 255
227 244 255
227 244 255
227 244 255
227 244 255
227 244 255
227 244 255
227 244 255
227 244 255
227 244 255
239 255 255
227 244 255
227 244 255
227 244 255
227 244 255
227 244 255
227 244 255
227 244 255
227 244 255
227 244 255
227 244 255
227 244 255
227 244 255
227 244 255
227 244 255
227 244 255
227 244 255
227 244 255
227 244 255
227 244 255
227 244 255
227 244 255
227 244 255
227 244 255
227 244 255
227 244 255
227 244 255
227 244 255
227 244 255
227 244 255
227 244 255
227 244 255
227 244 255
227 244 255
227 244 255
227 244 255
227 244 255
239 255 255
227 244 255
227 244 255
227 244 255
227 244 255
227 244 255
227 244 255
227 244 255
227 244 255
227 244 255
227 244 255
227 244 255
227 244 255
227 244 255
227 244 255
227 244 255
227 244 255
227 244 255
227 244 255
227 244 255
227 244 255
227 244 255
227 244 255
227 244 255
227 244 255
227 244 255
227 244 255
227 244 255
227 244 255
227 244 255
227 244 255
227 244 255
227 244 255
227 244 255
227 244 255
227 244 255
227 244 255
239 255 255
227 244 255
227 244 255
227 244 255
227 244 255
227 244 255
227 244 255
227 244 255
227 244 255
227 244 255
227 244 255
227 244 255
227 244 255
227 244 255
227 244 255
227 244 255
227 244 255
227 244 255
227 244 255
227 244 255
227 244 255
227 244 255
227 244 255
227 244 255
227 244 255
227 244 255
227 244 255
227 244 255
227 244 255
227 244 255
227 244 255
227 244 255
227 244 255
227 244 255
227 244 255
227 244 255
227 244 255
239 255 255
227 244 255
227 244 255
227 244 255
227 244 255
227 244 255
227 244 255
227 244 255
227 244 255
227 244 255
227 244 255
227 244 255
227 244 255
227 244 255
227 244 255
227 244 255
227 244 255
227 244 255
227 244 255
227 244 255
227 244 255
227 244 255
227 244 255
227 244 255
227 244 255
227 244 255
227 244 255
227 244 255
227 244 255
227 244 255
227 244 255
227 244 255
227 244 255
227 244 255
227 244 255
227 244 255
227 244 255
239 255 255
227 244 255
227 244 255
227 244 255
227 244 255
227 244 255
227 244 255
227 244 255
227 244 255
227 244 255
227 244 255
227 244 255
227 244 255
227 244 255
227 244 255
227 244 255
227 244 255
227 244 255
227 244 255
227 244 255
227 244 255
227 244 255
227 244 255
227 244 255
227 244 255
227 244 255
227 244 255
227 244 255
227 244 255
227 244 255
227 244 255
227 244 255
227 244 255
227 244 255
227 244 255
227 244 255
227 244 255
239 255 255
227 244 255
227 244 255
227 244 255
227 244 255
227 244 255
227 244 255
227 244 255
227 244 255
227 244 255
227 244 255
227 244 255
227 244 255
227 244 255
227 244 255
227 244 255
227 244 255
227 244 255
227 244 255
227 244 255
227 244 255
227 244 255
227 244 255
239 255 255
227 244 255
227 244 255
227 244 255
227 244 255
227 244 255
227 244 255
227 244 255
227 244 255
227 244 255
227 244 255
227 244 255
227 244 255
227 244 255
227 244 255
227 244 255
227 244 255
227 244 255
227 244 255
227 244 255
227 244 255
227 244 255
227 244 255
227 244 255
227 244 255
227 244 255
227 244 255
227 244 255
227 244 255
227 244 255
227 244 255
227 244 255
227 244 255
227 244 255
227 244 255
227 244 255
227 244 255
239 255 255
227 244 255
227 244 255
227 244 255
227 244 255
227 244 255
227 244 255
227 244 255
227 244 255
227 244 255
227 244 255
227 244 255
227 244 255
227 244 255
227 244 255
227 244 255
227 244 255
227 244 255
227 244 255
227 244 255
227 244 255
227 244 255
227 244 255
227 244 255
227 244 255
227 244 255
227 244 255
227 244 255
227 244 255
227 244 255
227 244 255
227 244 255
227 244 255
227 244 255
227 244 255
227 244 255
227 244 255
239 255 255
227 244 255
227 244 255
227 244 255
227 244 255
227 244 255
227 244 255
227 244 255
227 244 255
227 244 255
227 244 255
227 244 255
227 244 255
227 244 255
227 244 255
227 244 255
227 244 255
227 244 255
227 244 255
227 244 255
227 244 255
227 244 255
227 244 255
227 244 255
227 244 255
227 244 255
227 244 255
227 244 255
227 244 255
227 244 255
227 244 255
227 244 255
227 244 255
227 244 255
227 244 255
227 244 255
227 244 255
239 255 255
227 244 255
227 244 255
227 244 255
227 244 255
227 244 255
227 244 255
227 244 255
227 244 255
227 244 255
227 244 255
227 244 255
227 244 255
227 244 255
227 244 255
227 244 255
227 244 255
227 244 255
227 244 255
227 244 255
227 244 255
227 244 255
227 244 255
227 244 255
227 244 255
227 244 255
227 244 255
227 244 255
227 244 255
227 244 255
227 244 255
227 244 255
227 244 255
227 244 255
227 244 255
227 244 255
227 244 255
239 255 255
227 244 255
227 244 255
227 244 255
227 244 255
227 244 255
227 244 255
227 244 255
227 244 255
227 244 255
227 244 255
227 244 255
227 244 255
227 244 255
227 244 255
227 244 255
227 244 255
227 244 255
227 244 255
227 244 255
227 244 255
227 244 255
227 244 255
227 244 255
227 244 255
227 244 255
227 244 255
227 244 255
227 244 255
227 244 255
227 244 255
227 244 255
227 244 255
227 244 255
227 244 255
227 244 255
227 244 255
239 255 255
227 244 255
227 244 255
227 244 255
227 244 255
227 244 255
227 244 255
227 244 255
227 244 255
227 244 255
227 244 255
227 244 255
227 244 255
227 244 255
227 244 255
227 244 255
227 244 255
227 244 255
227 244 255
227 244 255
227 244 255
227 244 255
227 244 255
227 244 255
227 244 255
227 244 255
227 244 255
227 244 255
227 244 255
227 244 255
227 244 255
227 244 255
227 244 255
227 244 255
227 244 255
227 244 255
227 244 255
239 255 255
227 244 255
227 244 255
227 244 255
227 244 255
227 244 255
227 244 255
227 244 255
227 244 255
227 244 255
227 244 255
227 244 255
227 244 255
227 244 255
227 244 255
227 244 255
227 244 255
227 244 255
227 244 255
227 244 255
227 244 255
227 244 255
227 244 255
227 244 255
227 244 255
227 244 255
227 244 255
227 244 255
227 244 255
227 244 255
227 244 255
227 244 255
227 244 255
227 244 255
227 244 255
227 244 255
227 244 255
239 255 255
227 244 255
227 244 255
227 244 255
227 244 255
227 244 255
227 244 255
227 244 255
227 244 255
227 244 255
227 244 255
227 244 255
227 244 255
227 244 255
227 244 255
227 244 255
227 244 255
227 244 255
227 244 255
227 244 255
227 244 255
227 244 255
227 244 255
227 244 255
227 244 255
227 244 255
227 244 255
227 244 255
227 244 255
227 244 255
227 244 255
227 244 255
227 244 255
227 244 255
227 244 255
227 244 255
227 244 255
239 255 255
227 244 255
227 244 255
227 244 255
227 244 255
227 244 255
227 244 255
227 244 255
227 244 255
227 244 255
227 244 255
227 244 255
227 244 255
227 244 255
227 244 255
227 244 255
227 244 255
227 244 255
227 244 255
227 244 255
227 244 255
227 244 255
227 244 255
239 255 255
227 244 255
227 244 255
227 244 255
227 244 255
227 244 255
227 244 255
227 244 255
227 244 255
227 244 255
227 244 255
227 244 255
227 244 255
227 244 255
227 244 255
227 244 255
227 244 255
227 244 255
227 244 255
227 244 255
227 244 255
227 244 255
227 244 255
227 244 255
227 244 255
227 244 255
227 244 255
227 244 255
227 244 255
227 244 255
227 244 255
227 244 255
227 244 255
227 244 255
227 244 255
227 244 255
227 244 255
239 255 255
227 244 255
227 244 255
227 244 255
227 244 255
227 244 255
227 244 255
227 244 255
227 244 255
227 244 255
227 244 255
227 244 255
227 244 255
227 244 255
227 244 255
227 244 255
227 244 255
227 244 255
227 244 255
227 244 255
227 244 255
227 244 255
227 244 255
227 244 255
227 244 255
227 244 255
227 244 255
227 244 255
227 244 255
227 244 255
227 244 255
227 244 255
227 244 255
227 244 255
227 244 255
227 244 255
227 244 255
239 255 255
227 244 255
227 244 255
227 244 255
227 244 255
227 244 255
227 244 255
227 244 255
227 244 255
227 244 255
227 244 255
227 244 255
227 244 255
227 244 255
227 244 255
227 244 255
227 244 255
227 244 255
227 244 255
227 244 255
227 244 255
227 244 255
227 244 255
227 244 255
227 244 255
227 244 255
227 244 255
227 244 255
227 244 255
227 244 255
227 244 255
227 244 255
227 244 255
227 244 255
227 244 255
227 244 255
227 244 255
239 255 255
227 244 255
227 244 255
227 244 255
227 244 255
227 244 255
227 244 255
227 244 255
227 244 255
227 244 255
227 244 255
227 244 255
227 244 255
227 244 255
227 244 255
227 244 255
227 244 255
227 244 255
227 244 255
227 244 255
227 244 255
227 244 255
227 244 255
227 244 255
227 244 255
227 244 255
227 244 255
227 244 255
227 244 255
227 244 255
227 244 255
227 244 255
227 244 255
227 244 255
227 244 255
227 244 255
227 244 255
239 255 255
227 244 255
227 244 255
227 244 255
227 244 255
227 244 255
227 244 255
227 244 255
227 244 255
227 244 255
227 244 255
227 244 255
227 244 255
227 244 255
227 244 255
227 244 255
227 244 255
227 244 255
227 244 255
227 244 255
227 244 255
227 244 255
227 244 255
227 244 255
227 244 255
227 244 255
227 244 255
227 244 255
227 244 255
227 244 255
227 244 255
227 244 255
227 244 255
227 244 255
227 244 255
227 244 255
227 244 255
239 255 255
227 244 255
227 244 255
227 244 255
227 244 255
227 244 255
227 244 255
227 244 255
227 244 255
227 244 255
227 244 255
227 244 255
227 244 255
227 244 255
227 244 255
227 244 255
227 244 255
227 244 255
227 244 255
227 244 255
227 244 255
227 244 255
227 244 255
227 244 255
227 244 255
227 244 255
227 244 255
227 244 255
227 244 255
227 244 255
227 244 255
227 244 255
227 244 255
227 244 255
227 244 255
227 244 255
227 244 255
239 255 255
227 244 255
227 244 255
227 244 255
227 244 255
227 244 255
227 244 255
227 244 255
227 244 255
227 244 255
227 244 255
227 244 255
227 244 255
227 244 255
227 244 255
227 244 255
227 244 255
227 244 255
227 244 255
227 244 255
227 244 255
227 244 255
227 244 255
227 244 255
227 244 255
227 244 255
227 244 255
227 244 255
227 244 255
227 244 255
227 244 255
227 244 255
227 244 255
227 244 255
227 244 255
227 244 255
227 244 255
239 255 255
227 244 255
227 244 255
227 244 255
227 244 255
227 244 255
227 244 255
227 244 255
227 244 255
227 244 255
227 244 255
227 244 255
227 244 255
227 244 255
227 244 255
227 244 255
227 244 255
227 244 255
227 244 255
227 244 255
227 244 255
227 244 255
227 244 255
227 244 255
227 244 255
227 244 255
227 244 255
227 244 255
227 244 255
227 244 255
227 244 255
227 244 255
227 244 255
227 244 255
227 244 255
227 244 255
227 244 255
239 255 255
227 244 255
227 244 255
227 244 255
227 244 255
227 244 255
227 244 255
227 244 255
227 244 255
227 244 255
227 244 255
227 244 255
227 244 255
227 244 255
227 244 255
227 244 255
227 244 255
227 244 255
227 244 255
227 244 255
227 244 255
227 244 255
227 244 255
239 255 255
227 244 255
227 244 255
227 244 255
227 244 255
227 244 255
227 244 255
227 244 255
227 244 255
227 244 255
227 244 255
227 244 255
227 244 255
227 244 255
227 244 255
227 244 255
227 244 255
227 244 255
227 244 255
227 244 255
227 244 255
227 244 255
227 244 255
227 244 255
227 244 255
227 244 255
227 244 255
227 244 255
227 244 255
227 244 255
227 244 255
227 244 255
227 244 255
227 244 255
227 244 255
227 244 255
227 244 255
239 255 255
227 244 255
227 244 255
227 244 255
227 244 255
227 244 255
227 244 255
227 244 255
227 244 255
227 244 255
227 244 255
227 244 255
227 244 255
227 244 255
227 244 255
227 244 255
227 244 255
227 244 255
227 244 255
227 244 255
227 244 255
227 244 255
227 244 255
227 244 255
227 244 255
227 244 255
227 244 255
227 244 255
227 244 255
227 244 255
227 244 255
227 244 255
227 244 255
227 244 255
227 244 255
227 244 255
227 244 255
239 255 255
227 244 255
227 244 255
227 244 255
227 244 255
227 244 255
227 244 255
227 244 255
227 244 255
227 244 255
227 244 255
227 244 255
227 244 255
227 244 255
227 244 255
227 244 255
227 244 255
227 244 255
227 244 255
227 244 255
227 244 255
227 244 255
227 244 255
227 244 255
227 244 255
227 244 255
227 244 255
227 244 255
227 244 255
227 244 255
227 244 255
227 244 255
227 244 255
227 244 255
227 244 255
227 244 255
227 244 255
239 255 255
227 244 255
227 244 255
227 244 255
227 244 255
227 244 255
227 244 255
227 244 255
227 244 255
227 244 255
227 244 255
227 244 255
227 244 255
227 244 255
227 244 255
227 244 255
227 244 255
227 244 255
227 244 255
227 244 255
227 244 255
227 244 255
227 244 255
227 244 255
227 244 255
227 244 255
227 244 255
227 244 255
227 244 255
227 244 255
227 244 255
227 244 255
227 244 255
227 244 255
227 244 255
227 244 255
227 244 255
239 255 255
227 244 255
227 244 255
227 244 255
227 244 255
227 244 255
227 244 255
227 244 255
227 244 255
227 244 255
227 244 255
227 244 255
227 244 255
227 244 255
227 244 255
227 244 255
227 244 255
227 244 255
227 244 255
227 244 255
227 244 255
227 244 255
227 244 255
227 244 255
227 244 255
227 244 255
227 244 255
227 244 255
227 244 255
227 244 255
227 244 255
227 244 255
227 244 255
227 244 255
227 244 255
227 244 255
227 244 255
239 255 255
227 244 255
227 244 255
227 244 255
227 244 255
227 244 255
227 244 255
227 244 255
227 244 255
227 244 255
227 244 255
227 244 255
227 244 255
227 244 255
227 244 255
227 244 255
227 244 255
227 244 255
227 244 255
227 244 255
227 244 255
227 244 255
227 244 255
227 244 255
227 244 255
227 244 255
227 244 255
227 244 255
227 244 255
227 244 255
227 244 255
227 244 255
227 244 255
227 244 255
227 244 255
227 244 255
227 244 255
239 255 255
227 244 255
227 244 255
227 244 255
227 244 255
227 244 255
227 244 255
227 244 255
227 244 255
227 244 255
227 244 255
227 244 255
227 244 255
227 244 255
227 244 255
227 244 255
227 244 255
227 244 255
227 244 255
227 244 255
227 244 255
227 244 255
227 244 255
227 244 255
227 244 255
227 244 255
227 244 255
227 244 255
227 244 255
227 244 255
227 244 255
227 244 255
227 244 255
227 244 255
227 244 255
227 244 255
227 244 255
239 255 255
227 244 255
227 244 255
227 244 255
227 244 255
227 244 255
227 244 255
227 244 255
227 244 255
227 244 255
227 244 255
227 244 255
227 244 255
227 244 255
227 244 255
227 244 255
227 244 255
227 244 255
227 244 255
227 244 255
227 244 255
227 244 255
227 244 255
227 244 255
227 244 255
227 244 255
227 244 255
227 244 255
227 244 255
227 244 255
227 244 255
227 244 255
227 244 255
227 244 255
227 244 255
227 244 255
227 244 255
239 255 255
227 244 255
227 244 255
227 244 255
227 244 255
227 244 255
227 244 255
227 244 255
227 244 255
227 244 255
227 244 255
227 244 255
227 244 255
227 244 255
227 244 255
227 244 255
227 244 255
227 244 255
227 244 255
227 244 255
227 244 255
227 244 255
227 244 255
239 255 255
227 244 255
227 244 255
227 244 255
227 244 255
227 244 255
227 244 255
227 244 255
227 244 255
227 244 255
227 244 255
227 244 255
227 244 255
227 244 255
227 244 255
227 244 255
227 244 255
227 244 255
227 244 255
227 244 255
227 244 255
227 244 255
227 244 255
227 244 255
227 244 255
227 244 255
227 244 255
227 244 255
227 244 255
227 244 255
227 244 255
227 244 255
227 244 255
227 244 255
227 244 255
227 244 255
227 244 255
239 255 255
227 244 255
227 244 255
227 244 255
227 244 255
227 244 255
227 244 255
227 244 255
227 244 255
227 244 255
227 244 255
227 244 255
227 244 255
227 244 255
227 244 255
227 244 255
227 244 255
227 244 255
227 244 255
227 244 255
227 244 255
227 244 255
227 244 255
227 244 255
227 244 255
227 244 255
227 244 255
227 244 255
227 244 255
227 244 255
227 244 255
227 244 255
227 244 255
227 244 255
227 244 255
227 244 255
227 244 255
239 255 255
227 244 255
227 244 255
227 244 255
227 244 255
227 244 255
227 244 255
227 244 255
227 244 255
227 244 255
227 244 255
227 244 255
227 244 255
227 244 255
227 244 255
227 244 255
227 244 255
227 244 255
227 244 255
227 244 255
227 244 255
227 244 255
227 244 255
227 244 255
227 244 255
227 244 255
227 244 255
227 244 255
227 244 255
227 244 255
227 244 255
227 244 255
227 244 255
227 244 255
227 244 255
227 244 255
227 244 255
239 255 255
227 244 255
227 244 255
227 244 255
227 244 255
227 244 255
227 244 255
227 244 255
227 244 255
227 244 255
227 244 255
227 244 255
227 244 255
227 244 255
227 244 255
227 244 255
227 244 255
227 244 255
227 244 255
227 244 255
227 244 255
227 244 255
227 244 255
227 244 255
227 244 255
227 244 255
227 244 255
227 244 255
227 244 255
227 244 255
227 244 255
227 244 255
227 244 255
227 244 255
227 244 255
227 244 255
227 244 255
239 255 255
227 244 255
227 244 255
227 244 255
227 244 255
227 244 255
227 244 255
227 244 255
227 244 255
227 244 255
227 244 255
227 244 255
227 244 255
227 244 255
227 244 255
227 244 255
227 244 255
227 244 255
227 244 255
227 244 255
227 244 255
227 244 255
227 244 255
227 244 255
227 244 255
227 244 255
227 244 255
227 244 255
227 244 255
227 244 255
227 244 255
227 244 255
227 244 255
227 244 255
227 244 255
227 244 255
227 244 255
239 255 255
227 244 255
227 244 255
227 244 255
227 244 255
227 244 255
227 244 255
227 244 255
227 244 255
227 244 255
227 244 255
227 244 255
227 244 255
227 244 255
227 244 255
227 244 255
227 244 255
227 244 255
227 244 255
227 244 255
227 244 255
227 244 255
227 244 255
227 244 255
227 244 255
227 244 255
227 244 255
227 244 255
227 244 255
227 244 255
227 244 255
227 244 255
227 244 255
227 244 255
227 244 255
227 244 255
227 244 255
239 255 255
227 244 255
227 244 255
227 244 255
227 244 255
227 244 255
227 244 255
227 244 255
227 244 255
227 244 255
227 244 255
227 244 255
227 244 255
227 244 255
227 244 255
227 244 255
227 244 255
227 244 255
227 244 255
227 244 255
227 244 255
227 244 255
227 244 255
227 244 255
227 244 255
227 244 255
227 244 255
227 244 255
227 244 255
227 244 255
227 244 255
227 244 255
227 244 255
227 244 255
227 244 255
227 244 255
227 244 255
239 255 255
227 244 255
227 244 255
227 244 255
227 244 255
227 244 255
227 244 255
227 244 255
227 244 255
227 244 255
227 244 255
227 244 255
227 244 255
227 244 255
227 244 255
227 244 255
227 244 255
227 244 255
227 244 255
227 244 255
227 244 255
227 244 255
227 244 255
227 244 255
227 244 255
227 244 255
227 244 255
227 244 255
227 244 255
227 244 255
227 244 255
227 244 255
227 244 255
227 244 255
227 244 255
227 244 255
227 244 255
239 255 255
227 244 255
227 244 255
227 244 255
227 244 255
227 244 255
227 244 255
227 244 255
227 244 255
227 244 255
227 244 255
227 244 255
227 244 255
227 244 255
227 244 255
227 244 255
227 244 255
227 244 255
227 244 255
227 244 255
227 244 255
227 244 255
227 244 255
239 255 255
227 244 255
227 244 255
227 244 255
227 244 255
227 244 255
227 244 255
227 244 255
227 244 255
227 244 255
227 244 255
227 244 255
227 244 255
227 244 255
227 244 255
227 244 255
227 244 255
227 244 255
227 244 255
227 244 255
227 244 255
227 244 255
227 244 255
227 244 255
227 244 255
227 244 255
227 244 255
227 244 255
227 244 255
227 244 255
227 244 255
227 244 255
227 244 255
227 244 255
227 244 255
227 244 255
227 244 255
239 255 255
227 244 255
227 244 255
227 244 255
227 244 255
227 244 255
227 244 255
227 244 255
227 244 255
227 244 255
227 244 255
227 244 255
227 244 255
227 244 255
227 244 255
227 244 255
227 244 255
227 244 255
227 244 255
227 244 255
227 244 255
227 244 255
227 244 255
227 244 255
227 244 255
227 244 255
227 244 255
227 244 255
227 244 255
227 244 255
227 244 255
227 244 255
227 244 255
227 244 255
227 244 255
227 244 255
227 244 255
239 255 255
227 244 255
227 244 255
227 244 255
227 244 255
227 244 255
227 244 255
227 244 255
227 244 255
227 244 255
227 244 255
227 244 255
227 244 255
227 244 255
227 244 255
227 244 255
227 244 255
227 244 255
227 244 255
227 244 255
227 244 255
227 244 255
227 244 255
227 244 255
227 244 255
227 244 255
227 244 255
227 244 255
227 244 255
227 244 255
227 244 255
227 244 255
227 244 255
227 244 255
227 244 255
227 244 255
227 244 255
239 255 255
227 244 255
227 244 255
227 244 255
227 244 255
227 244 255
227 244 255
227 244 255
227 244 255
227 244 255
227 244 255
227 244 255
227 244 255
227 244 255
227 244 255
227 244 255
227 244 255
227 244 255
227 244 255
227 244 255
227 244 255
227 244 255
227 244 255
227 244 255
227 244 255
227 244 255
227 244 255
227 244 255
227 244 255
227 244 255
227 244 255
227 244 255
227 244 255
227 244 255
227 244 255
227 244 255
227 244 255
239 255 255
227 244 255
227 244 255
227 244 255
227 244 255
227 244 255
227 244 255
227 244 255
227 244 255
227 244 255
227 244 255
227 244 255
227 244 255
227 244 255
227 244 255
227 244 255
227 244 255
227 244 255
227 244 255
227 244 255
227 244 255
227 244 255
227 244 255
227 244 255
227 244 255
227 244 255
227 244 255
227 244 255
227 244 255
227 244 255
227 244 255
227 244 255
227 244 255
227 244 255
227 244 255
227 244 255
227 244 255
239 255 255
227 244 255
227 244 255
227 244 255
227 244 255
227 244 255
227 244 255
227 244 255
227 244 255
227 244 255
227 244 255
227 244 255
227 244 255
227 244 255
227 244 255
227 244 255
227 244 255
227 244 255
227 244 255
227 244 255
227 244 255
227 244 255
227 244 255
227 244 255
227 244 255
227 244 255
227 244 255
227 244 255
227 244 255
227 244 255
227 244 255
227 244 255
227 244 255
227 244 255
227 244 255
227 244 255
227 244 255
239 255 255
227 244 255
227 244 255
227 244 255
227 244 255
227 244 255
227 244 255
227 244 255
227 244 255
227 244 255
227 244 255
227 244 255
227 244 255
227 244 255
227 244 255
227 244 255
227 244 255
227 244 255
227 244 255
227 244 255
227 244 255
227 244 255
227 244 255
227 244 255
227 244 255
227 244 255
227 244 255
227 244 255
227 244 255
227 244 255
227 244 255
227 244 255
227 244 255
227 244 255
227 244 255
227 244 255
227 244 255
239 255 255
227 244 255
227 244 255
227 244 255
227 244 255
227 244 255
227 244 255
227 244 255
227 244 255
227 244 255
227 244 255
227 244 255
227 244 255
227 244 255
227 244 255
227 244 255
227 244 255
227 244 255
227 244 255
227 244 255
227 244 255
227 244 255
227 244 255
227 244 255
227 244 255
227 244 255
227 244 255
227 244 255
227 244 255
227 244 255
227 244 255
227 244 255
227 244 255
227 244 255
227 244 255
227 244 255
227 244 255
239 255 255
227 244 255
227 244 255
227 244 255
227 244 255
227 244 255
227 244 255
227 244 255
227 244 255
227 244 255
227 244 255
227 244 255
227 244 255
227 244 255
227 244 255
227 244 255
227 244 255
227 244 255
227 244 255
227 244 255
227 244 255
227 244 255
227 244 255
239 255 255
227 244 255
227 244 255
227 244 255
227 244 255
227 244 255
227 244 255
227 244 255
227 244 255
227 244 255
227 244 255
227 244 255
227 244 255
227 244 255
227 244 255
227 244 255
227 244 255
227 244 255
227 244 255
227 244 255
227 244 255
227 244 255
227 244 255
227 244 255
227 244 255
227 244 255
227 244 255
227 244 255
227 244 255
227 244 255
227 244 255
227 244 255
227 244 255
227 244 255
227 244 255
227 244 255
227 244 255
239 255 255
227 244 255
227 244 255
227 244 255
227 244 255
227 244 255
227 244 255
227 244 255
227 244 255
227 244 255
227 244 255
227 244 255
227 244 255
227 244 255
227 244 255
227 244 255
227 244 255
227 244 255
227 244 255
227 244 255
227 244 255
227 244 255
227 244 255
227 244 255
227 244 255
227 244 255
227 244 255
227 244 255
227 244 255
227 244 255
227 244 255
227 244 255
227 244 255
227 244 255
227 244 255
227 244 255
227 244 255
239 255 255
227 244 255
227 244 255
227 244 255
227 244 255
227 244 255
227 244 255
227 244 255
227 244 255
227 244 255
227 244 255
227 244 255
227 244 255
227 244 255
227 244 255
227 244 255
227 244 255
227 244 255
227 244 255
227 244 255
227 244 255
227 244 255
227 244 255
227 244 255
227 244 255
227 244 255
227 244 255
227 244 255
227 244 255
227 244 255
227 244 255
227 244 255
227 244 255
227 244 255
227 244 255
227 244 255
227 244 255
239 255 255
227 244 255
227 244 255
227 244 255
227 244 255
227 244 255
227 244 255
227 244 255
227 244 255
227 244 255
227 244 255
227 244 255
227 244 255
227 244 255
227 244 255
227 244 255
227 244 255
227 244 255
227 244 255
227 244 255
227 244 255
227 244 255
227 244 255
227 244 255
227 244 255
227 244 255
227 244 255
227 244 255
227 244 255
227 244 255
227 244 255
227 244 255
227 244 255
227 244 255
227 244 255
227 244 255
227 244 255
239 255 255
227 244 255
227 244 255
227 244 255
227 244 255
227 244 255
227 244 255
227 244 255
227 244 255
227 244 255
227 244 255
227 244 255
227 244 255
227 244 255
227 244 255
227 244 255
227 244 255
227 244 255
227 244 255
227 244 255
227 244 255
227 244 255
227 244 255
227 244 255
227 244 255
227 244 255
227 244 255
227 244 255
227 244 255
227 244 255
227 244 255
227 244 255
227 244 255
227 244 255
227 244 255
227 244 255
227 244 255
239 255 255
227 244 255
227 244 255
227 244 255
227 244 255
227 244 255
227 244 255
227 244 255
227 244 255
227 244 255
227 244 255
227 244 255
227 244 255
227 244 255
227 244 255
227 244 255
227 244 255
227 244 255
227 244 255
227 244 255
227 244 255
227 244 255
227 244 255
227 244 255
227 244 255
227 244 255
227 244 255
227 244 255
227 244 255
227 244 255
227 244 255
227 244 255
227 244 255
227 244 255
227 244 255
227 244 255
227 244 255
239 255 255
227 244 255
227 244 255
227 244 255
227 244 255
227 244 255
227 244 255
227 244 255
227 244 255
227 244 255
227 244 255
227 244 255
227 244 255
227 244 255
227 244 255
227 244 255
227 244 255
227 244 255
227 244 255
227 244 255
227 244 255
227 244 255
227 244 255
227 244 255
227 244 255
227 244 255
227 244 255
227 244 255
227 244 255
227 244 255
227 244 255
227 244 255
227 244 255
227 244 255
227 244 255
227 244 255
227 244 255
239 255 255
227 244 255
227 244 255
227 244 255
227 244 255
227 244 255
227 244 255
227 244 255
227 244 255
227 244 255
227 244 255
227 244 255
227 244 255
227 244 255
227 244 255
227 244 255
227 244 255
227 244 255
227 244 255
227 244 255
227 244 255
227 244 255
227 244 255
227 244 255
227 244 255
227 244 255
227 244 255
227 244 255
227 244 255
227 244 255
227 244 255
227 244 255
227 244 255
227 244 255
227 244 255
227 244 255
227 244 255
239 255 255
227 244 255
227 244 255
227 244 255
227 244 255
227 244 255
227 244 255
227 244 255
227 244 255
227 244 255
227 244 255
227 244 255
227 244 255
227 244 255
227 244 255
227 244 255
227 244 255
227 244 255
227 244 255
227 244 255
227 244 255
227 244 255
227 244 255
239 255 255
227 244 255
227 244 255
227 244 255
227 244 255
227 244 255
227 244 255
227 244 255
227 244 255
227 244 255
227 244 255
227 244 255
227 244 255
227 244 255
227 244 255
227 244 255
227 244 255
227 244 255
227 244 255
227 244 255
227 244 255
227 244 255
227 244 255
227 244 255
227 244 255
227 244 255
227 244 255
227 244 255
227 244 255
227 244 255
227 244 255
227 244 255
227 244 255
227 244 255
227 244 255
227 244 255
227 244 255
239 255 255
227 244 255
227 244 255
227 244 255
227 244 255
227 244 255
227 244 255
227 244 255
227 244 255
227 244 255
227 244 255
227 244 255
227 244 255
227 244 255
227 244 255
227 244 255
227 244 255
227 244 255
227 244 255
227 244 255
227 244 255
227 244 255
227 244 255
227 244 255
227 244 255
227 244 255
227 244 255
227 244 255
227 244 255
227 244 255
227 244 255
227 244 255
227 244 255
227 244 255
227 244 255
227 244 255
227 244 255
239 255 255
227 244 255
227 244 255
227 244 255
227 244 255
227 244 255
227 244 255
227 244 255
227 244 255
227 244 255
227 244 255
227 244 255
227 244 255
227 244 255
227 244 255
227 244 255
227 244 255
227 244 255
227 244 255
227 244 255
227 244 255
227 244 255
227 244 255
227 244 255
227 244 255
227 244 255
227 244 255
227 244 255
227 244 255
227 244 255
227 244 255
227 244 255
227 244 255
227 244 255
227 244 255
227 244 255
227 244 255
239 255 255
227 244 255
227 244 255
227 244 255
227 244 255
227 244 255
227 244 255
227 244 255
227 244 255
227 244 255
227 244 255
227 244 255
227 244 255
227 244 255
227 244 255
227 244 255
227 244 255
227 244 255
227 244 255
227 244 255
227 244 255
227 244 255
227 244 255
227 244 255
227 244 255
227 244 255
227 244 255
227 244 255
227 244 255
227 244 255
227 244 255
227 244 255
227 244 255
227 244 255
227 244 255
227 244 255
227 244 255
239 255 255
227 244 255
227 244 255
227 244 255
227 244 255
227 244 255
227 244 255
227 244 255
227 244 255
227 244 255
227 244 255
227 244 255
227 244 255
227 244 255
227 244 255
227 244 255
227 244 255
227 244 255
227 244 255
227 244 255
227 244 255
227 244 255
227 244 255
227 244 255
227 244 255
227 244 255
227 244 255
227 244 255
227 244 255
227 244 255
227 244 255
227 244 255
227 244 255
227 244 255
227 244 255
227 244 255
227 244 255
239 255 255
227 244 255
227 244 255
227 244 255
227 244 255
227 244 255
227 244 255
227 244 255
227 244 255
227 244 255
227 244 255
227 244 255
227 244 255
227 244 255
227 244 255
227 244 255
227 244 255
227 244 255
227 244 255
227 244 255
227 244 255
227 244 255
227 244 255
227 244 255
227 244 255
227 244 255
227 244 255
227 244 255
227 244 255
227 244 255
227 244 255
227 244 255
227 244 255
227 244 255
227 244 255
227 244 255
227 244 255
239 255 255
227 244 255
227 244 255
227 244 255
227 244 255
227 244 255
227 244 255
227 244 255
227 244 255
227 244 255
227 244 255
227 244 255
227 244 255
227 244 255
227 244 255
227 244 255
227 244 255
227 244 255
227 244 255
227 244 255
227 244 255
227 244 255
227 244 255
227 244 255
227 244 255
227 244 255
227 244 255
227 244 255
227 244 255
227 244 255
227 244 255
227 244 255
227 244 255
227 244 255
227 244 255
227 244 255
227 244 255
239 255 255
227 244 255
227 244 255
227 244 255
227 244 255
227 244 255
227 244 255
227 244 255
227 244 255
227 244 255
227 244 255
227 244 255
227 244 255
227 244 255
227 244 255
227 244 255
227 244 255
227 244 255
227 244 255
227 244 255
227 244 255
227 244 255
227 244 255
227 244 255
227 244 255
227 244 255
227 244 255
227 244 255
227 244 255
227 244 255
227 244 255
227 244 255
227 244 255
227 244 255
227 244 255
227 244 255
227 244 255
239 255 255
227 244 255
227 244 255
227 244 255
227 244 255
227 244 255
227 244 255
227 244 255
227 244 255
227 244 255
227 244 255
227 244 255
227 244 255
227 244 255
227 244 255
227 244 255
227 244 255
227 244 255
227 244 255
227 244 255
227 244 255
227 244 255
227 244 255
239 255 255
227 244 255
227 244 255
227 244 255
227 244 255
227 244 255
227 244 255
227 244 255
227 244 255
227 244 255
227 244 255
227 244 255
227 244 255
227 244 255
227 244 255
227 244 255
227 244 255
227 244 255
227 244 255
227 244 255
227 244 255
227 244 255
227 244 255
227 244 255
227 244 255
227 244 255
227 244 255
227 244 255
227 244 255
227 244 255
227 244 255
227 244 255
227 244 255
227 244 255
227 244 255
227 244 255
227 244 255
239 255 255
227 244 255
227 244 255
227 244 255
227 244 255
227 244 255
227 244 255
227 244 255
227 244 255
227 244 255
227 244 255
227 244 255
227 244 255
227 244 255
227 244 255
227 244 255
227 244 255
227 244 255
227 244 255
227 244 255
227 244 255
227 244 255
227 244 255
227 244 255
227 244 255
227 244 255
227 244 255
227 244 255
227 244 255
227 244 255
227 244 255
227 244 255
227 244 255
227 244 255
227 244 255
227 244 255
227 244 255
239 255 255
227 244 255
227 244 255
227 244 255
227 244 255
227 244 255
227 244 255
227 244 255
227 244 255
227 244 255
227 244 255
227 244 255
227 244 255
227 244 255
227 244 255
227 244 255
227 244 255
227 244 255
227 244 255
227 244 255
227 244 255
227 244 255
227 244 255
227 244 255
227 244 255
227 244 255
227 244 255
227 244 255
227 244 255
227 244 255
227 244 255
227 244 255
227 244 255
227 244 255
227 244 255
227 244 255
227 244 255
239 255 255
227 244 255
227 244 255
227 244 255
227 244 255
227 244 255
227 244 255
227 244 255
227 244 255
227 244 255
227 244 255
227 244 255
227 244 255
227 244 255
227 244 255
227 244 255
227 244 255
227 244 255
227 244 255
227 244 255
227 244 255
227 244 255
227 244 255
227 244 255
227 244 255
227 244 255
227 244 255
227 244 255
227 244 255
227 244 255
227 244 255
227 244 255
227 244 255
227 244 255
227 244 255
227 244 255
227 244 255
239 255 255
227 244 255
227 244 255
227 244 255
227 244 255
227 244 255
227 244 255
227 244 255
227 244 255
227 244 255
227 244 255
227 244 255
227 244 255
227 244 255
227 244 255
227 244 255
227 244 255
227 244 255
227 244 255
227 244 255
227 244 255
227 244 255
227 244 255
227 244 255
227 244 255
227 244 255
227 244 255
227 244 255
227 244 255
227 244 255
227 244 255
227 244 255
227 244 255
227 244 255
227 244 255
227 244 255
227 244 255
239 255 255
227 244 255
227 244 255
227 244 255
227 244 255
227 244 255
227 244 255
227 244 255
227 244 255
227 244 255
227 244 255
227 244 255
227 244 255
227 244 255
227 244 255
227 244 255
227 244 255
227 244 255
227 244 255
227 244 255
227 244 255
227 244 255
227 244 255
227 244 255
227 244 255
227 244 255
227 244 255
227 244 255
227 244 255
227 244 255
227 244 255
227 244 255
227 244 255
227 244 255
227 244 255
227 244 255
227 244 255
239 255 255
227 244 255
227 244 255
227 244 255
227 244 255
227 244 255
227 244 255
227 244 255
227 244 255
227 244 255
227 244 255
227 244 255
227 244 255
227 244 255
227 244 255
227 244 255
227 244 255
227 244 255
227 244 255
227 244 255
227 244 255
227 244 255
227 244 255
227 244 255
227 244 255
227 244 255
227 244 255
227 244 255
227 244 255
227 244 255
227 244 255
227 244 255
227 244 255
227 244 255
227 244 255
227 244 255
227 244 255
239 255 255
227 244 255
227 244 255
227 244 255
227 244 255
227 244 255
227 244 255
227 244 255
227 244 255
227 244 255
227 244 255
227 244 255
227 244 255
227 244 255
227 244 255
227 244 255
227 244 255
227 244 255
227 244 255
227 244 255
227 244 255
227 244 255
227 244 255
227 244 255
227 244 255
227 244 255
227 244 255
227 244 255
227 244 255
227 244 255
227 244 255
227 244 255
227 244 255
227 244 255
227 244 255
227 244 255
227 244 255
239 255 255
227 244 255
227 244 255
227 244 255
227 244 255
227 244 255
227 244 255
227 244 255
227 244 255
227 244 255
227 244 255
227 244 255
227 244 255
227 244 255
227 244 255
227 244 255
227 244 255
227 244 255
227 244 255
227 244 255
227 244 255
227 244 255
227 244 255
239 255 255
227 244 255
227 244 255
227 244 255
227 244 255
227 244 255
227 244 255
227 244 255
227 244 255
227 244 255
227 244 255
227 244 255
227 244 255
227 244 255
227 244 255
227 244 255
227 244 255
227 244 255
227 244 255
227 244 255
227 244 255
227 244 255
227 244 255
227 244 255
227 244 255
227 244 255
227 244 255
227 244 255
227 244 255
227 244 255
227 244 255
227 244 255
227 244 255
227 244 255
227 244 255
227 244 255
227 244 255
239 255 255
227 244 255
227 244 255
227 244 255
227 244 255
227 244 255
227 244 255
227 244 255
227 244 255
227 244 255
227 244 255
227 244 255
227 244 255
227 244 255
227 244 255
227 244 255
227 244 255
227 244 255
227 244 255
227 244 255
227 244 255
227 244 255
227 244 255
227 244 255
227 244 255
227 244 255
227 244 255
227 244 255
227 244 255
227 244 255
227 244 255
227 244 255
227 244 255
227 244 255
227 244 255
227 244 255
227 244 255
239 255 255
227 244 255
227 244 255
227 244 255
227 244 255
227 244 255
227 244 255
227 244 255
227 244 255
227 244 255
227 244 255
227 244 255
227 244 255
227 244 255
227 244 255
227 244 255
227 244 255
227 244 255
227 244 255
227 244 255
227 244 255
227 244 255
227 244 255
227 244 255
227 244 255
227 244 255
227 244 255
227 244 255
227 244 255
227 244 255
227 244 255
227 244 255
227 244 255
227 244 255
227 244 255
227 244 255
227 244 255
239 255 255
227 244 255
227 244 255
227 244 255
227 244 255
227 244 255
227 244 255
227 244 255
227 244 255
227 244 255
227 244 255
227 244 255
227 244 255
227 244 255
227 244 255
227 244 255
227 244 255
227 244 255
227 244 255
227 244 255
227 244 255
227 244 255
227 244 255
227 244 255
227 244 255
227 244 255
227 244 255
227 244 255
227 244 255
227 244 255
227 244 255
227 244 255
227 244 255
227 244 255
227 244 255
227 244 255
227 244 255
239 255 255
227 244 255
227 244 255
227 244 255
227 244 255
227 244 255
227 244 255
227 244 255
227 244 255
227 244 255
227 244 255
227 244 255
227 244 255
227 244 255
227 244 255
227 244 255
227 244 255
227 244 255
227 244 255
227 244 255
227 244 255
227 244 255
227 244 255
227 244 255
227 244 255
227 244 255
227 244 255
227 244 255
227 244 255
227 244 255
227 244 255
227 244 255
227 244 255
227 244 255
227 244 255
227 244 255
227 244 255
239 255 255
227 244 255
227 244 255
227 244 255
227 244 255
227 244 255
227 244 255
227 244 255
227 244 255
227 244 255
227 244 255
227 244 255
227 244 255
227 244 255
227 244 255
227 244 255
227 244 255
227 244 255
227 244 255
227 244 255
227 244 255
227 244 255
227 244 255
227 244 255
227 244 255
227 244 255
227 244 255
227 244 255
227 244 255
227 244 255
227 244 255
227 244 255
227 244 255
227 244 255
227 244 255
227 244 255
227 244 255
239 255 255
227 244 255
227 244 255
227 244 255
227 244 255
227 244 255
227 244 255
227 244 255
227 244 255
227 244 255
227 244 255
227 244 255
227 244 255
227 244 255
227 244 255
227 244 255
227 244 255
227 244 255
227 244 255
227 244 255
227 244 255
227 244 255
227 244 255
227 244 255
227 244 255
227 244 255
227 244 255
227 244 255
227 244 255
227 244 255
227 244 255
227 244 255
227 244 255
227 244 255
227 244 255
227 244 255
227 244 255
239 255 255
227 244 255
227 244 255
227 244 255
227 244 255
227 244 255
227 244 255
227 244 255
227 244 255
227 244 255
227 244 255
227 244 255
227 244 255
227 244 255
227 244 255
227 244 255
227 244 255
227 244 255
227 244 255
227 244 255
227 244 255
227 244 255
227 244 255
227 244 255
227 244 255
227 244 255
227 244 255
227 244 255
227 244 255
227 244 255
227 244 255
227 244 255
227 244 255
227 244 255
227 244 255
227 244 255
227 244 255
239 255 255
227 244 255
227 244 255
227 244 255
227 244 255
227 244 255
227 244 255
227 244 255
227 244 255
227 244 255
227 244 255
227 244 255
227 244 255
227 244 255
227 244 255
227 244 255
227 244 255
227 244 255
227 244 255
227 244 255
227 244 255
227 244 255
227 244 255
239 255 255
227 244 255
227 244 255
227 244 255
227 244 255
227 244 255
227 244 255
227 244 255
227 244 255
227 244 255
227 244 255
227 244 255
227 244 255
227 244 255
227 244 255
227 244 255
227 244 255
227 244 255
227 244 255
227 244 255
227 244 255
227 244 255
227 244 255
227 244 255
227 244 255
227 244 255
227 244 255
227 244 255
227 244 255
227 244 255
227 244 255
227 244 255
227 244 255
227 244 255
227 244 255
227 244 255
227 244 255
239 255 255
227 244 255
227 244 255
227 244 255
227 244 255
227 244 255
227 244 255
227 244 255
227 244 255
227 244 255
227 244 255
227 244 255
227 244 255
227 244 255
227 244 255
227 244 255
227 244 255
227 244 255
227 244 255
227 244 255
227 244 255
227 244 255
227 244 255
227 244 255
227 244 255
227 244 255
227 244 255
227 244 255
227 244 255
227 244 255
227 244 255
227 244 255
227 244 255
227 244 255
227 244 255
227 244 255
227 244 255
239 255 255
227 244 255
227 244 255
227 244 255
227 244 255
227 244 255
227 244 255
227 244 255
227 244 255
227 244 255
227 244 255
227 244 255
227 244 255
227 244 255
227 244 255
227 244 255
227 244 255
227 244 255
227 244 255
227 244 255
227 244 255
227 244 255
227 244 255
227 244 255
227 244 255
227 244 255
227 244 255
227 244 255
227 244 255
227 244 255
227 244 255
227 244 255
227 244 255
227 244 255
227 244 255
227 244 255
227 244 255
239 255 255
227 244 255
227 244 255
227 244 255
227 244 255
227 244 255
227 244 255
227 244 255
227 244 255
227 244 255
227 244 255
227 244 255
227 244 255
227 244 255
227 244 255
227 244 255
227 244 255
227 244 255
227 244 255
227 244 255
227 244 255
227 244 255
227 244 255
227 244 255
227 244 255
227 244 255
227 244 255
227 244 255
227 244 255
227 244 255
227 244 255
227 244 255
227 244 255
227 244 255
227 244 255
227 244 255
227 244 255
239 255 255
227 244 255
227 244 255
227 244 255
227 244 255
227 244 255
227 244 255
227 244 255
227 244 255
227 244 255
227 244 255
227 244 255
227 244 255
227 244 255
227 244 255
227 244 255
227 244 255
227 244 255
227 244 255
227 244 255
227 244 255
227 244 255
227 244 255
227 244 255
227 244 255
227 244 255
227 244 255
227 244 255
227 244 255
227 244 255
227 244 255
227 244 255
227 244 255
227 244 255
227 244 255
227 244 255
227 244 255
239 255 255
227 244 255
227 244 255
227 244 255
227 244 255
227 244 255
227 244 255
227 244 255
227 244 255
227 244 255
227 244 255
227 244 255
227 244 255
227 244 255
227 244 255
227 244 255
227 244 255
227 244 255
227 244 255
227 244 255
227 244 255
227 244 255
227 244 255
227 244 255
227 244 255
227 244 255
227 244 255
227 244 255
227 244 255
227 244 255
227 244 255
227 244 255
227 244 255
227 244 255
227 244 255
227 244 255
227 244 255
239 255 255
227 244 255
227 244 255
227 244 255
227 244 255
227 244 255
227 244 255
227 244 255
227 244 255
227 244 255
227 244 255
227 244 255
227 244 255
227 244 255
227 244 255
227 244 255
227 244 255
227 244 255
227 244 255
227 244 255
227 244 255
227 244 255
227 244 255
227 244 255
227 244 255
227 244 255
227 244 255
227 244 255
227 244 255
227 244 255
227 244 255
227 244 255
227 244 255
227 244 255
227 244 255
227 244 255
227 244 255
239 255 255
227 244 255
227 244 255
227 244 255
227 244 255
227 244 255
227 244 255
227 244 255
227 244 255
227 244 255
227 244 255
227 244 255
227 244 255
227 244 255
227 244 255
227 244 255
227 244 255
227 244 255
227 244 255
227 244 255
227 244 255
227 244 255
227 244 255
227 244 255
227 244 255
227 244 255
227 244 255
227 244 255
227 244 255
227 244 255
227 244 255
227 244 255
227 244 255
227 244 255
227 244 255
227 244 255
227 244 255
239 255 255
227 244 255
227 244 255
227 244 255
227 244 255
227 244 255
227 244 255
227 244 255
227 244 255
227 244 255
227 244 255
227 244 255
227 244 255
227 244 255
227 244 255
227 244 255
227 244 255
227 244 255
227 244 255
227 244 255
227 244 255
227 244 255
227 244 255
239 255 255
227 244 255
227 244 255
227 244 255
227 244 255
227 244 255
227 244 255
227 244 255
227 244 255
227 244 255
227 244 255
227 244 255
227 244 255
227 244 255
227 244 255
227 244 255
227 244 255
227 244 255
227 244 255
227 244 255
227 244 255
227 244 255
227 244 255
227 244 255
227 244 255
227 244 255
227 244 255
227 244 255
227 244 255
227 244 255
227 244 255
227 244 255
227 244 255
227 244 255
227 244 255
227 244 255
227 244 255
239 255 255
227 244 255
227 244 255
227 244 255
227 244 255
227 244 255
227 244 255
227 244 255
227 244 255
227 244 255
227 244 255
227 244 255
227 244 255
227 244 255
227 244 255
227 244 255
227 244 255
227 244 255
227 244 255
227 244 255
227 244 255
227 244 255
227 244 255
227 244 255
227 244 255
227 244 255
227 244 255
227 244 255
227 244 255
227 244 255
227 244 255
227 244 255
227 244 255
227 244 255
227 244 255
227 244 255
227 244 255
239 255 255
227 244 255
227 244 255
227 244 255
227 244 255
227 244 255
227 244 255
227 244 255
227 244 255
227 244 255
227 244 255
227 244 255
227 244 255
227 244 255
227 244 255
227 244 255
227 244 255
227 244 255
227 244 255
227 244 255
227 244 255
227 244 255
227 244 255
227 244 255
227 244 255
227 244 255
227 244 255
227 244 255
227 244 255
227 244 255
227 244 255
227 244 255
227 244 255
227 244 255
227 244 255
227 244 255
227 244 255
239 255 255
227 244 255
227 244 255
227 244 255
227 244 255
227 244 255
227 244 255
227 244 255
227 244 255
227 244 255
227 244 255
227 244 255
227 244 255
227 244 255
227 244 255
227 244 255
227 244 255
227 244 255
227 244 255
227 244 255
227 244 255
227 244 255
227 244 255
227 244 255
227 244 255
227 244 255
227 244 255
227 244 255
227 244 255
227 244 255
227 244 255
227 244 255
227 244 255
227 244 255
227 244 255
227 244 255
227 244 255
239 255 255
227 244 255
227 244 255
227 244 255
227 244 255
227 244 255
227 244 255
227 244 255
227 244 255
227 244 255
227 244 255
227 244 255
227 244 255
227 244 255
227 244 255
227 244 255
227 244 255
227 244 255
227 244 255
227 244 255
227 244 255
227 244 255
227 244 255
227 244 255
227 244 255
227 244 255
227 244 255
227 244 255
227 244 255
227 244 255
227 244 255
227 244 255
227 244 255
227 244 255
227 244 255
227 244 255
227 244 255
239 255 255
227 244 255
227 244 255
227 244 255
227 244 255
227 244 255
227 244 255
227 244 255
227 244 255
227 244 255
227 244 255
227 244 255
227 244 255
227 244 255
227 244 255
227 244 255
227 244 255
227 244 255
227 244 255
227 244 255
227 244 255
227 244 255
227 244 255
227 244 255
227 244 255
227 244 255
227 244 255
227 244 255
227 244 255
227 244 255
227 244 255
227 244 255
227 244 255
227 244 255
227 244 255
227 244 255
227 244 255
239 255 255
227 244 255
227 244 255
227 244 255
227 244 255
227 244 255
227 244 255
227 244 255
227 244 255
227 244 255
227 244 255
227 244 255
227 244 255
227 244 255
227 244 255
227 244 255
227 244 255
227 244 255
227 244 255
227 244 255
227 244 255
227 244 255
227 244 255
227 244 255
227 244 255
227 244 255
227 244 255
227 244 255
227 244 255
227 244 255
227 244 255
227 244 255
227 244 255
227 244 255
227 244 255
227 244 255
227 244 255
239 255 255
227 244 255
227 244 255
227 244 255
227 244 255
227 244 255
227 244 255
227 244 255
227 244 255
227 244 255
227 244 255
227 244 255
227 244 255
227 244 255
227 244 255
227 244 255
227 244 255
227 244 255
227 244 255
227 244 255
227 244 255
227 244 255
227 244 255
227 244 255
227 244 255
227 244 255
227 244 255
227 244 255
227 244 255
227 244 255
227 244 255
227 244 255
227 244 255
227 244 255
227 244 255
227 244 255
227 244 255
239 255 255
227 244 255
227 244 255
227 244 255
227 244 255
227 244 255
227 244 255
227 244 255
227 244 255
227 244 255
227 244 255
227 244 255
227 244 255
227 244 255
227 244 255
227 244 255
227 244 255
227 244 255
227 244 255
227 244 255
227 244 255
227 244 255
227 244 255
239 255 255
227 244 255
227 244 255
227 244 255
227 244 255
227 244 255
227 244 255
227 244 255
227 244 255
227 244 255
227 244 255
227 244 255
227 244 255
227 244 255
227 244 255
227 244 255
227 244 255
227 244 255
227 244 255
227 244 255
227 244 255
227 244 255
227 244 255
227 244 255
227 244 255
227 244 255
227 244 255
227 244 255
227 244 255
227 244 255
227 244 255
227 244 255
227 244 255
227 244 255
227 244 255
227 244 255
227 244 255
239 255 255
227 244 255
227 244 255
227 244 255
227 244 255
227 244 255
227 244 255
227 244 255
227 244 255
227 244 255
227 244 255
227 244 255
227 244 255
227 244 255
227 244 255
227 244 255
227 244 255
227 244 255
227 244 255
227 244 255
227 244 255
227 244 255
227 244 255
227 244 255
227 244 255
227 244 255
227 244 255
227 244 255
227 244 255
227 244 255
227 244 255
227 244 255
227 244 255
227 244 255
227 244 255
227 244 255
227 244 255
239 255 255
227 244 255
227 244 255
227 244 255
227 244 255
227 244 255
227 244 255
227 244 255
227 244 255
227 244 255
227 244 255
227 244 255
227 244 255
227 244 255
227 244 255
227 244 255
227 244 255
227 244 255
227 244 255
227 244 255
227 244 255
227 244 255
227 244 255
227 244 255
227 244 255
227 244 255
227 244 255
227 244 255
227 244 255
227 244 255
227 244 255
227 244 255
227 244 255
227 244 255
227 244 255
227 244 255
227 244 255
239 255 255
227 244 255
227 244 255
227 244 255
227 244 255
227 244 255
227 244 255
227 244 255
227 244 255
227 244 255
227 244 255
227 244 255
227 244 255
227 244 255
227 244 255
227 244 255
227 244 255
227 244 255
227 244 255
227 244 255
227 244 255
227 244 255
227 244 255
227 244 255
227 244 255
227 244 255
227 244 255
227 244 255
227 244 255
227 244 255
227 244 255
227 244 255
227 244 255
227 244 255
227 244 255
227 244 255
227 244 255
239 255 255
227 244 255
227 244 255
227 244 255
227 244 255
227 244 255
227 244 255
227 244 255
227 244 255
227 244 255
227 244 255
227 244 255
227 244 255
227 244 255
227 244 255
227 244 255
227 244 255
227 244 255
227 244 255
227 244 255
227 244 255
227 244 255
227 244 255
227 244 255
227 244 255
227 244 255
227 244 255
227 244 255
227 244 255
227 244 255
227 244 255
227 244 255
227 244 255
227 244 255
227 244 255
227 244 255
227 244 255
239 255 255
227 244 255
227 244 255
227 244 255
227 244 255
227 244 255
227 244 255
227 244 255
227 244 255
227 244 255
227 244 255
227 244 255
227 244 255
227 244 255
227 244 255
227 244 255
227 244 255
227 244 255
227 244 255
227 244 255
227 244 255
227 244 255
227 244 255
227 244 255
227 244 255
227 244 255
227 244 255
227 244 255
227 244 255
227 244 255
227 244 255
227 244 255
227 244 255
227 244 255
227 244 255
227 244 255
227 244 255
239 255 255
227 244 255
227 244 255
227 244 255
227 244 255
227 244 255
227 244 255
227 244 255
227 244 255
227 244 255
227 244 255
227 244 255
227 244 255
227 244 255
227 244 255
227 244 255
227 244 255
227 244 255
227 244 255
227 244 255
227 244 255
227 244 255
227 244 255
227 244 255
227 244 255
227 244 255
227 244 255
227 244 255
227 244 255
227 244 255
227 244 255
227 244 255
227 244 255
227 244 255
227 244 255
227 244 255
227 244 255
239 255 255
227 244 255
227 244 255
227 244 255
227 244 255
227 244 255
227 244 255
227 244 255
227 244 255
227 244 255
227 244 255
227 244 255
227 244 255
227 244 255
227 244 255
227 244 255
227 244 255
227 244 255
227 244 255
227 244 255
227 244 255
227 244 255
227 244 255
227 244 255
227 244 255
227 244 255
227 244 255
227 244 255
227 244 255
227 244 255
227 244 255
227 244 255
227 244 255
227 244 255
227 244 255
227 244 255
227 244 255
239 255 255
227 244 255
227 244 255
227 244 255
227 244 255
227 244 255
227 244 255
227 244 255
227 244 255
227 244 255
227 244 255
227 244 255
227 244 255
227 244 255
227 244 255
227 244 255
227 244 255
227 244 255
227 244 255
227 244 255
227 244 255
227 244 255
227 244 255
239 255 255
227 244 255
227 244 255
227 244 255
227 244 255
227 244 255
227 244 255
227 244 255
227 244 255
227 244 255
227 244 255
227 244 255
227 244 255
227 244 255
227 244 255
227 244 255
227 244 255
227 244 255
227 244 255
227 244 255
227 244 255
227 244 255
227 244 255
227 244 255
227 244 255
227 244 255
227 244 255
227 244 255
227 244 255
227 244 255
227 244 255
227 244 255
227 244 255
227 244 255
227 244 255
227 244 255
227 244 255
239 255 255
227 244 255
227 244 255
227 244 255
227 244 255
227 244 255
227 244 255
227 244 255
227 244 255
227 244 255
227 244 255
227 244 255
227 244 255
227 244 255
227 244 255
227 244 255
227 244 255
227 244 255
227 244 255
227 244 255
227 244 255
227 244 255
227 244 255
227 244 255
227 244 255
227 244 255
227 244 255
227 244 255
227 244 255
227 244 255
227 244 255
227 244 255
227 244 255
227 244 255
227 244 255
227 244 255
227 244 255
239 255 255
227 244 255
227 244 255
227 244 255
227 244 255
227 244 255
227 244 255
227 244 255
227 244 255
227 244 255
227 244 255
227 244 255
227 244 255
227 244 255
227 244 255
227 244 255
227 244 255
227 244 255
227 244 255
227 244 255
227 244 255
227 244 255
227 244 255
227 244 255
227 244 255
227 244 255
227 244 255
227 244 255
227 244 255
227 244 255
227 244 255
227 244 255
227 244 255
227 244 255
227 244 255
227 244 255
227 244 255
239 255 255
227 244 255
227 244 255
227 244 255
227 244 255
227 244 255
227 244 255
227 244 255
227 244 255
227 244 255
227 244 255
227 244 255
227 244 255
227 244 255
227 244 255
227 244 255
227 244 255
227 244 255
227 244 255
227 244 255
227 244 255
227 244 255
227 244 255
227 244 255
227 244 255
227 244 255
227 244 255
227 244 255
227 244 255
227 244 255
227 244 255
227 244 255
227 244 255
227 244 255
227 244 255
227 244 255
227 244 255
239 255 255
227 244 255
227 244 255
227 244 255
227 244 255
227 244 255
227 244 255
227 244 255
227 244 255
227 244 255
227 244 255
227 244 255
227 244 255
227 244 255
227 244 255
227 244 255
227 244 255
227 244 255
227 244 255
227 244 255
227 244 255
227 244 255
227 244 255
227 244 255
227 244 255
227 244 255
227 244 255
227 244 255
227 244 255
227 244 255
227 244 255
227 244 255
227 244 255
227 244 255
227 244 255
227 244 255
227 244 255
239 255 255
227 244 255
227 244 255
227 244 255
227 244 255
227 244 255
227 244 255
227 244 255
227 244 255
227 244 255
227 244 255
227 244 255
227 244 255
227 244 255
227 244 255
227 244 255
227 244 255
227 244 255
227 244 255
227 244 255
227 244 255
227 244 255
227 244 255
227 244 255
227 244 255
227 244 255
227 244 255
227 244 255
227 244 255
227 244 255
227 244 255
227 244 255
227 244 255
227 244 255
227 244 255
227 244 255
227 244 255
239 255 255
227 244 255
227 244 255
227 244 255
227 244 255
227 244 255
227 244 255
227 244 255
227 244 255
227 244 255
227 244 255
227 244 255
227 244 255
227 244 255
227 244 255
227 244 255
227 244 255
227 244 255
227 244 255
227 244 255
227 244 255
227 244 255
227 244 255
227 244 255
227 244 255
227 244 255
227 244 255
227 244 255
227 244 255
227 244 255
227 244 255
227 244 255
227 244 255
227 244 255
227 244 255
227 244 255
227 244 255
239 255 255
227 244 255
227 244 255
227 244 255
227 244 255
227 244 255
227 244 255
227 244 255
227 244 255
227 244 255
227 244 255
227 244 255
227 244 255
227 244 255
227 244 255
227 244 255
227 244 255
227 244 255
227 244 255
227 244 255
227 244 255
227 244 255
227 244 255
227 244 255
227 244 255
227 244 255
227 244 255
227 244 255
227 244 255
227 244 255
227 244 255
227 244 255
227 244 255
227 244 255
227 244 255
227 244 255
227 244 255
239 255 255
227 244 255
227 244 255
227 244 255
227 244 255
227 244 255
227 244 255
227 244 255
227 244 255
227 244 255
227 244 255
227 244 255
227 244 255
227 244 255
227 244 255
227 244 255
227 244 255
227 244 255
227 244 255
227 244 255
227 244 255
227 244 255
227 244 255
239 255 255
227 244 255
227 244 255
227 244 255
227 244 255
227 244 255
227 244 255
227 244 255
227 244 255
227 244 255
227 244 255
227 244 255
227 244 255
227 244 255
227 244 255
227 244 255
227 244 255
227 244 255
227 244 255
227 244 255
227 244 255
227 244 255
227 244 255
227 244 255
227 244 255
227 244 255
227 244 255
227 244 255
227 244 255
227 244 255
227 244 255
227 244 255
227 244 255
227 244 255
227 244 255
227 244 255
227 244 255
239 255 255
227 244 255
227 244 255
227 244 255
227 244 255
227 244 255
227 244 255
227 244 255
227 244 255
227 244 255
227 244 255
227 244 255
227 244 255
227 244 255
227 244 255
227 244 255
227 244 255
227 244 255
227 244 255
227 244 255
227 244 255
227 244 255
227 244 255
227 244 255
227 244 255
227 244 255
227 244 255
227 244 255
227 244 255
227 244 255
227 244 255
227 244 255
227 244 255
227 244 255
227 244 255
227 244 255
227 244 255
239 255 255
227 244 255
227 244 255
227 244 255
227 244 255
227 244 255
227 244 255
227 244 255
227 244 255
227 244 255
227 244 255
227 244 255
227 244 255
227 244 255
227 244 255
227 244 255
227 244 255
227 244 255
227 244 255
227 244 255
227 244 255
227 244 255
227 244 255
227 244 255
227 244 255
227 244 255
227 244 255
227 244 255
227 244 255
227 244 255
227 244 255
227 244 255
227 244 255
227 244 255
227 244 255
227 244 255
227 244 255
239 255 255
227 244 255
227 244 255
227 244 255
227 244 255
227 244 255
227 244 255
227 244 255
227 244 255
227 244 255
227 244 255
227 244 255
227 244 255
227 244 255
227 244 255
227 244 255
227 244 255
227 244 255
227 244 255
227 244 255
227 244 255
227 244 255
227 244 255
227 244 255
227 244 255
227 244 255
227 244 255
227 244 255
227 244 255
227 244 255
227 244 255
227 244 255
227 244 255
227 244 255
227 244 255
227 244 255
227 244 255
239 255 255
227 244 255
227 244 255
227 244 255
227 244 255
227 244 255
227 244 255
227 244 255
227 244 255
227 244 255
227 244 255
227 244 255
227 244 255
227 244 255
227 244 255
227 244 255
227 244 255
227 244 255
227 244 255
227 244 255
227 244 255
227 244 255
227 244 255
227 244 255
227 244 255
227 244 255
227 244 255
227 244 255
227 244 255
227 244 255
227 244 255
227 244 255
227 244 255
227 244 255
227 244 255
227 244 255
227 244 255
239 255 255
227 244 255
227 244 255
227 244 255
227 244 255
227 244 255
227 244 255
227 244 255
227 244 255
227 244 255
227 244 255
227 244 255
227 244 255
227 244 255
227 244 255
227 244 255
227 244 255
227 244 255
227 244 255
227 244 255
227 244 255
227 244 255
227 244 255
227 244 255
227 244 255
227 244 255
227 244 255
227 244 255
227 244 255
227 244 255
227 244 255
227 244 255
227 244 255
227 244 255
227 244 255
227 244 255
227 244 255
239 255 255
227 244 255
227 244 255
227 244 255
227 244 255
227 244 255
227 244 255
227 244 255
227 244 255
227 244 255
227 244 255
227 244 255
227 244 255
227 244 255
227 244 255
227 244 255
227 244 255
227 244 255
227 244 255
227 244 255
227 244 255
227 244 255
227 244 255
227 244 255
227 244 255
227 244 255
227 244 255
227 244 255
227 244 255
227 244 255
227 244 255
227 244 255
227 244 255
227 244 255
227 244 255
227 244 255
227 244 255
239 255 255
227 244 255
227 244 255
227 244 255
227 244 255
227 244 255
227 244 255
227 244 255
227 244 255
227 244 255
227 244 255
227 244 255
227 244 255
227 244 255
227 244 255
227 244 255
227 244 255
227 244 255
227 244 255
227 244 255
227 244 255
227 244 255
227 244 255
227 244 255
227 244 255
227 244 255
227 244 255
227 244 255
227 244 255
227 244 255
227 244 255
227 244 255
227 244 255
227 244 255
227 244 255
227 244 255
227 244 255
239 255 255
227 244 255
227 244 255
227 244 255
227 244 255
227 244 255
227 244 255
227 244 255
227 244 255
227 244 255
227 244 255
227 244 255
227 244 255
227 244 255
227 244 255
227 244 255
227 244 255
227 244 255
227 244 255
227 244 255
227 244 255
227 244 255
227 244 255
239 255 255
227 244 255
227 244 255
227 244 255
227 244 255
227 244 255
227 244 255
227 244 255
227 244 255
227 244 255
227 244 255
227 244 255
227 244 255
227 244 255
227 244 255
227 244 255
227 244 255
227 244 255
227 244 255
227 244 255
227 244 255
227 244 255
227 244 255
227 244 255
227 244 255
227 244 255
227 244 255
227 244 255
227 244 255
227 244 255
227 244 255
227 244 255
227 244 255
227 244 255
227 244 255
227 244 255
227 244 255
239 255 255
227 244 255
227 244 255
227 244 255
227 244 255
227 244 255
227 244 255
227 244 255
227 244 255
227 244 255
227 244 255
227 244 255
227 244 255
227 244 255
227 244 255
227 244 255
227 244 255
227 244 255
227 244 255
227 244 255
227 244 255
227 244 255
227 244 255
227 244 255
227 244 255
227 244 255
227 244 255
227 244 255
227 244 255
227 244 255
227 244 255
227 244 255
227 244 255
227 244 255
227 244 255
227 244 255
227 244 255
239 255 255
227 244 255
227 244 255
227 244 255
227 244 255
227 244 255
227 244 255
227 244 255
227 244 255
227 244 255
227 244 255
227 244 255
227 244 255
227 244 255
227 244 255
227 244 255
227 244 255
227 244 255
227 244 255
227 244 255
227 244 255
227 244 255
227 244 255
227 244 255
227 244 255
227 244 255
227 244 255
227 244 255
227 244 255
227 244 255
227 244 255
227 244 255
227 244 255
227 244 255
227 244 255
227 244 255
227 244 255
239 255 255
227 244 255
227 244 255
227 244 255
227 244 255
227 244 255
227 244 255
227 244 255
227 244 255
227 244 255
227 244 255
227 244 255
227 244 255
227 244 255
227 244 255
227 244 255
227 244 255
227 244 255
227 244 255
227 244 255
227 244 255
227 244 255
227 244 255
227 244 255
227 244 255
227 244 255
227 244 255
227 244 255
227 244 255
227 244 255
227 244 255
227 244 255
227 244 255
227 244 255
227 244 255
227 244 255
227 244 255
239 255 255
227 244 255
227 244 255
227 244 255
227 244 255
227 244 255
227 244 255
227 244 255
227 244 255
227 244 255
227 244 255
227 244 255
227 244 255
227 244 255
227 244 255
227 244 255
227 244 255
227 244 255
227 244 255
227 244 255
227 244 255
227 244 255
227 244 255
227 244 255
227 244 255
227 244 255
227 244 255
227 244 255
227 244 255
227 244 255
227 244 255
227 244 255
227 244 255
227 244 255
227 244 255
227 244 255
227 244 255
239 255 255
227 244 255
227 244 255
227 244 255
227 244 255
227 244 255
227 244 255
227 244 255
227 244 255
227 244 255
227 244 255
227 244 255
227 244 255
227 244 255
227 244 255
227 244 255
227 244 255
227 244 255
227 244 255
227 244 255
227 244 255
227 244 255
227 244 255
227 244 255
227 244 255
227 244 255
227 244 255
227 244 255
227 244 255
227 244 255
227 244 255
227 244 255
227 244 255
227 244 255
227 244 255
227 244 255
227 244 255
239 255 255
227 244 255
227 244 255
227 244 255
227 244 255
227 244 255
227 244 255
227 244 255
227 244 255
227 244 255
227 244 255
227 244 255
227 244 255
227 244 255
227 244 255
227 244 255
227 244 255
227 244 255
227 244 255
227 244 255
227 244 255
227 244 255
227 244 255
227 244 255
227 244 255
227 244 255
227 244 255
227 244 255
227 244 255
227 244 255
227 244 255
227 244 255
227 244 255
227 244 255
227 244 255
227 244 255
227 244 255
239 255 255
227 244 255
227 244 255
227 244 255
227 244 255
227 244 255
227 244 255
227 244 255
227 244 255
227 244 255
227 244 255
227 244 255
227 244 255
227 244 255
227 244 255
227 244 255
227 244 255
227 244 255
227 244 255
227 244 255
227 244 255
227 244 255
227 244 255
227 244 255
227 244 255
227 244 255
227 244 255
227 244 255
227 244 255
227 244 255
227 244 255
227 244 255
227 244 255
227 244 255
227 244 255
227 244 255
227 244 255
239 255 255
227 244 255
227 244 255
227 244 255
227 244 255
227 244 255
227 244 255
227 244 255
227 244 255
227 244 255
227 244 255
227 244 255
227 244 255
227 244 255
227 244 255
227 244 255
227 244 255
227 244 255
227 244 255
227 244 255
227 244 255
227 244 255
227 244 255
239 255 255
227 244 255
227 244 255
227 244 255
227 244 255
227 244 255
227 244 255
227 244 255
227 244 255
227 244 255
227 244 255
227 244 255
227 244 255
227 244 255
227 244 255
227 244 255
227 244 255
227 244 255
227 244 255
227 244 255
227 244 255
227 244 255
227 244 255
227 244 255
227 244 255
227 244 255
227 244 255
227 244 255
227 244 255
227 244 255
227 244 255
227 244 255
227 244 255
227 244 255
227 244 255
227 244 255
227 244 255
239 255 255
227 244 255
227 244 255
227 244 255
227 244 255
227 244 255
227 244 255
227 244 255
227 244 255
227 244 255
227 244 255
227 244 255
227 244 255
227 244 255
227 244 255
227 244 255
227 244 255
227 244 255
227 244 255
227 244 255
227 244 255
227 244 255
227 244 255
227 244 255
227 244 255
227 244 255
227 244 255
227 244 255
227 244 255
227 244 255
227 244 255
227 244 255
227 244 255
227 244 255
227 244 255
227 244 255
227 244 255
239 255 255
227 244 255
227 244 255
227 244 255
227 244 255
227 244 255
227 244 255
227 244 255
227 244 255
227 244 255
227 244 255
227 244 255
227 244 255
227 244 255
227 244 255
227 244 255
227 244 255
227 244 255
227 244 255
227 244 255
227 244 255
227 244 255
227 244 255
227 244 255
227 244 255
227 244 255
227 244 255
227 244 255
227 244 255
227 244 255
227 244 255
227 244 255
227 244 255
227 244 255
227 244 255
227 244 255
227 244 255
239 255 255
227 244 255
227 244 255
227 244 255
227 244 255
227 244 255
227 244 255
227 244 255
227 244 255
227 244 255
227 244 255
227 244 255
227 244 255
227 244 255
227 244 255
227 244 255
227 244 255
227 244 255
227 244 255
227 244 255
227 244 255
227 244 255
227 244 255
227 244 255
227 244 255
227 244 255
227 244 255
227 244 255
227 244 255
227 244 255
227 244 255
227 244 255
227 244 255
227 244 255
227 244 255
227 244 255
227 244 255
239 255 255
227 244 255
227 244 255
227 244 255
227 244 255
227 244 255
227 244 255
227 244 255
227 244 255
227 244 255
227 244 255
227 244 255
227 244 255
227 244 255
227 244 255
227 244 255
227 244 255
227 244 255
227 244 255
227 244 255
227 244 255
227 244 255
227 244 255
227 244 255
227 244 255
227 244 255
227 244 255
227 244 255
227 244 255
227 244 255
227 244 255
227 244 255
227 244 255
227 244 255
227 244 255
227 244 255
227 244 255
239 255 255
227 244 255
227 244 255
227 244 255
227 244 255
227 244 255
227 244 255
227 244 255
227 244 255
227 244 255
227 244 255
227 244 255
227 244 255
227 244 255
227 244 255
227 244 255
227 244 255
227 244 255
227 244 255
227 244 255
227 244 255
227 244 255
227 244 255
227 244 255
227 244 255
227 244 255
227 244 255
227 244 255
227 244 255
227 244 255
227 244 255
227 244 255
227 244 255
227 244 255
227 244 255
227 244 255
227 244 255
239 255 255
227 244 255
227 244 255
227 244 255
227 244 255
227 244 255
227 244 255
227 244 255
227 244 255
227 244 255
227 244 255
227 244 255
227 244 255
227 244 255
227 244 255
227 244 255
227 244 255
227 244 255
227 244 255
227 244 255
227 244 255
227 244 255
227 244 255
227 244 255
227 244 255
227 244 255
227 244 255
227 244 255
227 244 255
227 244 255
227 244 255
227 244 255
227 244 255
227 244 255
227 244 255
227 244 255
227 244 255
239 255 255
227 244 255
227 244 255
227 244 255
227 244 255
227 244 255
227 244 255
227 244 255
227 244 255
227 244 255
227 244 255
227 244 255
227 244 255
227 244 255
227 244 255
227 244 255
227 244 255
227 244 255
227 244 255
227 244 255
227 244 255
227 244 255
227 244 255
227 244 255
227 244 255
227 244 255
227 244 255
227 244 255
227 244 255
227 244 255
227 244 255
227 244 255
227 244 255
227 244 255
227 244 255
227 244 255
227 244 255
239 255 255
227 244 255
227 244 255
227 244 255
227 244 255
227 244 255
227 244 255
227 244 255
227 244 255
227 244 255
227 244 255
227 244 255
227 244 255
227 244 255
227 244 255
227 244 255
227 244 255
227 244 255
227 244 255
227 244 255
227 244 255
227 244 255
227 244 255
239 255 255
227 244 255
227 244 255
227 244 255
227 244 255
227 244 255
227 244 255
227 244 255
227 244 255
227 244 255
227 244 255
227 244 255
227 244 255
227 244 255
227 244 255
227 244 255
227 244 255
227 244 255
227 244 255
227 244 255
227 244 255
227 244 255
227 244 255
227 244 255
227 244 255
227 244 255
227 244 255
227 244 255
227 244 255
227 244 255
227 244 255
227 244 255
227 244 255
227 244 255
227 244 255
227 244 255
227 244 255
239 255 255
227 244 255
227 244 255
227 244 255
227 244 255
227 244 255
227 244 255
227 244 255
227 244 255
227 244 255
227 244 255
227 244 255
227 244 255
227 244 255
227 244 255
227 244 255
227 244 255
227 244 255
227 244 255
227 244 255
227 244 255
227 244 255
227 244 255
227 244 255
227 244 255
227 244 255
227 244 255
227 244 255
227 244 255
227 244 255
227 244 255
227 244 255
227 244 255
227 244 255
227 244 255
227 244 255
227 244 255
239 255 255
227 244 255
227 244 255
227 244 255
227 244 255
227 244 255
227 244 255
227 244 255
227 244 255
227 244 255
227 244 255
227 244 255
227 244 255
227 244 255
227 244 255
227 244 255
227 244 255
227 244 255
227 244 255
227 244 255
227 244 255
227 244 255
227 244 255
227 244 255
227 244 255
227 244 255
227 244 255
227 244 255
227 244 255
227 244 255
227 244 255
227 244 255
227 244 255
227 244 255
227 244 255
227 244 255
227 244 255
239 255 255
227 244 255
227 244 255
227 244 255
227 244 255
227 244 255
227 244 255
227 244 255
227 244 255
227 244 255
227 244 255
227 244 255
227 244 255
227 244 255
227 244 255
227 244 255
227 244 255
227 244 255
227 244 255
227 244 255
227 244 255
227 244 255
227 244 255
227 244 255
227 244 255
227 244 255
227 244 255
227 244 255
227 244 255
227 244 255
227 244 255
227 244 255
227 244 255
227 244 255
227 244 255
227 244 255
227 244 255
239 255 255
227 244 255
227 244 255
227 244 255
227 244 255
227 244 255
227 244 255
227 244 255
227 244 255
227 244 255
227 244 255
227 244 255
227 244 255
227 244 255
227 244 255
227 244 255
227 244 255
227 244 255
227 244 255
227 244 255
227 244 255
227 244 255
227 244 255
227 244 255
227 244 255
227 244 255
227 244 255
227 244 255
227 244 255
227 244 255
227 244 255
227 244 255
227 244 255
227 244 255
227 244 255
227 244 255
227 244 255
239 255 255
227 244 255
227 244 255
227 244 255
227 244 255
227 244 255
227 244 255
227 244 255
227 244 255
227 244 255
227 244 255
227 244 255
227 244 255
227 244 255
227 244 255
227 244 255
227 244 255
227 244 255
227 244 255
227 244 255
227 244 255
227 244 255
227 244 255
227 244 255
227 244 255
227 244 255
227 244 255
227 244 255
227 244 255
227 244 255
227 244 255
227 244 255
227 244 255
227 244 255
227 244 255
227 244 255
227 244 255
239 255 255
227 244 255
227 244 255
227 244 255
227 244 255
227 244 255
227 244 255
227 244 255
227 244 255
227 244 255
227 244 255
227 244 255
227 244 255
227 244 255
227 244 255
227 244 255
227 244 255
227 244 255
227 244 255
227 244 255
227 244 255
227 244 255
227 244 255
227 244 255
227 244 255
227 244 255
227 244 255
227 244 255
227 244 255
227 244 255
227 244 255
227 244 255
227 244 255
227 244 255
227 244 255
227 244 255
227 244 255
239 255 255
227 244 255
227 244 255
227 244 255
227 244 255
227 244 255
227 244 255
227 244 255
227 244 255
227 244 255
227 244 255
227 244 255
227 244 255
227 244 255
227 244 255
227 244 255
227 244 255
227 244 255
227 244 255
227 244 255
227 244 255
227 244 255
227 244 255
227 244 255
227 244 255
227 244 255
227 244 255
227 244 255
227 244 255
227 244 255
227 244 255
227 244 255
227 244 255
227 244 255
227 244 255
227 244 255
227 244 255
239 255 255
227 244 255
227 244 255
227 244 255
227 244 255
227 244 255
227 244 255
227 244 255
227 244 255
227 244 255
227 244 255
227 244 255
227 244 255
227 244 255
227 244 255
227 244 255
227 244 255
227 244 255
227 244 255
227 244 255
227 244 255
227 244 255
227 244 255
239 255 255
227 244 255
227 244 255
227 244 255
227 244 255
227 244 255
227 244 255
227 244 255
227 244 255
227 244 255
227 244 255
227 244 255
227 244 255
227 244 255
227 244 255
227 244 255
227 244 255
227 244 255
227 244 255
227 244 255
227 244 255
227 244 255
227 244 255
227 244 255
227 244 255
227 244 255
227 244 255
227 244 255
227 244 255
227 244 255
227 244 255
227 244 255
227 244 255
227 244 255
227 244 255
227 244 255
227 244 255
239 255 255
227 244 255
227 244 255
227 244 255
227 244 255
227 244 255
227 244 255
227 244 255
227 244 255
227 244 255
227 244 255
227 244 255
227 244 255
227 244 255
227 244 255
227 244 255
227 244 255
227 244 255
227 244 255
227 244 255
227 244 255
227 244 255
227 244 255
227 244 255
227 244 255
227 244 255
227 244 255
227 244 255
227 244 255
227 244 255
227 244 255
227 244 255
227 244 255
227 244 255
227 244 255
227 244 255
227 244 255
239 255 255
227 244 255
227 244 255
227 244 255
227 244 255
227 244 255
227 244 255
227 244 255
227 244 255
227 244 255
227 244 255
227 244 255
227 244 255
227 244 255
227 244 255
227 244 255
227 244 255
227 244 255
227 244 255
227 244 255
227 244 255
227 244 255
227 244 255
227 244 255
227 244 255
227 244 255
227 244 255
227 244 255
227 244 255
227 244 255
227 244 255
227 244 255
227 244 255
227 244 255
227 244 255
227 244 255
227 244 255
239 255 255
227 244 255
227 244 255
227 244 255
227 244 255
227 244 255
227 244 255
227 244 255
227 244 255
227 244 255
227 244 255
227 244 255
227 244 255
227 244 255
227 244 255
227 244 255
227 244 255
227 244 255
227 244 255
227 244 255
227 244 255
227 244 255
227 244 255
227 244 255
227 244 255
227 244 255
227 244 255
227 244 255
227 244 255
227 244 255
227 244 255
227 244 255
227 244 255
227 244 255
227 244 255
227 244 255
227 244 255
239 255 255
227 244 255
227 244 255
227 244 255
227 244 255
227 244 255
227 244 255
227 244 255
227 244 255
227 244 255
227 244 255
227 244 255
227 244 255
227 244 255
227 244 255
227 244 255
227 244 255
227 244 255
227 244 255
227 244 255
227 244 255
227 244 255
227 244 255
227 244 255
227 244 255
227 244 255
227 244 255
227 244 255
227 244 255
227 244 255
227 244 255
227 244 255
227 244 255
227 244 255
227 244 255
227 244 255
227 244 255
239 255 255
227 244 255
227 244 255
227 244 255
227 244 255
227 244 255
227 244 255
227 244 255
227 244 255
227 244 255
227 244 255
227 244 255
227 244 255
227 244 255
227 244 255
227 244 255
227 244 255
227 244 255
227 244 255
227 244 255
227 244 255
227 244 255
227 244 255
227 244 255
227 244 255
227 244 255
227 244 255
227 244 255
227 244 255
227 244 255
227 244 255
227 244 255
227 244 255
227 244 255
227 244 255
227 244 255
227 244 255
239 255 255
227 244 255
227 244 255
227 244 255
227 244 255
227 244 255
227 244 255
227 244 255
227 244 255
227 244 255
227 244 255
227 244 255
227 244 255
227 244 255
227 244 255
227 244 255
227 244 255
227 244 255
227 244 255
227 244 255
227 244 255
227 244 255
227 244 255
227 244 255
227 244 255
227 244 255
227 244 255
227 244 255
227 244 255
227 244 255
227 244 255
227 244 255
227 244 255
227 244 255
227 244 255
227 244 255
227 244 255
239 255 255
227 244 255
227 244 255
227 244 255
227 244 255
227 244 255
227 244 255
227 244 255
227 244 255
227 244 255
227 244 255
227 244 255
227 244 255
227 244 255
227 244 255
227 244 255
227 244 255
227 244 255
227 244 255
227 244 255
227 244 255
227 244 255
227 244 255
227 244 255
227 244 255
227 244 255
227 244 255
227 244 255
227 244 255
227 244 255
227 244 255
227 244 255
227 244 255
227 244 255
227 244 255
227 244 255
227 244 255
239 255 255
227 244 255
227 244 255
227 244 255
227 244 255
227 244 255
227 244 255
227 244 255
227 244 255
227 244 255
227 244 255
227 244 255
227 244 255
227 244 255
227 244 255
227 244 255
227 244 255
227 244 255
227 244 255
227 244 255
227 244 255
227 244 255
227 244 255
239 255 255
227 244 255
227 244 255
227 244 255
227 244 255
227 244 255
227 244 255
227 244 255
227 244 255
227 244 255
227 244 255
227 244 255
227 244 255
227 244 255
227 244 255
227 244 255
227 244 255
227 244 255
227 244 255
227 244 255
227 244 255
227 244 255
227 244 255
227 244 255
227 244 255
227 244 255
227 244 255
227 244 255
227 244 255
227 244 255
227 244 255
227 244 255
227 244 255
227 244 255
227 244 255
227 244 255
227 244 255
239 255 255
227 244 255
227 244 255
227 244 255
227 244 255
227 244 255
227 244 255
227 244 255
227 244 255
227 244 255
227 244 255
227 244 255
227 244 255
227 244 255
227 244 255
227 244 255
227 244 255
227 244 255
227 244 255
227 244 255
227 244 255
227 244 255
227 244 255
227 244 255
227 244 255
227 244 255
227 244 255
227 244 255
227 244 255
227 244 255
227 244 255
227 244 255
227 244 255
227 244 255
227 244 255
227 244 255
227 244 255
239 255 255
227 244 255
227 244 255
227 244 255
227 244 255
227 244 255
227 244 255
227 244 255
227 244 255
227 244 255
227 244 255
227 244 255
227 244 255
227 244 255
227 244 255
227 244 255
227 244 255
227 244 255
227 244 255
227 244 255
227 244 255
227 244 255
227 244 255
227 244 255
227 244 255
227 244 255
227 244 255
227 244 255
227 244 255
227 244 255
227 244 255
227 244 255
227 244 255
227 244 255
227 244 255
227 244 255
227 244 255
239 255 255
227 244 255
227 244 255
227 244 255
227 244 255
227 244 255
227 244 255
227 244 255
227 244 255
227 244 255
227 244 255
227 244 255
227 244 255
227 244 255
227 244 255
227 244 255
227 244 255
227 244 255
227 244 255
227 244 255
227 244 255
227 244 255
227 244 255
227 244 255
227 244 255
227 244 255
227 244 255
227 244 255
227 244 255
227 244 255
227 244 255
227 244 255
227 244 255
227 244 255
227 244 255
227 244 255
227 244 255
239 255 255
227 244 255
227 244 255
227 244 255
227 244 255
227 244 255
227 244 255
227 244 255
227 244 255
227 244 255
227 244 255
227 244 255
227 244 255
227 244 255
227 244 255
227 244 255
227 244 255
227 244 255
227 244 255
227 244 255
227 244 255
227 244 255
227 244 255
227 244 255
227 244 255
227 244 255
227 244 255
227 244 255
227 244 255
227 244 255
227 244 255
227 244 255
227 244 255
227 244 255
227 244 255
227 244 255
227 244 255
239 255 255
227 244 255
227 244 255
227 244 255
227 244 255
227 244 255
227 244 255
227 244 255
227 244 255
227 244 255
227 244 255
227 244 255
227 244 255
227 244 255
227 244 255
227 244 255
227 244 255
227 244 255
227 244 255
227 244 255
227 244 255
227 244 255
227 244 255
227 244 255
227 244 255
227 244 255
227 244 255
227 244 255
227 244 255
227 244 255
227 244 255
227 244 255
227 244 255
227 244 255
227 244 255
227 244 255
227 244 255
239 255 255
227 244 255
227 244 255
227 244 255
227 244 255
227 244 255
227 244 255
227 244 255
227 244 255
227 244 255
227 244 255
227 244 255
227 244 255
227 244 255
227 244 255
227 244 255
227 244 255
227 244 255
227 244 255
227 244 255
227 244 255
227 244 255
227 244 255
227 244 255
227 244 255
227 244 255
227 244 255
227 244 255
227 244 255
227 244 255
227 244 255
227 244 255
227 244 255
227 244 255
227 244 255
227 244 255
227 244 255
239 255 255
227 244 255
227 244 255
227 244 255
227 244 255
227 244 255
227 244 255
227 244 255
227 244 255
227 244 255
227 244 255
227 244 255
227 244 255
227 244 255
227 244 255
227 244 255
227 244 255
227 244 255
227 244 255
227 244 255
227 244 255
227 244 255
227 244 255
227 244 255
227 244 255
227 244 255
227 244 255
227 244 255
227 244 255
227 244 255
227 244 255
227 244 255
227 244 255
227 244 255
227 244 255
227 244 255
227 244 255
239 255 255
227 244 255
227 244 255
227 244 255
227 244 255
227 244 255
227 244 255
227 244 255
227 244 255
227 244 255
227 244 255
227 244 255
227 244 255
227 244 255
227 244 255
227 244 255
227 244 255
227 244 255
227 244 255
227 244 255
227 244 255
227 244 255
227 244 255
239 255 255
227 244 255
227 244 255
227 244 255
227 244 255
227 244 255
227 244 255
227 244 255
227 244 255
227 244 255
227 244 255
227 244 255
227 244 255
227 244 255
227 244 255
227 244 255
227 244 255
227 244 255
227 244 255
227 244 255
227 244 255
227 244 255
227 244 255
227 244 255
227 244 255
227 244 255
227 244 255
227 244 255
227 244 255
227 244 255
227 244 255
227 244 255
227 244 255
227 244 255
227 244 255
227 244 255
227 244 255
239 255 255
227 244 255
227 244 255
227 244 255
227 244 255
227 244 255
227 244 255
227 244 255
227 244 255
227 244 255
227 244 255
227 244 255
227 244 255
227 244 255
227 244 255
227 244 255
227 244 255
227 244 255
227 244 255
227 244 255
227 244 255
227 244 255
227 244 255
227 244 255
227 244 255
227 244 255
227 244 255
227 244 255
227 244 255
227 244 255
227 244 255
227 244 255
227 244 255
227 244 255
227 244 255
227 244 255
227 244 255
239 255 255
227 244 255
227 244 255
227 244 255
227 244 255
227 244 255
227 244 255
227 244 255
227 244 255
227 244 255
227 244 255
227 244 255
227 244 255
227 244 255
227 244 255
227 244 255
227 244 255
227 244 255
227 244 255
227 244 255
227 244 255
227 244 255
227 244 255
227 244 255
227 244 255
227 244 255
227 244 255
227 244 255
227 244 255
227 244 255
227 244 255
227 244 255
227 244 255
227 244 255
227 244 255
227 244 255
227 244 255
239 255 255
227 244 255
227 244 255
227 244 255
227 244 255
227 244 255
227 244 255
227 244 255
227 244 255
227 244 255
227 244 255
227 244 255
227 244 255
227 244 255
227 244 255
227 244 255
227 244 255
227 244 255
227 244 255
227 244 255
227 244 255
227 244 255
227 244 255
227 244 255
227 244 255
227 244 255
227 244 255
227 244 255
227 244 255
227 244 255
227 244 255
227 244 255
227 244 255
227 244 255
227 244 255
227 244 255
227 244 255
239 255 255
227 244 255
227 244 255
227 244 255
227 244 255
227 244 255
227 244 255
227 244 255
227 244 255
227 244 255
227 244 255
227 244 255
227 244 255
227 244 255
227 244 255
227 244 255
227 244 255
227 244 255
227 244 255
227 244 255
227 244 255
227 244 255
227 244 255
227 244 255
227 244 255
227 244 255
227 244 255
227 244 255
227 244 255
227 244 255
227 244 255
227 244 255
227 244 255
227 244 255
227 244 255
227 244 255
227 244 255
239 255 255
227 244 255
227 244 255
227 244 255
227 244 255
227 244 255
227 244 255
227 244 255
227 244 255
227 244 255
227 244 255
227 244 255
227 244 255
227 244 255
227 244 255
227 244 255
227 244 255
227 244 255
227 244 255
227 244 255
227 244 255
227 244 255
227 244 255
227 244 255
227 244 255
227 244 255
227 244 255
227 244 255
227 244 255
227 244 255
227 244 255
227 244 255
227 244 255
227 244 255
227 244 255
227 244 255
227 244 255
239 255 255
227 244 255
227 244 255
227 244 255
227 244 255
227 244 255
227 244 255
227 244 255
227 244 255
227 244 255
227 244 255
227 244 255
227 244 255
227 244 255
227 244 255
227 244 255
227 244 255
227 244 255
227 244 255
227 244 255
227 244 255
227 244 255
227 244 255
227 244 255
227 244 255
227 244 255
227 244 255
227 244 255
227 244 255
227 244 255
227 244 255
227 244 255
227 244 255
227 244 255
227 244 255
227 244 255
227 244 255
239 255 255
227 244 255
227 244 255
227 244 255
227 244 255
227 244 255
227 244 255
227 244 255
227 244 255
227 244 255
227 244 255
227 244 255
227 244 255
227 244 255
227 244 255
227 244 255
227 244 255
227 244 255
227 244 255
227 244 255
227 244 255
227 244 255
227 244 255
227 244 255
227 244 255
227 244 255
227 244 255
227 244 255
227 244 255
227 244 255
227 244 255
227 244 255
227 244 255
227 244 255
227 244 255
227 244 255
227 244 255
239 255 255
227 244 255
227 244 255
227 244 255
227 244 255
227 244 255
227 244 255
227 244 255
227 244 255
227 244 255
227 244 255
227 244 255
227 244 255
227 244 255
227 244 255
227 244 255
227 244 255
227 244 255
227 244 255
227 244 255
227 244 255
227 244 255
227 244 255
239 255 255
227 244 255
227 244 255
227 244 255
227 244 255
227 244 255
227 244 255
227 244 255
227 244 255
227 244 255
227 244 255
227 244 255
227 244 255
227 244 255
227 244 255
227 244 255
227 244 255
227 244 255
227 244 255
227 244 255
227 244 255
227 244 255
227 244 255
227 244 255
227 244 255
227 244 255
227 244 255
227 244 255
227 244 255
227 244 255
227 244 255
227 244 255
227 244 255
227 244 255
227 244 255
227 244 255
227 244 255
239 255 255
227 244 255
227 244 255
227 244 255
227 244 255
227 244 255
227 244 255
227 244 255
227 244 255
227 244 255
227 244 255
227 244 255
227 244 255
227 244 255
227 244 255
227 244 255
227 244 255
227 244 255
227 244 255
227 244 255
227 244 255
227 244 255
227 244 255
227 244 255
227 244 255
227 244 255
227 244 255
227 244 255
227 244 255
227 244 255
227 244 255
227 244 255
227 244 255
227 244 255
227 244 255
227 244 255
227 244 255
239 255 255
227 244 255
227 244 255
227 244 255
227 244 255
227 244 255
227 244 255
227 244 255
227 244 255
227 244 255
227 244 255
227 244 255
227 244 255
227 244 255
227 244 255
227 244 255
227 244 255
227 244 255
227 244 255
227 244 255
227 244 255
227 244 255
227 244 255
227 244 255
227 244 255
227 244 255
227 244 255
227 244 255
227 244 255
227 244 255
227 244 255
227 244 255
227 244 255
227 244 255
227 244 255
227 244 255
227 244 255
239 255 255
227 244 255
227 244 255
227 244 255
227 244 255
227 244 255
227 244 255
227 244 255
227 244 255
227 244 255
227 244 255
227 244 255
227 244 255
227 244 255
227 244 255
227 244 255
227 244 255
227 244 255
227 244 255
227 244 255
227 244 255
227 244 255
227 244 255
227 244 255
227 244 255
227 244 255
227 244 255
227 244 255
227 244 255
227 244 255
227 244 255
227 244 255
227 244 255
227 244 255
227 244 255
227 244 255
227 244 255
239 255 255
227 244 255
227 244 255
227 244 255
227 244 255
227 244 255
227 244 255
227 244 255
227 244 255
227 244 255
227 244 255
227 244 255
227 244 255
227 244 255
227 244 255
227 244 255
227 244 255
227 244 255
227 244 255
227 244 255
227 244 255
227 244 255
227 244 255
227 244 255
227 244 255
227 244 255
227 244 255
227 244 255
227 244 255
227 244 255
227 244 255
227 244 255
227 244 255
227 244 255
227 244 255
227 244 255
227 244 255
239 255 255
227 244 255
227 244 255
227 244 255
227 244 255
227 244 255
227 244 255
227 244 255
227 244 255
227 244 255
227 244 255
227 244 255
227 244 255
227 244 255
227 244 255
227 244 255
227 244 255
227 244 255
227 244 255
227 244 255
227 244 255
227 244 255
227 244 255
227 244 255
227 244 255
227 244 255
227 244 255
227 244 255
227 244 255
227 244 255
227 244 255
227 244 255
227 244 255
227 244 255
227 244 255
227 244 255
227 244 255
239 255 255
227 244 255
227 244 255
227 244 255
227 244 255
227 244 255
227 244 255
227 244 255
227 244 255
227 244 255
227 244 255
227 244 255
227 244 255
227 244 255
227 244 255
227 244 255
227 244 255
227 244 255
227 244 255
227 244 255
227 244 255
227 244 255
227 244 255
227 244 255
227 244 255
227 244 255
227 244 255
227 244 255
227 244 255
227 244 255
227 244 255
227 244 255
227 244 255
227 244 255
227 244 255
227 244 255
227 244 255
239 255 255
227 244 255
227 244 255
227 244 255
227 244 255
227 244 255
227 244 255
227 244 255
227 244 255
227 244 255
227 244 255
227 244 255
227 244 255
227 244 255
227 244 255
227 244 255
227 244 255
227 244 255
227 244 255
227 244 255
227 244 255
227 244 255
227 244 255
227 244 255
227 244 255
227 244 255
227 244 255
227 244 255
227 244 255
227 244 255
227 244 255
227 244 255
227 244 255
227 244 255
227 244 255
227 244 255
227 244 255
239 255 255
227 244 255
227 244 255
227 244 255
227 244 255
227 244 255
227 244 255
227 244 255
227 244 255
227 244 255
227 244 255
227 244 255
227 244 255
227 244 255
227 244 255
227 244 255
227 244 255
227 244 255
227 244 255
227 244 255
227 244 255
227 244 255
227 244 255
239 255 255
227 244 255
227 244 255
227 244 255
227 244 255
227 244 255
227 244 255
227 244 255
227 244 255
227 244 255
227 244 255
227 244 255
227 244 255
227 244 255
227 244 255
227 244 255
227 244 255
227 244 255
227 244 255
227 244 255
227 244 255
227 244 255
227 244 255
227 244 255
227 244 255
227 244 255
227 244 255
227 244 255
227 244 255
227 244 255
227 244 255
227 244 255
227 244 255
227 244 255
227 244 255
227 244 255
227 244 255
239 255 255
227 244 255
227 244 255
227 244 255
227 244 255
227 244 255
227 244 255
227 244 255
227 244 255
227 244 255
227 244 255
227 244 255
227 244 255
227 244 255
227 244 255
227 244 255
227 244 255
227 244 255
227 244 255
227 244 255
227 244 255
227 244 255
227 244 255
227 244 255
227 244 255
227 244 255
227 244 255
227 244 255
227 244 255
227 244 255
227 244 255
227 244 255
227 244 255
227 244 255
227 244 255
227 244 255
227 244 255
239 255 255
227 244 255
227 244 255
227 244 255
227 244 255
227 244 255
227 244 255
227 244 255
227 244 255
227 244 255
227 244 255
227 244 255
227 244 255
227 244 255
227 244 255
227 244 255
227 244 255
227 244 255
227 244 255
227 244 255
227 244 255
227 244 255
227 244 255
227 244 255
227 244 255
227 244 255
227 244 255
227 244 255
227 244 255
227 244 255
227 244 255
227 244 255
227 244 255
227 244 255
227 244 255
227 244 255
227 244 255
239 255 255
227 244 255
227 244 255
227 244 255
227 244 255
227 244 255
227 244 255
227 244 255
227 244 255
227 244 255
227 244 255
227 244 255
227 244 255
227 244 255
227 244 255
227 244 255
227 244 255
227 244 255
227 244 255
227 244 255
227 244 255
227 244 255
227 244 255
227 244 255
227 244 255
227 244 255
227 244 255
227 244 255
227 244 255
227 244 255
227 244 255
227 244 255
227 244 255
227 244 255
227 244 255
227 244 255
227 244 255
239 255 255
227 244 255
227 244 255
227 244 255
227 244 255
227 244 255
227 244 255
227 244 255
227 244 255
227 244 255
227 244 255
227 244 255
227 244 255
227 244 255
227 244 255
227 244 255
227 244 255
227 244 255
227 244 255
227 244 255
227 244 255
227 244 255
227 244 255
227 244 255
227 244 255
227 244 255
227 244 255
227 244 255
227 244 255
227 244 255
227 244 255
227 244 255
227 244 255
227 244 255
227 244 255
227 244 255
227 244 255
239 255 255
227 244 255
227 244 255
227 244 255
227 244 255
227 244 255
227 244 255
227 244 255
227 244 255
227 244 255
227 244 255
227 244 255
227 244 255
227 244 255
227 244 255
227 244 255
227 244 255
227 244 255
227 244 255
227 244 255
227 244 255
227 244 255
227 244 255
227 244 255
227 244 255
227 244 255
227 244 255
227 244 255
227 244 255
227 244 255
227 244 255
227 244 255
227 244 255
227 244 255
227 244 255
227 244 255
227 244 255
239 255 255
227 244 255
227 244 255
227 244 255
227 244 255
227 244 255
227 244 255
227 244 255
227 244 255
227 244 255
227 244 255
227 244 255
227 244 255
227 244 255
227 244 255
227 244 255
227 244 255
227 244 255
227 244 255
227 244 255
227 244 255
227 244 255
227 244 255
227 244 255
227 244 255
227 244 255
227 244 255
227 244 255
227 244 255
227 244 255
227 244 255
227 244 255
227 244 255
227 244 255
227 244 255
227 244 255
227 244 255
239 255 255
227 244 255
227 244 255
227 244 255
227 244 255
227 244 255
227 244 255
227 244 255
227 244 255
227 244 255
227 244 255
227 244 255
227 244 255
227 244 255
227 244 255
227 244 255
227 244 255
227 244 255
227 244 255
227 244 255
227 244 255
227 244 255
227 244 255
227 244 255
227 244 255
227 244 255
227 244 255
227 244 255
227 244 255
227 244 255
227 244 255
227 244 255
227 244 255
227 244 255
227 244 255
227 244 255
227 244 255
239 255 255
227 244 255
227 244 255
227 244 255
227 244 255
227 244 255
227 244 255
227 244 255
227 244 255
227 244 255
227 244 255
227 244 255
227 244 255
227 244 255
227 244 255
227 244 255
227 244 255
227 244 255
227 244 255
227 244 255
227 244 255
227 244 255
227 244 255
239 255 255
227 244 255
227 244 255
227 244 255
227 244 255
227 244 255
227 244 255
227 244 255
227 244 255
227 244 255
227 244 255
227 244 255
227 244 255
227 244 255
227 244 255
227 244 255
227 244 255
227 244 255
227 244 255
227 244 255
227 244 255
227 244 255
227 244 255
227 244 255
227 244 255
227 244 255
227 244 255
227 244 255
227 244 255
227 244 255
227 244 255
227 244 255
227 244 255
227 244 255
227 244 255
227 244 255
227 244 255
239 255 255
227 244 255
227 244 255
227 244 255
227 244 255
227 244 255
227 244 255
227 244 255
227 244 255
227 244 255
227 244 255
227 244 255
227 244 255
227 244 255
227 244 255
227 244 255
227 244 255
227 244 255
227 244 255
227 244 255
227 244 255
227 244 255
227 244 255
227 244 255
227 244 255
227 244 255
227 244 255
227 244 255
227 244 255
227 244 255
227 244 255
227 244 255
227 244 255
227 244 255
227 244 255
227 244 255
227 244 255
239 255 255
227 244 255
227 244 255
227 244 255
227 244 255
227 244 255
227 244 255
227 244 255
227 244 255
227 244 255
227 244 255
227 244 255
227 244 255
227 244 255
227 244 255
227 244 255
227 244 255
227 244 255
227 244 255
227 244 255
227 244 255
227 244 255
227 244 255
227 244 255
227 244 255
227 244 255
227 244 255
227 244 255
227 244 255
227 244 255
227 244 255
227 244 255
227 244 255
227 244 255
227 244 255
227 244 255
227 244 255
239 255 255
227 244 255
227 244 255
227 244 255
227 244 255
227 244 255
227 244 255
227 244 255
227 244 255
227 244 255
227 244 255
227 244 255
227 244 255
227 244 255
227 244 255
227 244 255
227 244 255
227 244 255
227 244 255
227 244 255
227 244 255
227 244 255
227 244 255
227 244 255
227 244 255
227 244 255
227 244 255
227 244 255
227 244 255
227 244 255
227 244 255
227 244 255
227 244 255
227 244 255
227 244 255
227 244 255
227 244 255
239 255 255
227 244 255
227 244 255
227 244 255
227 244 255
227 244 255
227 244 255
227 244 255
227 244 255
227 244 255
227 244 255
227 244 255
227 244 255
227 244 255
227 244 255
227 244 255
227 244 255
227 244 255
227 244 255
227 244 255
227 244 255
227 244 255
227 244 255
227 244 255
227 244 255
227 244 255
227 244 255
227 244 255
227 244 255
227 244 255
227 244 255
227 244 255
227 244 255
227 244 255
227 244 255
227 244 255
227 244 255
239 255 255
227 244 255
227 244 255
227 244 255
227 244 255
227 244 255
227 244 255
227 244 255
227 244 255
227 244 255
227 244 255
227 244 255
227 244 255
227 244 255
227 244 255
227 244 255
227 244 255
227 244 255
227 244 255
227 244 255
227 244 255
227 244 255
227 244 255
227 244 255
227 244 255
227 244 255
227 244 255
227 244 255
227 244 255
227 244 255
227 244 255
227 244 255
227 244 255
227 244 255
227 244 255
227 244 255
227 244 255
239 255 255
227 244 255
227 244 255
227 244 255
227 244 255
227 244 255
227 244 255
227 244 255
227 244 255
227 244 255
227 244 255
227 244 255
227 244 255
227 244 255
227 244 255
227 244 255
227 244 255
227 244 255
227 244 255
227 244 255
227 244 255
227 244 255
227 244 255
227 244 255
227 244 255
227 244 255
227 244 255
227 244 255
227 244 255
227 244 255
227 244 255
227 244 255
227 244 255
227 244 255
227 244 255
227 244 255
227 244 255
239 255 255
227 244 255
227 244 255
227 244 255
227 244 255
227 244 255
227 244 255
227 244 255
227 244 255
227 244 255
227 244 255
227 244 255
227 244 255
227 244 255
227 244 255
227 244 255
227 244 255
227 244 255
227 244 255
227 244 255
227 244 255
227 244 255
227 244 255
227 244 255
227 244 255
227 244 255
227 244 255
227 244 255
227 244 255
227 244 255
227 244 255
227 244 255
227 244 255
227 244 255
227 244 255
227 244 255
227 244 255
239 255 255
227 244 255
227 244 255
227 244 255
227 244 255
227 244 255
227 244 255
227 244 255
227 244 255
227 244 255
227 244 255
227 244 255
227 244 255
227 244 255
227 244 255
227 244 255
227 244 255
227 244 255
227 244 255
227 244 255
227 244 255
227 244 255
227 244 255
227 244 255
227 244 255
227 244 255
227 244 255
227 244 255
227 244 255
227 244 255
227 244 255
227 244 255
227 244 255
227 244 255
227 244 255
227 244 255
227 244 255
227 244 255
227 244 255
227 244 255
227 244 255
227 244 255
227 244 255
227 244 255
227 244 255
227 244 255
227 244 255
227 244 255
227 244 255
227 244 255
227 244 255
227 244 255
227 244 255
227 244 255
227 244 255
227 244 255
227 244 255
227 244 255
227 244 255
227 244 255
239 255 255
227 244 255
227 244 255
227 244 255
227 244 255
227 244 255
227 244 255
227 244 255
227 244 255
227 244 255
227 244 255
227 244 255
227 244 255
227 244 255
227 244 255
227 244 255
227 244 255
227 244 255
227 244 255
227 244 255
227 244 255
227 244 255
227 244 255
227 244 255
227 244 255
227 244 255
227 244 255
227 244 255
227 244 255
227 244 255
227 244 255
227 244 255
227 244 255
227 244 255
227 244 255
227 244 255
227 244 255
239 255 255
227 244 255
227 244 255
227 244 255
227 244 255
227 244 255
227 244 255
227 244 255
227 244 255
227 244 255
227 244 255
227 244 255
227 244 255
227 244 255
227 244 255
227 244 255
227 244 255
227 244 255
227 244 255
227 244 255
227 244 255
227 244 255
227 244 255
227 244 255
227 244 255
227 244 255
227 244 255
227 244 255
227 244 255
227 244 255
227 244 255
227 244 255
227 244 255
227 244 255
227 244 255
227 244 255
227 244 255
239 255 255
227 244 255
227 244 255
227 244 255
227 244 255
227 244 255
227 244 255
227 244 255
227 244 255
227 244 255
227 244 255
227 244 255
227 244 255
227 244 255
227 244 255
227 244 255
227 244 255
227 244 255
227 244 255
227 244 255
227 244 255
227 244 255
227 244 255
227 244 255
227 244 255
227 244 255
227 244 255
227 244 255
227 244 255
227 244 255
227 244 255
227 244 255
227 244 255
227 244 255
227 244 255
227 244 255
227 244 255
239 255 255
227 244 255
227 244 255
227 244 255
227 244 255
227 244 255
227 244 255
227 244 255
227 244 255
227 244 255
227 244 255
227 244 255
227 244 255
227 244 255
227 244 255
227 244 255
227 244 255
227 244 255
227 244 255
227 244 255
227 244 255
227 244 255
227 244 255
227 244 255
227 244 255
227 244 255
227 244 255
227 244 255
227 244 255
227 244 255
227 244 255
227 244 255
227 244 255
227 244 255
227 244 255
227 244 255
227 244 255
239 255 255
227 244 255
227 244 255
227 244 255
227 244 255
227 244 255
227 244 255
227 244 255
227 244 255
227 244 255
227 244 255
227 244 255
227 244 255
227 244 255
227 244 255
227 244 255
227 244 255
227 244 255
227 244 255
227 244 255
227 244 255
227 244 255
227 244 255
227 244 255
227 244 255
227 244 255
227 244 255
227 244 255
227 244 255
227 244 255
227 244 255
227 244 255
227 244 255
227 244 255
227 244 255
227 244 255
227 244 255
239 255 255
227 244 255
227 244 255
227 244 255
227 244 255
227 244 255
227 244 255
227 244 255
227 244 255
227 244 255
227 244 255
227 244 255
227 244 255
227 244 255
227 244 255
227 244 255
227 244 255
227 244 255
227 244 255
227 244 255
227 244 255
227 244 255
227 244 255
227 244 255
227 244 255
227 244 255
227 244 255
227 244 255
227 244 255
227 244 255
227 244 255
227 244 255
227 244 255
227 244 255
227 244 255
227 244 255
227 244 255
239 255 255
227 244 255
227 244 255
227 244 255
227 244 255
227 244 255
227 244 255
227 244 255
227 244 255
227 244 255
227 244 255
227 244 255
227 244 255
227 244 255
227 244 255
227 244 255
227 244 255
227 244 255
227 244 255
227 244 255
227 244 255
227 244 255
227 244 255
227 244 255
227 244 255
227 244 255
227 244 255
227 244 255
227 244 255
227 244 255
227 244 255
227 244 255
227 244 255
227 244 255
227 244 255
227 244 255
227 244 255
239 255 255
227 244 255
227 244 255
227 244 255
227 244 255
227 244 255
227 244 255
227 244 255
227 244 255
227 244 255
227 244 255
227 244 255
227 244 255
227 244 255
227 244 255
227 244 255
227 244 255
227 244 255
227 244 255
227 244 255
227 244 255
227 244 255
227 244 255
227 244 255
227 244 255
227 244 255
227 244 255
227 244 255
227 244 255
227 244 255
227 244 255
227 244 255
227 244 255
227 244 255
227 244 255
227 244 255
227 244 255
227 244 255
227 244 255
227 244 255
227 244 255
227 244 255
227 244 255
227 244 255
227 244 255
227 244 255
227 244 255
227 244 255
227 244 255
227 244 255
227 244 255
227 244 255
227 244 255
227 244 255
227 244 255
227 244 255
227 244 255
227 244 255
227 244 255
227 244 255
239 255 255
227 244 255
227 244 255
227 244 255
227 244 255
227 244 255
227 244 255
227 244 255
227 244 255
227 244 255
227 244 255
227 244 255
227 244 255
227 244 255
227 244 255
227 244 255
227 244 255
227 244 255
227 244 255
227 244 255
227 244 255
227 244 255
227 244 255
227 244 255
227 244 255
227 244 255
227 244 255
227 244 255
227 244 255
227 244 255
227 244 255
227 244 255
227 244 255
227 244 255
227 244 255
227 244 255
227 244 255
239 255 255
227 244 255
227 244 255
227 244 255
227 244 255
227 244 255
227 244 255
227 244 255
227 244 255
227 244 255
227 244 255
227 244 255
227 244 255
227 244 255
227 244 255
227 244 255
227 244 255
227 244 255
227 244 255
227 244 255
227 244 255
227 244 255
227 244 255
227 244 255
227 244 255
227 244 255
227 244 255
227 244 255
227 244 255
227 244 255
227 244 255
227 244 255
227 244 255
227 244 255
227 244 255
227 244 255
227 244 255
239 255 255
227 244 255
227 244 255
227 244 255
227 244 255
227 244 255
227 244 255
227 244 255
227 244 255
227 244 255
227 244 255
227 244 255
227 244 255
227 244 255
227 244 255
227 244 255
227 244 255
227 244 255
227 244 255
227 244 255
227 244 255
227 244 255
227 244 255
227 244 255
227 244 255
227 244 255
227 244 255
227 244 255
227 244 255
227 244 255
227 244 255
227 244 255
227 244 255
227 244 255
227 244 255
227 244 255
227 244 255
239 255 255
227 244 255
227 244 255
227 244 255
227 244 255
227 244 255
227 244 255
227 244 255
227 244 255
227 244 255
227 244 255
227 244 255
227 244 255
227 244 255
227 244 255
227 244 255
227 244 255
227 244 255
227 244 255
227 244 255
227 244 255
227 244 255
227 244 255
227 244 255
227 244 255
227 244 255
227 244 255
227 244 255
227 244 255
227 244 255
227 244 255
227 244 255
227 244 255
227 244 255
227 244 255
227 244 255
227 244 255
239 255 255
227 244 255
227 244 255
227 244 255
227 244 255
227 244 255
227 244 255
227 244 255
227 244 255
227 244 255
227 244 255
227 244 255
227 244 255
227 244 255
227 244 255
227 244 255
227 244 255
227 244 255
227 244 255
227 244 255
227 244 255
227 244 255
227 244 255
227 244 255
227 244 255
227 244 255
227 244 255
227 244 255
227 244 255
227 244 255
227 244 255
227 244 255
227 244 255
227 244 255
227 244 255
227 244 255
227 244 255
239 255 255
227 244 255
227 244 255
227 244 255
227 244 255
227 244 255
227 244 255
227 244 255
227 244 255
227 244 255
227 244 255
227 244 255
227 244 255
227 244 255
227 244 255
227 244 255
227 244 255
227 244 255
227 244 255
227 244 255
227 244 255
227 244 255
227 244 255
227 244 255
227 244 255
227 244 255
227 244 255
227 244 255
227 244 255
227 244 255
227 244 255
227 244 255
227 244 255
227 244 255
227 244 255
227 244 255
227 244 255
239 255 255
227 244 255
227 244 255
227 244 255
227 244 255
227 244 255
227 244 255
227 244 255
227 244 255
227 244 255
227 244 255
227 244 255
227 244 255
227 244 255
227 244 255
227 244 255
227 244 255
227 244 255
227 244 255
227 244 255
227 244 255
227 244 255
227 244 255
227 244 255
227 244 255
227 244 255
227 244 255
227 244 255
227 244 255
227 244 255
227 244 255
227 244 255
227 244 255
227 244 255
227 244 255
227 244 255
227 244 255
239 255 255
227 244 255
227 244 255
227 244 255
227 244 255
227 244 255
227 244 255
227 244 255
227 244 255
227 244 255
227 244 255
227 244 255
227 244 255
227 244 255
227 244 255
227 244 255
227 244 255
227 244 255
227 244 255
227 244 255
227 244 255
227 244 255
227 244 255
227 244 255
227 244 255
227 244 255
227 244 255
227 244 255
227 244 255
227 244 255
227 244 255
227 244 255
227 244 255
227 244 255
227 244 255
227 244 255
227 244 255
227 244 255
227 244 255
227 244 255
227 244 255
227 244 255
227 244 255
227 244 255
227 244 255
227 244 255
227 244 255
227 244 255
227 244 255
227 244 255
227 244 255
227 244 255
227 244 255
227 244 255
227 244 255
227 244 255
227 244 255
227 244 255
227 244 255
227 244 255
239 255 255
227 244 255
227 244 255
227 244 255
227 244 255
227 244 255
227 244 255
227 244 255
227 244 255
227 244 255
227 244 255
227 244 255
227 244 255
227 244 255
227 244 255
227 244 255
227 244 255
227 244 255
227 244 255
227 244 255
227 244 255
227 244 255
227 244 255
227 244 255
227 244 255
227 244 255
227 244 255
227 244 255
227 244 255
227 244 255
227 244 255
227 244 255
227 244 255
227 244 255
227 244 255
227 244 255
227 244 255
239 255 255
227 244 255
227 244 255
227 244 255
227 244 255
227 244 255
227 244 255
227 244 255
227 244 255
227 244 255
227 244 255
227 244 255
227 244 255
227 244 255
227 244 255
227 244 255
227 244 255
227 244 255
227 244 255
227 244 255
227 244 255
227 244 255
227 244 255
227 244 255
227 244 255
227 244 255
227 244 255
227 244 255
227 244 255
227 244 255
227 244 255
227 244 255
227 244 255
227 244 255
227 244 255
227 244 255
227 244 255
239 255 255
227 244 255
227 244 255
227 244 255
227 244 255
227 244 255
227 244 255
227 244 255
227 244 255
227 244 255
227 244 255
227 244 255
227 244 255
227 244 255
227 244 255
227 244 255
227 244 255
227 244 255
227 244 255
227 244 255
227 244 255
227 244 255
227 244 255
227 244 255
227 244 255
227 244 255
227 244 255
227 244 255
227 244 255
227 244 255
227 244 255
227 244 255
227 244 255
227 244 255
227 244 255
227 244 255
227 244 255
239 255 255
227 244 255
227 244 255
227 244 255
227 244 255
227 244 255
227 244 255
227 244 255
227 244 255
227 244 255
227 244 255
227 244 255
227 244 255
227 244 255
227 244 255
227 244 255
227 244 255
227 244 255
227 244 255
227 244 255
227 244 255
227 244 255
227 244 255
227 244 255
227 244 255
227 244 255
227 244 255
227 244 255
227 244 255
227 244 255
227 244 255
227 244 255
227 244 255
227 244 255
227 244 255
227 244 255
227 244 255
239 255 255
227 244 255
227 244 255
227 244 255
227 244 255
227 244 255
227 244 255
227 244 255
227 244 255
227 244 255
227 244 255
227 244 255
227 244 255
227 244 255
227 244 255
227 244 255
227 244 255
227 244 255
227 244 255
227 244 255
227 244 255
227 244 255
227 244 255
227 244 255
227 244 255
227 244 255
227 244 255
227 244 255
227 244 255
227 244 255
227 244 255
227 244 255
227 244 255
227 244 255
227 244 255
227 244 255
227 244 255
239 255 255
227 244 255
227 244 255
227 244 255
227 244 255
227 244 255
227 244 255
227 244 255
227 244 255
227 244 255
227 244 255
227 244 255
227 244 255
227 244 255
227 244 255
227 244 255
227 244 255
227 244 255
227 244 255
227 244 255
227 244 255
227 244 255
227 244 255
227 244 255
227 244 255
227 244 255
227 244 255
227 244 255
227 244 255
227 244 255
227 244 255
227 244 255
227 244 255
227 244 255
227 244 255
227 244 255
227 244 255
239 255 255
227 244 255
227 244 255
227 244 255
227 244 255
227 244 255
227 244 255
227 244 255
227 244 255
227 244 255
227 244 255
227 244 255
227 244 255
227 244 255
227 244 255
227 244 255
227 244 255
227 244 255
227 244 255
227 244 255
227 244 255
227 244 255
227 244 255
227 244 255
227 244 255
227 244 255
227 244 255
227 244 255
227 244 255
227 244 255
227 244 255
227 244 255
227 244 255
227 244 255
227 244 255
227 244 255
227 244 255
239 255 255
227 244 255
227 244 255
227 244 255
227 244 255
227 244 255
227 244 255
227 244 255
227 244 255
227 244 255
227 244 255
227 244 255
227 244 255
227 244 255
227 244 255
227 244 255
227 244 255
227 244 255
227 244 255
227 244 255
227 244 255
227 244 255
227 244 255
227 244 255
227 244 255
227 244 255
227 244 255
227 244 255
227 244 255
227 244 255
227 244 255
227 244 255
227 244 255
227 244 255
227 244 255
227 244 255
227 244 255
227 244 255
227 244 255
227 244 255
227 244 255
227 244 255
227 244 255
227 244 255
227 244 255
227 244 255
227 244 255
227 244 255
227 244 255
227 244 255
227 244 255
227 244 255
227 244 255
227 244 255
227 244 255
227 244 255
227 244 255
227 244 255
227 244 255
227 244 255
239 255 255
227 244 255
227 244 255
227 244 255
227 244 255
227 244 255
227 244 255
227 244 255
227 244 255
227 244 255
227 244 255
227 244 255
227 244 255
227 244 255
227 244 255
227 244 255
227 244 255
227 244 255
227 244 255
227 244 255
227 244 255
227 244 255
227 244 255
227 244 255
227 244 255
227 244 255
227 244 255
227 244 255
227 244 255
227 244 255
227 244 255
227 244 255
227 244 255
227 244 255
227 244 255
227 244 255
227 244 255
239 255 255
227 244 255
227 244 255
227 244 255
227 244 255
227 244 255
227 244 255
227 244 255
227 244 255
227 244 255
227 244 255
227 244 255
227 244 255
227 244 255
227 244 255
227 244 255
227 244 255
227 244 255
227 244 255
227 244 255
227 244 255
227 244 255
227 244 255
227 244 255
227 244 255
227 244 255
227 244 255
227 244 255
227 244 255
227 244 255
227 244 255
227 244 255
227 244 255
227 244 255
227 244 255
227 244 255
227 244 255
239 255 255
227 244 255
227 244 255
227 244 255
227 244 255
227 244 255
227 244 255
227 244 255
227 244 255
227 244 255
227 244 255
227 244 255
227 244 255
227 244 255
227 244 255
227 244 255
227 244 255
227 244 255
227 244 255
227 244 255
227 244 255
227 244 255
227 244 255
227 244 255
227 244 255
227 244 255
227 244 255
227 244 255
227 244 255
227 244 255
227 244 255
227 244 255
227 244 255
227 244 255
227 244 255
227 244 255
227 244 255
239 255 255
227 244 255
227 244 255
227 244 255
227 244 255
227 244 255
227 244 255
227 244 255
227 244 255
227 244 255
227 244 255
227 244 255
227 244 255
227 244 255
227 244 255
227 244 255
227 244 255
227 244 255
227 244 255
227 244 255
227 244 255
227 244 255
227 244 255
227 244 255
227 244 255
227 244 255
227 244 255
227 244 255
227 244 255
227 244 255
227 244 255
227 244 255
227 244 255
227 244 255
227 244 255
227 244 255
227 244 255
239 255 255
227 244 255
227 244 255
227 244 255
227 244 255
227 244 255
227 244 255
227 244 255
227 244 255
227 244 255
227 244 255
227 244 255
227 244 255
227 244 255
227 244 255
227 244 255
227 244 255
227 244 255
227 244 255
227 244 255
227 244 255
227 244 255
227 244 255
227 244 255
227 244 255
227 244 255
227 244 255
227 244 255
227 244 255
227 244 255
227 244 255
227 244 255
227 244 255
227 244 255
227 244 255
227 244 255
227 244 255
239 255 255
227 244 255
227 244 255
227 244 255
227 244 255
227 244 255
227 244 255
227 244 255
227 244 255
227 244 255
227 244 255
227 244 255
227 244 255
227 244 255
227 244 255
227 244 255
227 244 255
227 244 255
227 244 255
227 244 255
227 244 255
227 244 255
227 244 255
227 244 255
227 244 255
227 244 255
227 244 255
227 244 255
227 244 255
227 244 255
227 244 255
227 244 255
227 244 255
227 244 255
227 244 255
227 244 255
227 244 255
239 255 255
227 244 255
227 244 255
227 244 255
227 244 255
227 244 255
227 244 255
227 244 255
227 244 255
227 244 255
227 244 255
227 244 255
227 244 255
227 244 255
227 244 255
227 244 255
227 244 255
227 244 255
227 244 255
227 244 255
227 244 255
227 244 255
227 244 255
227 244 255
227 244 255
227 244 255
227 244 255
227 244 255
227 244 255
227 244 255
227 244 255
227 244 255
227 244 255
227 244 255
227 244 255
227 244 255
227 244 255
239 255 255
227 244 255
227 244 255
227 244 255
227 244 255
227 244 255
227 244 255
227 244 255
227 244 255
227 244 255
227 244 255
227 244 255
227 244 255
227 244 255
227 244 255
227 244 255
227 244 255
227 244 255
227 244 255
227 244 255
227 244 255
227 244 255
227 244 255
227 244 255
227 244 255
227 244 255
227 244 255
227 244 255
227 244 255
227 244 255
227 244 255
227 244 255
227 244 255
227 244 255
227 244 255
227 244 255
227 244 255
227 244 255
227 244 255
227 244 255
227 244 255
227 244 255
227 244 255
227 244 255
227 244 255
227 244 255
227 244 255
227 244 255
227 244 255
227 244 255
227 244 255
227 244 255
227 244 255
227 244 255
227 244 255
227 244 255
227 244 255
227 244 255
227 244 255
227 244 255
239 255 255
227 244 255
227 244 255
227 244 255
227 244 255
227 244 255
227 244 255
227 244 255
227 244 255
227 244 255
227 244 255
227 244 255
227 244 255
227 244 255
227 244 255
227 244 255
227 244 255
227 244 255
227 244 255
227 244 255
227 244 255
227 244 255
227 244 255
227 244 255
227 244 255
227 244 255
227 244 255
227 244 255
227 244 255
227 244 255
227 244 255
227 244 255
227 244 255
227 244 255
227 244 255
227 244 255
227 244 255
239 255 255
227 244 255
227 244 255
227 244 255
227 244 255
227 244 255
227 244 255
227 244 255
227 244 255
227 244 255
227 244 255
227 244 255
227 244 255
227 244 255
227 244 255
227 244 255
227 244 255
227 244 255
227 244 255
227 244 255
227 244 255
227 244 255
227 244 255
227 244 255
227 244 255
227 244 255
227 244 255
227 244 255
227 244 255
227 244 255
227 244 255
227 244 255
227 244 255
227 244 255
227 244 255
227 244 255
227 244 255
239 255 255
227 244 255
227 244 255
227 244 255
227 244 255
227 244 255
227 244 255
227 244 255
227 244 255
227 244 255
227 244 255
227 244 255
227 244 255
227 244 255
227 244 255
227 244 255
227 244 255
227 244 255
227 244 255
227 244 255
227 244 255
227 244 255
227 244 255
227 244 255
227 244 255
227 244 255
227 244 255
227 244 255
227 244 255
227 244 255
227 244 255
227 244 255
227 244 255
227 244 255
227 244 255
227 244 255
227 244 255
239 255 255
227 244 255
227 244 255
227 244 255
227 244 255
227 244 255
227 244 255
227 244 255
227 244 255
227 244 255
227 244 255
227 244 255
227 244 255
227 244 255
227 244 255
227 244 255
227 244 255
227 244 255
227 244 255
227 244 255
227 244 255
227 244 255
227 244 255
227 244 255
227 244 255
227 244 255
227 244 255
227 244 255
227 244 255
227 244 255
227 244 255
227 244 255
227 244 255
227 244 255
227 244 255
227 244 255
227 244 255
239 255 255
227 244 255
227 244 255
227 244 255
227 244 255
227 244 255
227 244 255
227 244 255
227 244 255
227 244 255
227 244 255
227 244 255
227 244 255
227 244 255
227 244 255
227 244 255
227 244 255
227 244 255
227 244 255
227 244 255
227 244 255
227 244 255
227 244 255
227 244 255
227 244 255
227 244 255
227 244 255
227 244 255
227 244 255
227 244 255
227 244 255
227 244 255
227 244 255
227 244 255
227 244 255
227 244 255
227 244 255
239 255 255
227 244 255
227 244 255
227 244 255
227 244 255
227 244 255
227 244 255
227 244 255
227 244 255
227 244 255
227 244 255
227 244 255
227 244 255
227 244 255
227 244 255
227 244 255
227 244 255
227 244 255
227 244 255
227 244 255
227 244 255
227 244 255
227 244 255
227 244 255
227 244 255
227 244 255
227 244 255
227 244 255
227 244 255
227 244 255
227 244 255
227 244 255
227 244 255
227 244 255
227 244 255
227 244 255
227 244 255
239 255 255
227 244 255
227 244 255
227 244 255
227 244 255
227 244 255
227 244 255
227 244 255
227 244 255
227 244 255
227 244 255
227 244 255
227 244 255
227 244 255
227 244 255
227 244 255
227 244 255
227 244 255
227 244 255
227 244 255
227 244 255
227 244 255
227 244 255
227 244 255
227 244 255
227 244 255
227 244 255
227 244 255
227 244 255
227 244 255
227 244 255
227 244 255
227 244 255
227 244 255
227 244 255
227 244 255
227 244 255
239 255 255
227 244 255
227 244 255
227 244 255
227 244 255
227 244 255
227 244 255
227 244 255
227 244 255
227 244 255
227 244 255
227 244 255
227 244 255
227 244 255
227 244 255
227 244 255
227 244 255
227 244 255
227 244 255
227 244 255
227 244 255
227 244 255
227 244 255
227 244 255
227 244 255
227 244 255
227 244 255
227 244 255
227 244 255
227 244 255
227 244 255
227 244 255
227 244 255
227 244 255
227 244 255
227 244 255
227 244 255
227 244 255
227 244 255
227 244 255
227 244 255
227 244 255
227 244 255
227 244 255
227 244 255
227 244 255
227 244 255
227 244 255
227 244 255
227 244 255
227 244 255
227 244 255
227 244 255
227 244 255
227 244 255
227 244 255
227 244 255
227 244 255
227 244 255
227 244 255
239 255 255
227 244 255
227 244 255
227 244 255
227 244 255
227 244 255
227 244 255
227 244 255
227 244 255
227 244 255
227 244 255
227 244 255
227 244 255
227 244 255
227 244 255
227 244 255
227 244 255
227 244 255
227 244 255
227 244 255
227 244 255
227 244 255
227 244 255
227 244 255
227 244 255
227 244 255
227 244 255
227 244 255
227 244 255
227 244 255
227 244 255
227 244 255
227 244 255
227 244 255
227 244 255
227 244 255
227 244 255
239 255 255
227 244 255
227 244 255
227 244 255
227 244 255
227 244 255
227 244 255
227 244 255
227 244 255
227 244 255
227 244 255
227 244 255
227 244 255
227 244 255
227 244 255
227 244 255
227 244 255
227 244 255
227 244 255
227 244 255
227 244 255
227 244 255
227 244 255
227 244 255
227 244 255
227 244 255
227 244 255
227 244 255
227 244 255
227 244 255
227 244 255
227 244 255
227 244 255
227 244 255
227 244 255
227 244 255
227 244 255
239 255 255
227 244 255
227 244 255
227 244 255
227 244 255
227 244 255
227 244 255
227 244 255
227 244 255
227 244 255
227 244 255
227 244 255
227 244 255
227 244 255
227 244 255
227 244 255
227 244 255
227 244 255
227 244 255
227 244 255
227 244 255
227 244 255
227 244 255
227 244 255
227 244 255
227 244 255
227 244 255
227 244 255
227 244 255
227 244 255
227 244 255
227 244 255
227 244 255
227 244 255
227 244 255
227 244 255
227 244 255
239 255 255
227 244 255
227 244 255
227 244 255
227 244 255
227 244 255
227 244 255
227 244 255
227 244 255
227 244 255
227 244 255
227 244 255
227 244 255
227 244 255
227 244 255
227 244 255
227 244 255
227 244 255
227 244 255
227 244 255
227 244 255
227 244 255
227 244 255
227 244 255
227 244 255
227 244 255
227 244 255
227 244 255
227 244 255
227 244 255
227 244 255
227 244 255
227 244 255
227 244 255
227 244 255
227 244 255
227 244 255
239 255 255
227 244 255
227 244 255
227 244 255
227 244 255
227 244 255
227 244 255
227 244 255
227 244 255
227 244 255
227 244 255
227 244 255
227 244 255
227 244 255
227 244 255
227 244 255
227 244 255
227 244 255
227 244 255
227 244 255
227 244 255
227 244 255
227 244 255
227 244 255
227 244 255
227 244 255
227 244 255
227 244 255
227 244 255
227 244 255
227 244 255
227 244 255
227 244 255
227 244 255
227 244 255
227 244 255
227 244 255
239 255 255
227 244 255
227 244 255
227 244 255
227 244 255
227 244 255
227 244 255
227 244 255
227 244 255
227 244 255
227 244 255
227 244 255
227 244 255
227 244 255
227 244 255
227 244 255
227 244 255
227 244 255
227 244 255
227 244 255
227 244 255
227 244 255
227 244 255
227 244 255
227 244 255
227 244 255
227 244 255
227 244 255
227 244 255
227 244 255
227 244 255
227 244 255
227 244 255
227 244 255
227 244 255
227 244 255
227 244 255
239 255 255
227 244 255
227 244 255
227 244 255
227 244 255
227 244 255
227 244 255
227 244 255
227 244 255
227 244 255
227 244 255
227 244 255
227 244 255
227 244 255
227 244 255
227 244 255
227 244 255
227 244 255
227 244 255
227 244 255
227 244 255
227 244 255
227 244 255
227 244 255
227 244 255
227 244 255
227 244 255
227 244 255
227 244 255
227 244 255
227 244 255
227 244 255
227 244 255
227 244 255
227 244 255
227 244 255
227 244 255
239 255 255
227 244 255
227 244 255
227 244 255
227 244 255
227 244 255
227 244 255
227 244 255
227 244 255
227 244 255
227 244 255
227 244 255
227 244 255
227 244 255
227 244 255
227 244 255
227 244 255
227 244 255
227 244 255
227 244 255
227 244 255
227 244 255
227 244 255
227 244 255
227 244 255
227 244 255
227 244 255
227 244 255
227 244 255
227 244 255
227 244 255
227 244 255
227 244 255
227 244 255
227 244 255
227 244 255
227 244 255
227 244 255
227 244 255
227 244 255
227 244 255
227 244 255
227 244 255
227 244 255
227 244 255
227 244 255
227 244 255
227 244 255
227 244 255
227 244 255
227 244 255
227 244 255
227 244 255
227 244 255
227 244 255
227 244 255
227 244 255
227 244 255
227 244 255
227 244 255
239 255 255
227 244 255
227 244 255
227 244 255
227 244 255
227 244 255
227 244 255
227 244 255
227 244 255
227 244 255
227 244 255
227 244 255
227 244 255
227 244 255
227 244 255
227 244 255
227 244 255
227 244 255
227 244 255
227 244 255
227 244 255
227 244 255
227 244 255
227 244 255
227 244 255
227 244 255
227 244 255
227 244 255
227 244 255
227 244 255
227 244 255
227 244 255
227 244 255
227 244 255
227 244 255
227 244 255
227 244 255
239 255 255
227 244 255
227 244 255
227 244 255
227 244 255
227 244 255
227 244 255
227 244 255
227 244 255
227 244 255
227 244 255
227 244 255
227 244 255
227 244 255
227 244 255
227 244 255
227 244 255
227 244 255
227 244 255
227 244 255
227 244 255
227 244 255
227 244 255
227 244 255
227 244 255
227 244 255
227 244 255
227 244 255
227 244 255
227 244 255
227 244 255
227 244 255
227 244 255
227 244 255
227 244 255
227 244 255
227 244 255
239 255 255
227 244 255
227 244 255
227 244 255
227 244 255
227 244 255
227 244 255
227 244 255
227 244 255
227 244 255
227 244 255
227 244 255
227 244 255
227 244 255
227 244 255
227 244 255
227 244 255
227 244 255
227 244 255
227 244 255
227 244 255
227 244 255
227 244 255
227 244 255
227 244 255
227 244 255
227 244 255
227 244 255
227 244 255
227 244 255
227 244 255
227 244 255
227 244 255
227 244 255
227 244 255
227 244 255
227 244 255
239 255 255
227 244 255
227 244 255
227 244 255
227 244 255
227 244 255
227 244 255
227 244 255
227 244 255
227 244 255
227 244 255
227 244 255
227 244 255
227 244 255
227 244 255
227 244 255
227 244 255
227 244 255
227 244 255
227 244 255
227 244 255
227 244 255
227 244 255
227 244 255
227 244 255
227 244 255
227 244 255
227 244 255
227 244 255
227 244 255
227 244 255
227 244 255
227 244 255
227 244 255
227 244 255
227 244 255
227 244 255
239 255 255
227 244 255
227 244 255
227 244 255
227 244 255
227 244 255
227 244 255
227 244 255
227 244 255
227 244 255
227 244 255
227 244 255
227 244 255
227 244 255
227 244 255
227 244 255
227 244 255
227 244 255
227 244 255
227 244 255
227 244 255
227 244 255
227 244 255
227 244 255
227 244 255
227 244 255
227 244 255
227 244 255
227 244 255
227 244 255
227 244 255
227 244 255
227 244 255
227 244 255
227 244 255
227 244 255
227 244 255
239 255 255
227 244 255
227 244 255
227 244 255
227 244 255
227 244 255
227 244 255
227 244 255
227 244 255
227 244 255
227 244 255
227 244 255
227 244 255
227 244 255
227 244 255
227 244 255
227 244 255
227 244 255
227 244 255
227 244 255
227 244 255
227 244 255
227 244 255
227 244 255
227 244 255
227 244 255
227 244 255
227 244 255
227 244 255
227 244 255
227 244 255
227 244 255
227 244 255
227 244 255
227 244 255
227 244 255
227 244 255
239 255 255
227 244 255
227 244 255
227 244 255
227 244 255
227 244 255
227 244 255
227 244 255
227 244 255
227 244 255
227 244 255
227 244 255
227 244 255
227 244 255
227 244 255
227 244 255
227 244 255
227 244 255
227 244 255
227 244 255
227 244 255
227 244 255
227 244 255
227 244 255
227 244 255
227 244 255
227 244 255
227 244 255
227 244 255
227 244 255
227 244 255
227 244 255
227 244 255
227 244 255
227 244 255
227 244 255
227 244 255
239 255 255
227 244 255
227 244 255
227 244 255
227 244 255
227 244 255
227 244 255
227 244 255
227 244 255
227 244 255
227 244 255
227 244 255
227 244 255
227 244 255
227 244 255
227 244 255
227 244 255
227 244 255
227 244 255
227 244 255
227 244 255
227 244 255
227 244 255
227 244 255
227 244 255
227 244 255
227 244 255
227 244 255
227 244 255
227 244 255
227 244 255
227 244 255
227 244 255
227 244 255
227 244 255
227 244 255
227 244 255
227 244 255
227 244 255
227 244 255
227 244 255
227 244 255
227 244 255
227 244 255
227 244 255
227 244 255
227 244 255
227 244 255
227 244 255
227 244 255
227 244 255
227 244 255
227 244 255
227 244 255
227 244 255
227 244 255
227 244 255
227 244 255
227 244 255
227 244 255
239 255 255
227 244 255
227 244 255
227 244 255
227 244 255
227 244 255
227 244 255
227 244 255
227 244 255
227 244 255
227 244 255
227 244 255
227 244 255
227 244 255
227 244 255
227 244 255
227 244 255
227 244 255
227 244 255
227 244 255
227 244 255
227 244 255
227 244 255
227 244 255
227 244 255
227 244 255
227 244 255
227 244 255
227 244 255
227 244 255
227 244 255
227 244 255
227 244 255
227 244 255
227 244 255
227 244 255
227 244 255
239 255 255
227 244 255
227 244 255
227 244 255
227 244 255
227 244 255
227 244 255
227 244 255
227 244 255
227 244 255
227 244 255
227 244 255
227 244 255
227 244 255
227 244 255
227 244 255
227 244 255
227 244 255
227 244 255
227 244 255
227 244 255
227 244 255
227 244 255
227 244 255
227 244 255
227 244 255
227 244 255
227 244 255
227 244 255
227 244 255
227 244 255
227 244 255
227 244 255
227 244 255
227 244 255
227 244 255
227 244 255
239 255 255
227 244 255
227 244 255
227 244 255
227 244 255
227 244 255
227 244 255
227 244 255
227 244 255
227 244 255
227 244 255
227 244 255
227 244 255
227 244 255
227 244 255
227 244 255
227 244 255
227 244 255
227 244 255
227 244 255
227 244 255
227 244 255
227 244 255
227 244 255
227 244 255
227 244 255
227 244 255
227 244 255
227 244 255
227 244 255
227 244 255
227 244 255
227 244 255
227 244 255
227 244 255
227 244 255
227 244 255
239 255 255
227 244 255
227 244 255
227 244 255
227 244 255
227 244 255
227 244 255
227 244 255
227 244 255
227 244 255
227 244 255
227 244 255
227 244 255
227 244 255
227 244 255
227 244 255
227 244 255
227 244 255
227 244 255
227 244 255
227 244 255
227 244 255
227 244 255
227 244 255
227 244 255
227 244 255
227 244 255
227 244 255
227 244 255
227 244 255
227 244 255
227 244 255
227 244 255
227 244 255
227 244 255
227 244 255
227 244 255
239 255 255
227 244 255
227 244 255
227 244 255
227 244 255
227 244 255
227 244 255
227 244 255
227 244 255
227 244 255
227 244 255
227 244 255
227 244 255
227 244 255
227 244 255
227 244 255
227 244 255
227 244 255
227 244 255
227 244 255
227 244 255
227 244 255
227 244 255
227 244 255
227 244 255
227 244 255
227 244 255
227 244 255
227 244 255
227 244 255
227 244 255
227 244 255
227 244 255
227 244 255
227 244 255
227 244 255
227 244 255
239 255 255
227 244 255
227 244 255
227 244 255
227 244 255
227 244 255
227 244 255
227 244 255
227 244 255
227 244 255
227 244 255
227 244 255
227 244 255
227 244 255
227 244 255
227 244 255
227 244 255
227 244 255
227 244 255
227 244 255
227 244 255
227 244 255
227 244 255
227 244 255
227 244 255
227 244 255
227 244 255
227 244 255
227 244 255
227 244 255
227 244 255
227 244 255
227 244 255
227 244 255
227 244 255
227 244 255
227 244 255
239 255 255
227 244 255
227 244 255
227 244 255
227 244 255
227 244 255
227 244 255
227 244 255
227 244 255
227 244 255
227 244 255
227 244 255
227 244 255
227 244 255
227 244 255
227 244 255
227 244 255
227 244 255
227 244 255
227 244 255
227 244 255
227 244 255
227 244 255
227 244 255
227 244 255
227 244 255
227 244 255
227 244 255
227 244 255
227 244 255
227 244 255
227 244 255
227 244 255
227 244 255
227 244 255
227 244 255
227 244 255
239 255 255
227 244 255
227 244 255
227 244 255
227 244 255
227 244 255
227 244 255
227 244 255
227 244 255
227 244 255
227 244 255
227 244 255
227 244 255
227 244 255
227 244 255
227 244 255
227 244 255
227 244 255
227 244 255
227 244 255
227 244 255
227 244 255
227 244 255
227 244 255
227 244 255
227 244 255
227 244 255
227 244 255
227 244 255
227 244 255
227 244 255
227 244 255
227 244 255
227 244 255
227 244 255
227 244 255
227 244 255
227 244 255
227 244 255
227 244 255
227 244 255
227 244 255
227 244 255
227 244 255
227 244 255
227 244 255
227 244 255
227 244 255
227 244 255
227 244 255
227 244 255
227 244 255
227 244 255
227 244 255
227 244 255
227 244 255
227 244 255
227 244 255
227 244 255
227 244 255
239 255 255
227 244 255
227 244 255
227 244 255
227 244 255
227 244 255
227 244 255
227 244 255
227 244 255
227 244 255
227 244 255
227 244 255
227 244 255
227 244 255
227 244 255
227 244 255
227 244 255
227 244 255
227 244 255
227 244 255
227 244 255
227 244 255
227 244 255
227 244 255
227 244 255
227 244 255
227 244 255
227 244 255
227 244 255
227 244 255
227 244 255
227 244 255
227 244 255
227 244 255
227 244 255
227 244 255
227 244 255
239 255 255
227 244 255
227 244 255
227 244 255
227 244 255
227 244 255
227 244 255
227 244 255
227 244 255
227 244 255
227 244 255
227 244 255
227 244 255
227 244 255
227 244 255
227 244 255
227 244 255
227 244 255
227 244 255
227 244 255
227 244 255
227 244 255
227 244 255
227 244 255
227 244 255
227 244 255
227 244 255
227 244 255
227 244 255
227 244 255
227 244 255
227 244 255
227 244 255
227 244 255
227 244 255
227 244 255
227 244 255
239 255 255
227 244 255
227 244 255
227 244 255
227 244 255
227 244 255
227 244 255
227 244 255
227 244 255
227 244 255
227 244 255
227 244 255
227 244 255
227 244 255
227 244 255
227 244 255
227 244 255
227 244 255
227 244 255
227 244 255
227 244 255
227 244 255
227 244 255
227 244 255
227 244 255
227 244 255
227 244 255
227 244 255
227 244 255
227 244 255
227 244 255
227 244 255
227 244 255
227 244 255
227 244 255
227 244 255
227 244 255
239 255 255
227 244 255
227 244 255
227 244 255
227 244 255
227 244 255
227 244 255
227 244 255
227 244 255
227 244 255
227 244 255
227 244 255
227 244 255
227 244 255
227 244 255
227 244 255
227 244 255
227 244 255
227 244 255
227 244 255
227 244 255
227 244 255
227 244 255
227 244 255
227 244 255
227 244 255
227 244 255
227 244 255
227 244 255
227 244 255
227 244 255
227 244 255
227 244 255
227 244 255
227 244 255
227 244 255
227 244 255
239 255 255
227 244 255
227 244 255
227 244 255
227 244 255
227 244 255
227 244 255
227 244 255
227 244 255
227 244 255
227 244 255
227 244 255
227 244 255
227 244 255
227 244 255
227 244 255
227 244 255
227 244 255
227 244 255
227 244 255
227 244 255
227 244 255
227 244 255
227 244 255
227 244 255
227 244 255
227 244 255
227 244 255
227 244 255
227 244 255
227 244 255
227 244 255
227 244 255
227 244 255
227 244 255
227 244 255
227 244 255
239 255 255
227 244 255
227 244 255
227 244 255
227 244 255
227 244 255
227 244 255
227 244 255
227 244 255
227 244 255
227 244 255
227 244 255
227 244 255
227 244 255
227 244 255
227 244 255
227 244 255
227 244 255
227 244 255
227 244 255
227 244 255
227 244 255
227 244 255
227 244 255
227 244 255
227 244 255
227 244 255
227 244 255
227 244 255
227 244 255
227 244 255
227 244 255
227 244 255
227 244 255
227 244 255
227 244 255
227 244 255
239 255 255
227 244 255
227 244 255
227 244 255
227 244 255
227 244 255
227 244 255
227 244 255
227 244 255
227 244 255
227 244 255
227 244 255
227 244 255
227 244 255
227 244 255
227 244 255
227 244 255
227 244 255
227 244 255
227 244 255
227 244 255
227 244 255
227 244 255
227 244 255
227 244 255
227 244 255
227 244 255
227 244 255
227 244 255
227 244 255
227 244 255
227 244 255
227 244 255
227 244 255
227 244 255
227 244 255
227 244 255
239 255 255
227 244 255
227 244 255
227 244 255
227 244 255
227 244 255
227 244 255
227 244 255
227 244 255
227 244 255
227 244 255
227 244 255
227 244 255
227 244 255
227 244 255
227 244 255
227 244 255
227 244 255
227 244 255
227 244 255
227 244 255
227 244 255
227 244 255
227 244 255
227 244 255
227 244 255
227 244 255
227 244 255
227 244 255
227 244 255
227 244 255
227 244 255
227 244 255
227 244 255
227 244 255
227 244 255
227 244 255
227 244 255
227 244 255
227 244 255
227 244 255
227 244 255
227 244 255
227 244 255
227 244 255
227 244 255
227 244 255
227 244 255
227 244 255
227 244 255
227 244 255
227 244 255
227 244 255
227 244 255
227 244 255
227 244 255
227 244 255
227 244 255
227 244 255
227 244 255
239 255 255
227 244 255
227 244 255
227 244 255
227 244 255
227 244 255
227 244 255
227 244 255
227 244 255
227 244 255
227 244 255
227 244 255
227 244 255
227 244 255
227 244 255
227 244 255
227 244 255
227 244 255
227 244 255
227 244 255
227 244 255
227 244 255
227 244 255
227 244 255
227 244 255
227 244 255
227 244 255
227 244 255
227 244 255
227 244 255
227 244 255
227 244 255
227 244 255
227 244 255
227 244 255
227 244 255
227 244 255
239 255 255
227 244 255
227 244 255
227 244 255
227 244 255
227 244 255
227 244 255
227 244 255
227 244 255
227 244 255
227 244 255
227 244 255
227 244 255
227 244 255
227 244 255
227 244 255
227 244 255
227 244 255
227 244 255
227 244 255
227 244 255
227 244 255
227 244 255
227 244 255
227 244 255
227 244 255
227 244 255
227 244 255
227 244 255
227 244 255
227 244 255
227 244 255
227 244 255
227 244 255
227 244 255
227 244 255
227 244 255
239 255 255
227 244 255
227 244 255
227 244 255
227 244 255
227 244 255
227 244 255
227 244 255
227 244 255
227 244 255
227 244 255
227 244 255
227 244 255
227 244 255
227 244 255
227 244 255
227 244 255
227 244 255
227 244 255
227 244 255
227 244 255
227 244 255
227 244 255
227 244 255
227 244 255
227 244 255
227 244 255
227 244 255
227 244 255
227 244 255
227 244 255
227 244 255
227 244 255
227 244 255
227 244 255
227 244 255
227 244 255
239 255 255
227 244 255
227 244 255
227 244 255
227 244 255
227 244 255
227 244 255
227 244 255
227 244 255
227 244 255
227 244 255
227 244 255
227 244 255
227 244 255
227 244 255
227 244 255
227 244 255
227 244 255
227 244 255
227 244 255
227 244 255
227 244 255
227 244 255
227 244 255
227 244 255
227 244 255
227 244 255
227 244 255
227 244 255
227 244 255
227 244 255
227 244 255
227 244 255
227 244 255
227 244 255
227 244 255
227 244 255
239 255 255
227 244 255
227 244 255
227 244 255
227 244 255
227 244 255
227 244 255
227 244 255
227 244 255
227 244 255
227 244 255
227 244 255
227 244 255
227 244 255
227 244 255
227 244 255
227 244 255
227 244 255
227 244 255
227 244 255
227 244 255
227 244 255
227 244 255
227 244 255
227 244 255
227 244 255
227 244 255
227 244 255
227 244 255
227 244 255
227 244 255
227 244 255
227 244 255
227 244 255
227 244 255
227 244 255
227 244 255
239 255 255
227 244 255
227 244 255
227 244 255
227 244 255
227 244 255
227 244 255
227 244 255
227 244 255
227 244 255
227 244 255
227 244 255
227 244 255
227 244 255
227 244 255
227 244 255
227 244 255
227 244 255
227 244 255
227 244 255
227 244 255
227 244 255
227 244 255
227 244 255
227 244 255
227 244 255
227 244 255
227 244 255
227 244 255
227 244 255
227 244 255
227 244 255
227 244 255
227 244 255
227 244 255
227 244 255
227 244 255
239 255 255
227 244 255
227 244 255
227 244 255
227 244 255
227 244 255
227 244 255
227 244 255
227 244 255
227 244 255
227 244 255
227 244 255
227 244 255
227 244 255
227 244 255
227 244 255
227 244 255
227 244 255
227 244 255
227 244 255
227 244 255
227 244 255
227 244 255
227 244 255
227 244 255
227 244 255
227 244 255
227 244 255
227 244 255
227 244 255
227 244 255
227 244 255
227 244 255
227 244 255
227 244 255
227 244 255
227 244 255
239 255 255
227 244 255
227 244 255
227 244 255
227 244 255
227 244 255
227 244 255
227 244 255
227 244 255
227 244 255
227 244 255
227 244 255
227 244 255
227 244 255
227 244 255
227 244 255
227 244 255
227 244 255
227 244 255
227 244 255
227 244 255
227 244 255
227 244 255
227 244 255
227 244 255
227 244 255
227 244 255
227 244 255
227 244 255
227 244 255
227 244 255
227 244 255
227 244 255
227 244 255
227 244 255
227 244 255
227 244 255
227 244 255
227 244 255
227 244 255
227 244 255
227 244 255
227 244 255
227 244 255
227 244 255
227 244 255
227 244 255
227 244 255
227 244 255
227 244 255
227 244 255
227 244 255
227 244 255
227 244 255
227 244 255
227 244 255
227 244 255
227 244 255
227 244 255
227 244 255
239 255 255
227 244 255
227 244 255
227 244 255
227 244 255
227 244 255
227 244 255
227 244 255
227 244 255
227 244 255
227 244 255
227 244 255
227 244 255
227 244 255
227 244 255
227 244 255
227 244 255
227 244 255
227 244 255
227 244 255
227 244 255
227 244 255
227 244 255
227 244 255
227 244 255
227 244 255
227 244 255
227 244 255
227 244 255
227 244 255
227 244 255
227 244 255
227 244 255
227 244 255
227 244 255
227 244 255
227 244 255
239 255 255
227 244 255
227 244 255
227 244 255
227 244 255
227 244 255
227 244 255
227 244 255
227 244 255
227 244 255
227 244 255
227 244 255
227 244 255
227 244 255
227 244 255
227 244 255
227 244 255
227 244 255
227 244 255
227 244 255
227 244 255
227 244 255
227 244 255
227 244 255
227 244 255
227 244 255
227 244 255
227 244 255
227 244 255
227 244 255
227 244 255
227 244 255
227 244 255
227 244 255
227 244 255
227 244 255
227 244 255
239 255 255
227 244 255
227 244 255
227 244 255
227 244 255
227 244 255
227 244 255
227 244 255
227 244 255
227 244 255
227 244 255
227 244 255
227 244 255
227 244 255
227 244 255
227 244 255
227 244 255
227 244 255
227 244 255
227 244 255
227 244 255
227 244 255
227 244 255
227 244 255
227 244 255
227 244 255
227 244 255
227 244 255
227 244 255
227 244 255
227 244 255
227 244 255
227 244 255
227 244 255
227 244 255
227 244 255
227 244 255
239 255 255
227 244 255
227 244 255
227 244 255
227 244 255
227 244 255
227 244 255
227 244 255
227 244 255
227 244 255
227 244 255
227 244 255
227 244 255
227 244 255
227 244 255
227 244 255
227 244 255
227 244 255
227 244 255
227 244 255
227 244 255
227 244 255
227 244 255
227 244 255
227 244 255
227 244 255
227 244 255
227 244 255
227 244 255
227 244 255
227 244 255
227 244 255
227 244 255
227 244 255
227 244 255
227 244 255
227 244 255
239 255 255
227 244 255
227 244 255
227 244 255
227 244 255
227 244 255
227 244 255
227 244 255
227 244 255
227 244 255
227 244 255
227 244 255
227 244 255
227 244 255
227 244 255
227 244 255
227 244 255
227 244 255
227 244 255
227 244 255
227 244 255
227 244 255
227 244 255
227 244 255
227 244 255
227 244 255
227 244 255
227 244 255
227 244 255
227 244 255
227 244 255
227 244 255
227 244 255
227 244 255
227 244 255
227 244 255
227 244 255
239 255 255
227 244 255
227 244 255
227 244 255
227 244 255
227 244 255
227 244 255
227 244 255
227 244 255
227 244 255
227 244 255
227 244 255
227 244 255
227 244 255
227 244 255
227 244 255
227 244 255
227 244 255
227 244 255
227 244 255
227 244 255
227 244 255
227 244 255
227 244 255
227 244 255
227 244 255
227 244 255
227 244 255
227 244 255
227 244 255
227 244 255
227 244 255
227 244 255
227 244 255
227 244 255
227 244 255
227 244 255
239 255 255
227 244 255
227 244 255
227 244 255
227 244 255
227 244 255
227 244 255
227 244 255
227 244 255
227 244 255
227 244 255
227 244 255
227 244 255
227 244 255
227 244 255
227 244 255
227 244 255
227 244 255
227 244 255
227 244 255
227 244 255
227 244 255
227 244 255
227 244 255
227 244 255
227 244 255
227 244 255
227 244 255
227 244 255
227 244 255
227 244 255
227 244 255
227 244 255
227 244 255
227 244 255
227 244 255
227 244 255
239 255 255
227 244 255
227 244 255
227 244 255
227 244 255
227 244 255
227 244 255
227 244 255
227 244 255
227 244 255
227 244 255
227 244 255
227 244 255
227 244 255
227 244 255
227 244 255
227 244 255
227 244 255
227 244 255
227 244 255
227 244 255
227 244 255
227 244 255
227 244 255
227 244 255
227 244 255
227 244 255
227 244 255
227 244 255
227 244 255
227 244 255
227 244 255
227 244 255
227 244 255
227 244 255
227 244 255
227 244 255
227 244 255
227 244 255
227 244 255
227 244 255
227 244 255
227 244 255
227 244 255
227 244 255
227 244 255
227 244 255
227 244 255
227 244 255
227 244 255
227 244 255
227 244 255
227 244 255
227 244 255
227 244 255
227 244 255
227 244 255
227 244 255
227 244 255
227 244 255
239 255 255
227 244 255
227 244 255
227 244 255
227 244 255
227 244 255
227 244 255
227 244 255
227 244 255
227 244 255
227 244 255
227 244 255
227 244 255
227 244 255
227 244 255
227 244 255
227 244 255
227 244 255
227 244 255
227 244 255
227 244 255
227 244 255
227 244 255
227 244 255
227 244 255
227 244 255
227 244 255
227 244 255
227 244 255
227 244 255
227 244 255
227 244 255
227 244 255
227 244 255
227 244 255
227 244 255
227 244 255
239 255 255
227 244 255
227 244 255
227 244 255
227 244 255
227 244 255
227 244 255
227 244 255
227 244 255
227 244 255
227 244 255
227 244 255
227 244 255
227 244 255
227 244 255
227 244 255
227 244 255
227 244 255
227 244 255
227 244 255
227 244 255
227 244 255
227 244 255
227 244 255
227 244 255
227 244 255
227 244 255
227 244 255
227 244 255
227 244 255
227 244 255
227 244 255
227 244 255
227 244 255
227 244 255
227 244 255
227 244 255
239 255 255
227 244 255
227 244 255
227 244 255
227 244 255
227 244 255
227 244 255
227 244 255
227 244 255
227 244 255
227 244 255
227 244 255
227 244 255
227 244 255
227 244 255
227 244 255
227 244 255
227 244 255
227 244 255
227 244 255
227 244 255
227 244 255
227 244 255
227 244 255
227 244 255
227 244 255
227 244 255
227 244 255
227 244 255
227 244 255
227 244 255
227 244 255
227 244 255
227 244 255
227 244 255
227 244 255
227 244 255
239 255 255
227 244 255
227 244 255
227 244 255
227 244 255
227 244 255
227 244 255
227 244 255
227 244 255
227 244 255
227 244 255
227 244 255
227 244 255
227 244 255
227 244 255
227 244 255
227 244 255
227 244 255
227 244 255
227 244 255
227 244 255
227 244 255
227 244 255
227 244 255
227 244 255
227 244 255
227 244 255
227 244 255
227 244 255
227 244 255
227 244 255
227 244 255
227 244 255
227 244 255
227 244 255
227 244 255
227 244 255
239 255 255
227 244 255
227 244 255
227 244 255
227 244 255
227 244 255
227 244 255
227 244 255
227 244 255
227 244 255
227 244 255
227 244 255
227 244 255
227 244 255
227 244 255
227 244 255
227 244 255
227 244 255
227 244 255
227 244 255
227 244 255
227 244 255
227 244 255
227 244 255
227 244 255
227 244 255
227 244 255
227 244 255
227 244 255
227 244 255
227 244 255
227 244 255
227 244 255
227 244 255
227 244 255
227 244 255
227 244 255
239 255 255
227 244 255
227 244 255
227 244 255
227 244 255
227 244 255
227 244 255
227 244 255
227 244 255
227 244 255
227 244 255
227 244 255
227 244 255
227 244 255
227 244 255
227 244 255
227 244 255
227 244 255
227 244 255
227 244 255
227 244 255
227 244 255
227 244 255
227 244 255
227 244 255
227 244 255
227 244 255
227 244 255
227 244 255
227 244 255
227 244 255
227 244 255
227 244 255
227 244 255
227 244 255
227 244 255
227 244 255
239 255 255
227 244 255
227 244 255
227 244 255
227 244 255
227 244 255
227 244 255
227 244 255
227 244 255
227 244 255
227 244 255
227 244 255
227 244 255
227 244 255
227 244 255
227 244 255
227 244 255
227 244 255
227 244 255
227 244 255
227 244 255
227 244 255
227 244 255
227 244 255
227 244 255
227 244 255
227 244 255
227 244 255
227 244 255
227 244 255
227 244 255
227 244 255
227 244 255
227 244 255
227 244 255
227 244 255
227 244 255
239 255 255
227 244 255
227 244 255
227 244 255
227 244 255
227 244 255
227 244 255
227 244 255
227 244 255
227 244 255
227 244 255
227 244 255
227 244 255
227 244 255
227 244 255
227 244 255
227 244 255
227 244 255
227 244 255
227 244 255
227 244 255
227 244 255
227 244 255
227 244 255
227 244 255
227 244 255
227 244 255
227 244 255
227 244 255
227 244 255
227 244 255
227 244 255
227 244 255
227 244 255
227 244 255
227 244 255
227 244 255
227 244 255
227 244 255
227 244 255
227 244 255
227 244 255
227 244 255
227 244 255
227 244 255
227 244 255
227 244 255
227 244 255
227 244 255
227 244 255
227 244 255
227 244 255
227 244 255
227 244 255
227 244 255
227 244 255
227 244 255
227 244 255
227 244 255
227 244 255
239 255 255
227 244 255
227 244 255
227 244 255
227 244 255
227 244 255
227 244 255
227 244 255
227 244 255
227 244 255
227 244 255
227 244 255
227 244 255
227 244 255
227 244 255
227 244 255
227 244 255
227 244 255
227 244 255
227 244 255
227 244 255
227 244 255
227 244 255
227 244 255
227 244 255
227 244 255
227 244 255
227 244 255
227 244 255
227 244 255
227 244 255
227 244 255
227 244 255
227 244 255
227 244 255
227 244 255
227 244 255
239 255 255
227 244 255
227 244 255
227 244 255
227 244 255
227 244 255
227 244 255
227 244 255
227 244 255
227 244 255
227 244 255
227 244 255
227 244 255
227 244 255
227 244 255
227 244 255
227 244 255
227 244 255
227 244 255
227 244 255
227 244 255
227 244 255
227 244 255
227 244 255
227 244 255
227 244 255
227 244 255
227 244 255
227 244 255
227 244 255
227 244 255
227 244 255
227 244 255
227 244 255
227 244 255
227 244 255
227 244 255
239 255 255
227 244 255
227 244 255
227 244 255
227 244 255
227 244 255
227 244 255
227 244 255
227 244 255
227 244 255
227 244 255
227 244 255
227 244 255
227 244 255
227 244 255
227 244 255
227 244 255
227 244 255
227 244 255
227 244 255
227 244 255
227 244 255
227 244 255
227 244 255
227 244 255
227 244 255
227 244 255
227 244 255
227 244 255
227 244 255
227 244 255
227 244 255
227 244 255
227 244 255
227 244 255
227 244 255
227 244 255
239 255 255
227 244 255
227 244 255
227 244 255
227 244 255
227 244 255
227 244 255
227 244 255
227 244 255
227 244 255
227 244 255
227 244 255
227 244 255
227 244 255
227 244 255
227 244 255
227 244 255
227 244 255
227 244 255
227 244 255
227 244 255
227 244 255
227 244 255
227 244 255
227 244 255
227 244 255
227 244 255
227 244 255
227 244 255
227 244 255
227 244 255
227 244 255
227 244 255
227 244 255
227 244 255
227 244 255
227 244 255
239 255 255
227 244 255
227 244 255
227 244 255
227 244 255
227 244 255
227 244 255
227 244 255
227 244 255
227 244 255
227 244 255
227 244 255
227 244 255
227 244 255
227 244 255
227 244 255
227 244 255
227 244 255
227 244 255
227 244 255
227 244 255
227 244 255
227 244 255
227 244 255
227 244 255
227 244 255
227 244 255
227 244 255
227 244 255
227 244 255
227 244 255
227 244 255
227 244 255
227 244 255
227 244 255
227 244 255
227 244 255
239 255 255
227 244 255
227 244 255
227 244 255
227 244 255
227 244 255
227 244 255
227 244 255
227 244 255
227 244 255
227 244 255
227 244 255
227 244 255
227 244 255
227 244 255
227 244 255
227 244 255
227 244 255
227 244 255
227 244 255
227 244 255
227 244 255
227 244 255
227 244 255
227 244 255
227 244 255
227 244 255
227 244 255
227 244 255
227 244 255
227 244 255
227 244 255
227 244 255
227 244 255
227 244 255
227 244 255
227 244 255
239 255 255
227 244 255
227 244 255
227 244 255
227 244 255
227 244 255
227 244 255
227 244 255
227 244 255
227 244 255
227 244 255
227 244 255
227 244 255
227 244 255
227 244 255
227 244 255
227 244 255
227 244 255
227 244 255
227 244 255
227 244 255
227 244 255
227 244 255
227 244 255
227 244 255
227 244 255
227 244 255
227 244 255
227 244 255
227 244 255
227 244 255
227 244 255
227 244 255
227 244 255
227 244 255
227 244 255
227 244 255
239 255 255
227 244 255
227 244 255
227 244 255
227 244 255
227 244 255
227 244 255
227 244 255
227 244 255
227 244 255
227 244 255
227 244 255
227 244 255
227 244 255
227 244 255
227 244 255
227 244 255
227 244 255
227 244 255
227 244 255
227 244 255
227 244 255
227 244 255
227 244 255
227 244 255
227 244 255
227 244 255
227 244 255
227 244 255
227 244 255
227 244 255
227 244 255
227 244 255
227 244 255
227 244 255
227 244 255
227 244 255
227 244 255
227 244 255
227 244 255
227 244 255
227 244 255
227 244 255
227 244 255
227 244 255
227 244 255
227 244 255
227 244 255
227 244 255
227 244 255
227 244 255
227 244 255
227 244 255
227 244 255
227 244 255
227 244 255
227 244 255
227 244 255
227 244 255
227 244 255
239 255 255
227 244 255
227 244 255
227 244 255
227 244 255
227 244 255
227 244 255
227 244 255
227 244 255
227 244 255
227 244 255
227 244 255
227 244 255
227 244 255
227 244 255
227 244 255
227 244 255
227 244 255
227 244 255
227 244 255
227 244 255
227 244 255
227 244 255
227 244 255
227 244 255
227 244 255
227 244 255
227 244 255
227 244 255
227 244 255
227 244 255
227 244 255
227 244 255
227 244 255
227 244 255
227 244 255
227 244 255
239 255 255
227 244 255
227 244 255
227 244 255
227 244 255
227 244 255
227 244 255
227 244 255
227 244 255
227 244 255
227 244 255
227 244 255
227 244 255
227 244 255
227 244 255
227 244 255
227 244 255
227 244 255
227 244 255
227 244 255
227 244 255
227 244 255
227 244 255
227 244 255
227 244 255
227 244 255
227 244 255
227 244 255
227 244 255
227 244 255
227 244 255
227 244 255
227 244 255
227 244 255
227 244 255
227 244 255
227 244 255
239 255 255
227 244 255
227 244 255
227 244 255
227 244 255
227 244 255
227 244 255
227 244 255
227 244 255
227 244 255
227 244 255
227 244 255
227 244 255
227 244 255
227 244 255
227 244 255
227 244 255
227 244 255
227 244 255
227 244 255
227 244 255
227 244 255
227 244 255
227 244 255
227 244 255
227 244 255
227 244 255
227 244 255
227 244 255
227 244 255
227 244 255
227 244 255
227 244 255
227 244 255
227 244 255
227 244 255
227 244 255
239 255 255
227 244 255
227 244 255
227 244 255
227 244 255
227 244 255
227 244 255
227 244 255
227 244 255
227 244 255
227 244 255
227 244 255
227 244 255
227 244 255
227 244 255
227 244 255
227 244 255
227 244 255
227 244 255
227 244 255
227 244 255
227 244 255
227 244 255
227 244 255
227 244 255
227 244 255
227 244 255
227 244 255
227 244 255
227 244 255
227 244 255
227 244 255
227 244 255
227 244 255
227 244 255
227 244 255
227 244 255
239 255 255
227 244 255
227 244 255
227 244 255
227 244 255
227 244 255
227 244 255
227 244 255
227 244 255
227 244 255
227 244 255
227 244 255
227 244 255
227 244 255
227 244 255
227 244 255
227 244 255
227 244 255
227 244 255
227 244 255
227 244 255
227 244 255
227 244 255
227 244 255
227 244 255
227 244 255
227 244 255
227 244 255
227 244 255
227 244 255
227 244 255
227 244 255
227 244 255
227 244 255
227 244 255
227 244 255
227 244 255
239 255 255
227 244 255
227 244 255
227 244 255
227 244 255
227 244 255
227 244 255
227 244 255
227 244 255
227 244 255
227 244 255
227 244 255
227 244 255
227 244 255
227 244 255
227 244 255
227 244 255
227 244 255
227 244 255
227 244 255
227 244 255
227 244 255
227 244 255
227 244 255
227 244 255
227 244 255
227 244 255
227 244 255
227 244 255
227 244 255
227 244 255
227 244 255
227 244 255
227 244 255
227 244 255
227 244 255
227 244 255
239 255 255
227 244 255
227 244 255
227 244 255
227 244 255
227 244 255
227 244 255
227 244 255
227 244 255
227 244 255
227 244 255
227 244 255
227 244 255
227 244 255
227 244 255
227 244 255
227 244 255
227 244 255
227 244 255
227 244 255
227 244 255
227 244 255
227 244 255
227 244 255
227 244 255
227 244 255
227 244 255
227 244 255
227 244 255
227 244 255
227 244 255
227 244 255
227 244 255
227 244 255
227 244 255
227 244 255
227 244 255
239 255 255
227 244 255
227 244 255
227 244 255
227 244 255
227 244 255
227 244 255
227 244 255
227 244 255
227 244 255
227 244 255
227 244 255
227 244 255
227 244 255
227 244 255
227 244 255
227 244 255
227 244 255
227 244 255
227 244 255
227 244 255
227 244 255
227 244 255
227 244 255
227 244 255
227 244 255
227 244 255
227 244 255
227 244 255
227 244 255
227 244 255
227 244 255
227 244 255
227 244 255
227 244 255
227 244 255
227 244 255
239 255 255
227 244 255
227 244 255
227 244 255
227 244 255
227 244 255
227 244 255
227 244 255
227 244 255
227 244 255
227 244 255
227 244 255
227 244 255
227 244 255
227 244 255
227 244 255
227 244 255
227 244 255
227 244 255
227 244 255
227 244 255
227 244 255
227 244 255
239 255 255
227 244 255
227 244 255
227 244 255
227 244 255
227 244 255
227 244 255
227 244 255
227 244 255
227 244 255
227 244 255
227 244 255
227 244 255
227 244 255
227 244 255
227 244 255
227 244 255
227 244 255
227 244 255
227 244 255
227 244 255
227 244 255
227 244 255
227 244 255
227 244 255
227 244 255
227 244 255
227 244 255
227 244 255
227 244 255
227 244 255
227 244 255
227 244 255
227 244 255
227 244 255
227 244 255
227 244 255
239 255 255
227 244 255
227 244 255
227 244 255
227 244 255
227 244 255
227 244 255
227 244 255
227 244 255
227 244 255
227 244 255
227 244 255
227 244 255
227 244 255
227 244 255
227 244 255
227 244 255
227 244 255
227 244 255
227 244 255
227 244 255
227 244 255
227 244 255
227 244 255
227 244 255
227 244 255
227 244 255
227 244 255
227 244 255
227 244 255
227 244 255
227 244 255
227 244 255
227 244 255
227 244 255
227 244 255
227 244 255
239 255 255
227 244 255
227 244 255
227 244 255
227 244 255
227 244 255
227 244 255
227 244 255
227 244 255
227 244 255
227 244 255
227 244 255
227 244 255
227 244 255
227 244 255
227 244 255
227 244 255
227 244 255
227 244 255
227 244 255
227 244 255
227 244 255
227 244 255
227 244 255
227 244 255
227 244 255
227 244 255
227 244 255
227 244 255
227 244 255
227 244 255
227 244 255
227 244 255
227 244 255
227 244 255
227 244 255
227 244 255
239 255 255
227 244 255
227 244 255
227 244 255
227 244 255
227 244 255
227 244 255
227 244 255
227 244 255
227 244 255
227 244 255
227 244 255
227 244 255
227 244 255
227 244 255
227 244 255
227 244 255
227 244 255
227 244 255
227 244 255
227 244 255
227 244 255
227 244 255
227 244 255
227 244 255
227 244 255
227 244 255
227 244 255
227 244 255
227 244 255
227 244 255
227 244 255
227 244 255
227 244 255
227 244 255
227 244 255
227 244 255
239 255 255
227 244 255
227 244 255
227 244 255
227 244 255
227 244 255
227 244 255
227 244 255
227 244 255
227 244 255
227 244 255
227 244 255
227 244 255
227 244 255
227 244 255
227 244 255
227 244 255
227 244 255
227 244 255
227 244 255
227 244 255
227 244 255
227 244 255
227 244 255
227 244 255
227 244 255
227 244 255
227 244 255
227 244 255
227 244 255
227 244 255
227 244 255
227 244 255
227 244 255
227 244 255
227 244 255
227 244 255
239 255 255
227 244 255
227 244 255
227 244 255
227 244 255
227 244 255
227 244 255
227 244 255
227 244 255
227 244 255
227 244 255
227 244 255
227 244 255
227 244 255
227 244 255
227 244 255
227 244 255
227 244 255
227 244 255
227 244 255
227 244 255
227 244 255
227 244 255
227 244 255
227 244 255
227 244 255
227 244 255
227 244 255
227 244 255
227 244 255
227 244 255
227 244 255
227 244 255
227 244 255
227 244 255
227 244 255
227 244 255
239 255 255
227 244 255
227 244 255
227 244 255
227 244 255
227 244 255
227 244 255
227 244 255
227 244 255
227 244 255
227 244 255
227 244 255
227 244 255
227 244 255
227 244 255
227 244 255
227 244 255
227 244 255
227 244 255
227 244 255
227 244 255
227 244 255
227 244 255
227 244 255
227 244 255
227 244 255
227 244 255
227 244 255
227 244 255
227 244 255
227 244 255
227 244 255
227 244 255
227 244 255
227 244 255
227 244 255
227 244 255
239 255 255
227 244 255
227 244 255
227 244 255
227 244 255
227 244 255
227 244 255
227 244 255
227 244 255
227 244 255
227 244 255
227 244 255
227 244 255
227 244 255
227 244 255
227 244 255
227 244 255
227 244 255
227 244 255
227 244 255
227 244 255
227 244 255
227 244 255
227 244 255
227 244 255
227 244 255
227 244 255
227 244 255
227 244 255
227 244 255
227 244 255
227 244 255
227 244 255
227 244 255
227 244 255
227 244 255
227 244 255
239 255 255
227 244 255
227 244 255
227 244 255
227 244 255
227 244 255
227 244 255
227 244 255
227 244 255
227 244 255
227 244 255
227 244 255
227 244 255
227 244 255
227 244 255
227 244 255
227 244 255
227 244 255
227 244 255
227 244 255
227 244 255
227 244 255
227 244 255
239 255 255
227 244 255
227 244 255
227 244 255
227 244 255
227 244 255
227 244 255
227 244 255
227 244 255
227 244 255
227 244 255
227 244 255
227 244 255
227 244 255
227 244 255
227 244 255
227 244 255
227 244 255
227 244 255
227 244 255
227 244 255
227 244 255
227 244 255
227 244 255
227 244 255
227 244 255
227 244 255
227 244 255
227 244 255
227 244 255
227 244 255
227 244 255
227 244 255
227 244 255
227 244 255
227 244 255
227 244 255
239 255 255
227 244 255
227 244 255
227 244 255
227 244 255
227 244 255
227 244 255
227 244 255
227 244 255
227 244 255
227 244 255
227 244 255
227 244 255
227 244 255
227 244 255
227 244 255
227 244 255
227 244 255
227 244 255
227 244 255
227 244 255
227 244 255
227 244 255
227 244 255
227 244 255
227 244 255
227 244 255
227 244 255
227 244 255
227 244 255
227 244 255
227 244 255
227 244 255
227 244 255
227 244 255
227 244 255
227 244 255
239 255 255
227 244 255
227 244 255
227 244 255
227 244 255
227 244 255
227 244 255
227 244 255
227 244 255
227 244 255
227 244 255
227 244 255
227 244 255
227 244 255
227 244 255
227 244 255
227 244 255
227 244 255
227 244 255
227 244 255
227 244 255
227 244 255
227 244 255
227 244 255
227 244 255
227 244 255
227 244 255
227 244 255
227 244 255
227 244 255
227 244 255
227 244 255
227 244 255
227 244 255
227 244 255
227 244 255
227 244 255
239 255 255
227 244 255
227 244 255
227 244 255
227 244 255
227 244 255
227 244 255
227 244 255
227 244 255
227 244 255
227 244 255
227 244 255
227 244 255
227 244 255
227 244 255
227 244 255
227 244 255
227 244 255
227 244 255
227 244 255
227 244 255
227 244 255
227 244 255
227 244 255
227 244 255
227 244 255
227 244 255
227 244 255
227 244 255
227 244 255
227 244 255
227 244 255
227 244 255
227 244 255
227 244 255
227 244 255
227 244 255
239 255 255
227 244 255
227 244 255
227 244 255
227 244 255
227 244 255
227 244 255
227 244 255
227 244 255
227 244 255
227 244 255
227 244 255
227 244 255
227 244 255
227 244 255
227 244 255
227 244 255
227 244 255
227 244 255
227 244 255
227 244 255
227 244 255
227 244 255
227 244 255
227 244 255
227 244 255
227 244 255
227 244 255
227 244 255
227 244 255
227 244 255
227 244 255
227 244 255
227 244 255
227 244 255
227 244 255
227 244 255
239 255 255
227 244 255
227 244 255
227 244 255
227 244 255
227 244 255
227 244 255
227 244 255
227 244 255
227 244 255
227 244 255
227 244 255
227 244 255
227 244 255
227 244 255
227 244 255
227 244 255
227 244 255
227 244 255
227 244 255
227 244 255
227 244 255
227 244 255
227 244 255
227 244 255
227 244 255
227 244 255
227 244 255
227 244 255
227 244 255
227 244 255
227 244 255
227 244 255
227 244 255
227 244 255
227 244 255
227 244 255
239 255 255
227 244 255
227 244 255
227 244 255
227 244 255
227 244 255
227 244 255
227 244 255
227 244 255
227 244 255
227 244 255
227 244 255
227 244 255
227 244 255
227 244 255
227 244 255
227 244 255
227 244 255
227 244 255
227 244 255
227 244 255
227 244 255
227 244 255
227 244 255
227 244 255
227 244 255
227 244 255
227 244 255
227 244 255
227 244 255
227 244 255
227 244 255
227 244 255
227 244 255
227 244 255
227 244 255
227 244 255
239 255 255
227 244 255
227 244 255
227 244 255
227 244 255
227 244 255
227 244 255
227 244 255
227 244 255
227 244 255
227 244 255
227 244 255
227 244 255
227 244 255
227 244 255
227 244 255
227 244 255
227 244 255
227 244 255
227 244 255
227 244 255
227 244 255
227 244 255
227 244 255
227 244 255
227 244 255
227 244 255
227 244 255
227 244 255
227 244 255
227 244 255
227 244 255
227 244 255
227 244 255
227 244 255
227 244 255
227 244 255
239 255 255
227 244 255
227 244 255
227 244 255
227 244 255
227 244 255
227 244 255
227 244 255
227 244 255
227 244 255
227 244 255
227 244 255
227 244 255
227 244 255
227 244 255
227 244 255
227 244 255
227 244 255
227 244 255
227 244 255
227 244 255
227 244 255
227 244 255
239 255 255
227 244 255
227 244 255
227 244 255
227 244 255
227 244 255
227 244 255
227 244 255
227 244 255
227 244 255
227 244 255
227 244 255
227 244 255
227 244 255
227 244 255
227 244 255
227 244 255
227 244 255
227 244 255
227 244 255
227 244 255
227 244 255
227 244 255
227 244 255
227 244 255
227 244 255
227 244 255
227 244 255
227 244 255
227 244 255
227 244 255
227 244 255
227 244 255
227 244 255
227 244 255
227 244 255
227 244 255
239 255 255
227 244 255
227 244 255
227 244 255
227 244 255
227 244 255
227 244 255
227 244 255
227 244 255
227 244 255
227 244 255
227 244 255
227 244 255
227 244 255
227 244 255
227 244 255
227 244 255
227 244 255
227 244 255
227 244 255
227 244 255
227 244 255
227 244 255
227 244 255
227 244 255
227 244 255
227 244 255
227 244 255
227 244 255
227 244 255
227 244 255
227 244 255
227 244 255
227 244 255
227 244 255
227 244 255
227 244 255
239 255 255
227 244 255
227 244 255
227 244 255
227 244 255
227 244 255
227 244 255
227 244 255
227 244 255
227 244 255
227 244 255
227 244 255
227 244 255
227 244 255
227 244 255
227 244 255
227 244 255
227 244 255
227 244 255
227 244 255
227 244 255
227 244 255
227 244 255
227 244 255
227 244 255
227 244 255
227 244 255
227 244 255
227 244 255
227 244 255
227 244 255
227 244 255
227 244 255
227 244 255
227 244 255
227 244 255
227 244 255
239 255 255
227 244 255
227 244 255
227 244 255
227 244 255
227 244 255
227 244 255
227 244 255
227 244 255
227 244 255
227 244 255
227 244 255
227 244 255
227 244 255
227 244 255
227 244 255
227 244 255
227 244 255
227 244 255
227 244 255
227 244 255
227 244 255
227 244 255
227 244 255
227 244 255
227 244 255
227 244 255
227 244 255
227 244 255
227 244 255
227 244 255
227 244 255
227 244 255
227 244 255
227 244 255
227 244 255
227 244 255
239 255 255
227 244 255
227 244 255
227 244 255
227 244 255
227 244 255
227 244 255
227 244 255
227 244 255
227 244 255
227 244 255
227 244 255
227 244 255
227 244 255
227 244 255
227 244 255
227 244 255
227 244 255
227 244 255
227 244 255
227 244 255
227 244 255
227 244 255
227 244 255
227 244 255
227 244 255
227 244 255
227 244 255
227 244 255
227 244 255
227 244 255
227 244 255
227 244 255
227 244 255
227 244 255
227 244 255
227 244 255
239 255 255
227 244 255
227 244 255
227 244 255
227 244 255
227 244 255
227 244 255
227 244 255
227 244 255
227 244 255
227 244 255
227 244 255
227 244 255
227 244 255
227 244 255
227 244 255
227 244 255
227 244 255
227 244 255
227 244 255
227 244 255
227 244 255
227 244 255
227 244 255
227 244 255
227 244 255
227 244 255
227 244 255
227 244 255
227 244 255
227 244 255
227 244 255
227 244 255
227 244 255
227 244 255
227 244 255
227 244 255
239 255 255
227 244 255
227 244 255
227 244 255
227 244 255
227 244 255
227 244 255
227 244 255
227 244 255
227 244 255
227 244 255
227 244 255
227 244 255
227 244 255
227 244 255
227 244 255
227 244 255
227 244 255
227 244 255
227 244 255
227 244 255
227 244 255
227 244 255
227 244 255
227 244 255
227 244 255
227 244 255
227 244 255
227 244 255
227 244 255
227 244 255
227 244 255
227 244 255
227 244 255
227 244 255
227 244 255
227 244 255
239 255 255
227 244 255
227 244 255
227 244 255
227 244 255
227 244 255
227 244 255
227 244 255
227 244 255
227 244 255
227 244 255
227 244 255
227 244 255
227 244 255
227 244 255
227 244 255
227 244 255
227 244 255
227 244 255
227 244 255
227 244 255
227 244 255
227 244 255
227 244 255
227 244 255
227 244 255
227 244 255
227 244 255
227 244 255
227 244 255
227 244 255
227 244 255
227 244 255
227 244 255
227 244 255
227 244 255
227 244 255
239 255 255
227 244 255
227 244 255
227 244 255
227 244 255
227 244 255
227 244 255
227 244 255
227 244 255
227 244 255
227 244 255
227 244 255
227 244 255
227 244 255
227 244 255
227 244 255
227 244 255
227 244 255
227 244 255
227 244 255
227 244 255
227 244 255
227 244 255
239 255 255
227 244 255
227 244 255
227 244 255
227 244 255
227 244 255
227 244 255
227 244 255
227 244 255
227 244 255
227 244 255
227 244 255
227 244 255
227 244 255
227 244 255
227 244 255
227 244 255
227 244 255
227 244 255
227 244 255
227 244 255
227 244 255
227 244 255
227 244 255
227 244 255
227 244 255
227 244 255
227 244 255
227 244 255
227 244 255
227 244 255
227 244 255
227 244 255
227 244 255
227 244 255
227 244 255
227 244 255
239 255 255
227 244 255
227 244 255
227 244 255
227 244 255
227 244 255
227 244 255
227 244 255
227 244 255
227 244 255
227 244 255
227 244 255
227 244 255
227 244 255
227 244 255
227 244 255
227 244 255
227 244 255
227 244 255
227 244 255
227 244 255
227 244 255
227 244 255
227 244 255
227 244 255
227 244 255
227 244 255
227 244 255
227 244 255
227 244 255
227 244 255
227 244 255
227 244 255
227 244 255
227 244 255
227 244 255
227 244 255
239 255 255
227 244 255
227 244 255
227 244 255
227 244 255
227 244 255
227 244 255
227 244 255
227 244 255
227 244 255
227 244 255
227 244 255
227 244 255
227 244 255
227 244 255
227 244 255
227 244 255
227 244 255
227 244 255
227 244 255
227 244 255
227 244 255
227 244 255
227 244 255
227 244 255
227 244 255
227 244 255
227 244 255
227 244 255
227 244 255
227 244 255
227 244 255
227 244 255
227 244 255
227 244 255
227 244 255
227 244 255
239 255 255
227 244 255
227 244 255
227 244 255
227 244 255
227 244 255
227 244 255
227 244 255
227 244 255
227 244 255
227 244 255
227 244 255
227 244 255
227 244 255
227 244 255
227 244 255
227 244 255
227 244 255
227 244 255
227 244 255
227 244 255
227 244 255
227 244 255
227 244 255
227 244 255
227 244 255
227 244 255
227 244 255
227 244 255
227 244 255
227 244 255
227 244 255
227 244 255
227 244 255
227 244 255
227 244 255
227 244 255
239 255 255
227 244 255
227 244 255
227 244 255
227 244 255
227 244 255
227 244 255
227 244 255
227 244 255
227 244 255
227 244 255
227 244 255
227 244 255
227 244 255
227 244 255
227 244 255
227 244 255
227 244 255
227 244 255
227 244 255
227 244 255
227 244 255
227 244 255
227 244 255
227 244 255
227 244 255
227 244 255
227 244 255
227 244 255
227 244 255
227 244 255
227 244 255
227 244 255
227 244 255
227 244 255
227 244 255
227 244 255
239 255 255
227 244 255
227 244 255
227 244 255
227 244 255
227 244 255
227 244 255
227 244 255
227 244 255
227 244 255
227 244 255
227 244 255
227 244 255
227 244 255
227 244 255
227 244 255
227 244 255
227 244 255
227 244 255
227 244 255
227 244 255
227 244 255
227 244 255
227 244 255
227 244 255
227 244 255
227 244 255
227 244 255
227 244 255
227 244 255
227 244 255
227 244 255
227 244 255
227 244 255
227 244 255
227 244 255
227 244 255
239 255 255
227 244 255
227 244 255
227 244 255
227 244 255
227 244 255
227 244 255
227 244 255
227 244 255
227 244 255
227 244 255
227 244 255
227 244 255
227 244 255
227 244 255
227 244 255
227 244 255
227 244 255
227 244 255
227 244 255
227 244 255
227 244 255
227 244 255
227 244 255
227 244 255
227 244 255
227 244 255
227 244 255
227 244 255
227 244 255
227 244 255
227 244 255
227 244 255
227 244 255
227 244 255
227 244 255
227 244 255
239 255 255
227 244 255
227 244 255
227 244 255
227 244 255
227 244 255
227 244 255
227 244 255
227 244 255
227 244 255
227 244 255
227 244 255
227 244 255
227 244 255
227 244 255
227 244 255
227 244 255
227 244 255
227 244 255
227 244 255
227 244 255
227 244 255
227 244 255
227 244 255
227 244 255
227 244 255
227 244 255
227 244 255
227 244 255
227 244 255
227 244 255
227 244 255
227 244 255
227 244 255
227 244 255
227 244 255
227 244 255
239 255 255
227 244 255
227 244 255
227 244 255
227 244 255
227 244 255
227 244 255
227 244 255
227 244 255
227 244 255
227 244 255
227 244 255
227 244 255
227 244 255
227 244 255
227 244 255
227 244 255
227 244 255
227 244 255
227 244 255
227 244 255
227 244 255
227 244 255
239 255 255
227 244 255
227 244 255
227 244 255
227 244 255
227 244 255
227 244 255
227 244 255
227 244 255
227 244 255
227 244 255
227 244 255
227 244 255
227 244 255
227 244 255
227 244 255
227 244 255
227 244 255
227 244 255
227 244 255
227 244 255
227 244 255
227 244 255
227 244 255
227 244 255
227 244 255
227 244 255
227 244 255
227 244 255
227 244 255
227 244 255
227 244 255
227 244 255
227 244 255
227 244 255
227 244 255
227 244 255
239 255 255
227 244 255
227 244 255
227 244 255
227 244 255
227 244 255
227 244 255
227 244 255
227 244 255
227 244 255
227 244 255
227 244 255
227 244 255
227 244 255
227 244 255
227 244 255
227 244 255
227 244 255
227 244 255
227 244 255
227 244 255
227 244 255
227 244 255
227 244 255
227 244 255
227 244 255
227 244 255
227 244 255
227 244 255
227 244 255
227 244 255
227 244 255
227 244 255
227 244 255
227 244 255
227 244 255
227 244 255
239 255 255
227 244 255
227 244 255
227 244 255
227 244 255
227 244 255
227 244 255
227 244 255
227 244 255
227 244 255
227 244 255
227 244 255
227 244 255
227 244 255
227 244 255
227 244 255
227 244 255
227 244 255
227 244 255
227 244 255
227 244 255
227 244 255
227 244 255
227 244 255
227 244 255
227 244 255
227 244 255
227 244 255
227 244 255
227 244 255
227 244 255
227 244 255
227 244 255
227 244 255
227 244 255
227 244 255
227 244 255
239 255 255
227 244 255
227 244 255
227 244 255
227 244 255
227 244 255
227 244 255
227 244 255
227 244 255
227 244 255
227 244 255
227 244 255
227 244 255
227 244 255
227 244 255
227 244 255
227 244 255
227 244 255
227 244 255
227 244 255
227 244 255
227 244 255
227 244 255
227 244 255
227 244 255
227 244 255
227 244 255
227 244 255
227 244 255
227 244 255
227 244 255
227 244 255
227 244 255
227 244 255
227 244 255
227 244 255
227 244 255
239 255 255
227 244 255
227 244 255
227 244 255
227 244 255
227 244 255
227 244 255
227 244 255
227 244 255
227 244 255
227 244 255
227 244 255
227 244 255
227 244 255
227 244 255
227 244 255
227 244 255
227 244 255
227 244 255
227 244 255
227 244 255
227 244 255
227 244 255
227 244 255
227 244 255
227 244 255
227 244 255
227 244 255
227 244 255
227 244 255
227 244 255
227 244 255
227 244 255
227 244 255
227 244 255
227 244 255
227 244 255
239 255 255
227 244 255
227 244 255
227 244 255
227 244 255
227 244 255
227 244 255
227 244 255
227 244 255
227 244 255
227 244 255
227 244 255
227 244 255
227 244 255
227 244 255
227 244 255
227 244 255
227 244 255
227 244 255
227 244 255
227 244 255
227 244 255
227 244 255
227 244 255
227 244 255
227 244 255
227 244 255
227 244 255
227 244 255
227 244 255
227 244 255
227 244 255
227 244 255
227 244 255
227 244 255
227 244 255
227 244 255
239 255 255
227 244 255
227 244 255
227 244 255
227 244 255
227 244 255
227 244 255
227 244 255
227 244 255
227 244 255
227 244 255
227 244 255
227 244 255
227 244 255
227 244 255
227 244 255
227 244 255
227 244 255
227 244 255
227 244 255
227 244 255
227 244 255
227 244 255
227 244 255
227 244 255
227 244 255
227 244 255
227 244 255
227 244 255
227 244 255
227 244 255
227 244 255
227 244 255
227 244 255
227 244 255
227 244 255
227 244 255
239 255 255
227 244 255
227 244 255
227 244 255
227 244 255
227 244 255
227 244 255
227 244 255
227 244 255
227 244 255
227 244 255
227 244 255
227 244 255
227 244 255
227 244 255
227 244 255
227 244 255
227 244 255
227 244 255
227 244 255
227 244 255
227 244 255
227 244 255
227 244 255
227 244 255
227 244 255
227 244 255
227 244 255
227 244 255
227 244 255
227 244 255
227 244 255
227 244 255
227 244 255
227 244 255
227 244 255
227 244 255
239 255 255
227 244 255
227 244 255
227 244 255
227 244 255
227 244 255
227 244 255
227 244 255
227 244 255
227 244 255
227 244 255
227 244 255
227 244 255
227 244 255
227 244 255
227 244 255
227 244 255
227 244 255
227 244 255
227 244 255
227 244 255
227 244 255
227 244 255
239 255 255
227 244 255
227 244 255
227 244 255
227 244 255
227 244 255
227 244 255
227 244 255
227 244 255
227 244 255
227 244 255
227 244 255
227 244 255
227 244 255
227 244 255
227 244 255
227 244 255
227 244 255
227 244 255
227 244 255
227 244 255
227 244 255
227 244 255
227 244 255
227 244 255
227 244 255
227 244 255
227 244 255
227 244 255
227 244 255
227 244 255
227 244 255
227 244 255
227 244 255
227 244 255
227 244 255
227 244 255
239 255 255
227 244 255
227 244 255
227 244 255
227 244 255
227 244 255
227 244 255
227 244 255
227 244 255
227 244 255
227 244 255
227 244 255
227 244 255
227 244 255
227 244 255
227 244 255
227 244 255
227 244 255
227 244 255
227 244 255
227 244 255
227 244 255
227 244 255
227 244 255
227 244 255
227 244 255
227 244 255
227 244 255
227 244 255
227 244 255
227 244 255
227 244 255
227 244 255
227 244 255
227 244 255
227 244 255
227 244 255
239 255 255
227 244 255
227 244 255
227 244 255
227 244 255
227 244 255
227 244 255
227 244 255
227 244 255
227 244 255
227 244 255
227 244 255
227 244 255
227 244 255
227 244 255
227 244 255
227 244 255
227 244 255
227 244 255
227 244 255
227 244 255
227 244 255
227 244 255
227 244 255
227 244 255
227 244 255
227 244 255
227 244 255
227 244 255
227 244 255
227 244 255
227 244 255
227 244 255
227 244 255
227 244 255
227 244 255
227 244 255
239 255 255
227 244 255
227 244 255
227 244 255
227 244 255
227 244 255
227 244 255
227 244 255
227 244 255
227 244 255
227 244 255
227 244 255
227 244 255
227 244 255
227 244 255
227 244 255
227 244 255
227 244 255
227 244 255
227 244 255
227 244 255
227 244 255
227 244 255
227 244 255
227 244 255
227 244 255
227 244 255
227 244 255
227 244 255
227 244 255
227 244 255
227 244 255
227 244 255
227 244 255
227 244 255
227 244 255
227 244 255
239 255 255
227 244 255
227 244 255
227 244 255
227 244 255
227 244 255
227 244 255
227 244 255
227 244 255
227 244 255
227 244 255
227 244 255
227 244 255
227 244 255
227 244 255
227 244 255
227 244 255
227 244 255
227 244 255
227 244 255
227 244 255
227 244 255
227 244 255
227 244 255
227 244 255
227 244 255
227 244 255
227 244 255
227 244 255
227 244 255
227 244 255
227 244 255
227 244 255
227 244 255
227 244 255
227 244 255
227 244 255
239 255 255
227 244 255
227 244 255
227 244 255
227 244 255
227 244 255
227 244 255
227 244 255
227 244 255
227 244 255
227 244 255
227 244 255
227 244 255
227 244 255
227 244 255
227 244 255
227 244 255
227 244 255
227 244 255
227 244 255
227 244 255
227 244 255
227 244 255
227 244 255
227 244 255
227 244 255
227 244 255
227 244 255
227 244 255
227 244 255
227 244 255
227 244 255
227 244 255
227 244 255
227 244 255
227 244 255
227 244 255
239 255 255
227 244 255
227 244 255
227 244 255
227 244 255
227 244 255
227 244 255
227 244 255
227 244 255
227 244 255
227 244 255
227 244 255
227 244 255
227 244 255
227 244 255
227 244 255
227 244 255
227 244 255
227 244 255
227 244 255
227 244 255
227 244 255
227 244 255
227 244 255
227 244 255
227 244 255
227 244 255
227 244 255
227 244 255
227 244 255
227 244 255
227 244 255
227 244 255
227 244 255
227 244 255
227 244 255
227 244 255
239 255 255
227 244 255
227 244 255
227 244 255
227 244 255
227 244 255
227 244 255
227 244 255
227 244 255
227 244 255
227 244 255
227 244 255
227 244 255
227 244 255
227 244 255
227 244 255
227 244 255
227 244 255
227 244 255
227 244 255
227 244 255
227 244 255
227 244 255
227 244 255
227 244 255
227 244 255
227 244 255
227 244 255
227 244 255
227 244 255
227 244 255
227 244 255
227 244 255
227 244 255
227 244 255
227 244 255
227 244 255
239 255 255
227 244 255
227 244 255
227 244 255
227 244 255
227 244 255
227 244 255
227 244 255
227 244 255
227 244 255
227 244 255
227 244 255
227 244 255
227 244 255
227 244 255
227 244 255
227 244 255
227 244 255
227 244 255
227 244 255
227 244 255
227 244 255
227 244 255
239 255 255
227 244 255
227 244 255
227 244 255
227 244 255
227 244 255
227 244 255
227 244 255
227 244 255
227 244 255
227 244 255
227 244 255
227 244 255
227 244 255
227 244 255
227 244 255
227 244 255
227 244 255
227 244 255
227 244 255
227 244 255
227 244 255
227 244 255
227 244 255
227 244 255
227 244 255
227 244 255
227 244 255
227 244 255
227 244 255
227 244 255
227 244 255
227 244 255
227 244 255
227 244 255
227 244 255
227 244 255
239 255 255
227 244 255
227 244 255
227 244 255
227 244 255
227 244 255
227 244 255
227 244 255
227 244 255
227 244 255
227 244 255
227 244 255
227 244 255
227 244 255
227 244 255
227 244 255
227 244 255
227 244 255
227 244 255
227 244 255
227 244 255
227 244 255
227 244 255
227 244 255
227 244 255
227 244 255
227 244 255
227 244 255
227 244 255
227 244 255
227 244 255
227 244 255
227 244 255
227 244 255
227 244 255
227 244 255
227 244 255
239 255 255
227 244 255
227 244 255
227 244 255
227 244 255
227 244 255
227 244 255
227 244 255
227 244 255
227 244 255
227 244 255
227 244 255
227 244 255
227 244 255
227 244 255
227 244 255
227 244 255
227 244 255
227 244 255
227 244 255
227 244 255
227 244 255
227 244 255
227 244 255
227 244 255
227 244 255
227 244 255
227 244 255
227 244 255
227 244 255
227 244 255
227 244 255
227 244 255
227 244 255
227 244 255
227 244 255
227 244 255
239 255 255
227 244 255
227 244 255
227 244 255
227 244 255
227 244 255
227 244 255
227 244 255
227 244 255
227 244 255
227 244 255
227 244 255
227 244 255
227 244 255
227 244 255
227 244 255
227 244 255
227 244 255
227 244 255
227 244 255
227 244 255
227 244 255
227 244 255
227 244 255
227 244 255
227 244 255
227 244 255
227 244 255
227 244 255
227 244 255
227 244 255
227 244 255
227 244 255
227 244 255
227 244 255
227 244 255
227 244 255
239 255 255
227 244 255
227 244 255
227 244 255
227 244 255
227 244 255
227 244 255
227 244 255
227 244 255
227 244 255
227 244 255
227 244 255
227 244 255
227 244 255
227 244 255
227 244 255
227 244 255
227 244 255
227 244 255
227 244 255
227 244 255
227 244 255
227 244 255
227 244 255
227 244 255
227 244 255
227 244 255
227 244 255
227 244 255
227 244 255
227 244 255
227 244 255
227 244 255
227 244 255
227 244 255
227 244 255
227 244 255
239 255 255
227 244 255
227 244 255
227 244 255
227 244 255
227 244 255
227 244 255
227 244 255
227 244 255
227 244 255
227 244 255
227 244 255
227 244 255
227 244 255
227 244 255
227 244 255
227 244 255
227 244 255
227 244 255
227 244 255
227 244 255
227 244 255
227 244 255
227 244 255
227 244 255
227 244 255
227 244 255
227 244 255
227 244 255
227 244 255
227 244 255
227 244 255
227 244 255
227 244 255
227 244 255
227 244 255
227 244 255
239 255 255
227 244 255
227 244 255
227 244 255
227 244 255
227 244 255
227 244 255
227 244 255
227 244 255
227 244 255
227 244 255
227 244 255
227 244 255
227 244 255
227 244 255
227 244 255
227 244 255
227 244 255
227 244 255
227 244 255
227 244 255
227 244 255
227 244 255
227 244 255
227 244 255
227 244 255
227 244 255
227 244 255
227 244 255
227 244 255
227 244 255
227 244 255
227 244 255
227 244 255
227 244 255
227 244 255
227 244 255
239 255 255
227 244 255
227 244 255
227 244 255
227 244 255
227 244 255
227 244 255
227 244 255
227 244 255
227 244 255
227 244 255
227 244 255
227 244 255
227 244 255
227 244 255
227 244 255
227 244 255
227 244 255
227 244 255
227 244 255
227 244 255
227 244 255
227 244 255
227 244 255
227 244 255
227 244 255
227 244 255
227 244 255
227 244 255
227 244 255
227 244 255
227 244 255
227 244 255
227 244 255
227 244 255
227 244 255
227 244 255
239 255 255
227 244 255
227 244 255
227 244 255
227 244 255
227 244 255
227 244 255
227 244 255
227 244 255
227 244 255
227 244 255
227 244 255
227 244 255
227 244 255
227 244 255
227 244 255
227 244 255
227 244 255
227 244 255
227 244 255
227 244 255
227 244 255
227 244 255
239 255 255
227 244 255
227 244 255
227 244 255
227 244 255
227 244 255
227 244 255
227 244 255
227 244 255
227 244 255
227 244 255
227 244 255
227 244 255
227 244 255
227 244 255
227 244 255
227 244 255
227 244 255
227 244 255
227 244 255
227 244 255
227 244 255
227 244 255
227 244 255
227 244 255
227 244 255
227 244 255
227 244 255
227 244 255
227 244 255
227 244 255
227 244 255
227 244 255
227 244 255
227 244 255
227 244 255
227 244 255
239 255 255
227 244 255
227 244 255
227 244 255
227 244 255
227 244 255
227 244 255
227 244 255
227 244 255
227 244 255
227 244 255
227 244 255
227 244 255
227 244 255
227 244 255
227 244 255
227 244 255
227 244 255
227 244 255
227 244 255
227 244 255
227 244 255
227 244 255
227 244 255
227 244 255
227 244 255
227 244 255
227 244 255
227 244 255
227 244 255
227 244 255
227 244 255
227 244 255
227 244 255
227 244 255
227 244 255
227 244 255
239 255 255
227 244 255
227 244 255
227 244 255
227 244 255
227 244 255
227 244 255
227 244 255
227 244 255
227 244 255
227 244 255
227 244 255
227 244 255
227 244 255
227 244 255
227 244 255
227 244 255
227 244 255
227 244 255
227 244 255
227 244 255
227 244 255
227 244 255
227 244 255
227 244 255
227 244 255
227 244 255
227 244 255
227 244 255
227 244 255
227 244 255
227 244 255
227 244 255
227 244 255
227 244 255
227 244 255
227 244 255
239 255 255
227 244 255
227 244 255
227 244 255
227 244 255
227 244 255
227 244 255
227 244 255
227 244 255
227 244 255
227 244 255
227 244 255
227 244 255
227 244 255
227 244 255
227 244 255
227 244 255
227 244 255
227 244 255
227 244 255
227 244 255
227 244 255
227 244 255
227 244 255
227 244 255
227 244 255
227 244 255
227 244 255
227 244 255
227 244 255
227 244 255
227 244 255
227 244 255
227 244 255
227 244 255
227 244 255
227 244 255
239 255 255
227 244 255
227 244 255
227 244 255
227 244 255
227 244 255
227 244 255
227 244 255
227 244 255
227 244 255
227 244 255
227 244 255
227 244 255
227 244 255
227 244 255
227 244 255
227 244 255
227 244 255
227 244 255
227 244 255
227 244 255
227 244 255
227 244 255
227 244 255
227 244 255
227 244 255
227 244 255
227 244 255
227 244 255
227 244 255
227 244 255
227 244 255
227 244 255
227 244 255
227 244 255
227 244 255
227 244 255
239 255 255
227 244 255
227 244 255
227 244 255
227 244 255
227 244 255
227 244 255
227 244 255
227 244 255
227 244 255
227 244 255
227 244 255
227 244 255
227 244 255
227 244 255
227 244 255
227 244 255
227 244 255
227 244 255
227 244 255
227 244 255
227 244 255
227 244 255
227 244 255
227 244 255
227 244 255
227 244 255
227 244 255
227 244 255
227 244 255
227 244 255
227 244 255
227 244 255
227 244 255
227 244 255
227 244 255
227 244 255
239 255 255
227 244 255
227 244 255
227 244 255
227 244 255
227 244 255
227 244 255
227 244 255
227 244 255
227 244 255
227 244 255
227 244 255
227 244 255
227 244 255
227 244 255
227 244 255
227 244 255
227 244 255
227 244 255
227 244 255
227 244 255
227 244 255
227 244 255
227 244 255
227 244 255
227 244 255
227 244 255
227 244 255
227 244 255
227 244 255
227 244 255
227 244 255
227 244 255
227 244 255
227 244 255
227 244 255
227 244 255
239 255 255
227 244 255
227 244 255
227 244 255
227 244 255
227 244 255
227 244 255
227 244 255
227 244 255
227 244 255
227 244 255
227 244 255
227 244 255
227 244 255
227 244 255
227 244 255
227 244 255
227 244 255
227 244 255
227 244 255
227 244 255
227 244 255
227 244 255
227 244 255
227 244 255
227 244 255
227 244 255
227 244 255
227 244 255
227 244 255
227 244 255
227 244 255
227 244 255
227 244 255
227 244 255
227 244 255
227 244 255
239 255 255
227 244 255
227 244 255
227 244 255
227 244 255
227 244 255
227 244 255
227 244 255
227 244 255
227 244 255
227 244 255
227 244 255
227 244 255
227 244 255
227 244 255
227 244 255
227 244 255
227 244 255
227 244 255
227 244 255
227 244 255
227 244 255
227 244 255
239 255 255
227 244 255
227 244 255
227 244 255
227 244 255
227 244 255
227 244 255
227 244 255
227 244 255
227 244 255
227 244 255
227 244 255
227 244 255
227 244 255
227 244 255
227 244 255
227 244 255
227 244 255
227 244 255
227 244 255
227 244 255
227 244 255
227 244 255
227 244 255
227 244 255
227 244 255
227 244 255
227 244 255
227 244 255
227 244 255
227 244 255
227 244 255
227 244 255
227 244 255
227 244 255
227 244 255
227 244 255
239 255 255
227 244 255
227 244 255
227 244 255
227 244 255
227 244 255
227 244 255
227 244 255
227 244 255
227 244 255
227 244 255
227 244 255
227 244 255
227 244 255
227 244 255
227 244 255
227 244 255
227 244 255
227 244 255
227 244 255
227 244 255
227 244 255
227 244 255
227 244 255
227 244 255
227 244 255
227 244 255
227 244 255
227 244 255
227 244 255
227 244 255
227 244 255
227 244 255
227 244 255
227 244 255
227 244 255
227 244 255
239 255 255
227 244 255
227 244 255
227 244 255
227 244 255
227 244 255
227 244 255
227 244 255
227 244 255
227 244 255
227 244 255
227 244 255
227 244 255
227 244 255
227 244 255
227 244 255
227 244 255
227 244 255
227 244 255
227 244 255
227 244 255
227 244 255
227 244 255
227 244 255
227 244 255
227 244 255
227 244 255
227 244 255
227 244 255
227 244 255
227 244 255
227 244 255
227 244 255
227 244 255
227 244 255
227 244 255
227 244 255
239 255 255
227 244 255
227 244 255
227 244 255
227 244 255
227 244 255
227 244 255
227 244 255
227 244 255
227 244 255
227 244 255
227 244 255
227 244 255
227 244 255
227 244 255
227 244 255
227 244 255
227 244 255
227 244 255
227 244 255
227 244 255
227 244 255
227 244 255
227 244 255
227 244 255
227 244 255
227 244 255
227 244 255
227 244 255
227 244 255
227 244 255
227 244 255
227 244 255
227 244 255
227 244 255
227 244 255
227 244 255
239 255 255
227 244 255
227 244 255
227 244 255
227 244 255
227 244 255
227 244 255
227 244 255
227 244 255
227 244 255
227 244 255
227 244 255
227 244 255
227 244 255
227 244 255
227 244 255
227 244 255
227 244 255
227 244 255
227 244 255
227 244 255
227 244 255
227 244 255
227 244 255
227 244 255
227 244 255
227 244 255
227 244 255
227 244 255
227 244 255
227 244 255
227 244 255
227 244 255
227 244 255
227 244 255
227 244 255
227 244 255
239 255 255
227 244 255
227 244 255
227 244 255
227 244 255
227 244 255
227 244 255
227 244 255
227 244 255
227 244 255
227 244 255
227 244 255
227 244 255
227 244 255
227 244 255
227 244 255
227 244 255
227 244 255
227 244 255
227 244 255
227 244 255
227 244 255
227 244 255
227 244 255
227 244 255
227 244 255
227 244 255
227 244 255
227 244 255
227 244 255
227 244 255
227 244 255
227 244 255
227 244 255
227 244 255
227 244 255
227 244 255
239 255 255
227 244 255
227 244 255
227 244 255
227 244 255
227 244 255
227 244 255
227 244 255
227 244 255
227 244 255
227 244 255
227 244 255
227 244 255
227 244 255
227 244 255
227 244 255
227 244 255
227 244 255
227 244 255
227 244 255
227 244 255
227 244 255
227 244 255
227 244 255
227 244 255
227 244 255
227 244 255
227 244 255
227 244 255
227 244 255
227 244 255
227 244 255
227 244 255
227 244 255
227 244 255
227 244 255
227 244 255
239 255 255
227 244 255
227 244 255
227 244 255
227 244 255
227 244 255
227 244 255
227 244 255
227 244 255
227 244 255
227 244 255
227 244 255
227 244 255
227 244 255
227 244 255
227 244 255
227 244 255
227 244 255
227 244 255
227 244 255
227 244 255
227 244 255
227 244 255
227 244 255
227 244 255
227 244 255
227 244 255
227 244 255
227 244 255
227 244 255
227 244 255
227 244 255
227 244 255
227 244 255
227 244 255
227 244 255
227 244 255
239 255 255
227 244 255
227 244 255
227 244 255
227 244 255
227 244 255
227 244 255
227 244 255
227 244 255
227 244 255
227 244 255
227 244 255
227 244 255
227 244 255
227 244 255
227 244 255
227 244 255
227 244 255
227 244 255
227 244 255
227 244 255
227 244 255
227 244 255
239 255 255
227 244 255
227 244 255
227 244 255
227 244 255
227 244 255
227 244 255
227 244 255
227 244 255
227 244 255
227 244 255
227 244 255
227 244 255
227 244 255
227 244 255
227 244 255
227 244 255
227 244 255
227 244 255
227 244 255
227 244 255
227 244 255
227 244 255
227 244 255
227 244 255
227 244 255
227 244 255
227 244 255
227 244 255
227 244 255
227 244 255
227 244 255
227 244 255
227 244 255
227 244 255
227 244 255
227 244 255
239 255 255
227 244 255
227 244 255
227 244 255
227 244 255
227 244 255
227 244 255
227 244 255
227 244 255
227 244 255
227 244 255
227 244 255
227 244 255
227 244 255
227 244 255
227 244 255
227 244 255
227 244 255
227 244 255
227 244 255
227 244 255
227 244 255
227 244 255
227 244 255
227 244 255
227 244 255
227 244 255
227 244 255
227 244 255
227 244 255
227 244 255
227 244 255
227 244 255
227 244 255
227 244 255
227 244 255
227 244 255
239 255 255
227 244 255
227 244 255
227 244 255
227 244 255
227 244 255
227 244 255
227 244 255
227 244 255
227 244 255
227 244 255
227 244 255
227 244 255
227 244 255
227 244 255
227 244 255
227 244 255
227 244 255
227 244 255
227 244 255
227 244 255
227 244 255
227 244 255
227 244 255
227 244 255
227 244 255
227 244 255
227 244 255
227 244 255
227 244 255
227 244 255
227 244 255
227 244 255
227 244 255
227 244 255
227 244 255
227 244 255
239 255 255
227 244 255
227 244 255
227 244 255
227 244 255
227 244 255
227 244 255
227 244 255
227 244 255
227 244 255
227 244 255
227 244 255
227 244 255
227 244 255
227 244 255
227 244 255
227 244 255
227 244 255
227 244 255
227 244 255
227 244 255
227 244 255
227 244 255
227 244 255
227 244 255
227 244 255
227 244 255
227 244 255
227 244 255
227 244 255
227 244 255
227 244 255
227 244 255
227 244 255
227 244 255
227 244 255
227 244 255
239 255 255
227 244 255
227 244 255
227 244 255
227 244 255
227 244 255
227 244 255
227 244 255
227 244 255
227 244 255
227 244 255
227 244 255
227 244 255
227 244 255
227 244 255
227 244 255
227 244 255
227 244 255
227 244 255
227 244 255
227 244 255
227 244 255
227 244 255
227 244 255
227 244 255
227 244 255
227 244 255
227 244 255
227 244 255
227 244 255
227 244 255
227 244 255
227 244 255
227 244 255
227 244 255
227 244 255
227 244 255
239 255 255
227 244 255
227 244 255
227 244 255
227 244 255
227 244 255
227 244 255
227 244 255
227 244 255
227 244 255
227 244 255
227 244 255
227 244 255
227 244 255
227 244 255
227 244 255
227 244 255
227 244 255
227 244 255
227 244 255
227 244 255
227 244 255
227 244 255
227 244 255
227 244 255
227 244 255
227 244 255
227 244 255
227 244 255
227 244 255
227 244 255
227 244 255
227 244 255
227 244 255
227 244 255
227 244 255
227 244 255
239 255 255
227 244 255
227 244 255
227 244 255
227 244 255
227 244 255
227 244 255
227 244 255
227 244 255
227 244 255
227 244 255
227 244 255
227 244 255
227 244 255
227 244 255
227 244 255
227 244 255
227 244 255
227 244 255
227 244 255
227 244 255
227 244 255
227 244 255
227 244 255
227 244 255
227 244 255
227 244 255
227 244 255
227 244 255
227 244 255
227 244 255
227 244 255
227 244 255
227 244 255
227 244 255
227 244 255
227 244 255
239 255 255
227 244 255
227 244 255
227 244 255
227 244 255
227 244 255
227 244 255
227 244 255
227 244 255
227 244 255
227 244 255
227 244 255
227 244 255
227 244 255
227 244 255
227 244 255
227 244 255
227 244 255
227 244 255
227 244 255
227 244 255
227 244 255
227 244 255
227 244 255
227 244 255
227 244 255
227 244 255
227 244 255
227 244 255
227 244 255
227 244 255
227 244 255
227 244 255
227 244 255
227 244 255
227 244 255
227 244 255
239 255 255
227 244 255
227 244 255
227 244 255
227 244 255
227 244 255
227 244 255
227 244 255
227 244 255
227 244 255
227 244 255
227 244 255
227 244 255
227 244 255
227 244 255
227 244 255
227 244 255
227 244 255
227 244 255
227 244 255
227 244 255
227 244 255
227 244 255
239 255 255
227 244 255
227 244 255
227 244 255
227 244 255
227 244 255
227 244 255
227 244 255
227 244 255
227 244 255
227 244 255
227 244 255
227 244 255
227 244 255
227 244 255
227 244 255
227 244 255
227 244 255
227 244 255
227 244 255
227 244 255
227 244 255
227 244 255
227 244 255
227 244 255
227 244 255
227 244 255
227 244 255
227 244 255
227 244 255
227 244 255
227 244 255
227 244 255
227 244 255
227 244 255
227 244 255
227 244 255
239 255 255
227 244 255
227 244 255
227 244 255
227 244 255
227 244 255
227 244 255
227 244 255
227 244 255
227 244 255
227 244 255
227 244 255
227 244 255
227 244 255
227 244 255
227 244 255
227 244 255
227 244 255
227 244 255
227 244 255
227 244 255
227 244 255
227 244 255
227 244 255
227 244 255
227 244 255
227 244 255
227 244 255
227 244 255
227 244 255
227 244 255
227 244 255
227 244 255
227 244 255
227 244 255
227 244 255
227 244 255
239 255 255
227 244 255
227 244 255
227 244 255
227 244 255
227 244 255
227 244 255
227 244 255
227 244 255
227 244 255
227 244 255
227 244 255
227 244 255
227 244 255
227 244 255
227 244 255
227 244 255
227 244 255
227 244 255
227 244 255
227 244 255
227 244 255
227 244 255
227 244 255
227 244 255
227 244 255
227 244 255
227 244 255
227 244 255
227 244 255
227 244 255
227 244 255
227 244 255
227 244 255
227 244 255
227 244 255
227 244 255
239 255 255
227 244 255
227 244 255
227 244 255
227 244 255
227 244 255
227 244 255
227 244 255
227 244 255
227 244 255
227 244 255
227 244 255
227 244 255
227 244 255
227 244 255
227 244 255
227 244 255
227 244 255
227 244 255
227 244 255
227 244 255
227 244 255
227 244 255
227 244 255
227 244 255
227 244 255
227 244 255
227 244 255
227 244 255
227 244 255
227 244 255
227 244 255
227 244 255
227 244 255
227 244 255
227 244 255
227 244 255
239 255 255
227 244 255
227 244 255
227 244 255
227 244 255
227 244 255
227 244 255
227 244 255
227 244 255
227 244 255
227 244 255
227 244 255
227 244 255
227 244 255
227 244 255
227 244 255
227 244 255
227 244 255
227 244 255
227 244 255
227 244 255
227 244 255
227 244 255
227 244 255
227 244 255
227 244 255
227 244 255
227 244 255
227 244 255
227 244 255
227 244 255
227 244 255
227 244 255
227 244 255
227 244 255
227 244 255
227 244 255
239 255 255
227 244 255
227 244 255
227 244 255
227 244 255
227 244 255
227 244 255
227 244 255
227 244 255
227 244 255
227 244 255
227 244 255
227 244 255
227 244 255
227 244 255
227 244 255
227 244 255
227 244 255
227 244 255
227 244 255
227 244 255
227 244 255
227 244 255
227 244 255
227 244 255
227 244 255
227 244 255
227 244 255
227 244 255
227 244 255
227 244 255
227 244 255
227 244 255
227 244 255
227 244 255
227 244 255
227 244 255
239 255 255
227 244 255
227 244 255
227 244 255
227 244 255
227 244 255
227 244 255
227 244 255
227 244 255
227 244 255
227 244 255
227 244 255
227 244 255
227 244 255
227 244 255
227 244 255
227 244 255
227 244 255
227 244 255
227 244 255
227 244 255
227 244 255
227 244 255
227 244 255
227 244 255
227 244 255
227 244 255
227 244 255
227 244 255
227 244 255
227 244 255
227 244 255
227 244 255
227 244 255
227 244 255
227 244 255
227 244 255
239 255 255
227 244 255
227 244 255
227 244 255
227 244 255
227 244 255
227 244 255
227 244 255
227 244 255
227 244 255
227 244 255
227 244 255
227 244 255
227 244 255
227 244 255
227 244 255
227 244 255
227 244 255
227 244 255
227 244 255
227 244 255
227 244 255
227 244 255
227 244 255
227 244 255
227 244 255
227 244 255
227 244 255
227 244 255
227 244 255
227 244 255
227 244 255
227 244 255
227 244 255
227 244 255
227 244 255
227 244 255
239 255 255
227 244 255
227 244 255
227 244 255
227 244 255
227 244 255
227 244 255
227 244 255
227 244 255
227 244 255
227 244 255
227 244 255
227 244 255
227 244 255
227 244 255
227 244 255
227 244 255
227 244 255
227 244 255
227 244 255
227 244 255
227 244 255
227 244 255
239 255 255
227 244 255
227 244 255
227 244 255
227 244 255
227 244 255
227 244 255
227 244 255
227 244 255
227 244 255
227 244 255
227 244 255
227 244 255
227 244 255
227 244 255
227 244 255
227 244 255
227 244 255
227 244 255
227 244 255
227 244 255
227 244 255
227 244 255
227 244 255
227 244 255
227 244 255
227 244 255
227 244 255
227 244 255
227 244 255
227 244 255
227 244 255
227 244 255
227 244 255
227 244 255
227 244 255
227 244 255
239 255 255
227 244 255
227 244 255
227 244 255
227 244 255
227 244 255
227 244 255
227 244 255
227 244 255
227 244 255
227 244 255
227 244 255
227 244 255
227 244 255
227 244 255
227 244 255
227 244 255
227 244 255
227 244 255
227 244 255
227 244 255
227 244 255
227 244 255
227 244 255
227 244 255
227 244 255
227 244 255
227 244 255
227 244 255
227 244 255
227 244 255
227 244 255
227 244 255
227 244 255
227 244 255
227 244 255
227 244 255
239 255 255
227 244 255
227 244 255
227 244 255
227 244 255
227 244 255
227 244 255
227 244 255
227 244 255
227 244 255
227 244 255
227 244 255
227 244 255
227 244 255
227 244 255
227 244 255
227 244 255
227 244 255
227 244 255
227 244 255
227 244 255
227 244 255
227 244 255
227 244 255
227 244 255
227 244 255
227 244 255
227 244 255
227 244 255
227 244 255
227 244 255
227 244 255
227 244 255
227 244 255
227 244 255
227 244 255
227 244 255
239 255 255
227 244 255
227 244 255
227 244 255
227 244 255
227 244 255
227 244 255
227 244 255
227 244 255
227 244 255
227 244 255
227 244 255
227 244 255
227 244 255
227 244 255
227 244 255
227 244 255
227 244 255
227 244 255
227 244 255
227 244 255
227 244 255
227 244 255
227 244 255
227 244 255
227 244 255
227 244 255
227 244 255
227 244 255
227 244 255
227 244 255
227 244 255
227 244 255
227 244 255
227 244 255
227 244 255
227 244 255
239 255 255
227 244 255
227 244 255
227 244 255
227 244 255
227 244 255
227 244 255
227 244 255
227 244 255
227 244 255
227 244 255
227 244 255
227 244 255
227 244 255
227 244 255
227 244 255
227 244 255
227 244 255
227 244 255
227 244 255
227 244 255
227 244 255
227 244 255
227 244 255
227 244 255
227 244 255
227 244 255
227 244 255
227 244 255
227 244 255
227 244 255
227 244 255
227 244 255
227 244 255
227 244 255
227 244 255
227 244 255
239 255 255
227 244 255
227 244 255
227 244 255
227 244 255
227 244 255
227 244 255
227 244 255
227 244 255
227 244 255
227 244 255
227 244 255
227 244 255
227 244 255
227 244 255
227 244 255
227 244 255
227 244 255
227 244 255
227 244 255
227 244 255
227 244 255
227 244 255
227 244 255
227 244 255
227 244 255
227 244 255
227 244 255
227 244 255
227 244 255
227 244 255
227 244 255
227 244 255
227 244 255
227 244 255
227 244 255
227 244 255
239 255 255
227 244 255
227 244 255
227 244 255
227 244 255
227 244 255
227 244 255
227 244 255
227 244 255
227 244 255
227 244 255
227 244 255
227 244 255
227 244 255
227 244 255
227 244 255
227 244 255
227 244 255
227 244 255
227 244 255
227 244 255
227 244 255
227 244 255
227 244 255
227 244 255
227 244 255
227 244 255
227 244 255
227 244 255
227 244 255
227 244 255
227 244 255
227 244 255
227 244 255
227 244 255
227 244 255
227 244 255
239 255 255
227 244 255
227 244 255
227 244 255
227 244 255
227 244 255
227 244 255
227 244 255
227 244 255
227 244 255
227 244 255
227 244 255
227 244 255
227 244 255
227 244 255
227 244 255
227 244 255
227 244 255
227 244 255
227 244 255
227 244 255
227 244 255
227 244 255
227 244 255
227 244 255
227 244 255
227 244 255
227 244 255
227 244 255
227 244 255
227 244 255
227 244 255
227 244 255
227 244 255
227 244 255
227 244 255
227 244 255
239 255 255
227 244 255
227 244 255
227 244 255
227 244 255
227 244 255
227 244 255
227 244 255
227 244 255
227 244 255
227 244 255
227 244 255
227 244 255
227 244 255
227 244 255
227 244 255
227 244 255
227 244 255
227 244 255
227 244 255
227 244 255
227 244 255
227 244 255
239 255 255
227 244 255
227 244 255
227 244 255
227 244 255
227 244 255
227 244 255
227 244 255
227 244 255
227 244 255
227 244 255
227 244 255
227 244 255
227 244 255
227 244 255
227 244 255
227 244 255
227 244 255
227 244 255
227 244 255
227 244 255
227 244 255
227 244 255
227 244 255
227 244 255
227 244 255
227 244 255
227 244 255
227 244 255
227 244 255
227 244 255
227 244 255
227 244 255
227 244 255
227 244 255
227 244 255
227 244 255
239 255 255
227 244 255
227 244 255
227 244 255
227 244 255
227 244 255
227 244 255
227 244 255
227 244 255
227 244 255
227 244 255
227 244 255
227 244 255
227 244 255
227 244 255
227 244 255
227 244 255
227 244 255
227 244 255
227 244 255
227 244 255
227 244 255
227 244 255
227 244 255
227 244 255
227 244 255
227 244 255
227 244 255
227 244 255
227 244 255
227 244 255
227 244 255
227 244 255
227 244 255
227 244 255
227 244 255
227 244 255
239 255 255
227 244 255
227 244 255
227 244 255
227 244 255
227 244 255
227 244 255
227 244 255
227 244 255
227 244 255
227 244 255
227 244 255
227 244 255
227 244 255
227 244 255
227 244 255
227 244 255
227 244 255
227 244 255
227 244 255
227 244 255
227 244 255
227 244 255
227 244 255
227 244 255
227 244 255
227 244 255
227 244 255
227 244 255
227 244 255
227 244 255
227 244 255
227 244 255
227 244 255
227 244 255
227 244 255
227 244 255
239 255 255
227 244 255
227 244 255
227 244 255
227 244 255
227 244 255
227 244 255
227 244 255
227 244 255
227 244 255
227 244 255
227 244 255
227 244 255
227 244 255
227 244 255
227 244 255
227 244 255
227 244 255
227 244 255
227 244 255
227 244 255
227 244 255
227 244 255
227 244 255
227 244 255
227 244 255
227 244 255
227 244 255
227 244 255
227 244 255
227 244 255
227 244 255
227 244 255
227 244 255
227 244 255
227 244 255
227 244 255
239 255 255
227 244 255
227 244 255
227 244 255
227 244 255
227 244 255
227 244 255
227 244 255
227 244 255
227 244 255
227 244 255
227 244 255
227 244 255
227 244 255
227 244 255
227 244 255
227 244 255
227 244 255
227 244 255
227 244 255
227 244 255
227 244 255
227 244 255
227 244 255
227 244 255
227 244 255
227 244 255
227 244 255
227 244 255
227 244 255
227 244 255
227 244 255
227 244 255
227 244 255
227 244 255
227 244 255
227 244 255
239 255 255
227 244 255
227 244 255
227 244 255
227 244 255
227 244 255
227 244 255
227 244 255
227 244 255
227 244 255
227 244 255
227 244 255
227 244 255
227 244 255
227 244 255
227 244 255
227 244 255
227 244 255
227 244 255
227 244 255
227 244 255
227 244 255
227 244 255
227 244 255
227 244 255
227 244 255
227 244 255
227 244 255
227 244 255
227 244 255
227 244 255
227 244 255
227 244 255
227 244 255
227 244 255
227 244 255
227 244 255
239 255 255
227 244 255
227 244 255
227 244 255
227 244 255
227 244 255
227 244 255
227 244 255
227 244 255
227 244 255
227 244 255
227 244 255
227 244 255
227 244 255
227 244 255
227 244 255
227 244 255
227 244 255
227 244 255
227 244 255
227 244 255
227 244 255
227 244 255
227 244 255
227 244 255
227 244 255
227 244 255
227 244 255
227 244 255
227 244 255
227 244 255
227 244 255
227 244 255
227 244 255
227 244 255
227 244 255
227 244 255
239 255 255
227 244 255
227 244 255
227 244 255
227 244 255
227 244 255
227 244 255
227 244 255
227 244 255
227 244 255
227 244 255
227 244 255
227 244 255
227 244 255
227 244 255
227 244 255
227 244 255
227 244 255
227 244 255
227 244 255
227 244 255
227 244 255
227 244 255
227 244 255
227 244 255
227 244 255
227 244 255
227 244 255
227 244 255
227 244 255
227 244 255
227 244 255
227 244 255
227 244 255
227 244 255
227 244 255
227 244 255
239 255 255
227 244 255
227 244 255
227 244 255
227 244 255
227 244 255
227 244 255
227 244 255
227 244 255
227 244 255
227 244 255
227 244 255
227 244 255
227 244 255
227 244 255
227 244 255
227 244 255
227 244 255
227 244 255
227 244 255
227 244 255
227 244 255
227 244 255
239 255 255
227 244 255
227 244 255
227 244 255
227 244 255
227 244 255
227 244 255
227 244 255
227 244 255
227 244 255
227 244 255
227 244 255
227 244 255
227 244 255
227 244 255
227 244 255
227 244 255
227 244 255
227 244 255
227 244 255
227 244 255
227 244 255
227 244 255
227 244 255
227 244 255
227 244 255
227 244 255
227 244 255
227 244 255
227 244 255
227 244 255
227 244 255
227 244 255
227 244 255
227 244 255
227 244 255
227 244 255
239 255 255
227 244 255
227 244 255
227 244 255
227 244 255
227 244 255
227 244 255
227 244 255
227 244 255
227 244 255
227 244 255
227 244 255
227 244 255
227 244 255
227 244 255
227 244 255
227 244 255
227 244 255
227 244 255
227 244 255
227 244 255
227 244 255
227 244 255
227 244 255
227 244 255
227 244 255
227 244 255
227 244 255
227 244 255
227 244 255
227 244 255
227 244 255
227 244 255
227 244 255
227 244 255
227 244 255
227 244 255
239 255 255
227 244 255
227 244 255
227 244 255
227 244 255
227 244 255
227 244 255
227 244 255
227 244 255
227 244 255
227 244 255
227 244 255
227 244 255
227 244 255
227 244 255
227 244 255
227 244 255
227 244 255
227 244 255
227 244 255
227 244 255
227 244 255
227 244 255
227 244 255
227 244 255
227 244 255
227 244 255
227 244 255
227 244 255
227 244 255
227 244 255
227 244 255
227 244 255
227 244 255
227 244 255
227 244 255
227 244 255
239 255 255
227 244 255
227 244 255
227 244 255
227 244 255
227 244 255
227 244 255
227 244 255
227 244 255
227 244 255
227 244 255
227 244 255
227 244 255
227 244 255
227 244 255
227 244 255
227 244 255
227 244 255
227 244 255
227 244 255
227 244 255
227 244 255
227 244 255
227 244 255
227 244 255
227 244 255
227 244 255
227 244 255
227 244 255
227 244 255
227 244 255
227 244 255
227 244 255
227 244 255
227 244 255
227 244 255
227 244 255
239 255 255
227 244 255
227 244 255
227 244 255
227 244 255
227 244 255
227 244 255
227 244 255
227 244 255
227 244 255
227 244 255
227 244 255
227 244 255
227 244 255
227 244 255
227 244 255
227 244 255
227 244 255
227 244 255
227 244 255
227 244 255
227 244 255
227 244 255
227 244 255
227 244 255
227 244 255
227 244 255
227 244 255
227 244 255
227 244 255
227 244 255
227 244 255
227 244 255
227 244 255
227 244 255
227 244 255
227 244 255
239 255 255
227 244 255
227 244 255
227 244 255
227 244 255
227 244 255
227 244 255
227 244 255
227 244 255
227 244 255
227 244 255
227 244 255
227 244 255
227 244 255
227 244 255
227 244 255
227 244 255
227 244 255
227 244 255
227 244 255
227 244 255
227 244 255
227 244 255
227 244 255
227 244 255
227 244 255
227 244 255
227 244 255
227 244 255
227 244 255
227 244 255
227 244 255
227 244 255
227 244 255
227 244 255
227 244 255
227 244 255
239 255 255
227 244 255
227 244 255
227 244 255
227 244 255
227 244 255
227 244 255
227 244 255
227 244 255
227 244 255
227 244 255
227 244 255
227 244 255
227 244 255
227 244 255
227 244 255
227 244 255
227 244 255
227 244 255
227 244 255
227 244 255
227 244 255
227 244 255
227 244 255
227 244 255
227 244 255
227 244 255
227 244 255
227 244 255
227 244 255
227 244 255
227 244 255
227 244 255
227 244 255
227 244 255
227 244 255
227 244 255
239 255 255
227 244 255
227 244 255
227 244 255
227 244 255
227 244 255
227 244 255
227 244 255
227 244 255
227 244 255
227 244 255
227 244 255
227 244 255
227 244 255
227 244 255
227 244 255
227 244 255
227 244 255
227 244 255
227 244 255
227 244 255
227 244 255
227 244 255
227 244 255
227 244 255
227 244 255
227 244 255
227 244 255
227 244 255
227 244 255
227 244 255
227 244 255
227 244 255
227 244 255
227 244 255
227 244 255
227 244 255
239 255 255
227 244 255
227 244 255
227 244 255
227 244 255
227 244 255
227 244 255
227 244 255
227 244 255
227 244 255
227 244 255
227 244 255
227 244 255
227 244 255
227 244 255
227 244 255
227 244 255
227 244 255
227 244 255
227 244 255
227 244 255
227 244 255
227 244 255
239 255 255
227 244 255
227 244 255
227 244 255
227 244 255
227 244 255
227 244 255
227 244 255
227 244 255
227 244 255
227 244 255
227 244 255
227 244 255
227 244 255
227 244 255
227 244 255
227 244 255
227 244 255
227 244 255
227 244 255
227 244 255
227 244 255
227 244 255
227 244 255
227 244 255
227 244 255
227 244 255
227 244 255
227 244 255
227 244 255
227 244 255
227 244 255
227 244 255
227 244 255
227 244 255
227 244 255
227 244 255
239 255 255
227 244 255
227 244 255
227 244 255
227 244 255
227 244 255
227 244 255
227 244 255
227 244 255
227 244 255
227 244 255
227 244 255
227 244 255
227 244 255
227 244 255
227 244 255
227 244 255
227 244 255
227 244 255
227 244 255
227 244 255
227 244 255
227 244 255
227 244 255
227 244 255
227 244 255
227 244 255
227 244 255
227 244 255
227 244 255
227 244 255
227 244 255
227 244 255
227 244 255
227 244 255
227 244 255
227 244 255
239 255 255
227 244 255
227 244 255
227 244 255
227 244 255
227 244 255
227 244 255
227 244 255
227 244 255
227 244 255
227 244 255
227 244 255
227 244 255
227 244 255
227 244 255
227 244 255
227 244 255
227 244 255
227 244 255
227 244 255
227 244 255
227 244 255
227 244 255
227 244 255
227 244 255
227 244 255
227 244 255
227 244 255
227 244 255
227 244 255
227 244 255
227 244 255
227 244 255
227 244 255
227 244 255
227 244 255
227 244 255
239 255 255
227 244 255
227 244 255
227 244 255
227 244 255
227 244 255
227 244 255
227 244 255
227 244 255
227 244 255
227 244 255
227 244 255
227 244 255
227 244 255
227 244 255
227 244 255
227 244 255
227 244 255
227 244 255
227 244 255
227 244 255
227 244 255
227 244 255
227 244 255
227 244 255
227 244 255
227 244 255
227 244 255
227 244 255
227 244 255
227 244 255
227 244 255
227 244 255
227 244 255
227 244 255
227 244 255
227 244 255
239 255 255
227 244 255
227 244 255
227 244 255
227 244 255
227 244 255
227 244 255
227 244 255
227 244 255
227 244 255
227 244 255
227 244 255
227 244 255
227 244 255
227 244 255
227 244 255
227 244 255
227 244 255
227 244 255
227 244 255
227 244 255
227 244 255
227 244 255
227 244 255
227 244 255
227 244 255
227 244 255
227 244 255
227 244 255
227 244 255
227 244 255
227 244 255
227 244 255
227 244 255
227 244 255
227 244 255
227 244 255
239 255 255
227 244 255
227 244 255
227 244 255
227 244 255
227 244 255
227 244 255
227 244 255
227 244 255
227 244 255
227 244 255
227 244 255
227 244 255
227 244 255
227 244 255
227 244 255
227 244 255
227 244 255
227 244 255
227 244 255
227 244 255
227 244 255
227 244 255
227 244 255
227 244 255
227 244 255
227 244 255
227 244 255
227 244 255
227 244 255
227 244 255
227 244 255
227 244 255
227 244 255
227 244 255
227 244 255
227 244 255
239 255 255
227 244 255
227 244 255
227 244 255
227 244 255
227 244 255
227 244 255
227 244 255
227 244 255
227 244 255
227 244 255
227 244 255
227 244 255
227 244 255
227 244 255
227 244 255
227 244 255
227 244 255
227 244 255
227 244 255
227 244 255
227 244 255
227 244 255
227 244 255
227 244 255
227 244 255
227 244 255
227 244 255
227 244 255
227 244 255
227 244 255
227 244 255
227 244 255
227 244 255
227 244 255
227 244 255
227 244 255
239 255 255
227 244 255
227 244 255
227 244 255
227 244 255
227 244 255
227 244 255
227 244 255
227 244 255
227 244 255
227 244 255
227 244 255
227 244 255
227 244 255
227 244 255
227 244 255
227 244 255
227 244 255
227 244 255
227 244 255
227 244 255
227 244 255
227 244 255
227 244 255
227 244 255
227 244 255
227 244 255
227 244 255
227 244 255
227 244 255
227 244 255
227 244 255
227 244 255
227 244 255
227 244 255
227 244 255
227 244 255
239 255 255
227 244 255
227 244 255
227 244 255
227 244 255
227 244 255
227 244 255
227 244 255
227 244 255
227 244 255
227 244 255
227 244 255
227 244 255
227 244 255
227 244 255
227 244 255
227 244 255
227 244 255
227 244 255
227 244 255
227 244 255
227 244 255
227 244 255
239 255 255
227 244 255
227 244 255
227 244 255
227 244 255
227 244 255
227 244 255
227 244 255
227 244 255
227 244 255
227 244 255
227 244 255
227 244 255
227 244 255
227 244 255
227 244 255
227 244 255
227 244 255
227 244 255
227 244 255
227 244 255
227 244 255
227 244 255
227 244 255
227 244 255
227 244 255
227 244 255
227 244 255
227 244 255
227 244 255
227 244 255
227 244 255
227 244 255
227 244 255
227 244 255
227 244 255
227 244 255
239 255 255
227 244 255
227 244 255
227 244 255
227 244 255
227 244 255
227 244 255
227 244 255
227 244 255
227 244 255
227 244 255
227 244 255
227 244 255
227 244 255
227 244 255
227 244 255
227 244 255
227 244 255
227 244 255
227 244 255
227 244 255
227 244 255
227 244 255
227 244 255
227 244 255
227 244 255
227 244 255
227 244 255
227 244 255
227 244 255
227 244 255
227 244 255
227 244 255
227 244 255
227 244 255
227 244 255
227 244 255
239 255 255
227 244 255
227 244 255
227 244 255
227 244 255
227 244 255
227 244 255
227 244 255
227 244 255
227 244 255
227 244 255
227 244 255
227 244 255
227 244 255
227 244 255
227 244 255
227 244 255
227 244 255
227 244 255
227 244 255
227 244 255
227 244 255
227 244 255
227 244 255
227 244 255
227 244 255
227 244 255
227 244 255
227 244 255
227 244 255
227 244 255
227 244 255
227 244 255
227 244 255
227 244 255
227 244 255
227 244 255
239 255 255
227 244 255
227 244 255
227 244 255
227 244 255
227 244 255
227 244 255
227 244 255
227 244 255
227 244 255
227 244 255
227 244 255
227 244 255
227 244 255
227 244 255
227 244 255
227 244 255
227 244 255
227 244 255
227 244 255
227 244 255
227 244 255
227 244 255
227 244 255
227 244 255
227 244 255
227 244 255
227 244 255
227 244 255
227 244 255
227 244 255
227 244 255
227 244 255
227 244 255
227 244 255
227 244 255
227 244 255
239 255 255
227 244 255
227 244 255
227 244 255
227 244 255
227 244 255
227 244 255
227 244 255
227 244 255
227 244 255
227 244 255
227 244 255
227 244 255
227 244 255
227 244 255
227 244 255
227 244 255
227 244 255
227 244 255
227 244 255
227 244 255
227 244 255
227 244 255
227 244 255
227 244 255
227 244 255
227 244 255
227 244 255
227 244 255
227 244 255
227 244 255
227 244 255
227 244 255
227 244 255
227 244 255
227 244 255
227 244 255
239 255 255
227 244 255
227 244 255
227 244 255
227 244 255
227 244 255
227 244 255
227 244 255
227 244 255
227 244 255
227 244 255
227 244 255
227 244 255
227 244 255
227 244 255
227 244 255
227 244 255
227 244 255
227 244 255
227 244 255
227 244 255
227 244 255
227 244 255
227 244 255
227 244 255
227 244 255
227 244 255
227 244 255
227 244 255
227 244 255
227 244 255
227 244 255
227 244 255
227 244 255
227 244 255
227 244 255
227 244 255
239 255 255
227 244 255
227 244 255
227 244 255
227 244 255
227 244 255
227 244 255
227 244 255
227 244 255
227 244 255
227 244 255
227 244 255
227 244 255
227 244 255
227 244 255
227 244 255
227 244 255
227 244 255
227 244 255
227 244 255
227 244 255
227 244 255
227 244 255
227 244 255
227 244 255
227 244 255
227 244 255
227 244 255
227 244 255
227 244 255
227 244 255
227 244 255
227 244 255
227 244 255
227 244 255
227 244 255
227 244 255
239 255 255
227 244 255
227 244 255
227 244 255
227 244 255
227 244 255
227 244 255
227 244 255
227 244 255
227 244 255
227 244 255
227 244 255
227 244 255
227 244 255
227 244 255
227 244 255
227 244 255
227 244 255
227 244 255
227 244 255
227 244 255
227 244 255
227 244 255
227 244 255
227 244 255
227 244 255
227 244 255
227 244 255
227 244 255
227 244 255
227 244 255
227 244 255
227 244 255
227 244 255
227 244 255
227 244 255
227 244 255
239 255 255
227 244 255
227 244 255
227 244 255
227 244 255
227 244 255
227 244 255
227 244 255
227 244 255
227 244 255
227 244 255
227 244 255
227 244 255
227 244 255
227 244 255
227 244 255
227 244 255
227 244 255
227 244 255
227 244 255
227 244 255
227 244 255
227 244 255
239 255 255
227 244 255
227 244 255
227 244 255
227 244 255
227 244 255
227 244 255
227 244 255
227 244 255
227 244 255
227 244 255
227 244 255
227 244 255
227 244 255
227 244 255
227 244 255
227 244 255
227 244 255
227 244 255
227 244 255
227 244 255
227 244 255
227 244 255
227 244 255
227 244 255
227 244 255
227 244 255
227 244 255
227 244 255
227 244 255
227 244 255
227 244 255
227 244 255
227 244 255
227 244 255
227 244 255
227 244 255
239 255 255
227 244 255
227 244 255
227 244 255
227 244 255
227 244 255
227 244 255
227 244 255
227 244 255
227 244 255
227 244 255
227 244 255
227 244 255
227 244 255
227 244 255
227 244 255
227 244 255
227 244 255
227 244 255
227 244 255
227 244 255
227 244 255
227 244 255
227 244 255
227 244 255
227 244 255
227 244 255
227 244 255
227 244 255
227 244 255
227 244 255
227 244 255
227 244 255
227 244 255
227 244 255
227 244 255
227 244 255
239 255 255
227 244 255
227 244 255
227 244 255
227 244 255
227 244 255
227 244 255
227 244 255
227 244 255
227 244 255
227 244 255
227 244 255
227 244 255
227 244 255
227 244 255
227 244 255
227 244 255
227 244 255
227 244 255
227 244 255
227 244 255
227 244 255
227 244 255
227 244 255
227 244 255
227 244 255
227 244 255
227 244 255
227 244 255
227 244 255
227 244 255
227 244 255
227 244 255
227 244 255
227 244 255
227 244 255
227 244 255
239 255 255
227 244 255
227 244 255
227 244 255
227 244 255
227 244 255
227 244 255
227 244 255
227 244 255
227 244 255
227 244 255
227 244 255
227 244 255
227 244 255
227 244 255
227 244 255
227 244 255
227 244 255
227 244 255
227 244 255
227 244 255
227 244 255
227 244 255
227 244 255
227 244 255
227 244 255
227 244 255
227 244 255
227 244 255
227 244 255
227 244 255
227 244 255
227 244 255
227 244 255
227 244 255
227 244 255
227 244 255
239 255 255
227 244 255
227 244 255
227 244 255
227 244 255
227 244 255
227 244 255
227 244 255
227 244 255
227 244 255
227 244 255
227 244 255
227 244 255
227 244 255
227 244 255
227 244 255
227 244 255
227 244 255
227 244 255
227 244 255
227 244 255
227 244 255
227 244 255
227 244 255
227 244 255
227 244 255
227 244 255
227 244 255
227 244 255
227 244 255
227 244 255
227 244 255
227 244 255
227 244 255
227 244 255
227 244 255
227 244 255
239 255 255
227 244 255
227 244 255
227 244 255
227 244 255
227 244 255
227 244 255
227 244 255
227 244 255
227 244 255
227 244 255
227 244 255
227 244 255
227 244 255
227 244 255
227 244 255
227 244 255
227 244 255
227 244 255
227 244 255
227 244 255
227 244 255
227 244 255
227 244 255
227 244 255
227 244 255
227 244 255
227 244 255
227 244 255
227 244 255
227 244 255
227 244 255
227 244 255
227 244 255
227 244 255
227 244 255
227 244 255
239 255 255
227 244 255
227 244 255
227 244 255
227 244 255
227 244 255
227 244 255
227 244 255
227 244 255
227 244 255
227 244 255
227 244 255
227 244 255
227 244 255
227 244 255
227 244 255
227 244 255
227 244 255
227 244 255
227 244 255
227 244 255
227 244 255
227 244 255
227 244 255
227 244 255
227 244 255
227 244 255
227 244 255
227 244 255
227 244 255
227 244 255
227 244 255
227 244 255
227 244 255
227 244 255
227 244 255
227 244 255
239 255 255
227 244 255
227 244 255
227 244 255
227 244 255
227 244 255
227 244 255
227 244 255
227 244 255
227 244 255
227 244 255
227 244 255
227 244 255
227 244 255
227 244 255
227 244 255
227 244 255
227 244 255
227 244 255
227 244 255
227 244 255
227 244 255
227 244 255
227 244 255
227 244 255
227 244 255
227 244 255
227 244 255
227 244 255
227 244 255
227 244 255
227 244 255
227 244 255
227 244 255
227 244 255
227 244 255
227 244 255
239 255 255
227 244 255
227 244 255
227 244 255
227 244 255
227 244 255
227 244 255
227 244 255
227 244 255
227 244 255
227 244 255
227 244 255
227 244 255
227 244 255
227 244 255
227 244 255
227 244 255
227 244 255
227 244 255
227 244 255
227 244 255
227 244 255
227 244 255
239 255 255
227 244 255
227 244 255
227 244 255
227 244 255
227 244 255
227 244 255
227 244 255
227 244 255
227 244 255
227 244 255
227 244 255
227 244 255
227 244 255
227 244 255
227 244 255
227 244 255
227 244 255
227 244 255
227 244 255
227 244 255
227 244 255
227 244 255
227 244 255
227 244 255
227 244 255
227 244 255
227 244 255
227 244 255
227 244 255
227 244 255
227 244 255
227 244 255
227 244 255
227 244 255
227 244 255
227 244 255
239 255 255
227 244 255
227 244 255
227 244 255
227 244 255
227 244 255
227 244 255
227 244 255
227 244 255
227 244 255
227 244 255
227 244 255
227 244 255
227 244 255
227 244 255
227 244 255
227 244 255
227 244 255
227 244 255
227 244 255
227 244 255
227 244 255
227 244 255
227 244 255
227 244 255
227 244 255
227 244 255
227 244 255
227 244 255
227 244 255
227 244 255
227 244 255
227 244 255
227 244 255
227 244 255
227 244 255
227 244 255
239 255 255
227 244 255
227 244 255
227 244 255
227 244 255
227 244 255
227 244 255
227 244 255
227 244 255
227 244 255
227 244 255
227 244 255
227 244 255
227 244 255
227 244 255
227 244 255
227 244 255
227 244 255
227 244 255
227 244 255
227 244 255
227 244 255
227 244 255
227 244 255
227 244 255
227 244 255
227 244 255
227 244 255
227 244 255
227 244 255
227 244 255
227 244 255
227 244 255
227 244 255
227 244 255
227 244 255
227 244 255
239 255 255
227 244 255
227 244 255
227 244 255
227 244 255
227 244 255
227 244 255
227 244 255
227 244 255
227 244 255
227 244 255
227 244 255
227 244 255
227 244 255
227 244 255
227 244 255
227 244 255
227 244 255
227 244 255
227 244 255
227 244 255
227 244 255
227 244 255
227 244 255
227 244 255
227 244 255
227 244 255
227 244 255
227 244 255
227 244 255
227 244 255
227 244 255
227 244 255
227 244 255
227 244 255
227 244 255
227 244 255
239 255 255
227 244 255
227 244 255
227 244 255
227 244 255
227 244 255
227 244 255
227 244 255
227 244 255
227 244 255
227 244 255
227 244 255
227 244 255
227 244 255
227 244 255
227 244 255
227 244 255
227 244 255
227 244 255
227 244 255
227 244 255
227 244 255
227 244 255
227 244 255
227 244 255
227 244 255
227 244 255
227 244 255
227 244 255
227 244 255
227 244 255
227 244 255
227 244 255
227 244 255
227 244 255
227 244 255
227 244 255
239 255 255
227 244 255
227 244 255
227 244 255
227 244 255
227 244 255
227 244 255
227 244 255
227 244 255
227 244 255
227 244 255
227 244 255
227 244 255
227 244 255
227 244 255
227 244 255
227 244 255
227 244 255
227 244 255
227 244 255
227 244 255
227 244 255
227 244 255
227 244 255
227 244 255
227 244 255
227 244 255
227 244 255
227 244 255
227 244 255
227 244 255
227 244 255
227 244 255
227 244 255
227 244 255
227 244 255
227 244 255
239 255 255
227 244 255
227 244 255
227 244 255
227 244 255
227 244 255
227 244 255
227 244 255
227 244 255
227 244 255
227 244 255
227 244 255
227 244 255
227 244 255
227 244 255
227 244 255
227 244 255
227 244 255
227 244 255
227 244 255
227 244 255
227 244 255
227 244 255
227 244 255
227 244 255
227 244 255
227 244 255
227 244 255
227 244 255
227 244 255
227 244 255
227 244 255
227 244 255
227 244 255
227 244 255
227 244 255
227 244 255
239 255 255
227 244 255
227 244 255
227 244 255
227 244 255
227 244 255
227 244 255
227 244 255
227 244 255
227 244 255
227 244 255
227 244 255
227 244 255
227 244 255
227 244 255
227 244 255
227 244 255
227 244 255
227 244 255
227 244 255
227 244 255
227 244 255
227 244 255
227 244 255
227 244 255
227 244 255
227 244 255
227 244 255
227 244 255
227 244 255
227 244 255
227 244 255
227 244 255
227 244 255
227 244 255
227 244 255
227 244 255
239 255 255
227 244 255
227 244 255
227 244 255
227 244 255
227 244 255
227 244 255
227 244 255
227 244 255
227 244 255
227 244 255
227 244 255
227 244 255
227 244 255
227 244 255
227 244 255
227 244 255
227 244 255
227 244 255
227 244 255
227 244 255
227 244 255
227 244 255
239 255 255
227 244 255
227 244 255
227 244 255
227 244 255
227 244 255
227 244 255
227 244 255
227 244 255
227 244 255
227 244 255
227 244 255
227 244 255
227 244 255
227 244 255
227 244 255
227 244 255
227 244 255
227 244 255
227 244 255
227 244 255
227 244 255
227 244 255
227 244 255
227 244 255
227 244 255
227 244 255
227 244 255
227 244 255
227 244 255
227 244 255
227 244 255
227 244 255
227 244 255
227 244 255
227 244 255
227 244 255
239 255 255
227 244 255
227 244 255
227 244 255
227 244 255
227 244 255
227 244 255
227 244 255
227 244 255
227 244 255
227 244 255
227 244 255
227 244 255
227 244 255
227 244 255
227 244 255
227 244 255
227 244 255
227 244 255
227 244 255
227 244 255
227 244 255
227 244 255
227 244 255
227 244 255
227 244 255
227 244 255
227 244 255
227 244 255
227 244 255
227 244 255
227 244 255
227 244 255
227 244 255
227 244 255
227 244 255
227 244 255
239 255 255
227 244 255
227 244 255
227 244 255
227 244 255
227 244 255
227 244 255
227 244 255
227 244 255
227 244 255
227 244 255
227 244 255
227 244 255
227 244 255
227 244 255
227 244 255
227 244 255
227 244 255
227 244 255
227 244 255
227 244 255
227 244 255
227 244 255
227 244 255
227 244 255
227 244 255
227 244 255
227 244 255
227 244 255
227 244 255
227 244 255
227 244 255
227 244 255
227 244 255
227 244 255
227 244 255
227 244 255
239 255 255
227 244 255
227 244 255
227 244 255
227 244 255
227 244 255
227 244 255
227 244 255
227 244 255
227 244 255
227 244 255
227 244 255
227 244 255
227 244 255
227 244 255
227 244 255
227 244 255
227 244 255
227 244 255
227 244 255
227 244 255
227 244 255
227 244 255
227 244 255
227 244 255
227 244 255
227 244 255
227 244 255
227 244 255
227 244 255
227 244 255
227 244 255
227 244 255
227 244 255
227 244 255
227 244 255
227 244 255
239 255 255
227 244 255
227 244 255
227 244 255
227 244 255
227 244 255
227 244 255
227 244 255
227 244 255
227 244 255
227 244 255
227 244 255
227 244 255
227 244 255
227 244 255
227 244 255
227 244 255
227 244 255
227 244 255
227 244 255
227 244 255
227 244 255
227 244 255
227 244 255
227 244 255
227 244 255
227 244 255
227 244 255
227 244 255
227 244 255
227 244 255
227 244 255
227 244 255
227 244 255
227 244 255
227 244 255
227 244 255
239 255 255
227 244 255
227 244 255
227 244 255
227 244 255
227 244 255
227 244 255
227 244 255
227 244 255
227 244 255
227 244 255
227 244 255
227 244 255
227 244 255
227 244 255
227 244 255
227 244 255
227 244 255
227 244 255
227 244 255
227 244 255
227 244 255
227 244 255
227 244 255
227 244 255
227 244 255
227 244 255
227 244 255
227 244 255
227 244 255
227 244 255
227 244 255
227 244 255
227 244 255
227 244 255
227 244 255
227 244 255
239 255 255
227 244 255
227 244 255
227 244 255
227 244 255
227 244 255
227 244 255
227 244 255
227 244 255
227 244 255
227 244 255
227 244 255
227 244 255
227 244 255
227 244 255
227 244 255
227 244 255
227 244 255
227 244 255
227 244 255
227 244 255
227 244 255
227 244 255
227 244 255
227 244 255
227 244 255
227 244 255
227 244 255
227 244 255
227 244 255
227 244 255
227 244 255
227 244 255
227 244 255
227 244 255
227 244 255
227 244 255
239 255 255
227 244 255
227 244 255
227 244 255
227 244 255
227 244 255
227 244 255
227 244 255
227 244 255
227 244 255
227 244 255
227 244 255
227 244 255
227 244 255
227 244 255
227 244 255
227 244 255
227 244 255
227 244 255
227 244 255
227 244 255
227 244 255
227 244 255
227 244 255
227 244 255
227 244 255
227 244 255
227 244 255
227 244 255
227 244 255
227 244 255
227 244 255
227 244 255
227 244 255
227 244 255
227 244 255
227 244 255
239 255 255
227 244 255
227 244 255
227 244 255
227 244 255
227 244 255
227 244 255
227 244 255
227 244 255
227 244 255
227 244 255
227 244 255
227 244 255
227 244 255
227 244 255
227 244 255
227 244 255
227 244 255
227 244 255
227 244 255
227 244 255
227 244 255
227 244 255
239 255 255
227 244 255
227 244 255
227 244 255
227 244 255
227 244 255
227 244 255
227 244 255
227 244 255
227 244 255
227 244 255
227 244 255
227 244 255
227 244 255
227 244 255
227 244 255
227 244 255
227 244 255
227 244 255
227 244 255
227 244 255
227 244 255
227 244 255
227 244 255
227 244 255
227 244 255
227 244 255
227 244 255
227 244 255
227 244 255
227 244 255
227 244 255
227 244 255
227 244 255
227 244 255
227 244 255
227 244 255
239 255 255
227 244 255
227 244 255
227 244 255
227 244 255
227 244 255
227 244 255
227 244 255
227 244 255
227 244 255
227 244 255
227 244 255
227 244 255
227 244 255
227 244 255
227 244 255
227 244 255
227 244 255
227 244 255
227 244 255
227 244 255
227 244 255
227 244 255
227 244 255
227 244 255
227 244 255
227 244 255
227 244 255
227 244 255
227 244 255
227 244 255
227 244 255
227 244 255
227 244 255
227 244 255
227 244 255
227 244 255
239 255 255
227 244 255
227 244 255
227 244 255
227 244 255
227 244 255
227 244 255
227 244 255
227 244 255
227 244 255
227 244 255
227 244 255
227 244 255
227 244 255
227 244 255
227 244 255
227 244 255
227 244 255
227 244 255
227 244 255
227 244 255
227 244 255
227 244 255
227 244 255
227 244 255
227 244 255
227 244 255
227 244 255
227 244 255
227 244 255
227 244 255
227 244 255
227 244 255
227 244 255
227 244 255
227 244 255
227 244 255
239 255 255
227 244 255
227 244 255
227 244 255
227 244 255
227 244 255
227 244 255
227 244 255
227 244 255
227 244 255
227 244 255
227 244 255
227 244 255
227 244 255
227 244 255
227 244 255
227 244 255
227 244 255
227 244 255
227 244 255
227 244 255
227 244 255
227 244 255
227 244 255
227 244 255
227 244 255
227 244 255
227 244 255
227 244 255
227 244 255
227 244 255
227 244 255
227 244 255
227 244 255
227 244 255
227 244 255
227 244 255
239 255 255
227 244 255
227 244 255
227 244 255
227 244 255
227 244 255
227 244 255
227 244 255
227 244 255
227 244 255
227 244 255
227 244 255
227 244 255
227 244 255
227 244 255
227 244 255
227 244 255
227 244 255
227 244 255
227 244 255
227 244 255
227 244 255
227 244 255
227 244 255
227 244 255
227 244 255
227 244 255
227 244 255
227 244 255
227 244 255
227 244 255
227 244 255
227 244 255
227 244 255
227 244 255
227 244 255
227 244 255
239 255 255
227 244 255
227 244 255
227 244 255
227 244 255
227 244 255
227 244 255
227 244 255
227 244 255
227 244 255
227 244 255
227 244 255
227 244 255
227 244 255
227 244 255
227 244 255
227 244 255
227 244 255
227 244 255
227 244 255
227 244 255
227 244 255
227 244 255
227 244 255
227 244 255
227 244 255
227 244 255
227 244 255
227 244 255
227 244 255
227 244 255
227 244 255
227 244 255
227 244 255
227 244 255
227 244 255
227 244 255
239 255 255
227 244 255
227 244 255
227 244 255
227 244 255
227 244 255
227 244 255
227 244 255
227 244 255
227 244 255
227 244 255
227 244 255
227 244 255
227 244 255
227 244 255
227 244 255
227 244 255
227 244 255
227 244 255
227 244 255
227 244 255
227 244 255
227 244 255
227 244 255
227 244 255
227 244 255
227 244 255
227 244 255
227 244 255
227 244 255
227 244 255
227 244 255
227 244 255
227 244 255
227 244 255
227 244 255
227 244 255
239 255 255
227 244 255
227 244 255
227 244 255
227 244 255
227 244 255
227 244 255
227 244 255
227 244 255
227 244 255
227 244 255
227 244 255
227 244 255
227 244 255
227 244 255
227 244 255
227 244 255
227 244 255
227 244 255
227 244 255
227 244 255
227 244 255
227 244 255
227 244 255
227 244 255
227 244 255
227 244 255
227 244 255
227 244 255
227 244 255
227 244 255
227 244 255
227 244 255
227 244 255
227 244 255
227 244 255
227 244 255
239 255 255
227 244 255
227 244 255
227 244 255
227 244 255
227 244 255
227 244 255
227 244 255
227 244 255
227 244 255
227 244 255
227 244 255
227 244 255
227 244 255
227 244 255
227 244 255
227 244 255
227 244 255
227 244 255
227 244 255
227 244 255
227 244 255
227 244 255
239 255 255
227 244 255
227 244 255
227 244 255
227 244 255
227 244 255
227 244 255
227 244 255
227 244 255
227 244 255
227 244 255
227 244 255
227 244 255
227 244 255
227 244 255
227 244 255
227 244 255
227 244 255
227 244 255
227 244 255
227 244 255
227 244 255
227 244 255
227 244 255
227 244 255
227 244 255
227 244 255
227 244 255
227 244 255
227 244 255
227 244 255
227 244 255
227 244 255
227 244 255
227 244 255
227 244 255
227 244 255
239 255 255
227 244 255
227 244 255
227 244 255
227 244 255
227 244 255
227 244 255
227 244 255
227 244 255
227 244 255
227 244 255
227 244 255
227 244 255
227 244 255
227 244 255
227 244 255
227 244 255
227 244 255
227 244 255
227 244 255
227 244 255
227 244 255
227 244 255
227 244 255
227 244 255
227 244 255
227 244 255
227 244 255
227 244 255
227 244 255
227 244 255
227 244 255
227 244 255
227 244 255
227 244 255
227 244 255
227 244 255
239 255 255
227 244 255
227 244 255
227 244 255
227 244 255
227 244 255
227 244 255
227 244 255
227 244 255
227 244 255
227 244 255
227 244 255
227 244 255
227 244 255
227 244 255
227 244 255
227 244 255
227 244 255
227 244 255
227 244 255
227 244 255
227 244 255
227 244 255
227 244 255
227 244 255
227 244 255
227 244 255
227 244 255
227 244 255
227 244 255
227 244 255
227 244 255
227 244 255
227 244 255
227 244 255
227 244 255
227 244 255
239 255 255
227 244 255
227 244 255
227 244 255
227 244 255
227 244 255
227 244 255
227 244 255
227 244 255
227 244 255
227 244 255
227 244 255
227 244 255
227 244 255
227 244 255
227 244 255
227 244 255
227 244 255
227 244 255
227 244 255
227 244 255
227 244 255
227 244 255
227 244 255
227 244 255
227 244 255
227 244 255
227 244 255
227 244 255
227 244 255
227 244 255
227 244 255
227 244 255
227 244 255
227 244 255
227 244 255
227 244 255
239 255 255
227 244 255
227 244 255
227 244 255
227 244 255
227 244 255
227 244 255
227 244 255
227 244 255
227 244 255
227 244 255
227 244 255
227 244 255
227 244 255
227 244 255
227 244 255
227 244 255
227 244 255
227 244 255
227 244 255
227 244 255
227 244 255
227 244 255
227 244 255
227 244 255
227 244 255
227 244 255
227 244 255
227 244 255
227 244 255
227 244 255
227 244 255
227 244 255
227 244 255
227 244 255
227 244 255
227 244 255
239 255 255
227 244 255
227 244 255
227 244 255
227 244 255
227 244 255
227 244 255
227 244 255
227 244 255
227 244 255
227 244 255
227 244 255
227 244 255
227 244 255
227 244 255
227 244 255
227 244 255
227 244 255
227 244 255
227 244 255
227 244 255
227 244 255
227 244 255
227 244 255
227 244 255
227 244 255
227 244 255
227 244 255
227 244 255
227 244 255
227 244 255
227 244 255
227 244 255
227 244 255
227 244 255
227 244 255
227 244 255
239 255 255
227 244 255
227 244 255
227 244 255
227 244 255
227 244 255
227 244 255
227 244 255
227 244 255
227 244 255
227 244 255
227 244 255
227 244 255
227 244 255
227 244 255
227 244 255
227 244 255
227 244 255
227 244 255
227 244 255
227 244 255
227 244 255
227 244 255
227 244 255
227 244 255
227 244 255
227 244 255
227 244 255
227 244 255
227 244 255
227 244 255
227 244 255
227 244 255
227 244 255
227 244 255
227 244 255
227 244 255
239 255 255
227 244 255
227 244 255
227 244 255
227 244 255
227 244 255
227 244 255
227 244 255
227 244 255
227 244 255
227 244 255
227 244 255
227 244 255
227 244 255
227 244 255
227 244 255
227 244 255
227 244 255
227 244 255
227 244 255
227 244 255
227 244 255
227 244 255
227 244 255
227 244 255
227 244 255
227 244 255
227 244 255
227 244 255
227 244 255
227 244 255
227 244 255
227 244 255
227 244 255
227 244 255
227 244 255
227 244 255
239 255 255
227 244 255
227 244 255
227 244 255
227 244 255
227 244 255
227 244 255
227 244 255
227 244 255
227 244 255
227 244 255
227 244 255
227 244 255
227 244 255
227 244 255
227 244 255
227 244 255
227 244 255
227 244 255
227 244 255
227 244 255
227 244 255
227 244 255
239 255 255
227 244 255
227 244 255
227 244 255
227 244 255
227 244 255
227 244 255
227 244 255
227 244 255
227 244 255
227 244 255
227 244 255
227 244 255
227 244 255
227 244 255
227 244 255
227 244 255
227 244 255
227 244 255
227 244 255
227 244 255
227 244 255
227 244 255
227 244 255
227 244 255
227 244 255
227 244 255
227 244 255
227 244 255
227 244 255
227 244 255
227 244 255
227 244 255
227 244 255
227 244 255
227 244 255
227 244 255
239 255 255
227 244 255
227 244 255
227 244 255
227 244 255
227 244 255
227 244 255
227 244 255
227 244 255
227 244 255
227 244 255
227 244 255
227 244 255
227 244 255
227 244 255
227 244 255
227 244 255
227 244 255
227 244 255
227 244 255
227 244 255
227 244 255
227 244 255
227 244 255
227 244 255
227 244 255
227 244 255
227 244 255
227 244 255
227 244 255
227 244 255
227 244 255
227 244 255
227 244 255
227 244 255
227 244 255
227 244 255
239 255 255
227 244 255
227 244 255
227 244 255
227 244 255
227 244 255
227 244 255
227 244 255
227 244 255
227 244 255
227 244 255
227 244 255
227 244 255
227 244 255
227 244 255
227 244 255
227 244 255
227 244 255
227 244 255
227 244 255
227 244 255
227 244 255
227 244 255
227 244 255
227 244 255
227 244 255
227 244 255
227 244 255
227 244 255
227 244 255
227 244 255
227 244 255
227 244 255
227 244 255
227 244 255
227 244 255
227 244 255
239 255 255
227 244 255
227 244 255
227 244 255
227 244 255
227 244 255
227 244 255
227 244 255
227 244 255
227 244 255
227 244 255
227 244 255
227 244 255
227 244 255
227 244 255
227 244 255
227 244 255
227 244 255
227 244 255
227 244 255
227 244 255
227 244 255
227 244 255
227 244 255
227 244 255
227 244 255
227 244 255
227 244 255
227 244 255
227 244 255
227 244 255
227 244 255
227 244 255
227 244 255
227 244 255
227 244 255
227 244 255
239 255 255
227 244 255
227 244 255
227 244 255
227 244 255
227 244 255
227 244 255
227 244 255
227 244 255
227 244 255
227 244 255
227 244 255
227 244 255
227 244 255
227 244 255
227 244 255
227 244 255
227 244 255
227 244 255
227 244 255
227 244 255
227 244 255
227 244 255
227 244 255
227 244 255
227 244 255
227 244 255
227 244 255
227 244 255
227 244 255
227 244 255
227 244 255
227 244 255
227 244 255
227 244 255
227 244 255
227 244 255
239 255 255
227 244 255
227 244 255
227 244 255
227 244 255
227 244 255
227 244 255
227 244 255
227 244 255
227 244 255
227 244 255
227 244 255
227 244 255
227 244 255
227 244 255
227 244 255
227 244 255
227 244 255
227 244 255
227 244 255
227 244 255
227 244 255
227 244 255
227 244 255
227 244 255
227 244 255
227 244 255
227 244 255
227 244 255
227 244 255
227 244 255
227 244 255
227 244 255
227 244 255
227 244 255
227 244 255
227 244 255
239 255 255
227 244 255
227 244 255
227 244 255
227 244 255
227 244 255
227 244 255
227 244 255
227 244 255
227 244 255
227 244 255
227 244 255
227 244 255
227 244 255
227 244 255
227 244 255
227 244 255
227 244 255
227 244 255
227 244 255
227 244 255
227 244 255
227 244 255
227 244 255
227 244 255
227 244 255
227 244 255
227 244 255
227 244 255
227 244 255
227 244 255
227 244 255
227 244 255
227 244 255
227 244 255
227 244 255
227 244 255
239 255 255
227 244 255
227 244 255
227 244 255
227 244 255
227 244 255
227 244 255
227 244 255
227 244 255
227 244 255
227 244 255
227 244 255
227 244 255
227 244 255
227 244 255
227 244 255
227 244 255
227 244 255
227 244 255
227 244 255
227 244 255
227 244 255
227 244 255
227 244 255
227 244 255
227 244 255
227 244 255
227 244 255
227 244 255
227 244 255
227 244 255
227 244 255
227 244 255
227 244 255
227 244 255
227 244 255
227 244 255
239 255 255
227 244 255
227 244 255
227 244 255
227 244 255
227 244 255
227 244 255
227 244 255
227 244 255
227 244 255
227 244 255
227 244 255
227 244 255
227 244 255
227 244 255
227 244 255
227 244 255
227 244 255
227 244 255
227 244 255
227 244 255
227 244 255
227 244 255
239 255 255
227 244 255
227 244 255
227 244 255
227 244 255
227 244 255
227 244 255
227 244 255
227 244 255
227 244 255
227 244 255
227 244 255
227 244 255
227 244 255
227 244 255
227 244 255
227 244 255
227 244 255
227 244 255
227 244 255
227 244 255
227 244 255
227 244 255
227 244 255
227 244 255
227 244 255
227 244 255
227 244 255
227 244 255
227 244 255
227 244 255
227 244 255
227 244 255
227 244 255
227 244 255
227 244 255
227 244 255
239 255 255
227 244 255
227 244 255
227 244 255
227 244 255
227 244 255
227 244 255
227 244 255
227 244 255
227 244 255
227 244 255
227 244 255
227 244 255
227 244 255
227 244 255
227 244 255
227 244 255
227 244 255
227 244 255
227 244 255
227 244 255
227 244 255
227 244 255
227 244 255
227 244 255
227 244 255
227 244 255
227 244 255
227 244 255
227 244 255
227 244 255
227 244 255
227 244 255
227 244 255
227 244 255
227 244 255
227 244 255
239 255 255
227 244 255
227 244 255
227 244 255
227 244 255
227 244 255
227 244 255
227 244 255
227 244 255
227 244 255
227 244 255
227 244 255
227 244 255
227 244 255
227 244 255
227 244 255
227 244 255
227 244 255
227 244 255
227 244 255
227 244 255
227 244 255
227 244 255
227 244 255
227 244 255
227 244 255
227 244 255
227 244 255
227 244 255
227 244 255
227 244 255
227 244 255
227 244 255
227 244 255
227 244 255
227 244 255
227 244 255
239 255 255
227 244 255
227 244 255
227 244 255
227 244 255
227 244 255
227 244 255
227 244 255
227 244 255
227 244 255
227 244 255
227 244 255
227 244 255
227 244 255
227 244 255
227 244 255
227 244 255
227 244 255
227 244 255
227 244 255
227 244 255
227 244 255
227 244 255
227 244 255
227 244 255
227 244 255
227 244 255
227 244 255
227 244 255
227 244 255
227 244 255
227 244 255
227 244 255
227 244 255
227 244 255
227 244 255
227 244 255
239 255 255
227 244 255
227 244 255
227 244 255
227 244 255
227 244 255
227 244 255
227 244 255
227 244 255
227 244 255
227 244 255
227 244 255
227 244 255
227 244 255
227 244 255
227 244 255
227 244 255
227 244 255
227 244 255
227 244 255
227 244 255
227 244 255
227 244 255
227 244 255
227 244 255
227 244 255
227 244 255
227 244 255
227 244 255
227 244 255
227 244 255
227 244 255
227 244 255
227 244 255
227 244 255
227 244 255
227 244 255
239 255 255
227 244 255
227 244 255
227 244 255
227 244 255
227 244 255
227 244 255
227 244 255
227 244 255
227 244 255
227 244 255
227 244 255
227 244 255
227 244 255
227 244 255
227 244 255
227 244 255
227 244 255
227 244 255
227 244 255
227 244 255
227 244 255
227 244 255
227 244 255
227 244 255
227 244 255
227 244 255
227 244 255
227 244 255
227 244 255
227 244 255
227 244 255
227 244 255
227 244 255
227 244 255
227 244 255
227 244 255
239 255 255
227 244 255
227 244 255
227 244 255
227 244 255
227 244 255
227 244 255
227 244 255
227 244 255
227 244 255
227 244 255
227 244 255
227 244 255
227 244 255
227 244 255
227 244 255
227 244 255
227 244 255
227 244 255
227 244 255
227 244 255
227 244 255
227 244 255
227 244 255
227 244 255
227 244 255
227 244 255
227 244 255
227 244 255
227 244 255
227 244 255
227 244 255
227 244 255
227 244 255
227 244 255
227 244 255
227 244 255
239 255 255
227 244 255
227 244 255
227 244 255
227 244 255
227 244 255
227 244 255
227 244 255
227 244 255
227 244 255
227 244 255
227 244 255
227 244 255
227 244 255
227 244 255
227 244 255
227 244 255
227 244 255
227 244 255
227 244 255
227 244 255
227 244 255
227 244 255
227 244 255
227 244 255
227 244 255
227 244 255
227 244 255
227 244 255
227 244 255
227 244 255
227 244 255
227 244 255
227 244 255
227 244 255
227 244 255
227 244 255
239 255 255
227 244 255
227 244 255
227 244 255
227 244 255
227 244 255
227 244 255
227 244 255
227 244 255
227 244 255
227 244 255
227 244 255
227 244 255
227 244 255
227 244 255
227 244 255
227 244 255
227 244 255
227 244 255
227 244 255
227 244 255
227 244 255
227 244 255
227 244 255
227 244 255
227 244 255
227 244 255
227 244 255
227 244 255
227 244 255
227 244 255
227 244 255
227 244 255
227 244 255
227 244 255
227 244 255
227 244 255
227 244 255
227 244 255
227 244 255
227 244 255
227 244 255
227 244 255
227 244 255
227 244 255
227 244 255
227 244 255
227 244 255
227 244 255
227 244 255
227 244 255
227 244 255
227 244 255
227 244 255
227 244 255
227 244 255
227 244 255
227 244 255
227 244 255
227 244 255
239 255 255
227 244 255
227 244 255
227 244 255
227 244 255
227 244 255
227 244 255
227 244 255
227 244 255
227 244 255
227 244 255
227 244 255
227 244 255
227 244 255
227 244 255
227 244 255
227 244 255
227 244 255
227 244 255
227 244 255
227 244 255
227 244 255
227 244 255
227 244 255
227 244 255
227 244 255
227 244 255
227 244 255
227 244 255
227 244 255
227 244 255
227 244 255
227 244 255
227 244 255
227 244 255
227 244 255
227 244 255
239 255 255
227 244 255
227 244 255
227 244 255
227 244 255
227 244 255
227 244 255
227 244 255
227 244 255
227 244 255
227 244 255
227 244 255
227 244 255
227 244 255
227 244 255
227 244 255
227 244 255
227 244 255
227 244 255
227 244 255
227 244 255
227 244 255
227 244 255
227 244 255
227 244 255
227 244 255
227 244 255
227 244 255
227 244 255
227 244 255
227 244 255
227 244 255
227 244 255
227 244 255
227 244 255
227 244 255
227 244 255
239 255 255
227 244 255
227 244 255
227 244 255
227 244 255
227 244 255
227 244 255
227 244 255
227 244 255
227 244 255
227 244 255
227 244 255
227 244 255
227 244 255
227 244 255
227 244 255
227 244 255
227 244 255
227 244 255
227 244 255
227 244 255
227 244 255
227 244 255
227 244 255
227 244 255
227 244 255
227 244 255
227 244 255
227 244 255
227 244 255
227 244 255
227 244 255
227 244 255
227 244 255
227 244 255
227 244 255
227 244 255
239 255 255
227 244 255
227 244 255
227 244 255
227 244 255
227 244 255
227 244 255
227 244 255
227 244 255
227 244 255
227 244 255
227 244 255
227 244 255
227 244 255
227 244 255
227 244 255
227 244 255
227 244 255
227 244 255
227 244 255
227 244 255
227 244 255
227 244 255
227 244 255
227 244 255
227 244 255
227 244 255
227 244 255
227 244 255
227 244 255
227 244 255
227 244 255
227 244 255
227 244 255
227 244 255
227 244 255
227 244 255
239 255 255
227 244 255
227 244 255
227 244 255
227 244 255
227 244 255
227 244 255
227 244 255
227 244 255
227 244 255
227 244 255
227 244 255
227 244 255
227 244 255
227 244 255
227 244 255
227 244 255
227 244 255
227 244 255
227 244 255
227 244 255
227 244 255
227 244 255
227 244 255
227 244 255
227 244 255
227 244 255
227 244 255
227 244 255
227 244 255
227 244 255
227 244 255
227 244 255
227 244 255
227 244 255
227 244 255
227 244 255
239 255 255
227 244 255
227 244 255
227 244 255
227 244 255
227 244 255
227 244 255
227 244 255
227 244 255
227 244 255
227 244 255
227 244 255
227 244 255
227 244 255
227 244 255
227 244 255
227 244 255
227 244 255
227 244 255
227 244 255
227 244 255
227 244 255
227 244 255
227 244 255
227 244 255
227 244 255
227 244 255
227 244 255
227 244 255
227 244 255
227 244 255
227 244 255
227 244 255
227 244 255
227 244 255
227 244 255
227 244 255
239 255 255
227 244 255
227 244 255
227 244 255
227 244 255
227 244 255
227 244 255
227 244 255
227 244 255
227 244 255
227 244 255
227 244 255
227 244 255
227 244 255
227 244 255
227 244 255
227 244 255
227 244 255
227 244 255
227 244 255
227 244 255
227 244 255
227 244 255
227 244 255
227 244 255
227 244 255
227 244 255
227 244 255
227 244 255
227 244 255
227 244 255
227 244 255
227 244 255
227 244 255
227 244 255
227 244 255
227 244 255
239 255 255
227 244 255
227 244 255
227 244 255
227 244 255
227 244 255
227 244 255
227 244 255
227 244 255
227 244 255
227 244 255
227 244 255
227 244 255
227 244 255
227 244 255
227 244 255
227 244 255
227 244 255
227 244 255
227 244 255
227 244 255
227 244 255
227 244 255
227 244 255
227 244 255
227 244 255
227 244 255
227 244 255
227 244 255
227 244 255
227 244 255
227 244 255
227 244 255
227 244 255
227 244 255
227 244 255
227 244 255
227 244 255
227 244 255
227 244 255
227 244 255
227 244 255
227 244 255
227 244 255
227 244 255
227 244 255
227 244 255
227 244 255
227 244 255
227 244 255
227 244 255
227 244 255
227 244 255
227 244 255
227 244 255
227 244 255
227 244 255
227 244 255
227 244 255
227 244 255
239 255 255
227 244 255
227 244 255
227 244 255
227 244 255
227 244 255
227 244 255
227 244 255
227 244 255
227 244 255
227 244 255
227 244 255
227 244 255
227 244 255
227 244 255
227 244 255
227 244 255
227 244 255
227 244 255
227 244 255
227 244 255
227 244 255
227 244 255
227 244 255
227 244 255
227 244 255
227 244 255
227 244 255
227 244 255
227 244 255
227 244 255
227 244 255
227 244 255
227 244 255
227 244 255
227 244 255
227 244 255
239 255 255
227 244 255
227 244 255
227 244 255
227 244 255
227 244 255
227 244 255
227 244 255
227 244 255
227 244 255
227 244 255
227 244 255
227 244 255
227 244 255
227 244 255
227 244 255
227 244 255
227 244 255
227 244 255
227 244 255
227 244 255
227 244 255
227 244 255
227 244 255
227 244 255
227 244 255
227 244 255
227 244 255
227 244 255
227 244 255
227 244 255
227 244 255
227 244 255
227 244 255
227 244 255
227 244 255
227 244 255
239 255 255
227 244 255
227 244 255
227 244 255
227 244 255
227 244 255
227 244 255
227 244 255
227 244 255
227 244 255
227 244 255
227 244 255
227 244 255
227 244 255
227 244 255
227 244 255
227 244 255
227 244 255
227 244 255
227 244 255
227 244 255
227 244 255
227 244 255
227 244 255
227 244 255
227 244 255
227 244 255
227 244 255
227 244 255
227 244 255
227 244 255
227 244 255
227 244 255
227 244 255
227 244 255
227 244 255
227 244 255
239 255 255
227 244 255
227 244 255
227 244 255
227 244 255
227 244 255
227 244 255
227 244 255
227 244 255
227 244 255
227 244 255
227 244 255
227 244 255
227 244 255
227 244 255
227 244 255
227 244 255
227 244 255
227 244 255
227 244 255
227 244 255
227 244 255
227 244 255
227 244 255
227 244 255
227 244 255
227 244 255
227 244 255
227 244 255
227 244 255
227 244 255
227 244 255
227 244 255
227 244 255
227 244 255
227 244 255
227 244 255
239 255 255
227 244 255
227 244 255
227 244 255
227 244 255
227 244 255
227 244 255
227 244 255
227 244 255
227 244 255
227 244 255
227 244 255
227 244 255
227 244 255
227 244 255
227 244 255
227 244 255
227 244 255
227 244 255
227 244 255
227 244 255
227 244 255
227 244 255
227 244 255
227 244 255
227 244 255
227 244 255
227 244 255
227 244 255
227 244 255
227 244 255
227 244 255
227 244 255
227 244 255
227 244 255
227 244 255
227 244 255
239 255 255
227 244 255
227 244 255
227 244 255
227 244 255
227 244 255
227 244 255
227 244 255
227 244 255
227 244 255
227 244 255
227 244 255
227 244 255
227 244 255
227 244 255
227 244 255
227 244 255
227 244 255
227 244 255
227 244 255
227 244 255
227 244 255
227 244 255
227 244 255
227 244 255
227 244 255
227 244 255
227 244 255
227 244 255
227 244 255
227 244 255
227 244 255
227 244 255
227 244 255
227 244 255
227 244 255
227 244 255
239 255 255
227 244 255
227 244 255
227 244 255
227 244 255
227 244 255
227 244 255
227 244 255
227 244 255
227 244 255
227 244 255
227 244 255
227 244 255
227 244 255
227 244 255
227 244 255
227 244 255
227 244 255
227 244 255
227 244 255
227 244 255
227 244 255
227 244 255
227 244 255
227 244 255
227 244 255
227 244 255
227 244 255
227 244 255
227 244 255
227 244 255
227 244 255
227 244 255
227 244 255
227 244 255
227 244 255
227 244 255
239 255 255
227 244 255
227 244 255
227 244 255
227 244 255
227 244 255
227 244 255
227 244 255
227 244 255
227 244 255
227 244 255
227 244 255
227 244 255
227 244 255
227 244 255
227 244 255
227 244 255
227 244 255
227 244 255
227 244 255
227 244 255
227 244 255
227 244 255
227 244 255
227 244 255
227 244 255
227 244 255
227 244 255
227 244 255
227 244 255
227 244 255
227 244 255
227 244 255
227 244 255
227 244 255
227 244 255
227 244 255
227 244 255
227 244 255
227 244 255
227 244 255
227 244 255
227 244 255
227 244 255
227 244 255
227 244 255
227 244 255
227 244 255
227 244 255
227 244 255
227 244 255
227 244 255
227 244 255
227 244 255
227 244 255
227 244 255
227 244 255
227 244 255
227 244 255
227 244 255
239 255 255
227 244 255
227 244 255
227 244 255
227 244 255
227 244 255
227 244 255
227 244 255
227 244 255
227 244 255
227 244 255
227 244 255
227 244 255
227 244 255
227 244 255
227 244 255
227 244 255
227 244 255
227 244 255
227 244 255
227 244 255
227 244 255
227 244 255
227 244 255
227 244 255
227 244 255
227 244 255
227 244 255
227 244 255
227 244 255
227 244 255
227 244 255
227 244 255
227 244 255
227 244 255
227 244 255
227 244 255
239 255 255
227 244 255
227 244 255
227 244 255
227 244 255
227 244 255
227 244 255
227 244 255
227 244 255
227 244 255
227 244 255
227 244 255
227 244 255
227 244 255
227 244 255
227 244 255
227 244 255
227 244 255
227 244 255
227 244 255
227 244 255
227 244 255
227 244 255
227 244 255
227 244 255
227 244 255
227 244 255
227 244 255
227 244 255
227 244 255
227 244 255
227 244 255
227 244 255
227 244 255
227 244 255
227 244 255
227 244 255
239 255 255
227 244 255
227 244 255
227 244 255
227 244 255
227 244 255
227 244 255
227 244 255
227 244 255
227 244 255
227 244 255
227 244 255
227 244 255
227 244 255
227 244 255
227 244 255
227 244 255
227 244 255
227 244 255
227 244 255
227 244 255
227 244 255
227 244 255
227 244 255
227 244 255
227 244 255
227 244 255
227 244 255
227 244 255
227 244 255
227 244 255
227 244 255
227 244 255
227 244 255
227 244 255
227 244 255
227 244 255
239 255 255
227 244 255
227 244 255
227 244 255
227 244 255
227 244 255
227 244 255
227 244 255
227 244 255
227 244 255
227 244 255
227 244 255
227 244 255
227 244 255
227 244 255
227 244 255
227 244 255
227 244 255
227 244 255
227 244 255
227 244 255
227 244 255
227 244 255
227 244 255
227 244 255
227 244 255
227 244 255
227 244 255
227 244 255
227 244 255
227 244 255
227 244 255
227 244 255
227 244 255
227 244 255
227 244 255
227 244 255
239 255 255
227 244 255
227 244 255
227 244 255
227 244 255
227 244 255
227 244 255
227 244 255
227 244 255
227 244 255
227 244 255
227 244 255
227 244 255
227 244 255
227 244 255
227 244 255
227 244 255
227 244 255
227 244 255
227 244 255
227 244 255
227 244 255
227 244 255
227 244 255
227 244 255
227 244 255
227 244 255
227 244 255
227 244 255
227 244 255
227 244 255
227 244 255
227 244 255
227 244 255
227 244 255
227 244 255
227 244 255
239 255 255
227 244 255
227 244 255
227 244 255
227 244 255
227 244 255
227 244 255
227 244 255
227 244 255
227 244 255
227 244 255
227 244 255
227 244 255
227 244 255
227 244 255
227 244 255
227 244 255
227 244 255
227 244 255
227 244 255
227 244 255
227 244 255
227 244 255
227 244 255
227 244 255
227 244 255
227 244 255
227 244 255
227 244 255
227 244 255
227 244 255
227 244 255
227 244 255
227 244 255
227 244 255
227 244 255
227 244 255
239 255 255
227 244 255
227 244 255
227 244 255
227 244 255
227 244 255
227 244 255
227 244 255
227 244 255
227 244 255
227 244 255
227 244 255
227 244 255
227 244 255
227 244 255
227 244 255
227 244 255
227 244 255
227 244 255
227 244 255
227 244 255
227 244 255
227 244 255
227 244 255
227 244 255
227 244 255
227 244 255
227 244 255
227 244 255
227 244 255
227 244 255
227 244 255
227 244 255
227 244 255
227 244 255
227 244 255
227 244 255
239 255 255
227 244 255
227 244 255
227 244 255
227 244 255
227 244 255
227 244 255
227 244 255
227 244 255
227 244 255
227 244 255
227 244 255
227 244 255
227 244 255
227 244 255
227 244 255
227 244 255
227 244 255
227 244 255
227 244 255
227 244 255
227 244 255
227 244 255
227 244 255
227 244 255
227 244 255
227 244 255
227 244 255
227 244 255
227 244 255
227 244 255
227 244 255
227 244 255
227 244 255
227 244 255
227 244 255
227 244 255
227 244 255
227 244 255
227 244 255
227 244 255
227 244 255
227 244 255
227 244 255
227 244 255
227 244 255
227 244 255
227 244 255
227 244 255
227 244 255
227 244 255
227 244 255
227 244 255
227 244 255
227 244 255
227 244 255
227 244 255
227 244 255
227 244 255
227 244 255
239 255 255
227 244 255
227 244 255
227 244 255
227 244 255
227 244 255
227 244 255
227 244 255
227 244 255
227 244 255
227 244 255
227 244 255
227 244 255
227 244 255
227 244 255
227 244 255
227 244 255
227 244 255
227 244 255
227 244 255
227 244 255
227 244 255
227 244 255
227 244 255
227 244 255
227 244 255
227 244 255
227 244 255
227 244 255
227 244 255
227 244 255
227 244 255
227 244 255
227 244 255
227 244 255
227 244 255
227 244 255
239 255 255
227 244 255
227 244 255
227 244 255
227 244 255
227 244 255
227 244 255
227 244 255
227 244 255
227 244 255
227 244 255
227 244 255
227 244 255
227 244 255
227 244 255
227 244 255
227 244 255
227 244 255
227 244 255
227 244 255
227 244 255
227 244 255
227 244 255
227 244 255
227 244 255
227 244 255
227 244 255
227 244 255
227 244 255
227 244 255
227 244 255
227 244 255
227 244 255
227 244 255
227 244 255
227 244 255
227 244 255
239 255 255
227 244 255
227 244 255
227 244 255
227 244 255
227 244 255
227 244 255
227 244 255
227 244 255
227 244 255
227 244 255
227 244 255
227 244 255
227 244 255
227 244 255
227 244 255
227 244 255
227 244 255
227 244 255
227 244 255
227 244 255
227 244 255
227 244 255
227 244 255
227 244 255
227 244 255
227 244 255
227 244 255
227 244 255
227 244 255
227 244 255
227 244 255
227 244 255
227 244 255
227 244 255
227 244 255
227 244 255
239 255 255
227 244 255
227 244 255
227 244 255
227 244 255
227 244 255
227 244 255
227 244 255
227 244 255
227 244 255
227 244 255
227 244 255
227 244 255
227 244 255
227 244 255
227 244 255
227 244 255
227 244 255
227 244 255
227 244 255
227 244 255
227 244 255
227 244 255
227 244 255
227 244 255
227 244 255
227 244 255
227 244 255
227 244 255
227 244 255
227 244 255
227 244 255
227 244 255
227 244 255
227 244 255
227 244 255
227 244 255
239 255 255
227 244 255
227 244 255
227 244 255
227 244 255
227 244 255
227 244 255
227 244 255
227 244 255
227 244 255
227 244 255
227 244 255
227 244 255
227 244 255
227 244 255
227 244 255
227 244 255
227 244 255
227 244 255
227 244 255
227 244 255
227 244 255
227 244 255
227 244 255
227 244 255
227 244 255
227 244 255
227 244 255
227 244 255
227 244 255
227 244 255
227 244 255
227 244 255
227 244 255
227 244 255
227 244 255
227 244 255
239 255 255
227 244 255
227 244 255
227 244 255
227 244 255
227 244 255
227 244 255
227 244 255
227 244 255
227 244 255
227 244 255
227 244 255
227 244 255
227 244 255
227 244 255
227 244 255
227 244 255
227 244 255
227 244 255
227 244 255
227 244 255
227 244 255
227 244 255
227 244 255
227 244 255
227 244 255
227 244 255
227 244 255
227 244 255
227 244 255
227 244 255
227 244 255
227 244 255
227 244 255
227 244 255
227 244 255
227 244 255
239 255 255
227 244 255
227 244 255
227 244 255
227 244 255
227 244 255
227 244 255
227 244 255
227 244 255
227 244 255
227 244 255
227 244 255
227 244 255
227 244 255
227 244 255
227 244 255
227 244 255
227 244 255
227 244 255
227 244 255
227 244 255
227 244 255
227 244 255
227 244 255
227 244 255
227 244 255
227 244 255
227 244 255
227 244 255
227 244 255
227 244 255
227 244 255
227 244 255
227 244 255
227 244 255
227 244 255
227 244 255
239 255 255
227 244 255
227 244 255
227 244 255
227 244 255
227 244 255
227 244 255
227 244 255
227 244 255
227 244 255
227 244 255
227 244 255
227 244 255
227 244 255
227 244 255
227 244 255
227 244 255
227 244 255
227 244 255
227 244 255
227 244 255
227 244 255
227 244 255
227 244 255
227 244 255
227 244 255
227 244 255
227 244 255
227 244 255
227 244 255
227 244 255
227 244 255
227 244 255
227 244 255
227 244 255
227 244 255
227 244 255
227 244 255
227 244 255
227 244 255
227 244 255
227 244 255
227 244 255
227 244 255
227 244 255
227 244 255
227 244 255
227 244 255
227 244 255
227 244 255
227 244 255
227 244 255
227 244 255
227 244 255
227 244 255
227 244 255
227 244 255
227 244 255
227 244 255
227 244 255
239 255 255
227 244 255
227 244 255
227 244 255
227 244 255
227 244 255
227 244 255
227 244 255
227 244 255
227 244 255
227 244 255
227 244 255
227 244 255
227 244 255
227 244 255
227 244 255
227 244 255
227 244 255
227 244 255
227 244 255
227 244 255
227 244 255
227 244 255
227 244 255
227 244 255
227 244 255
227 244 255
227 244 255
227 244 255
227 244 255
227 244 255
227 244 255
227 244 255
227 244 255
227 244 255
227 244 255
227 244 255
239 255 255
227 244 255
227 244 255
227 244 255
227 244 255
227 244 255
227 244 255
227 244 255
227 244 255
227 244 255
227 244 255
227 244 255
227 244 255
227 244 255
227 244 255
227 244 255
227 244 255
227 244 255
227 244 255
227 244 255
227 244 255
227 244 255
227 244 255
227 244 255
227 244 255
227 244 255
227 244 255
227 244 255
227 244 255
227 244 255
227 244 255
227 244 255
227 244 255
227 244 255
227 244 255
227 244 255
227 244 255
239 255 255
227 244 255
227 244 255
227 244 255
227 244 255
227 244 255
227 244 255
227 244 255
227 244 255
227 244 255
227 244 255
227 244 255
227 244 255
227 244 255
227 244 255
227 244 255
227 244 255
227 244 255
227 244 255
227 244 255
227 244 255
227 244 255
227 244 255
227 244 255
227 244 255
227 244 255
227 244 255
227 244 255
227 244 255
227 244 255
227 244 255
227 244 255
227 244 255
227 244 255
227 244 255
227 244 255
227 244 255
239 255 255
227 244 255
227 244 255
227 244 255
227 244 255
227 244 255
227 244 255
227 244 255
227 244 255
227 244 255
227 244 255
227 244 255
227 244 255
227 244 255
227 244 255
227 244 255
227 244 255
227 244 255
227 244 255
227 244 255
227 244 255
227 244 255
227 244 255
227 244 255
227 244 255
227 244 255
227 244 255
227 244 255
227 244 255
227 244 255
227 244 255
227 244 255
227 244 255
227 244 255
227 244 255
227 244 255
227 244 255
239 255 255
227 244 255
227 244 255
227 244 255
227 244 255
227 244 255
227 244 255
227 244 255
227 244 255
227 244 255
227 244 255
227 244 255
227 244 255
227 244 255
227 244 255
227 244 255
227 244 255
227 244 255
227 244 255
227 244 255
227 244 255
227 244 255
227 244 255
227 244 255
227 244 255
227 244 255
227 244 255
227 244 255
227 244 255
227 244 255
227 244 255
227 244 255
227 244 255
227 244 255
227 244 255
227 244 255
227 244 255
239 255 255
227 244 255
227 244 255
227 244 255
227 244 255
227 244 255
227 244 255
227 244 255
227 244 255
227 244 255
227 244 255
227 244 255
227 244 255
227 244 255
227 244 255
227 244 255
227 244 255
227 244 255
227 244 255
227 244 255
227 244 255
227 244 255
227 244 255
227 244 255
227 244 255
227 244 255
227 244 255
227 244 255
227 244 255
227 244 255
227 244 255
227 244 255
227 244 255
227 244 255
227 244 255
227 244 255
227 244 255
239 255 255
227 244 255
227 244 255
227 244 255
227 244 255
227 244 255
227 244 255
227 244 255
227 244 255
227 244 255
227 244 255
227 244 255
227 244 255
227 244 255
227 244 255
227 244 255
227 244 255
227 244 255
227 244 255
227 244 255
227 244 255
227 244 255
227 244 255
227 244 255
227 244 255
227 244 255
227 244 255
227 244 255
227 244 255
227 244 255
227 244 255
227 244 255
227 244 255
227 244 255
227 244 255
227 244 255
227 244 255
239 255 255
227 244 255
227 244 255
227 244 255
227 244 255
227 244 255
227 244 255
227 244 255
227 244 255
227 244 255
227 244 255
227 244 255
227 244 255
227 244 255
227 244 255
227 244 255
227 244 255
227 244 255
227 244 255
227 244 255
227 244 255
227 244 255
227 244 255
227 244 255
227 244 255
227 244 255
227 244 255
227 244 255
227 244 255
206 230 255
206 230 255
206 230 255
206 230 255
206 230 255
206 230 255
206 230 255
206 230 255
206 230 255
206 230 255
206 230 255
206 230 255
206 230 255
206 230 255
206 230 255
206 230 255
206 230 255
206 230 255
206 230 255
206 230 255
206 230 255
206 230 255
206 230 255
206 230 255
206 230 255
206 230 255
206 230 255
206 230 255
206 230 255
206 230 255
206 230 255
218 242 255
206 230 255
206 230 255
206 230 255
206 230 255
206 230 255
206 230 255
206 230 255
206 230 255
206 230 255
206 230 255
206 230 255
206 230 255
206 230 255
206 230 255
206 230 255
206 230 255
206 230 255
206 230 255
206 230 255
206 230 255
206 230 255
206 230 255
206 230 255
206 230 255
206 230 255
206 230 255
206 230 255
206 230 255
206 230 255
206 230 255
206 230 255
206 230 255
206 230 255
206 230 255
206 230 255
206 230 255
218 242 255
206 230 255
206 230 255
206 230 255
206 230 255
206 230 255
206 230 255
206 230 255
206 230 255
206 230 255
206 230 255
206 230 255
206 230 255
206 230 255
206 230 255
206 230 255
206 230 255
206 230 255
206 230 255
206 230 255
206 230 255
206 230 255
206 230 255
206 230 255
206 230 255
206 230 255
206 230 255
206 230 255
206 230 255
206 230 255
206 230 255
206 230 255
206 230 255
206 230 255
206 230 255
206 230 255
206 230 255
218 242 255
206 230 255
206 230 255
206 230 255
206 230 255
206 230 255
206 230 255
206 230 255
206 230 255
206 230 255
206 230 255
206 230 255
206 230 255
206 230 255
206 230 255
206 230 255
206 230 255
206 230 255
206 230 255
206 230 255
206 230 255
206 230 255
206 230 255
206 230 255
206 230 255
206 230 255
206 230 255
206 230 255
206 230 255
206 230 255
206 230 255
206 230 255
206 230 255
206 230 255
206 230 255
206 230 255
206 230 255
218 242 255
206 230 255
206 230 255
206 230 255
206 230 255
206 230 255
206 230 255
206 230 255
206 230 255
206 230 255
206 230 255
206 230 255
206 230 255
206 230 255
206 230 255
206 230 255
206 230 255
206 230 255
206 230 255
206 230 255
206 230 255
206 230 255
206 230 255
206 230 255
206 230 255
206 230 255
206 230 255
206 230 255
206 230 255
206 230 255
206 230 255
206 230 255
206 230 255
206 230 255
206 230 255
206 230 255
206 230 255
218 242 255
206 230 255
206 230 255
206 230 255
206 230 255
206 230 255
206 230 255
206 230 255
206 230 255
206 230 255
206 230 255
206 230 255
206 230 255
206 230 255
206 230 255
206 230 255
206 230 255
206 230 255
206 230 255
206 230 255
206 230 255
206 230 255
206 230 255
206 230 255
206 230 255
206 230 255
206 230 255
206 230 255
206 230 255
206 230 255
206 230 255
206 230 255
206 230 255
206 230 255
206 230 255
206 230 255
206 230 255
218 242 255
206 230 255
206 230 255
206 230 255
206 230 255
206 230 255
206 230 255
206 230 255
206 230 255
206 230 255
206 230 255
206 230 255
206 230 255
206 230 255
206 230 255
206 230 255
206 230 255
206 230 255
206 230 255
206 230 255
206 230 255
206 230 255
206 230 255
206 230 255
206 230 255
206 230 255
206 230 255
206 230 255
206 230 255
206 230 255
206 230 255
206 230 255
206 230 255
206 230 255
206 230 255
206 230 255
206 230 255
218 242 255
206 230 255
206 230 255
206 230 255
206 230 255
206 230 255
206 230 255
206 230 255
206 230 255
206 230 255
206 230 255
206 230 255
206 230 255
206 230 255
206 230 255
206 230 255
206 230 255
206 230 255
206 230 255
206 230 255
206 230 255
206 230 255
206 230 255
206 230 255
206 230 255
206 230 255
206 230 255
206 230 255
206 230 255
206 230 255
206 230 255
206 230 255
206 230 255
206 230 255
206 230 255
206 230 255
206 230 255
218 242 255
206 230 255
206 230 255
206 230 255
206 230 255
206 230 255
206 230 255
206 230 255
206 230 255
206 230 255
206 230 255
206 230 255
206 230 255
206 230 255
206 230 255
206 230 255
206 230 255
206 230 255
206 230 255
206 230 255
206 230 255
206 230 255
206 230 255
206 230 255
206 230 255
206 230 255
206 230 255
206 230 255
206 230 255
206 230 255
206 230 255
206 230 255
206 230 255
206 230 255
206 230 255
206 230 255
206 230 255
206 230 255
206 230 255
206 230 255
206 230 255
206 230 255
206 230 255
206 230 255
206 230 255
206 230 255
206 230 255
206 230 255
206 230 255
206 230 255
206 230 255
206 230 255
206 230 255
206 230 255
206 230 255
206 230 255
206 230 255
206 230 255
206 230 255
206 230 255
218 242 255
206 230 255
206 230 255
206 230 255
206 230 255
206 230 255
206 230 255
206 230 255
206 230 255
206 230 255
206 230 255
206 230 255
206 230 255
206 230 255
206 230 255
206 230 255
206 230 255
206 230 255
206 230 255
206 230 255
206 230 255
206 230 255
206 230 255
206 230 255
206 230 255
206 230 255
206 230 255
206 230 255
206 230 255
206 230 255
206 230 255
206 230 255
206 230 255
206 230 255
206 230 255
206 230 255
206 230 255
218 242 255
206 230 255
206 230 255
206 230 255
206 230 255
206 230 255
206 230 255
206 230 255
206 230 255
206 230 255
206 230 255
206 230 255
206 230 255
206 230 255
206 230 255
206 230 255
206 230 255
206 230 255
206 230 255
206 230 255
206 230 255
206 230 255
206 230 255
206 230 255
206 230 255
206 230 255
206 230 255
206 230 255
206 230 255
206 230 255
206 230 255
206 230 255
206 230 255
206 230 255
206 230 255
206 230 255
206 230 255
218 242 255
206 230 255
206 230 255
206 230 255
206 230 255
206 230 255
206 230 255
206 230 255
206 230 255
206 230 255
206 230 255
206 230 255
206 230 255
206 230 255
206 230 255
206 230 255
206 230 255
206 230 255
206 230 255
206 230 255
206 230 255
206 230 255
206 230 255
206 230 255
206 230 255
206 230 255
206 230 255
206 230 255
206 230 255
206 230 255
206 230 255
206 230 255
206 230 255
206 230 255
206 230 255
206 230 255
206 230 255
218 242 255
206 230 255
206 230 255
206 230 255
206 230 255
206 230 255
206 230 255
206 230 255
206 230 255
206 230 255
206 230 255
206 230 255
206 230 255
206 230 255
206 230 255
206 230 255
206 230 255
206 230 255
206 230 255
206 230 255
206 230 255
206 230 255
206 230 255
206 230 255
206 230 255
206 230 255
206 230 255
206 230 255
206 230 255
206 230 255
206 230 255
206 230 255
206 230 255
206 230 255
206 230 255
206 230 255
206 230 255
218 242 255
206 230 255
206 230 255
206 230 255
206 230 255
206 230 255
206 230 255
206 230 255
206 230 255
206 230 255
206 230 255
206 230 255
206 230 255
206 230 255
206 230 255
206 230 255
206 230 255
206 230 255
206 230 255
206 230 255
206 230 255
206 230 255
206 230 255
206 230 255
206 230 255
206 230 255
206 230 255
206 230 255
206 230 255
206 230 255
206 230 255
206 230 255
206 230 255
206 230 255
206 230 255
206 230 255
206 230 255
218 242 255
206 230 255
206 230 255
206 230 255
206 230 255
206 230 255
206 230 255
206 230 255
206 230 255
206 230 255
206 230 255
206 230 255
206 230 255
206 230 255
206 230 255
206 230 255
206 230 255
206 230 255
206 230 255
206 230 255
206 230 255
206 230 255
206 230 255
206 230 255
206 230 255
206 230 255
206 230 255
206 230 255
206 230 255
206 230 255
206 230 255
206 230 255
206 230 255
206 230 255
206 230 255
206 230 255
206 230 255
218 242 255
206 230 255
206 230 255
206 230 255
206 230 255
206 230 255
206 230 255
206 230 255
206 230 255
206 230 255
206 230 255
206 230 255
206 230 255
206 230 255
206 230 255
206 230 255
206 230 255
206 230 255
206 230 255
206 230 255
206 230 255
206 230 255
206 230 255
206 230 255
206 230 255
206 230 255
206 230 255
206 230 255
206 230 255
206 230 255
206 230 255
206 230 255
206 230 255
206 230 255
206 230 255
206 230 255
206 230 255
218 242 255
206 230 255
206 230 255
206 230 255
206 230 255
206 230 255
206 230 255
206 230 255
206 230 255
206 230 255
206 230 255
206 230 255
206 230 255
206 230 255
206 230 255
206 230 255
206 230 255
206 230 255
206 230 255
206 230 255
206 230 255
206 230 255
206 230 255
206 230 255
206 230 255
206 230 255
206 230 255
206 230 255
206 230 255
206 230 255
206 230 255
206 230 255
206 230 255
206 230 255
206 230 255
206 230 255
206 230 255
206 230 255
206 230 255
206 230 255
206 230 255
206 230 255
206 230 255
206 230 255
206 230 255
206 230 255
206 230 255
206 230 255
206 230 255
206 230 255
206 230 255
206 230 255
206 230 255
206 230 255
206 230 255
206 230 255
206 230 255
206 230 255
206 230 255
206 230 255
218 242 255
206 230 255
206 230 255
206 230 255
206 230 255
206 230 255
206 230 255
206 230 255
206 230 255
206 230 255
206 230 255
206 230 255
206 230 255
206 230 255
206 230 255
206 230 255
206 230 255
206 230 255
206 230 255
206 230 255
206 230 255
206 230 255
206 230 255
206 230 255
206 230 255
206 230 255
206 230 255
206 230 255
206 230 255
206 230 255
206 230 255
206 230 255
206 230 255
206 230 255
206 230 255
206 230 255
206 230 255
218 242 255
206 230 255
206 230 255
206 230 255
206 230 255
206 230 255
206 230 255
206 230 255
206 230 255
206 230 255
206 230 255
206 230 255
206 230 255
206 230 255
206 230 255
206 230 255
206 230 255
206 230 255
206 230 255
206 230 255
206 230 255
206 230 255
206 230 255
206 230 255
206 230 255
206 230 255
206 230 255
206 230 255
206 230 255
206 230 255
206 230 255
206 230 255
206 230 255
206 230 255
206 230 255
206 230 255
206 230 255
218 242 255
206 230 255
206 230 255
206 230 255
206 230 255
206 230 255
206 230 255
206 230 255
206 230 255
206 230 255
206 230 255
206 230 255
206 230 255
206 230 255
206 230 255
206 230 255
206 230 255
206 230 255
206 230 255
206 230 255
206 230 255
206 230 255
206 230 255
206 230 255
206 230 255
206 230 255
206 230 255
206 230 255
206 230 255
206 230 255
206 230 255
206 230 255
206 230 255
206 230 255
206 230 255
206 230 255
206 230 255
218 242 255
206 230 255
206 230 255
206 230 255
206 230 255
206 230 255
206 230 255
206 230 255
206 230 255
206 230 255
206 230 255
206 230 255
206 230 255
206 230 255
206 230 255
206 230 255
206 230 255
206 230 255
206 230 255
206 230 255
206 230 255
206 230 255
206 230 255
206 230 255
206 230 255
206 230 255
206 230 255
206 230 255
206 230 255
206 230 255
206 230 255
206 230 255
206 230 255
206 230 255
206 230 255
206 230 255
206 230 255
218 242 255
206 230 255
206 230 255
206 230 255
206 230 255
206 230 255
206 230 255
206 230 255
206 230 255
206 230 255
206 230 255
206 230 255
206 230 255
206 230 255
206 230 255
206 230 255
206 230 255
206 230 255
206 230 255
206 230 255
206 230 255
206 230 255
206 230 255
206 230 255
206 230 255
206 230 255
206 230 255
206 230 255
206 230 255
206 230 255
206 230 255
206 230 255
206 230 255
206 230 255
206 230 255
206 230 255
206 230 255
218 242 255
206 230 255
206 230 255
206 230 255
206 230 255
206 230 255
206 230 255
206 230 255
206 230 255
206 230 255
206 230 255
206 230 255
206 230 255
206 230 255
206 230 255
206 230 255
206 230 255
206 230 255
206 230 255
206 230 255
206 230 255
206 230 255
206 230 255
206 230 255
206 230 255
206 230 255
206 230 255
206 230 255
206 230 255
206 230 255
206 230 255
206 230 255
206 230 255
206 230 255
206 230 255
206 230 255
206 230 255
218 242 255
206 230 255
206 230 255
206 230 255
206 230 255
206 230 255
206 230 255
206 230 255
206 230 255
206 230 255
206 230 255
206 230 255
206 230 255
206 230 255
206 230 255
206 230 255
206 230 255
206 230 255
206 230 255
206 230 255
206 230 255
206 230 255
206 230 255
206 230 255
206 230 255
206 230 255
206 230 255
206 230 255
206 230 255
206 230 255
206 230 255
206 230 255
206 230 255
206 230 255
206 230 255
206 230 255
206 230 255
218 242 255
206 230 255
206 230 255
206 230 255
206 230 255
206 230 255
206 230 255
206 230 255
206 230 255
206 230 255
206 230 255
206 230 255
206 230 255
206 230 255
206 230 255
206 230 255
206 230 255
206 230 255
206 230 255
206 230 255
206 230 255
206 230 255
206 230 255
206 230 255
206 230 255
206 230 255
206 230 255
206 230 255
206 230 255
206 230 255
206 230 255
206 230 255
206 230 255
206 230 255
206 230 255
206 230 255
206 230 255
206 230 255
206 230 255
206 230 255
206 230 255
206 230 255
206 230 255
206 230 255
206 230 255
206 230 255
206 230 255
206 230 255
206 230 255
206 230 255
206 230 255
206 230 255
206 230 255
206 230 255
206 230 255
206 230 255
206 230 255
206 230 255
206 230 255
206 230 255
218 242 255
206 230 255
206 230 255
206 230 255
206 230 255
206 230 255
206 230 255
206 230 255
206 230 255
206 230 255
206 230 255
206 230 255
206 230 255
206 230 255
206 230 255
206 230 255
206 230 255
206 230 255
206 230 255
206 230 255
206 230 255
206 230 255
206 230 255
206 230 255
206 230 255
206 230 255
206 230 255
206 230 255
206 230 255
206 230 255
206 230 255
206 230 255
206 230 255
206 230 255
206 230 255
206 230 255
206 230 255
218 242 255
206 230 255
206 230 255
206 230 255
206 230 255
206 230 255
206 230 255
206 230 255
206 230 255
206 230 255
206 230 255
206 230 255
206 230 255
206 230 255
206 230 255
206 230 255
206 230 255
206 230 255
206 230 255
206 230 255
206 230 255
206 230 255
206 230 255
206 230 255
206 230 255
206 230 255
206 230 255
206 230 255
206 230 255
206 230 255
206 230 255
206 230 255
206 230 255
206 230 255
206 230 255
206 230 255
206 230 255
218 242 255
206 230 255
206 230 255
206 230 255
206 230 255
206 230 255
206 230 255
206 230 255
206 230 255
206 230 255
206 230 255
206 230 255
206 230 255
206 230 255
206 230 255
206 230 255
206 230 255
206 230 255
206 230 255
206 230 255
206 230 255
206 230 255
206 230 255
206 230 255
206 230 255
206 230 255
206 230 255
206 230 255
206 230 255
206 230 255
206 230 255
206 230 255
206 230 255
206 230 255
206 230 255
206 230 255
206 230 255
218 242 255
206 230 255
206 230 255
206 230 255
206 230 255
206 230 255
206 230 255
206 230 255
206 230 255
206 230 255
206 230 255
206 230 255
206 230 255
206 230 255
206 230 255
206 230 255
206 230 255
206 230 255
206 230 255
206 230 255
206 230 255
206 230 255
206 230 255
206 230 255
206 230 255
206 230 255
206 230 255
206 230 255
206 230 255
206 230 255
206 230 255
206 230 255
206 230 255
206 230 255
206 230 255
206 230 255
206 230 255
218 242 255
206 230 255
206 230 255
206 230 255
206 230 255
206 230 255
206 230 255
206 230 255
206 230 255
206 230 255
206 230 255
206 230 255
206 230 255
206 230 255
206 230 255
206 230 255
206 230 255
206 230 255
206 230 255
206 230 255
206 230 255
206 230 255
206 230 255
206 230 255
206 230 255
206 230 255
206 230 255
206 230 255
206 230 255
206 230 255
206 230 255
206 230 255
206 230 255
206 230 255
206 230 255
206 230 255
206 230 255
218 242 255
206 230 255
206 230 255
206 230 255
206 230 255
206 230 255
206 230 255
206 230 255
206 230 255
206 230 255
206 230 255
206 230 255
206 230 255
206 230 255
206 230 255
206 230 255
206 230 255
206 230 255
206 230 255
206 230 255
206 230 255
206 230 255
206 230 255
206 230 255
206 230 255
206 230 255
206 230 255
206 230 255
206 230 255
206 230 255
206 230 255
206 230 255
206 230 255
206 230 255
206 230 255
206 230 255
206 230 255
218 242 255
206 230 255
206 230 255
206 230 255
206 230 255
206 230 255
206 230 255
206 230 255
206 230 255
206 230 255
206 230 255
206 230 255
206 230 255
206 230 255
206 230 255
206 230 255
206 230 255
206 230 255
206 230 255
206 230 255
206 230 255
206 230 255
206 230 255
206 230 255
206 230 255
206 230 255
206 230 255
206 230 255
206 230 255
206 230 255
206 230 255
206 230 255
206 230 255
206 230 255
206 230 255
206 230 255
206 230 255
218 242 255
206 230 255
206 230 255
206 230 255
206 230 255
206 230 255
206 230 255
206 230 255
206 230 255
206 230 255
206 230 255
206 230 255
206 230 255
206 230 255
206 230 255
206 230 255
206 230 255
206 230 255
206 230 255
206 230 255
206 230 255
206 230 255
206 230 255
206 230 255
206 230 255
206 230 255
206 230 255
206 230 255
206 230 255
206 230 255
206 230 255
206 230 255
206 230 255
206 230 255
206 230 255
206 230 255
206 230 255
206 230 255
206 230 255
206 230 255
206 230 255
206 230 255
206 230 255
206 230 255
206 230 255
206 230 255
206 230 255
206 230 255
206 230 255
206 230 255
206 230 255
206 230 255
206 230 255
206 230 255
206 230 255
206 230 255
206 230 255
206 230 255
206 230 255
206 230 255
218 242 255
206 230 255
206 230 255
206 230 255
206 230 255
206 230 255
206 230 255
206 230 255
206 230 255
206 230 255
206 230 255
206 230 255
206 230 255
206 230 255
206 230 255
206 230 255
206 230 255
206 230 255
206 230 255
206 230 255
206 230 255
206 230 255
206 230 255
206 230 255
206 230 255
206 230 255
206 230 255
206 230 255
206 230 255
206 230 255
206 230 255
206 230 255
206 230 255
206 230 255
206 230 255
206 230 255
206 230 255
218 242 255
206 230 255
206 230 255
206 230 255
206 230 255
206 230 255
206 230 255
206 230 255
206 230 255
206 230 255
206 230 255
206 230 255
206 230 255
206 230 255
206 230 255
206 230 255
206 230 255
206 230 255
206 230 255
206 230 255
206 230 255
206 230 255
206 230 255
206 230 255
206 230 255
206 230 255
206 230 255
206 230 255
206 230 255
206 230 255
206 230 255
206 230 255
206 230 255
206 230 255
206 230 255
206 230 255
206 230 255
218 242 255
206 230 255
206 230 255
206 230 255
206 230 255
206 230 255
206 230 255
206 230 255
206 230 255
206 230 255
206 230 255
206 230 255
206 230 255
206 230 255
206 230 255
206 230 255
206 230 255
206 230 255
206 230 255
206 230 255
206 230 255
206 230 255
206 230 255
206 230 255
206 230 255
206 230 255
206 230 255
206 230 255
206 230 255
206 230 255
206 230 255
206 230 255
206 230 255
206 230 255
206 230 255
206 230 255
206 230 255
218 242 255
206 230 255
206 230 255
206 230 255
206 230 255
206 230 255
206 230 255
206 230 255
206 230 255
206 230 255
206 230 255
206 230 255
206 230 255
206 230 255
206 230 255
206 230 255
206 230 255
206 230 255
206 230 255
206 230 255
206 230 255
206 230 255
206 230 255
206 230 255
206 230 255
206 230 255
206 230 255
206 230 255
206 230 255
206 230 255
206 230 255
206 230 255
206 230 255
206 230 255
206 230 255
206 230 255
206 230 255
218 242 255
206 230 255
206 230 255
206 230 255
206 230 255
206 230 255
206 230 255
206 230 255
206 230 255
206 230 255
206 230 255
206 230 255
206 230 255
206 230 255
206 230 255
206 230 255
206 230 255
206 230 255
206 230 255
206 230 255
206 230 255
206 230 255
206 230 255
206 230 255
206 230 255
206 230 255
206 230 255
206 230 255
206 230 255
206 230 255
206 230 255
206 230 255
206 230 255
206 230 255
206 230 255
206 230 255
206 230 255
218 242 255
206 230 255
206 230 255
206 230 255
206 230 255
206 230 255
206 230 255
206 230 255
206 230 255
206 230 255
206 230 255
206 230 255
206 230 255
206 230 255
206 230 255
206 230 255
206 230 255
206 230 255
206 230 255
206 230 255
206 230 255
206 230 255
206 230 255
206 230 255
206 230 255
206 230 255
206 230 255
206 230 255
206 230 255
206 230 255
206 230 255
206 230 255
206 230 255
206 230 255
206 230 255
206 230 255
206 230 255
218 242 255
206 230 255
206 230 255
206 230 255
206 230 255
206 230 255
206 230 255
206 230 255
206 230 255
206 230 255
206 230 255
206 230 255
206 230 255
206 230 255
206 230 255
206 230 255
206 230 255
206 230 255
206 230 255
206 230 255
206 230 255
206 230 255
206 230 255
206 230 255
206 230 255
206 230 255
206 230 255
206 230 255
206 230 255
206 230 255
206 230 255
206 230 255
206 230 255
206 230 255
206 230 255
206 230 255
206 230 255
218 242 255
206 230 255
206 230 255
206 230 255
206 230 255
206 230 255
206 230 255
206 230 255
206 230 255
206 230 255
206 230 255
206 230 255
206 230 255
206 230 255
206 230 255
206 230 255
206 230 255
206 230 255
206 230 255
206 230 255
206 230 255
206 230 255
206 230 255
206 230 255
206 230 255
206 230 255
206 230 255
206 230 255
206 230 255
206 230 255
206 230 255
206 230 255
206 230 255
206 230 255
206 230 255
206 230 255
206 230 255
206 230 255
206 230 255
206 230 255
206 230 255
206 230 255
206 230 255
206 230 255
206 230 255
206 230 255
206 230 255
206 230 255
206 230 255
206 230 255
206 230 255
206 230 255
206 230 255
206 230 255
206 230 255
206 230 255
206 230 255
206 230 255
206 230 255
206 230 255
218 242 255
206 230 255
206 230 255
206 230 255
206 230 255
206 230 255
206 230 255
206 230 255
206 230 255
206 230 255
206 230 255
206 230 255
206 230 255
206 230 255
206 230 255
206 230 255
206 230 255
206 230 255
206 230 255
206 230 255
206 230 255
206 230 255
206 230 255
206 230 255
206 230 255
206 230 255
206 230 255
206 230 255
206 230 255
206 230 255
206 230 255
206 230 255
206 230 255
206 230 255
206 230 255
206 230 255
206 230 255
218 242 255
206 230 255
206 230 255
206 230 255
206 230 255
206 230 255
206 230 255
206 230 255
206 230 255
206 230 255
206 230 255
206 230 255
206 230 255
206 230 255
206 230 255
206 230 255
206 230 255
206 230 255
206 230 255
206 230 255
206 230 255
206 230 255
206 230 255
206 230 255
206 230 255
206 230 255
206 230 255
206 230 255
206 230 255
206 230 255
206 230 255
206 230 255
206 230 255
206 230 255
206 230 255
206 230 255
206 230 255
218 242 255
206 230 255
206 230 255
206 230 255
206 230 255
206 230 255
206 230 255
206 230 255
206 230 255
206 230 255
206 230 255
206 230 255
206 230 255
206 230 255
206 230 255
206 230 255
206 230 255
206 230 255
206 230 255
206 230 255
206 230 255
206 230 255
206 230 255
206 230 255
206 230 255
206 230 255
206 230 255
206 230 255
206 230 255
206 230 255
206 230 255
206 230 255
206 230 255
206 230 255
206 230 255
206 230 255
206 230 255
218 242 255
206 230 255
206 230 255
206 230 255
206 230 255
206 230 255
206 230 255
206 230 255
206 230 255
206 230 255
206 230 255
206 230 255
206 230 255
206 230 255
206 230 255
206 230 255
206 230 255
206 230 255
206 230 255
206 230 255
206 230 255
206 230 255
206 230 255
206 230 255
206 230 255
206 230 255
206 230 255
206 230 255
206 230 255
206 230 255
206 230 255
206 230 255
206 230 255
206 230 255
206 230 255
206 230 255
206 230 255
218 242 255
206 230 255
206 230 255
206 230 255
206 230 255
206 230 255
206 230 255
206 230 255
206 230 255
206 230 255
206 230 255
206 230 255
206 230 255
206 230 255
206 230 255
206 230 255
206 230 255
206 230 255
206 230 255
206 230 255
206 230 255
206 230 255
206 230 255
206 230 255
206 230 255
206 230 255
206 230 255
206 230 255
206 230 255
206 230 255
206 230 255
206 230 255
206 230 255
206 230 255
206 230 255
206 230 255
206 230 255
218 242 255
206 230 255
206 230 255
206 230 255
206 230 255
206 230 255
206 230 255
206 230 255
206 230 255
206 230 255
206 230 255
206 230 255
206 230 255
206 230 255
206 230 255
206 230 255
206 230 255
206 230 255
206 230 255
206 230 255
206 230 255
206 230 255
206 230 255
206 230 255
206 230 255
206 230 255
206 230 255
206 230 255
206 230 255
206 230 255
206 230 255
206 230 255
206 230 255
206 230 255
206 230 255
206 230 255
206 230 255
218 242 255
206 230 255
206 230 255
206 230 255
206 230 255
206 230 255
206 230 255
206 230 255
206 230 255
206 230 255
206 230 255
206 230 255
206 230 255
206 230 255
206 230 255
206 230 255
206 230 255
206 230 255
206 230 255
206 230 255
206 230 255
206 230 255
206 230 255
206 230 255
206 230 255
206 230 255
206 230 255
206 230 255
206 230 255
206 230 255
206 230 255
206 230 255
206 230 255
206 230 255
206 230 255
206 230 255
206 230 255
218 242 255
206 230 255
206 230 255
206 230 255
206 230 255
206 230 255
206 230 255
206 230 255
206 230 255
206 230 255
206 230 255
206 230 255
206 230 255
206 230 255
206 230 255
206 230 255
206 230 255
206 230 255
206 230 255
206 230 255
206 230 255
206 230 255
206 230 255
206 230 255
206 230 255
206 230 255
206 230 255
206 230 255
206 230 255
206 230 255
206 230 255
206 230 255
206 230 255
206 230 255
206 230 255
206 230 255
206 230 255
206 230 255
206 230 255
206 230 255
206 230 255
206 230 255
206 230 255
206 230 255
206 230 255
206 230 255
206 230 255
206 230 255
206 230 255
206 230 255
206 230 255
206 230 255
206 230 255
206 230 255
206 230 255
206 230 255
206 230 255
206 230 255
206 230 255
206 230 255
218 242 255
206 230 255
206 230 255
206 230 255
206 230 255
206 230 255
206 230 255
206 230 255
206 230 255
206 230 255
206 230 255
206 230 255
206 230 255
206 230 255
206 230 255
206 230 255
206 230 255
206 230 255
206 230 255
206 230 255
206 230 255
206 230 255
206 230 255
206 230 255
206 230 255
206 230 255
206 230 255
206 230 255
206 230 255
206 230 255
206 230 255
206 230 255
206 230 255
206 230 255
206 230 255
206 230 255
206 230 255
218 242 255
206 230 255
206 230 255
206 230 255
206 230 255
206 230 255
206 230 255
206 230 255
206 230 255
206 230 255
206 230 255
206 230 255
206 230 255
206 230 255
206 230 255
206 230 255
206 230 255
206 230 255
206 230 255
206 230 255
206 230 255
206 230 255
206 230 255
206 230 255
206 230 255
206 230 255
206 230 255
206 230 255
206 230 255
206 230 255
206 230 255
206 230 255
206 230 255
206 230 255
206 230 255
206 230 255
206 230 255
218 242 255
206 230 255
206 230 255
206 230 255
206 230 255
206 230 255
206 230 255
206 230 255
206 230 255
206 230 255
206 230 255
206 230 255
206 230 255
206 230 255
206 230 255
206 230 255
206 230 255
206 230 255
206 230 255
206 230 255
206 230 255
206 230 255
206 230 255
206 230 255
206 230 255
206 230 255
206 230 255
206 230 255
206 230 255
206 230 255
206 230 255
206 230 255
206 230 255
206 230 255
206 230 255
206 230 255
206 230 255
218 242 255
206 230 255
206 230 255
206 230 255
206 230 255
206 230 255
206 230 255
206 230 255
206 230 255
206 230 255
206 230 255
206 230 255
206 230 255
206 230 255
206 230 255
206 230 255
206 230 255
206 230 255
206 230 255
206 230 255
206 230 255
206 230 255
206 230 255
206 230 255
206 230 255
206 230 255
206 230 255
206 230 255
206 230 255
206 230 255
206 230 255
206 230 255
206 230 255
206 230 255
206 230 255
206 230 255
206 230 255
218 242 255
206 230 255
206 230 255
206 230 255
206 230 255
206 230 255
206 230 255
206 230 255
206 230 255
206 230 255
206 230 255
206 230 255
206 230 255
206 230 255
206 230 255
206 230 255
206 230 255
206 230 255
206 230 255
206 230 255
206 230 255
206 230 255
206 230 255
206 230 255
206 230 255
206 230 255
206 230 255
206 230 255
206 230 255
206 230 255
206 230 255
206 230 255
206 230 255
206 230 255
206 230 255
206 230 255
206 230 255
218 242 255
206 230 255
206 230 255
206 230 255
206 230 255
206 230 255
206 230 255
206 230 255
206 230 255
206 230 255
206 230 255
206 230 255
206 230 255
206 230 255
206 230 255
206 230 255
206 230 255
206 230 255
206 230 255
206 230 255
206 230 255
206 230 255
206 230 255
206 230 255
206 230 255
206 230 255
206 230 255
206 230 255
206 230 255
206 230 255
206 230 255
206 230 255
206 230 255
206 230 255
206 230 255
206 230 255
206 230 255
218 242 255
206 230 255
206 230 255
206 230 255
206 230 255
206 230 255
206 230 255
206 230 255
206 230 255
206 230 255
206 230 255
206 230 255
206 230 255
206 230 255
206 230 255
206 230 255
206 230 255
206 230 255
206 230 255
206 230 255
206 230 255
206 230 255
206 230 255
206 230 255
206 230 255
206 230 255
206 230 255
206 230 255
206 230 255
206 230 255
206 230 255
206 230 255
206 230 255
206 230 255
206 230 255
206 230 255
206 230 255
218 242 255
206 230 255
206 230 255
206 230 255
206 230 255
206 230 255
206 230 255
206 230 255
206 230 255
206 230 255
206 230 255
206 230 255
206 230 255
206 230 255
206 230 255
206 230 255
206 230 255
206 230 255
206 230 255
206 230 255
206 230 255
206 230 255
206 230 255
206 230 255
206 230 255
206 230 255
206 230 255
206 230 255
206 230 255
206 230 255
206 230 255
206 230 255
206 230 255
206 230 255
206 230 255
206 230 255
206 230 255
206 230 255
206 230 255
206 230 255
206 230 255
206 230 255
206 230 255
206 230 255
206 230 255
206 230 255
206 230 255
206 230 255
206 230 255
206 230 255
206 230 255
206 230 255
206 230 255
206 230 255
206 230 255
206 230 255
206 230 255
206 230 255
206 230 255
206 230 255
218 242 255
206 230 255
206 230 255
206 230 255
206 230 255
206 230 255
206 230 255
206 230 255
206 230 255
206 230 255
206 230 255
206 230 255
206 230 255
206 230 255
206 230 255
206 230 255
206 230 255
206 230 255
206 230 255
206 230 255
206 230 255
206 230 255
206 230 255
206 230 255
206 230 255
206 230 255
206 230 255
206 230 255
206 230 255
206 230 255
206 230 255
206 230 255
206 230 255
206 230 255
206 230 255
206 230 255
206 230 255
218 242 255
206 230 255
206 230 255
206 230 255
206 230 255
206 230 255
206 230 255
206 230 255
206 230 255
206 230 255
206 230 255
206 230 255
206 230 255
206 230 255
206 230 255
206 230 255
206 230 255
206 230 255
206 230 255
206 230 255
206 230 255
206 230 255
206 230 255
206 230 255
206 230 255
206 230 255
206 230 255
206 230 255
206 230 255
206 230 255
206 230 255
206 230 255
206 230 255
206 230 255
206 230 255
206 230 255
206 230 255
218 242 255
206 230 255
206 230 255
206 230 255
206 230 255
206 230 255
206 230 255
206 230 255
206 230 255
206 230 255
206 230 255
206 230 255
206 230 255
206 230 255
206 230 255
206 230 255
206 230 255
206 230 255
206 230 255
206 230 255
206 230 255
206 230 255
206 230 255
206 230 255
206 230 255
206 230 255
206 230 255
206 230 255
206 230 255
206 230 255
206 230 255
206 230 255
206 230 255
206 230 255
206 230 255
206 230 255
206 230 255
218 242 255
206 230 255
206 230 255
206 230 255
206 230 255
206 230 255
206 230 255
206 230 255
206 230 255
206 230 255
206 230 255
206 230 255
206 230 255
206 230 255
206 230 255
206 230 255
206 230 255
206 230 255
206 230 255
206 230 255
206 230 255
206 230 255
206 230 255
206 230 255
206 230 255
206 230 255
206 230 255
206 230 255
206 230 255
206 230 255
206 230 255
206 230 255
206 230 255
206 230 255
206 230 255
206 230 255
206 230 255
218 242 255
206 230 255
206 230 255
206 230 255
206 230 255
206 230 255
206 230 255
206 230 255
206 230 255
206 230 255
206 230 255
206 230 255
206 230 255
206 230 255
206 230 255
206 230 255
206 230 255
206 230 255
206 230 255
206 230 255
206 230 255
206 230 255
206 230 255
206 230 255
206 230 255
206 230 255
206 230 255
206 230 255
206 230 255
206 230 255
206 230 255
206 230 255
206 230 255
206 230 255
206 230 255
206 230 255
206 230 255
218 242 255
206 230 255
206 230 255
206 230 255
206 230 255
206 230 255
206 230 255
206 230 255
206 230 255
206 230 255
206 230 255
206 230 255
206 230 255
206 230 255
206 230 255
206 230 255
206 230 255
206 230 255
206 230 255
206 230 255
206 230 255
206 230 255
206 230 255
206 230 255
206 230 255
206 230 255
206 230 255
206 230 255
206 230 255
206 230 255
206 230 255
206 230 255
206 230 255
206 230 255
206 230 255
206 230 255
206 230 255
218 242 255
206 230 255
206 230 255
206 230 255
206 230 255
206 230 255
206 230 255
206 230 255
206 230 255
206 230 255
206 230 255
206 230 255
206 230 255
206 230 255
206 230 255
206 230 255
206 230 255
206 230 255
206 230 255
206 230 255
206 230 255
206 230 255
206 230 255
206 230 255
206 230 255
206 230 255
206 230 255
206 230 255
206 230 255
206 230 255
206 230 255
206 230 255
206 230 255
206 230 255
206 230 255
206 230 255
206 230 255
218 242 255
206 230 255
206 230 255
206 230 255
206 230 255
206 230 255
206 230 255
206 230 255
206 230 255
206 230 255
206 230 255
206 230 255
206 230 255
206 230 255
206 230 255
206 230 255
206 230 255
206 230 255
206 230 255
206 230 255
206 230 255
206 230 255
206 230 255
206 230 255
206 230 255
206 230 255
206 230 255
206 230 255
206 230 255
206 230 255
206 230 255
206 230 255
206 230 255
206 230 255
206 230 255
206 230 255
206 230 255
206 230 255
206 230 255
206 230 255
206 230 255
206 230 255
206 230 255
206 230 255
206 230 255
206 230 255
206 230 255
206 230 255
206 230 255
206 230 255
206 230 255
206 230 255
206 230 255
206 230 255
206 230 255
206 230 255
206 230 255
206 230 255
206 230 255
206 230 255
218 242 255
206 230 255
206 230 255
206 230 255
206 230 255
206 230 255
206 230 255
206 230 255
206 230 255
206 230 255
206 230 255
206 230 255
206 230 255
206 230 255
206 230 255
206 230 255
206 230 255
206 230 255
206 230 255
206 230 255
206 230 255
206 230 255
206 230 255
206 230 255
206 230 255
206 230 255
206 230 255
206 230 255
206 230 255
206 230 255
206 230 255
206 230 255
206 230 255
206 230 255
206 230 255
206 230 255
206 230 255
218 242 255
206 230 255
206 230 255
206 230 255
206 230 255
206 230 255
206 230 255
206 230 255
206 230 255
206 230 255
206 230 255
206 230 255
206 230 255
206 230 255
206 230 255
206 230 255
206 230 255
206 230 255
206 230 255
206 230 255
206 230 255
206 230 255
206 230 255
206 230 255
206 230 255
206 230 255
206 230 255
206 230 255
206 230 255
206 230 255
206 230 255
206 230 255
206 230 255
206 230 255
206 230 255
206 230 255
206 230 255
218 242 255
206 230 255
206 230 255
206 230 255
206 230 255
206 230 255
206 230 255
206 230 255
206 230 255
206 230 255
206 230 255
206 230 255
206 230 255
206 230 255
206 230 255
206 230 255
206 230 255
206 230 255
206 230 255
206 230 255
206 230 255
206 230 255
206 230 255
206 230 255
206 230 255
206 230 255
206 230 255
206 230 255
206 230 255
206 230 255
206 230 255
206 230 255
206 230 255
206 230 255
206 230 255
206 230 255
206 230 255
218 242 255
206 230 255
206 230 255
206 230 255
206 230 255
206 230 255
206 230 255
206 230 255
206 230 255
206 230 255
206 230 255
206 230 255
206 230 255
206 230 255
206 230 255
206 230 255
206 230 255
206 230 255
206 230 255
206 230 255
206 230 255
206 230 255
206 230 255
206 230 255
206 230 255
206 230 255
206 230 255
206 230 255
206 230 255
206 230 255
206 230 255
206 230 255
206 230 255
206 230 255
206 230 255
206 230 255
206 230 255
218 242 255
206 230 255
206 230 255
206 230 255
206 230 255
206 230 255
206 230 255
206 230 255
206 230 255
206 230 255
206 230 255
206 230 255
206 230 255
206 230 255
206 230 255
206 230 255
206 230 255
206 230 255
206 230 255
206 230 255
206 230 255
206 230 255
206 230 255
206 230 255
206 230 255
206 230 255
206 230 255
206 230 255
206 230 255
206 230 255
206 230 255
206 230 255
206 230 255
206 230 255
206 230 255
206 230 255
206 230 255
218 242 255
206 230 255
206 230 255
206 230 255
206 230 255
206 230 255
206 230 255
206 230 255
206 230 255
206 230 255
206 230 255
206 230 255
206 230 255
206 230 255
206 230 255
206 230 255
206 230 255
206 230 255
206 230 255
206 230 255
206 230 255
206 230 255
206 230 255
206 230 255
206 230 255
206 230 255
206 230 255
206 230 255
206 230 255
206 230 255
206 230 255
206 230 255
206 230 255
206 230 255
206 230 255
206 230 255
206 230 255
218 242 255
206 230 255
206 230 255
206 230 255
206 230 255
206 230 255
206 230 255
206 230 255
206 230 255
206 230 255
206 230 255
206 230 255
206 230 255
206 230 255
206 230 255
206 230 255
206 230 255
206 230 255
206 230 255
206 230 255
206 230 255
206 230 255
206 230 255
206 230 255
206 230 255
206 230 255
206 230 255
206 230 255
206 230 255
206 230 255
206 230 255
206 230 255
206 230 255
206 230 255
206 230 255
206 230 255
206 230 255
218 242 255
206 230 255
206 230 255
206 230 255
206 230 255
206 230 255
206 230 255
206 230 255
206 230 255
206 230 255
206 230 255
206 230 255
206 230 255
206 230 255
206 230 255
206 230 255
206 230 255
206 230 255
206 230 255
206 230 255
206 230 255
206 230 255
206 230 255
206 230 255
206 230 255
206 230 255
206 230 255
206 230 255
206 230 255
206 230 255
206 230 255
206 230 255
206 230 255
206 230 255
206 230 255
206 230 255
206 230 255
218 242 255
206 230 255
206 230 255
206 230 255
206 230 255
206 230 255
206 230 255
206 230 255
206 230 255
206 230 255
206 230 255
206 230 255
206 230 255
206 230 255
206 230 255
206 230 255
206 230 255
206 230 255
206 230 255
206 230 255
206 230 255
206 230 255
206 230 255
218 242 255
206 230 255
206 230 255
206 230 255
206 230 255
206 230 255
206 230 255
206 230 255
206 230 255
206 230 255
206 230 255
206 230 255
206 230 255
206 230 255
206 230 255
206 230 255
206 230 255
206 230 255
206 230 255
206 230 255
206 230 255
206 230 255
206 230 255
206 230 255
206 230 255
206 230 255
206 230 255
206 230 255
206 230 255
206 230 255
206 230 255
206 230 255
206 230 255
206 230 255
206 230 255
206 230 255
206 230 255
218 242 255
206 230 255
206 230 255
206 230 255
206 230 255
206 230 255
206 230 255
206 230 255
206 230 255
206 230 255
206 230 255
206 230 255
206 230 255
206 230 255
206 230 255
206 230 255
206 230 255
206 230 255
206 230 255
206 230 255
206 230 255
206 230 255
206 230 255
206 230 255
206 230 255
206 230 255
206 230 255
206 230 255
206 230 255
206 230 255
206 230 255
206 230 255
206 230 255
206 230 255
206 230 255
206 230 255
206 230 255
218 242 255
206 230 255
206 230 255
206 230 255
206 230 255
206 230 255
206 230 255
206 230 255
206 230 255
206 230 255
206 230 255
206 230 255
206 230 255
206 230 255
206 230 255
206 230 255
206 230 255
206 230 255
206 230 255
206 230 255
206 230 255
206 230 255
206 230 255
206 230 255
206 230 255
206 230 255
206 230 255
206 230 255
206 230 255
206 230 255
206 230 255
206 230 255
206 230 255
206 230 255
206 230 255
206 230 255
206 230 255
218 242 255
206 230 255
206 230 255
206 230 255
206 230 255
206 230 255
206 230 255
206 230 255
206 230 255
206 230 255
206 230 255
206 230 255
206 230 255
206 230 255
206 230 255
206 230 255
206 230 255
206 230 255
206 230 255
206 230 255
206 230 255
206 230 255
206 230 255
206 230 255
206 230 255
206 230 255
206 230 255
206 230 255
206 230 255
206 230 255
206 230 255
206 230 255
206 230 255
206 230 255
206 230 255
206 230 255
206 230 255
218 242 255
206 230 255
206 230 255
206 230 255
206 230 255
206 230 255
206 230 255
206 230 255
206 230 255
206 230 255
206 230 255
206 230 255
206 230 255
206 230 255
206 230 255
206 230 255
206 230 255
206 230 255
206 230 255
206 230 255
206 230 255
206 230 255
206 230 255
206 230 255
206 230 255
206 230 255
206 230 255
206 230 255
206 230 255
206 230 255
206 230 255
206 230 255
206 230 255
206 230 255
206 230 255
206 230 255
206 230 255
218 242 255
206 230 255
206 230 255
206 230 255
206 230 255
206 230 255
206 230 255
206 230 255
206 230 255
206 230 255
206 230 255
206 230 255
206 230 255
206 230 255
206 230 255
206 230 255
206 230 255
206 230 255
206 230 255
206 230 255
206 230 255
206 230 255
206 230 255
206 230 255
206 230 255
206 230 255
206 230 255
206 230 255
206 230 255
206 230 255
206 230 255
206 230 255
206 230 255
206 230 255
206 230 255
206 230 255
206 230 255
218 242 255
206 230 255
206 230 255
206 230 255
206 230 255
206 230 255
206 230 255
206 230 255
206 230 255
206 230 255
206 230 255
206 230 255
206 230 255
206 230 255
206 230 255
206 230 255
206 230 255
206 230 255
206 230 255
206 230 255
206 230 255
206 230 255
206 230 255
206 230 255
206 230 255
206 230 255
206 230 255
206 230 255
206 230 255
206 230 255
206 230 255
206 230 255
206 230 255
206 230 255
206 230 255
206 230 255
206 230 255
218 242 255
206 230 255
206 230 255
206 230 255
206 230 255
206 230 255
206 230 255
206 230 255
206 230 255
206 230 255
206 230 255
206 230 255
206 230 255
206 230 255
206 230 255
206 230 255
206 230 255
206 230 255
206 230 255
206 230 255
206 230 255
206 230 255
206 230 255
206 230 255
206 230 255
206 230 255
206 230 255
206 230 255
206 230 255
206 230 255
206 230 255
206 230 255
206 230 255
206 230 255
206 230 255
206 230 255
206 230 255
218 242 255
206 230 255
206 230 255
206 230 255
206 230 255
206 230 255
206 230 255
206 230 255
206 230 255
206 230 255
206 230 255
206 230 255
206 230 255
206 230 255
206 230 255
206 230 255
206 230 255
206 230 255
206 230 255
206 230 255
206 230 255
206 230 255
206 230 255
218 242 255
206 230 255
206 230 255
206 230 255
206 230 255
206 230 255
206 230 255
206 230 255
206 230 255
206 230 255
206 230 255
206 230 255
206 230 255
206 230 255
206 230 255
206 230 255
206 230 255
206 230 255
206 230 255
206 230 255
206 230 255
206 230 255
206 230 255
206 230 255
206 230 255
206 230 255
206 230 255
206 230 255
206 230 255
206 230 255
206 230 255
206 230 255
206 230 255
206 230 255
206 230 255
206 230 255
206 230 255
218 242 255
206 230 255
206 230 255
206 230 255
206 230 255
206 230 255
206 230 255
206 230 255
206 230 255
206 230 255
206 230 255
206 230 255
206 230 255
206 230 255
206 230 255
206 230 255
206 230 255
206 230 255
206 230 255
206 230 255
206 230 255
206 230 255
206 230 255
206 230 255
206 230 255
206 230 255
206 230 255
206 230 255
206 230 255
206 230 255
206 230 255
206 230 255
206 230 255
206 230 255
206 230 255
206 230 255
206 230 255
218 242 255
206 230 255
206 230 255
206 230 255
206 230 255
206 230 255
206 230 255
206 230 255
206 230 255
206 230 255
206 230 255
206 230 255
206 230 255
206 230 255
206 230 255
206 230 255
206 230 255
206 230 255
206 230 255
206 230 255
206 230 255
206 230 255
206 230 255
206 230 255
206 230 255
206 230 255
206 230 255
206 230 255
206 230 255
206 230 255
206 230 255
206 230 255
206 230 255
206 230 255
206 230 255
206 230 255
206 230 255
218 242 255
206 230 255
206 230 255
206 230 255
206 230 255
206 230 255
206 230 255
206 230 255
206 230 255
206 230 255
206 230 255
206 230 255
206 230 255
206 230 255
206 230 255
206 230 255
206 230 255
206 230 255
206 230 255
206 230 255
206 230 255
206 230 255
206 230 255
206 230 255
206 230 255
206 230 255
206 230 255
206 230 255
206 230 255
206 230 255
206 230 255
206 230 255
206 230 255
206 230 255
206 230 255
206 230 255
206 230 255
218 242 255
206 230 255
206 230 255
206 230 255
206 230 255
206 230 255
206 230 255
206 230 255
206 230 255
206 230 255
206 230 255
206 230 255
206 230 255
206 230 255
206 230 255
206 230 255
206 230 255
206 230 255
206 230 255
206 230 255
206 230 255
206 230 255
206 230 255
206 230 255
206 230 255
206 230 255
206 230 255
206 230 255
206 230 255
206 230 255
206 230 255
206 230 255
206 230 255
206 230 255
206 230 255
206 230 255
206 230 255
218 242 255
206 230 255
206 230 255
206 230 255
206 230 255
206 230 255
206 230 255
206 230 255
206 230 255
206 230 255
206 230 255
206 230 255
206 230 255
206 230 255
206 230 255
206 230 255
206 230 255
206 230 255
206 230 255
206 230 255
206 230 255
206 230 255
206 230 255
206 230 255
206 230 255
206 230 255
206 230 255
206 230 255
206 230 255
206 230 255
206 230 255
206 230 255
206 230 255
206 230 255
206 230 255
206 230 255
206 230 255
218 242 255
206 230 255
206 230 255
206 230 255
206 230 255
206 230 255
206 230 255
206 230 255
206 230 255
206 230 255
206 230 255
206 230 255
206 230 255
206 230 255
206 230 255
206 230 255
206 230 255
206 230 255
206 230 255
206 230 255
206 230 255
206 230 255
206 230 255
206 230 255
206 230 255
206 230 255
206 230 255
206 230 255
206 230 255
206 230 255
206 230 255
206 230 255
206 230 255
206 230 255
206 230 255
206 230 255
206 230 255
218 242 255
206 230 255
206 230 255
206 230 255
206 230 255
206 230 255
206 230 255
206 230 255
206 230 255
206 230 255
206 230 255
206 230 255
206 230 255
206 230 255
206 230 255
206 230 255
206 230 255
206 230 255
206 230 255
206 230 255
206 230 255
206 230 255
206 230 255
206 230 255
206 230 255
206 230 255
206 230 255
206 230 255
206 230 255
206 230 255
206 230 255
206 230 255
206 230 255
206 230 255
206 230 255
206 230 255
206 230 255
218 242 255
206 230 255
206 230 255
206 230 255
206 230 255
206 230 255
206 230 255
206 230 255
206 230 255
206 230 255
206 230 255
206 230 255
206 230 255
206 230 255
206 230 255
206 230 255
206 230 255
206 230 255
206 230 255
206 230 255
206 230 255
206 230 255
206 230 255
218 242 255
206 230 255
206 230 255
206 230 255
206 230 255
206 230 255
206 230 255
206 230 255
206 230 255
206 230 255
206 230 255
206 230 255
206 230 255
206 230 255
206 230 255
206 230 255
206 230 255
206 230 255
206 230 255
206 230 255
206 230 255
206 230 255
206 230 255
206 230 255
206 230 255
206 230 255
206 230 255
206 230 255
206 230 255
206 230 255
206 230 255
206 230 255
206 230 255
206 230 255
206 230 255
206 230 255
206 230 255
218 242 255
206 230 255
206 230 255
206 230 255
206 230 255
206 230 255
206 230 255
206 230 255
206 230 255
206 230 255
206 230 255
206 230 255
206 230 255
206 230 255
206 230 255
206 230 255
206 230 255
206 230 255
206 230 255
206 230 255
206 230 255
206 230 255
206 230 255
206 230 255
206 230 255
206 230 255
206 230 255
206 230 255
206 230 255
206 230 255
206 230 255
206 230 255
206 230 255
206 230 255
206 230 255
206 230 255
206 230 255
218 242 255
206 230 255
206 230 255
206 230 255
206 230 255
206 230 255
206 230 255
206 230 255
206 230 255
206 230 255
206 230 255
206 230 255
206 230 255
206 230 255
206 230 255
206 230 255
206 230 255
206 230 255
206 230 255
206 230 255
206 230 255
206 230 255
206 230 255
206 230 255
206 230 255
206 230 255
206 230 255
206 230 255
206 230 255
206 230 255
206 230 255
206 230 255
206 230 255
206 230 255
206 230 255
206 230 255
206 230 255
218 242 255
206 230 255
206 230 255
206 230 255
206 230 255
206 230 255
206 230 255
206 230 255
206 230 255
206 230 255
206 230 255
206 230 255
206 230 255
206 230 255
206 230 255
206 230 255
206 230 255
206 230 255
206 230 255
206 230 255
206 230 255
206 230 255
206 230 255
206 230 255
206 230 255
206 230 255
206 230 255
206 230 255
206 230 255
206 230 255
206 230 255
206 230 255
206 230 255
206 230 255
206 230 255
206 230 255
206 230 255
218 242 255
206 230 255
206 230 255
206 230 255
206 230 255
206 230 255
206 230 255
206 230 255
206 230 255
206 230 255
206 230 255
206 230 255
206 230 255
206 230 255
206 230 255
206 230 255
206 230 255
206 230 255
206 230 255
206 230 255
206 230 255
206 230 255
206 230 255
206 230 255
206 230 255
206 230 255
206 230 255
206 230 255
206 230 255
206 230 255
206 230 255
206 230 255
206 230 255
206 230 255
206 230 255
206 230 255
206 230 255
218 242 255
206 230 255
206 230 255
206 230 255
206 230 255
206 230 255
206 230 255
206 230 255
206 230 255
206 230 255
206 230 255
206 230 255
206 230 255
206 230 255
206 230 255
206 230 255
206 230 255
206 230 255
206 230 255
206 230 255
206 230 255
206 230 255
206 230 255
206 230 255
206 230 255
206 230 255
206 230 255
206 230 255
206 230 255
206 230 255
206 230 255
206 230 255
206 230 255
206 230 255
206 230 255
206 230 255
206 230 255
218 242 255
206 230 255
206 230 255
206 230 255
206 230 255
206 230 255
206 230 255
206 230 255
206 230 255
206 230 255
206 230 255
206 230 255
206 230 255
206 230 255
206 230 255
206 230 255
206 230 255
206 230 255
206 230 255
206 230 255
206 230 255
206 230 255
206 230 255
206 230 255
206 230 255
206 230 255
206 230 255
206 230 255
206 230 255
206 230 255
206 230 255
206 230 255
206 230 255
206 230 255
206 230 255
206 230 255
206 230 255
218 242 255
206 230 255
206 230 255
206 230 255
206 230 255
206 230 255
206 230 255
206 230 255
206 230 255
206 230 255
206 230 255
206 230 255
206 230 255
206 230 255
206 230 255
206 230 255
206 230 255
206 230 255
206 230 255
206 230 255
206 230 255
206 230 255
206 230 255
206 230 255
206 230 255
206 230 255
206 230 255
206 230 255
206 230 255
206 230 255
206 230 255
206 230 255
206 230 255
206 230 255
206 230 255
206 230 255
206 230 255
218 242 255
206 230 255
206 230 255
206 230 255
206 230 255
206 230 255
206 230 255
206 230 255
206 230 255
206 230 255
206 230 255
206 230 255
206 230 255
206 230 255
206 230 255
206 230 255
206 230 255
206 230 255
206 230 255
206 230 255
206 230 255
206 230 255
206 230 255
218 242 255
206 230 255
206 230 255
206 230 255
206 230 255
206 230 255
206 230 255
206 230 255
206 230 255
206 230 255
206 230 255
206 230 255
206 230 255
206 230 255
206 230 255
206 230 255
206 230 255
206 230 255
206 230 255
206 230 255
206 230 255
206 230 255
206 230 255
206 230 255
206 230 255
206 230 255
206 230 255
206 230 255
206 230 255
206 230 255
206 230 255
206 230 255
206 230 255
206 230 255
206 230 255
206 230 255
206 230 255
218 242 255
206 230 255
206 230 255
206 230 255
206 230 255
206 230 255
206 230 255
206 230 255
206 230 255
206 230 255
206 230 255
206 230 255
206 230 255
206 230 255
206 230 255
206 230 255
206 230 255
206 230 255
206 230 255
206 230 255
206 230 255
206 230 255
206 230 255
206 230 255
206 230 255
206 230 255
206 230 255
206 230 255
206 230 255
206 230 255
206 230 255
206 230 255
206 230 255
206 230 255
206 230 255
206 230 255
206 230 255
218 242 255
206 230 255
206 230 255
206 230 255
206 230 255
206 230 255
206 230 255
206 230 255
206 230 255
206 230 255
206 230 255
206 230 255
206 230 255
206 230 255
206 230 255
206 230 255
206 230 255
206 230 255
206 230 255
206 230 255
206 230 255
206 230 255
206 230 255
206 230 255
206 230 255
206 230 255
206 230 255
206 230 255
206 230 255
206 230 255
206 230 255
206 230 255
206 230 255
206 230 255
206 230 255
206 230 255
206 230 255
218 242 255
206 230 255
206 230 255
206 230 255
206 230 255
206 230 255
206 230 255
206 230 255
206 230 255
206 230 255
206 230 255
206 230 255
206 230 255
206 230 255
206 230 255
206 230 255
206 230 255
206 230 255
206 230 255
206 230 255
206 230 255
206 230 255
206 230 255
206 230 255
206 230 255
206 230 255
206 230 255
206 230 255
206 230 255
206 230 255
206 230 255
206 230 255
206 230 255
206 230 255
206 230 255
206 230 255
206 230 255
218 242 255
206 230 255
206 230 255
206 230 255
206 230 255
206 230 255
206 230 255
206 230 255
206 230 255
206 230 255
206 230 255
206 230 255
206 230 255
206 230 255
206 230 255
206 230 255
206 230 255
206 230 255
206 230 255
206 230 255
206 230 255
206 230 255
206 230 255
206 230 255
206 230 255
206 230 255
206 230 255
206 230 255
206 230 255
206 230 255
206 230 255
206 230 255
206 230 255
206 230 255
206 230 255
206 230 255
206 230 255
218 242 255
206 230 255
206 230 255
206 230 255
206 230 255
206 230 255
206 230 255
206 230 255
206 230 255
206 230 255
206 230 255
206 230 255
206 230 255
206 230 255
206 230 255
206 230 255
206 230 255
206 230 255
206 230 255
206 230 255
206 230 255
206 230 255
206 230 255
206 230 255
206 230 255
206 230 255
206 230 255
206 230 255
206 230 255
206 230 255
206 230 255
206 230 255
206 230 255
206 230 255
206 230 255
206 230 255
206 230 255
218 242 255
206 230 255
206 230 255
206 230 255
206 230 255
206 230 255
206 230 255
206 230 255
206 230 255
206 230 255
206 230 255
206 230 255
206 230 255
206 230 255
206 230 255
206 230 255
206 230 255
206 230 255
206 230 255
206 230 255
206 230 255
206 230 255
206 230 255
206 230 255
206 230 255
206 230 255
206 230 255
206 230 255
206 230 255
206 230 255
206 230 255
206 230 255
206 230 255
206 230 255
206 230 255
206 230 255
206 230 255
218 242 255
206 230 255
206 230 255
206 230 255
206 230 255
206 230 255
206 230 255
206 230 255
206 230 255
206 230 255
206 230 255
206 230 255
206 230 255
206 230 255
206 230 255
206 230 255
206 230 255
206 230 255
206 230 255
206 230 255
206 230 255
206 230 255
206 230 255
206 230 255
206 230 255
206 230 255
206 230 255
206 230 255
206 230 255
206 230 255
206 230 255
206 230 255
206 230 255
206 230 255
206 230 255
206 230 255
206 230 255
218 242 255
206 230 255
206 230 255
206 230 255
206 230 255
206 230 255
206 230 255
206 230 255
206 230 255
206 230 255
206 230 255
206 230 255
206 230 255
206 230 255
206 230 255
206 230 255
206 230 255
206 230 255
206 230 255
206 230 255
206 230 255
206 230 255
206 230 255
218 242 255
206 230 255
206 230 255
206 230 255
206 230 255
206 230 255
206 230 255
206 230 255
206 230 255
206 230 255
206 230 255
206 230 255
206 230 255
206 230 255
206 230 255
206 230 255
206 230 255
206 230 255
206 230 255
206 230 255
206 230 255
206 230 255
206 230 255
206 230 255
206 230 255
206 230 255
206 230 255
206 230 255
206 230 255
206 230 255
206 230 255
206 230 255
206 230 255
206 230 255
206 230 255
206 230 255
206 230 255
218 242 255
206 230 255
206 230 255
206 230 255
206 230 255
206 230 255
206 230 255
206 230 255
206 230 255
206 230 255
206 230 255
206 230 255
206 230 255
206 230 255
206 230 255
206 230 255
206 230 255
206 230 255
206 230 255
206 230 255
206 230 255
206 230 255
206 230 255
206 230 255
206 230 255
206 230 255
206 230 255
206 230 255
206 230 255
206 230 255
206 230 255
206 230 255
206 230 255
206 230 255
206 230 255
206 230 255
206 230 255
218 242 255
206 230 255
206 230 255
206 230 255
206 230 255
206 230 255
206 230 255
206 230 255
206 230 255
206 230 255
206 230 255
206 230 255
206 230 255
206 230 255
206 230 255
206 230 255
206 230 255
206 230 255
206 230 255
206 230 255
206 230 255
206 230 255
206 230 255
206 230 255
206 230 255
206 230 255
206 230 255
206 230 255
206 230 255
206 230 255
206 230 255
206 230 255
206 230 255
206 230 255
206 230 255
206 230 255
206 230 255
218 242 255
206 230 255
206 230 255
206 230 255
206 230 255
206 230 255
206 230 255
206 230 255
206 230 255
206 230 255
206 230 255
206 230 255
206 230 255
206 230 255
206 230 255
206 230 255
206 230 255
206 230 255
206 230 255
206 230 255
206 230 255
206 230 255
206 230 255
206 230 255
206 230 255
206 230 255
206 230 255
206 230 255
206 230 255
206 230 255
206 230 255
206 230 255
206 230 255
206 230 255
206 230 255
206 230 255
206 230 255
218 242 255
206 230 255
206 230 255
206 230 255
206 230 255
206 230 255
206 230 255
206 230 255
206 230 255
206 230 255
206 230 255
206 230 255
206 230 255
206 230 255
206 230 255
206 230 255
206 230 255
206 230 255
206 230 255
206 230 255
206 230 255
206 230 255
206 230 255
206 230 255
206 230 255
206 230 255
206 230 255
206 230 255
206 230 255
206 230 255
206 230 255
206 230 255
206 230 255
206 230 255
206 230 255
206 230 255
206 230 255
218 242 255
206 230 255
206 230 255
206 230 255
206 230 255
206 230 255
206 230 255
206 230 255
206 230 255
206 230 255
206 230 255
206 230 255
206 230 255
206 230 255
206 230 255
206 230 255
206 230 255
206 230 255
206 230 255
206 230 255
206 230 255
206 230 255
206 230 255
206 230 255
206 230 255
206 230 255
206 230 255
206 230 255
206 230 255
206 230 255
206 230 255
206 230 255
206 230 255
206 230 255
206 230 255
206 230 255
206 230 255
218 242 255
206 230 255
206 230 255
206 230 255
206 230 255
206 230 255
206 230 255
206 230 255
206 230 255
206 230 255
206 230 255
206 230 255
206 230 255
206 230 255
206 230 255
206 230 255
206 230 255
206 230 255
206 230 255
206 230 255
206 230 255
206 230 255
206 230 255
206 230 255
206 230 255
206 230 255
206 230 255
206 230 255
206 230 255
206 230 255
206 230 255
206 230 255
206 230 255
206 230 255
206 230 255
206 230 255
206 230 255
218 242 255
206 230 255
206 230 255
206 230 255
206 230 255
206 230 255
206 230 255
206 230 255
206 230 255
206 230 255
206 230 255
206 230 255
206 230 255
206 230 255
206 230 255
206 230 255
206 230 255
206 230 255
206 230 255
206 230 255
206 230 255
206 230 255
206 230 255
206 230 255
206 230 255
206 230 255
206 230 255
206 230 255
206 230 255
206 230 255
206 230 255
206 230 255
206 230 255
206 230 255
206 230 255
206 230 255
206 230 255
218 242 255
206 230 255
206 230 255
206 230 255
206 230 255
206 230 255
206 230 255
206 230 255
206 230 255
206 230 255
206 230 255
206 230 255
206 230 255
206 230 255
206 230 255
206 230 255
206 230 255
206 230 255
206 230 255
206 230 255
206 230 255
206 230 255
206 230 255
218 242 255
206 230 255
206 230 255
206 230 255
206 230 255
206 230 255
206 230 255
206 230 255
206 230 255
206 230 255
206 230 255
206 230 255
206 230 255
206 230 255
206 230 255
206 230 255
206 230 255
206 230 255
206 230 255
206 230 255
206 230 255
206 230 255
206 230 255
206 230 255
206 230 255
206 230 255
206 230 255
206 230 255
206 230 255
206 230 255
206 230 255
206 230 255
206 230 255
206 230 255
206 230 255
206 230 255
206 230 255
218 242 255
206 230 255
206 230 255
206 230 255
206 230 255
206 230 255
206 230 255
206 230 255
206 230 255
206 230 255
206 230 255
206 230 255
206 230 255
206 230 255
206 230 255
206 230 255
206 230 255
206 230 255
206 230 255
206 230 255
206 230 255
206 230 255
206 230 255
206 230 255
206 230 255
206 230 255
206 230 255
206 230 255
206 230 255
206 230 255
206 230 255
206 230 255
206 230 255
206 230 255
206 230 255
206 230 255
206 230 255
218 242 255
206 230 255
206 230 255
206 230 255
206 230 255
206 230 255
206 230 255
206 230 255
206 230 255
206 230 255
206 230 255
206 230 255
206 230 255
206 230 255
206 230 255
206 230 255
206 230 255
206 230 255
206 230 255
206 230 255
206 230 255
206 230 255
206 230 255
206 230 255
206 230 255
206 230 255
206 230 255
206 230 255
206 230 255
206 230 255
206 230 255
206 230 255
206 230 255
206 230 255
206 230 255
206 230 255
206 230 255
218 242 255
206 230 255
206 230 255
206 230 255
206 230 255
206 230 255
206 230 255
206 230 255
206 230 255
206 230 255
206 230 255
206 230 255
206 230 255
206 230 255
206 230 255
206 230 255
206 230 255
206 230 255
206 230 255
206 230 255
206 230 255
206 230 255
206 230 255
206 230 255
206 230 255
206 230 255
206 230 255
206 230 255
206 230 255
206 230 255
206 230 255
206 230 255
206 230 255
206 230 255
206 230 255
206 230 255
206 230 255
218 242 255
206 230 255
206 230 255
206 230 255
206 230 255
206 230 255
206 230 255
206 230 255
206 230 255
206 230 255
206 230 255
206 230 255
206 230 255
206 230 255
206 230 255
206 230 255
206 230 255
206 230 255
206 230 255
206 230 255
206 230 255
206 230 255
206 230 255
206 230 255
206 230 255
206 230 255
206 230 255
206 230 255
206 230 255
206 230 255
206 230 255
206 230 255
206 230 255
206 230 255
206 230 255
206 230 255
206 230 255
218 242 255
206 230 255
206 230 255
206 230 255
206 230 255
206 230 255
206 230 255
206 230 255
206 230 255
206 230 255
206 230 255
206 230 255
206 230 255
206 230 255
206 230 255
206 230 255
206 230 255
206 230 255
206 230 255
206 230 255
206 230 255
206 230 255
206 230 255
206 230 255
206 230 255
206 230 255
206 230 255
206 230 255
206 230 255
206 230 255
206 230 255
206 230 255
206 230 255
206 230 255
206 230 255
206 230 255
206 230 255
218 242 255
206 230 255
206 230 255
206 230 255
206 230 255
206 230 255
206 230 255
206 230 255
206 230 255
206 230 255
206 230 255
206 230 255
206 230 255
206 230 255
206 230 255
206 230 255
206 230 255
206 230 255
206 230 255
206 230 255
206 230 255
206 230 255
206 230 255
206 230 255
206 230 255
206 230 255
206 230 255
206 230 255
206 230 255
206 230 255
206 230 255
206 230 255
206 230 255
206 230 255
206 230 255
206 230 255
206 230 255
218 242 255
206 230 255
206 230 255
206 230 255
206 230 255
206 230 255
206 230 255
206 230 255
206 230 255
206 230 255
206 230 255
206 230 255
206 230 255
206 230 255
206 230 255
206 230 255
206 230 255
206 230 255
206 230 255
206 230 255
206 230 255
206 230 255
206 230 255
206 230 255
206 230 255
206 230 255
206 230 255
206 230 255
206 230 255
206 230 255
206 230 255
206 230 255
206 230 255
206 230 255
206 230 255
206 230 255
206 230 255
218 242 255
206 230 255
206 230 255
206 230 255
206 230 255
206 230 255
206 230 255
206 230 255
206 230 255
206 230 255
206 230 255
206 230 255
206 230 255
206 230 255
206 230 255
206 230 255
206 230 255
206 230 255
206 230 255
206 230 255
206 230 255
206 230 255
206 230 255
218 242 255
206 230 255
206 230 255
206 230 255
206 230 255
206 230 255
206 230 255
206 230 255
206 230 255
206 230 255
206 230 255
206 230 255
206 230 255
206 230 255
206 230 255
206 230 255
206 230 255
206 230 255
206 230 255
206 230 255
206 230 255
206 230 255
206 230 255
206 230 255
206 230 255
206 230 255
206 230 255
206 230 255
206 230 255
206 230 255
206 230 255
206 230 255
206 230 255
206 230 255
206 230 255
206 230 255
206 230 255
218 242 255
206 230 255
206 230 255
206 230 255
206 230 255
206 230 255
206 230 255
206 230 255
206 230 255
206 230 255
206 230 255
206 230 255
206 230 255
206 230 255
206 230 255
206 230 255
206 230 255
206 230 255
206 230 255
206 230 255
206 230 255
206 230 255
206 230 255
206 230 255
206 230 255
206 230 255
206 230 255
206 230 255
206 230 255
206 230 255
206 230 255
206 230 255
206 230 255
206 230 255
206 230 255
206 230 255
206 230 255
218 242 255
206 230 255
206 230 255
206 230 255
206 230 255
206 230 255
206 230 255
206 230 255
206 230 255
206 230 255
206 230 255
206 230 255
206 230 255
206 230 255
206 230 255
206 230 255
206 230 255
206 230 255
206 230 255
206 230 255
206 230 255
206 230 255
206 230 255
206 230 255
206 230 255
206 230 255
206 230 255
206 230 255
206 230 255
206 230 255
206 230 255
206 230 255
206 230 255
206 230 255
206 230 255
206 230 255
206 230 255
218 242 255
206 230 255
206 230 255
206 230 255
206 230 255
206 230 255
206 230 255
206 230 255
206 230 255
206 230 255
206 230 255
206 230 255
206 230 255
206 230 255
206 230 255
206 230 255
206 230 255
206 230 255
206 230 255
206 230 255
206 230 255
206 230 255
206 230 255
206 230 255
206 230 255
206 230 255
206 230 255
206 230 255
206 230 255
206 230 255
206 230 255
206 230 255
206 230 255
206 230 255
206 230 255
206 230 255
206 230 255
218 242 255
206 230 255
206 230 255
206 230 255
206 230 255
206 230 255
206 230 255
206 230 255
206 230 255
206 230 255
206 230 255
206 230 255
206 230 255
206 230 255
206 230 255
206 230 255
206 230 255
206 230 255
206 230 255
206 230 255
206 230 255
206 230 255
206 230 255
206 230 255
206 230 255
206 230 255
206 230 255
206 230 255
206 230 255
206 230 255
206 230 255
206 230 255
206 230 255
206 230 255
206 230 255
206 230 255
206 230 255
218 242 255
206 230 255
206 230 255
206 230 255
206 230 255
206 230 255
206 230 255
206 230 255
206 230 255
206 230 255
206 230 255
206 230 255
206 230 255
206 230 255
206 230 255
206 230 255
206 230 255
206 230 255
206 230 255
206 230 255
206 230 255
206 230 255
206 230 255
206 230 255
206 230 255
206 230 255
206 230 255
206 230 255
206 230 255
206 230 255
206 230 255
206 230 255
206 230 255
206 230 255
206 230 255
206 230 255
206 230 255
218 242 255
206 230 255
206 230 255
206 230 255
206 230 255
206 230 255
206 230 255
206 230 255
206 230 255
206 230 255
206 230 255
206 230 255
206 230 255
206 230 255
206 230 255
206 230 255
206 230 255
206 230 255
206 230 255
206 230 255
206 230 255
206 230 255
206 230 255
206 230 255
206 230 255
206 230 255
206 230 255
206 230 255
206 230 255
206 230 255
206 230 255
206 230 255
206 230 255
206 230 255
206 230 255
206 230 255
206 230 255
218 242 255
206 230 255
206 230 255
206 230 255
206 230 255
206 230 255
206 230 255
206 230 255
206 230 255
206 230 255
206 230 255
206 230 255
206 230 255
206 230 255
206 230 255
206 230 255
206 230 255
206 230 255
206 230 255
206 230 255
206 230 255
206 230 255
206 230 255
206 230 255
206 230 255
206 230 255
206 230 255
206 230 255
206 230 255
206 230 255
206 230 255
206 230 255
206 230 255
206 230 255
206 230 255
206 230 255
206 230 255
218 242 255
206 230 255
206 230 255
206 230 255
206 230 255
206 230 255
206 230 255
206 230 255
206 230 255
206 230 255
206 230 255
206 230 255
206 230 255
206 230 255
206 230 255
206 230 255
206 230 255
206 230 255
206 230 255
206 230 255
206 230 255
206 230 255
206 230 255
218 242 255
206 230 255
206 230 255
206 230 255
206 230 255
206 230 255
206 230 255
206 230 255
206 230 255
206 230 255
206 230 255
206 230 255
206 230 255
206 230 255
206 230 255
206 230 255
206 230 255
206 230 255
206 230 255
206 230 255
206 230 255
206 230 255
206 230 255
206 230 255
206 230 255
206 230 255
206 230 255
206 230 255
206 230 255
206 230 255
206 230 255
206 230 255
206 230 255
206 230 255
206 230 255
206 230 255
206 230 255
218 242 255
206 230 255
206 230 255
206 230 255
206 230 255
206 230 255
206 230 255
206 230 255
206 230 255
206 230 255
206 230 255
206 230 255
206 230 255
206 230 255
206 230 255
206 230 255
206 230 255
206 230 255
206 230 255
206 230 255
206 230 255
206 230 255
206 230 255
206 230 255
206 230 255
206 230 255
206 230 255
206 230 255
206 230 255
206 230 255
206 230 255
206 230 255
206 230 255
206 230 255
206 230 255
206 230 255
206 230 255
218 242 255
206 230 255
206 230 255
206 230 255
206 230 255
206 230 255
206 230 255
206 230 255
206 230 255
206 230 255
206 230 255
206 230 255
206 230 255
206 230 255
206 230 255
206 230 255
206 230 255
206 230 255
206 230 255
206 230 255
206 230 255
206 230 255
206 230 255
206 230 255
206 230 255
206 230 255
206 230 255
206 230 255
206 230 255
206 230 255
206 230 255
206 230 255
206 230 255
206 230 255
206 230 255
206 230 255
206 230 255
218 242 255
206 230 255
206 230 255
206 230 255
206 230 255
206 230 255
206 230 255
206 230 255
206 230 255
206 230 255
206 230 255
206 230 255
206 230 255
206 230 255
206 230 255
206 230 255
206 230 255
206 230 255
206 230 255
206 230 255
206 230 255
206 230 255
206 230 255
206 230 255
206 230 255
206 230 255
206 230 255
206 230 255
206 230 255
206 230 255
206 230 255
206 230 255
206 230 255
206 230 255
206 230 255
206 230 255
206 230 255
218 242 255
206 230 255
206 230 255
206 230 255
206 230 255
206 230 255
206 230 255
206 230 255
206 230 255
206 230 255
206 230 255
206 230 255
206 230 255
206 230 255
206 230 255
206 230 255
206 230 255
206 230 255
206 230 255
206 230 255
206 230 255
206 230 255
206 230 255
206 230 255
206 230 255
206 230 255
206 230 255
206 230 255
206 230 255
206 230 255
206 230 255
206 230 255
206 230 255
206 230 255
206 230 255
206 230 255
206 230 255
218 242 255
206 230 255
206 230 255
206 230 255
206 230 255
206 230 255
206 230 255
206 230 255
206 230 255
206 230 255
206 230 255
206 230 255
206 230 255
206 230 255
206 230 255
206 230 255
206 230 255
206 230 255
206 230 255
206 230 255
206 230 255
206 230 255
206 230 255
206 230 255
206 230 255
206 230 255
206 230 255
206 230 255
206 230 255
206 230 255
206 230 255
206 230 255
206 230 255
206 230 255
206 230 255
206 230 255
206 230 255
218 242 255
206 230 255
206 230 255
206 230 255
206 230 255
206 230 255
206 230 255
206 230 255
206 230 255
206 230 255
206 230 255
206 230 255
206 230 255
206 230 255
206 230 255
206 230 255
206 230 255
206 230 255
206 230 255
206 230 255
206 230 255
206 230 255
206 230 255
206 230 255
206 230 255
206 230 255
206 230 255
206 230 255
206 230 255
206 230 255
206 230 255
206 230 255
206 230 255
206 230 255
206 230 255
206 230 255
206 230 255
218 242 255
206 230 255
206 230 255
206 230 255
206 230 255
206 230 255
206 230 255
206 230 255
206 230 255
206 230 255
206 230 255
206 230 255
206 230 255
206 230 255
206 230 255
206 230 255
206 230 255
206 230 255
206 230 255
206 230 255
206 230 255
206 230 255
206 230 255
206 230 255
206 230 255
206 230 255
206 230 255
206 230 255
206 230 255
206 230 255
206 230 255
206 230 255
206 230 255
206 230 255
206 230 255
206 230 255
206 230 255
218 242 255
206 230 255
206 230 255
206 230 255
206 230 255
206 230 255
206 230 255
206 230 255
206 230 255
206 230 255
206 230 255
206 230 255
206 230 255
206 230 255
206 230 255
206 230 255
206 230 255
206 230 255
206 230 255
206 230 255
206 230 255
206 230 255
206 230 255
218 242 255
206 230 255
206 230 255
206 230 255
206 230 255
206 230 255
206 230 255
206 230 255
206 230 255
206 230 255
206 230 255
206 230 255
206 230 255
206 230 255
206 230 255
206 230 255
206 230 255
206 230 255
206 230 255
206 230 255
206 230 255
206 230 255
206 230 255
206 230 255
206 230 255
206 230 255
206 230 255
206 230 255
206 230 255
206 230 255
206 230 255
206 230 255
206 230 255
206 230 255
206 230 255
206 230 255
206 230 255
218 242 255
206 230 255
206 230 255
206 230 255
206 230 255
206 230 255
206 230 255
206 230 255
206 230 255
206 230 255
206 230 255
206 230 255
206 230 255
206 230 255
206 230 255
206 230 255
206 230 255
206 230 255
206 230 255
206 230 255
206 230 255
206 230 255
206 230 255
206 230 255
206 230 255
206 230 255
206 230 255
206 230 255
206 230 255
206 230 255
206 230 255
206 230 255
206 230 255
206 230 255
206 230 255
206 230 255
206 230 255
218 242 255
206 230 255
206 230 255
206 230 255
206 230 255
206 230 255
206 230 255
206 230 255
206 230 255
206 230 255
206 230 255
206 230 255
206 230 255
206 230 255
206 230 255
206 230 255
206 230 255
206 230 255
206 230 255
206 230 255
206 230 255
206 230 255
206 230 255
206 230 255
206 230 255
206 230 255
206 230 255
206 230 255
206 230 255
206 230 255
206 230 255
206 230 255
206 230 255
206 230 255
206 230 255
206 230 255
206 230 255
218 242 255
206 230 255
206 230 255
206 230 255
206 230 255
206 230 255
206 230 255
206 230 255
206 230 255
206 230 255
206 230 255
206 230 255
206 230 255
206 230 255
206 230 255
206 230 255
206 230 255
206 230 255
206 230 255
206 230 255
206 230 255
206 230 255
206 230 255
206 230 255
206 230 255
206 230 255
206 230 255
206 230 255
206 230 255
206 230 255
206 230 255
206 230 255
206 230 255
206 230 255
206 230 255
206 230 255
206 230 255
218 242 255
206 230 255
206 230 255
206 230 255
206 230 255
206 230 255
206 230 255
206 230 255
206 230 255
206 230 255
206 230 255
206 230 255
206 230 255
206 230 255
206 230 255
206 230 255
206 230 255
206 230 255
206 230 255
206 230 255
206 230 255
206 230 255
206 230 255
206 230 255
206 230 255
206 230 255
206 230 255
206 230 255
206 230 255
206 230 255
206 230 255
206 230 255
206 230 255
206 230 255
206 230 255
206 230 255
206 230 255
218 242 255
206 230 255
206 230 255
206 230 255
206 230 255
206 230 255
206 230 255
206 230 255
206 230 255
206 230 255
206 230 255
206 230 255
206 230 255
206 230 255
206 230 255
206 230 255
206 230 255
206 230 255
206 230 255
206 230 255
206 230 255
206 230 255
206 230 255
206 230 255
206 230 255
206 230 255
206 230 255
206 230 255
206 230 255
206 230 255
206 230 255
206 230 255
206 230 255
206 230 255
206 230 255
206 230 255
206 230 255
218 242 255
206 230 255
206 230 255
206 230 255
206 230 255
206 230 255
206 230 255
206 230 255
206 230 255
206 230 255
206 230 255
206 230 255
206 230 255
206 230 255
206 230 255
206 230 255
206 230 255
206 230 255
206 230 255
206 230 255
206 230 255
206 230 255
206 230 255
206 230 255
206 230 255
206 230 255
206 230 255
206 230 255
206 230 255
206 230 255
206 230 255
206 230 255
206 230 255
206 230 255
206 230 255
206 230 255
206 230 255
218 242 255
206 230 255
206 230 255
206 230 255
206 230 255
206 230 255
206 230 255
206 230 255
206 230 255
206 230 255
206 230 255
206 230 255
206 230 255
206 230 255
206 230 255
206 230 255
206 230 255
206 230 255
206 230 255
206 230 255
206 230 255
206 230 255
206 230 255
206 230 255
206 230 255
206 230 255
206 230 255
206 230 255
206 230 255
206 230 255
206 230 255
206 230 255
206 230 255
206 230 255
206 230 255
206 230 255
206 230 255
218 242 255
206 230 255
206 230 255
206 230 255
206 230 255
206 230 255
206 230 255
206 230 255
206 230 255
206 230 255
206 230 255
206 230 255
206 230 255
206 230 255
206 230 255
206 230 255
206 230 255
206 230 255
206 230 255
206 230 255
206 230 255
206 230 255
206 230 255
218 242 255
206 230 255
206 230 255
206 230 255
206 230 255
206 230 255
206 230 255
206 230 255
206 230 255
206 230 255
206 230 255
206 230 255
206 230 255
206 230 255
206 230 255
206 230 255
206 230 255
206 230 255
206 230 255
206 230 255
206 230 255
206 230 255
206 230 255
206 230 255
206 230 255
206 230 255
206 230 255
206 230 255
206 230 255
206 230 255
206 230 255
206 230 255
206 230 255
206 230 255
206 230 255
206 230 255
206 230 255
218 242 255
206 230 255
206 230 255
206 230 255
206 230 255
206 230 255
206 230 255
206 230 255
206 230 255
206 230 255
206 230 255
206 230 255
206 230 255
206 230 255
206 230 255
206 230 255
206 230 255
206 230 255
206 230 255
206 230 255
206 230 255
206 230 255
206 230 255
206 230 255
206 230 255
206 230 255
206 230 255
206 230 255
206 230 255
206 230 255
206 230 255
206 230 255
206 230 255
206 230 255
206 230 255
206 230 255
206 230 255
218 242 255
206 230 255
206 230 255
206 230 255
206 230 255
206 230 255
206 230 255
206 230 255
206 230 255
206 230 255
206 230 255
206 230 255
206 230 255
206 230 255
206 230 255
206 230 255
206 230 255
206 230 255
206 230 255
206 230 255
206 230 255
206 230 255
206 230 255
206 230 255
206 230 255
206 230 255
206 230 255
206 230 255
206 230 255
206 230 255
206 230 255
206 230 255
206 230 255
206 230 255
206 230 255
206 230 255
206 230 255
218 242 255
206 230 255
206 230 255
206 230 255
206 230 255
206 230 255
206 230 255
206 230 255
206 230 255
206 230 255
206 230 255
206 230 255
206 230 255
206 230 255
206 230 255
206 230 255
206 230 255
206 230 255
206 230 255
206 230 255
206 230 255
206 230 255
206 230 255
206 230 255
206 230 255
206 230 255
206 230 255
206 230 255
206 230 255
206 230 255
206 230 255
206 230 255
206 230 255
206 230 255
206 230 255
206 230 255
206 230 255
218 242 255
206 230 255
206 230 255
206 230 255
206 230 255
206 230 255
206 230 255
206 230 255
206 230 255
206 230 255
206 230 255
206 230 255
206 230 255
206 230 255
206 230 255
206 230 255
206 230 255
206 230 255
206 230 255
206 230 255
206 230 255
206 230 255
206 230 255
206 230 255
206 230 255
206 230 255
206 230 255
206 230 255
206 230 255
206 230 255
206 230 255
206 230 255
206 230 255
206 230 255
206 230 255
206 230 255
206 230 255
218 242 255
206 230 255
206 230 255
206 230 255
206 230 255
206 230 255
206 230 255
206 230 255
206 230 255
206 230 255
206 230 255
206 230 255
206 230 255
206 230 255
206 230 255
206 230 255
206 230 255
206 230 255
206 230 255
206 230 255
206 230 255
206 230 255
206 230 255
206 230 255
206 230 255
206 230 255
206 230 255
206 230 255
206 230 255
206 230 255
206 230 255
206 230 255
206 230 255
206 230 255
206 230 255
206 230 255
206 230 255
218 242 255
206 230 255
206 230 255
206 230 255
206 230 255
206 230 255
206 230 255
206 230 255
206 230 255
206 230 255
206 230 255
206 230 255
206 230 255
206 230 255
206 230 255
206 230 255
206 230 255
206 230 255
206 230 255
206 230 255
206 230 255
206 230 255
206 230 255
206 230 255
206 230 255
206 230 255
206 230 255
206 230 255
206 230 255
206 230 255
206 230 255
206 230 255
206 230 255
206 230 255
206 230 255
206 230 255
206 230 255
218 242 255
206 230 255
206 230 255
206 230 255
206 230 255
206 230 255
206 230 255
206 230 255
206 230 255
206 230 255
206 230 255
206 230 255
206 230 255
206 230 255
206 230 255
206 230 255
206 230 255
206 230 255
206 230 255
206 230 255
206 230 255
206 230 255
206 230 255
206 230 255
206 230 255
206 230 255
206 230 255
206 230 255
206 230 255
206 230 255
206 230 255
206 230 255
206 230 255
206 230 255
206 230 255
206 230 255
206 230 255
218 242 255
206 230 255
206 230 255
206 230 255
206 230 255
206 230 255
206 230 255
206 230 255
206 230 255
206 230 255
206 230 255
206 230 255
206 230 255
206 230 255
206 230 255
206 230 255
206 230 255
206 230 255
206 230 255
206 230 255
206 230 255
206 230 255
206 230 255
218 242 255
206 230 255
206 230 255
206 230 255
206 230 255
206 230 255
206 230 255
206 230 255
206 230 255
206 230 255
206 230 255
206 230 255
206 230 255
206 230 255
206 230 255
206 230 255
206 230 255
206 230 255
206 230 255
206 230 255
206 230 255
206 230 255
206 230 255
206 230 255
206 230 255
206 230 255
206 230 255
206 230 255
206 230 255
206 230 255
206 230 255
206 230 255
206 230 255
206 230 255
206 230 255
206 230 255
206 230 255
218 242 255
206 230 255
206 230 255
206 230 255
206 230 255
206 230 255
206 230 255
206 230 255
206 230 255
206 230 255
206 230 255
206 230 255
206 230 255
206 230 255
206 230 255
206 230 255
206 230 255
206 230 255
206 230 255
206 230 255
206 230 255
206 230 255
206 230 255
206 230 255
206 230 255
206 230 255
206 230 255
206 230 255
206 230 255
206 230 255
206 230 255
206 230 255
206 230 255
206 230 255
206 230 255
206 230 255
206 230 255
218 242 255
206 230 255
206 230 255
206 230 255
206 230 255
206 230 255
206 230 255
206 230 255
206 230 255
206 230 255
206 230 255
206 230 255
206 230 255
206 230 255
206 230 255
206 230 255
206 230 255
206 230 255
206 230 255
206 230 255
206 230 255
206 230 255
206 230 255
206 230 255
206 230 255
206 230 255
206 230 255
206 230 255
206 230 255
206 230 255
206 230 255
206 230 255
206 230 255
206 230 255
206 230 255
206 230 255
206 230 255
218 242 255
206 230 255
206 230 255
206 230 255
206 230 255
206 230 255
206 230 255
206 230 255
206 230 255
206 230 255
206 230 255
206 230 255
206 230 255
206 230 255
206 230 255
206 230 255
206 230 255
206 230 255
206 230 255
206 230 255
206 230 255
206 230 255
206 230 255
206 230 255
206 230 255
206 230 255
206 230 255
206 230 255
206 230 255
206 230 255
206 230 255
206 230 255
206 230 255
206 230 255
206 230 255
206 230 255
206 230 255
218 242 255
206 230 255
206 230 255
206 230 255
206 230 255
206 230 255
206 230 255
206 230 255
206 230 255
206 230 255
206 230 255
206 230 255
206 230 255
206 230 255
206 230 255
206 230 255
206 230 255
206 230 255
206 230 255
206 230 255
206 230 255
206 230 255
206 230 255
206 230 255
206 230 255
206 230 255
206 230 255
206 230 255
206 230 255
206 230 255
206 230 255
206 230 255
206 230 255
206 230 255
206 230 255
206 230 255
206 230 255
218 242 255
206 230 255
206 230 255
206 230 255
206 230 255
206 230 255
206 230 255
206 230 255
206 230 255
206 230 255
206 230 255
206 230 255
206 230 255
206 230 255
206 230 255
206 230 255
206 230 255
206 230 255
206 230 255
206 230 255
206 230 255
206 230 255
206 230 255
206 230 255
206 230 255
206 230 255
206 230 255
206 230 255
206 230 255
206 230 255
206 230 255
206 230 255
206 230 255
206 230 255
206 230 255
206 230 255
206 230 255
218 242 255
206 230 255
206 230 255
206 230 255
206 230 255
206 230 255
206 230 255
206 230 255
206 230 255
206 230 255
206 230 255
206 230 255
206 230 255
206 230 255
206 230 255
206 230 255
206 230 255
206 230 255
206 230 255
206 230 255
206 230 255
206 230 255
206 230 255
206 230 255
206 230 255
206 230 255
206 230 255
206 230 255
206 230 255
206 230 255
206 230 255
206 230 255
206 230 255
206 230 255
206 230 255
206 230 255
206 230 255
218 242 255
206 230 255
206 230 255
206 230 255
206 230 255
206 230 255
206 230 255
206 230 255
206 230 255
206 230 255
206 230 255
206 230 255
206 230 255
206 230 255
206 230 255
206 230 255
206 230 255
206 230 255
206 230 255
206 230 255
206 230 255
206 230 255
206 230 255
206 230 255
206 230 255
206 230 255
206 230 255
206 230 255
206 230 255
206 230 255
206 230 255
206 230 255
206 230 255
206 230 255
206 230 255
206 230 255
206 230 255
218 242 255
206 230 255
206 230 255
206 230 255
206 230 255
206 230 255
206 230 255
206 230 255
206 230 255
206 230 255
206 230 255
206 230 255
206 230 255
206 230 255
206 230 255
206 230 255
206 230 255
206 230 255
206 230 255
206 230 255
206 230 255
206 230 255
206 230 255
218 242 255
206 230 255
206 230 255
206 230 255
206 230 255
206 230 255
206 230 255
206 230 255
206 230 255
206 230 255
206 230 255
206 230 255
206 230 255
206 230 255
206 230 255
206 230 255
206 230 255
206 230 255
206 230 255
206 230 255
206 230 255
206 230 255
206 230 255
206 230 255
206 230 255
206 230 255
206 230 255
206 230 255
206 230 255
206 230 255
206 230 255
206 230 255
206 230 255
206 230 255
206 230 255
206 230 255
206 230 255
218 242 255
206 230 255
206 230 255
206 230 255
206 230 255
206 230 255
206 230 255
206 230 255
206 230 255
206 230 255
206 230 255
206 230 255
206 230 255
206 230 255
206 230 255
206 230 255
206 230 255
206 230 255
206 230 255
206 230 255
206 230 255
206 230 255
206 230 255
206 230 255
206 230 255
206 230 255
206 230 255
206 230 255
206 230 255
206 230 255
206 230 255
206 230 255
206 230 255
206 230 255
206 230 255
206 230 255
206 230 255
218 242 255
206 230 255
206 230 255
206 230 255
206 230 255
206 230 255
206 230 255
206 230 255
206 230 255
206 230 255
206 230 255
206 230 255
206 230 255
206 230 255
206 230 255
206 230 255
206 230 255
206 230 255
206 230 255
206 230 255
206 230 255
206 230 255
206 230 255
206 230 255
206 230 255
206 230 255
206 230 255
206 230 255
206 230 255
206 230 255
206 230 255
206 230 255
206 230 255
206 230 255
206 230 255
206 230 255
206 230 255
218 242 255
206 230 255
206 230 255
206 230 255
206 230 255
206 230 255
206 230 255
206 230 255
206 230 255
206 230 255
206 230 255
206 230 255
206 230 255
206 230 255
206 230 255
206 230 255
206 230 255
206 230 255
206 230 255
206 230 255
206 230 255
206 230 255
206 230 255
206 230 255
206 230 255
206 230 255
206 230 255
206 230 255
206 230 255
206 230 255
206 230 255
206 230 255
206 230 255
206 230 255
206 230 255
206 230 255
206 230 255
218 242 255
206 230 255
206 230 255
206 230 255
206 230 255
206 230 255
206 230 255
206 230 255
206 230 255
206 230 255
206 230 255
206 230 255
206 230 255
206 230 255
206 230 255
206 230 255
206 230 255
206 230 255
206 230 255
206 230 255
206 230 255
206 230 255
206 230 255
206 230 255
206 230 255
206 230 255
206 230 255
206 230 255
206 230 255
206 230 255
206 230 255
206 230 255
206 230 255
206 230 255
206 230 255
206 230 255
206 230 255
218 242 255
206 230 255
206 230 255
206 230 255
206 230 255
206 230 255
206 230 255
206 230 255
206 230 255
206 230 255
206 230 255
206 230 255
206 230 255
206 230 255
206 230 255
206 230 255
206 230 255
206 230 255
206 230 255
206 230 255
206 230 255
206 230 255
206 230 255
206 230 255
206 230 255
206 230 255
206 230 255
206 230 255
206 230 255
206 230 255
206 230 255
206 230 255
206 230 255
206 230 255
206 230 255
206 230 255
206 230 255
218 242 255
206 230 255
206 230 255
206 230 255
206 230 255
206 230 255
206 230 255
206 230 255
206 230 255
206 230 255
206 230 255
206 230 255
206 230 255
206 230 255
206 230 255
206 230 255
206 230 255
206 230 255
206 230 255
206 230 255
206 230 255
206 230 255
206 230 255
206 230 255
206 230 255
206 230 255
206 230 255
206 230 255
206 230 255
206 230 255
206 230 255
206 230 255
206 230 255
206 230 255
206 230 255
206 230 255
206 230 255
218 242 255
206 230 255
206 230 255
206 230 255
206 230 255
206 230 255
206 230 255
206 230 255
206 230 255
206 230 255
206 230 255
206 230 255
206 230 255
206 230 255
206 230 255
206 230 255
206 230 255
206 230 255
206 230 255
206 230 255
206 230 255
206 230 255
206 230 255
206 230 255
206 230 255
206 230 255
206 230 255
206 230 255
206 230 255
206 230 255
206 230 255
206 230 255
206 230 255
206 230 255
206 230 255
206 230 255
206 230 255
218 242 255
206 230 255
206 230 255
206 230 255
206 230 255
206 230 255
206 230 255
206 230 255
206 230 255
206 230 255
206 230 255
206 230 255
206 230 255
206 230 255
206 230 255
206 230 255
206 230 255
206 230 255
206 230 255
206 230 255
206 230 255
206 230 255
206 230 255
218 242 255
206 230 255
206 230 255
206 230 255
206 230 255
206 230 255
206 230 255
206 230 255
206 230 255
206 230 255
206 230 255
206 230 255
206 230 255
206 230 255
206 230 255
206 230 255
206 230 255
206 230 255
206 230 255
206 230 255
206 230 255
206 230 255
206 230 255
206 230 255
206 230 255
206 230 255
206 230 255
206 230 255
206 230 255
206 230 255
206 230 255
206 230 255
206 230 255
206 230 255
206 230 255
206 230 255
206 230 255
218 242 255
206 230 255
206 230 255
206 230 255
206 230 255
206 230 255
206 230 255
206 230 255
206 230 255
206 230 255
206 230 255
206 230 255
206 230 255
206 230 255
206 230 255
206 230 255
206 230 255
206 230 255
206 230 255
206 230 255
206 230 255
206 230 255
206 230 255
206 230 255
206 230 255
206 230 255
206 230 255
206 230 255
206 230 255
206 230 255
206 230 255
206 230 255
206 230 255
206 230 255
206 230 255
206 230 255
206 230 255
218 242 255
206 230 255
206 230 255
206 230 255
206 230 255
206 230 255
206 230 255
206 230 255
206 230 255
206 230 255
206 230 255
206 230 255
206 230 255
206 230 255
206 230 255
206 230 255
206 230 255
206 230 255
206 230 255
206 230 255
206 230 255
206 230 255
206 230 255
206 230 255
206 230 255
206 230 255
206 230 255
206 230 255
206 230 255
206 230 255
206 230 255
206 230 255
206 230 255
206 230 255
206 230 255
206 230 255
206 230 255
218 242 255
206 230 255
206 230 255
206 230 255
206 230 255
206 230 255
206 230 255
206 230 255
206 230 255
206 230 255
206 230 255
206 230 255
206 230 255
206 230 255
206 230 255
206 230 255
206 230 255
206 230 255
206 230 255
206 230 255
206 230 255
206 230 255
206 230 255
206 230 255
206 230 255
206 230 255
206 230 255
206 230 255
206 230 255
206 230 255
206 230 255
206 230 255
206 230 255
206 230 255
206 230 255
206 230 255
206 230 255
218 242 255
206 230 255
206 230 255
206 230 255
206 230 255
206 230 255
206 230 255
206 230 255
206 230 255
206 230 255
206 230 255
206 230 255
206 230 255
206 230 255
206 230 255
206 230 255
206 230 255
206 230 255
206 230 255
206 230 255
206 230 255
206 230 255
206 230 255
206 230 255
206 230 255
206 230 255
206 230 255
206 230 255
206 230 255
206 230 255
206 230 255
206 230 255
206 230 255
206 230 255
206 230 255
206 230 255
206 230 255
218 242 255
206 230 255
206 230 255
206 230 255
206 230 255
206 230 255
206 230 255
206 230 255
206 230 255
206 230 255
206 230 255
206 230 255
206 230 255
206 230 255
206 230 255
206 230 255
206 230 255
206 230 255
206 230 255
206 230 255
206 230 255
206 230 255
206 230 255
206 230 255
206 230 255
206 230 255
206 230 255
206 230 255
206 230 255
206 230 255
206 230 255
206 230 255
206 230 255
206 230 255
206 230 255
206 230 255
206 230 255
218 242 255
206 230 255
206 230 255
206 230 255
206 230 255
206 230 255
206 230 255
206 230 255
206 230 255
206 230 255
206 230 255
206 230 255
206 230 255
206 230 255
206 230 255
206 230 255
206 230 255
206 230 255
206 230 255
206 230 255
206 230 255
206 230 255
206 230 255
206 230 255
206 230 255
206 230 255
206 230 255
206 230 255
206 230 255
206 230 255
206 230 255
206 230 255
206 230 255
206 230 255
206 230 255
206 230 255
206 230 255
218 242 255
206 230 255
206 230 255
206 230 255
206 230 255
206 230 255
206 230 255
206 230 255
206 230 255
206 230 255
206 230 255
206 230 255
206 230 255
206 230 255
206 230 255
206 230 255
206 230 255
206 230 255
206 230 255
206 230 255
206 230 255
206 230 255
206 230 255
206 230 255
206 230 255
206 230 255
206 230 255
206 230 255
206 230 255
206 230 255
206 230 255
206 230 255
206 230 255
206 230 255
206 230 255
206 230 255
206 230 255
218 242 255
206 230 255
206 230 255
206 230 255
206 230 255
206 230 255
206 230 255
206 230 255
206 230 255
206 230 255
206 230 255
206 230 255
206 230 255
206 230 255
206 230 255
206 230 255
206 230 255
206 230 255
206 230 255
206 230 255
206 230 255
206 230 255
206 230 255
218 242 255
206 230 255
206 230 255
206 230 255
206 230 255
206 230 255
206 230 255
206 230 255
206 230 255
206 230 255
206 230 255
206 230 255
206 230 255
206 230 255
206 230 255
206 230 255
206 230 255
206 230 255
206 230 255
206 230 255
206 230 255
206 230 255
206 230 255
206 230 255
206 230 255
206 230 255
206 230 255
206 230 255
206 230 255
206 230 255
206 230 255
206 230 255
206 230 255
206 230 255
206 230 255
206 230 255
206 230 255
218 242 255
206 230 255
206 230 255
206 230 255
206 230 255
206 230 255
206 230 255
206 230 255
206 230 255
206 230 255
206 230 255
206 230 255
206 230 255
206 230 255
206 230 255
206 230 255
206 230 255
206 230 255
206 230 255
206 230 255
206 230 255
206 230 255
206 230 255
206 230 255
206 230 255
206 230 255
206 230 255
206 230 255
206 230 255
206 230 255
206 230 255
206 230 255
206 230 255
206 230 255
206 230 255
206 230 255
206 230 255
218 242 255
206 230 255
206 230 255
206 230 255
206 230 255
206 230 255
206 230 255
206 230 255
206 230 255
206 230 255
206 230 255
206 230 255
206 230 255
206 230 255
206 230 255
206 230 255
206 230 255
206 230 255
206 230 255
206 230 255
206 230 255
206 230 255
206 230 255
206 230 255
206 230 255
206 230 255
206 230 255
206 230 255
206 230 255
206 230 255
206 230 255
206 230 255
206 230 255
206 230 255
206 230 255
206 230 255
206 230 255
218 242 255
206 230 255
206 230 255
206 230 255
206 230 255
206 230 255
206 230 255
206 230 255
206 230 255
206 230 255
206 230 255
206 230 255
206 230 255
206 230 255
206 230 255
206 230 255
206 230 255
206 230 255
206 230 255
206 230 255
206 230 255
206 230 255
206 230 255
206 230 255
206 230 255
206 230 255
206 230 255
206 230 255
206 230 255
206 230 255
206 230 255
206 230 255
206 230 255
206 230 255
206 230 255
206 230 255
206 230 255
218 242 255
206 230 255
206 230 255
206 230 255
206 230 255
206 230 255
206 230 255
206 230 255
206 230 255
206 230 255
206 230 255
206 230 255
206 230 255
206 230 255
206 230 255
206 230 255
206 230 255
206 230 255
206 230 255
206 230 255
206 230 255
206 230 255
206 230 255
206 230 255
206 230 255
206 230 255
206 230 255
206 230 255
206 230 255
206 230 255
206 230 255
206 230 255
206 230 255
206 230 255
206 230 255
206 230 255
206 230 255
218 242 255
206 230 255
206 230 255
206 230 255
206 230 255
206 230 255
206 230 255
206 230 255
206 230 255
206 230 255
206 230 255
206 230 255
206 230 255
206 230 255
206 230 255
206 230 255
206 230 255
206 230 255
206 230 255
206 230 255
206 230 255
206 230 255
206 230 255
206 230 255
206 230 255
206 230 255
206 230 255
206 230 255
206 230 255
206 230 255
206 230 255
206 230 255
206 230 255
206 230 255
206 230 255
206 230 255
206 230 255
218 242 255
206 230 255
206 230 255
206 230 255
206 230 255
206 230 255
206 230 255
206 230 255
206 230 255
206 230 255
206 230 255
206 230 255
206 230 255
206 230 255
206 230 255
206 230 255
206 230 255
206 230 255
206 230 255
206 230 255
206 230 255
206 230 255
206 230 255
206 230 255
206 230 255
206 230 255
206 230 255
206 230 255
206 230 255
206 230 255
206 230 255
206 230 255
206 230 255
206 230 255
206 230 255
206 230 255
206 230 255
218 242 255
206 230 255
206 230 255
206 230 255
206 230 255
206 230 255
206 230 255
206 230 255
206 230 255
206 230 255
206 230 255
206 230 255
206 230 255
206 230 255
206 230 255
206 230 255
206 230 255
206 230 255
206 230 255
206 230 255
206 230 255
206 230 255
206 230 255
206 230 255
206 230 255
206 230 255
206 230 255
206 230 255
206 230 255
206 230 255
206 230 255
206 230 255
206 230 255
206 230 255
206 230 255
206 230 255
206 230 255
218 242 255
206 230 255
206 230 255
206 230 255
206 230 255
206 230 255
206 230 255
206 230 255
206 230 255
206 230 255
206 230 255
206 230 255
206 230 255
206 230 255
206 230 255
206 230 255
206 230 255
206 230 255
206 230 255
206 230 255
206 230 255
206 230 255
206 230 255
218 242 255
206 230 255
206 230 255
206 230 255
206 230 255
206 230 255
206 230 255
206 230 255
206 230 255
206 230 255
206 230 255
206 230 255
206 230 255
206 230 255
206 230 255
206 230 255
206 230 255
206 230 255
206 230 255
206 230 255
206 230 255
206 230 255
206 230 255
206 230 255
206 230 255
206 230 255
206 230 255
206 230 255
206 230 255
206 230 255
206 230 255
206 230 255
206 230 255
206 230 255
206 230 255
206 230 255
206 230 255
218 242 255
206 230 255
206 230 255
206 230 255
206 230 255
206 230 255
206 230 255
206 230 255
206 230 255
206 230 255
206 230 255
206 230 255
206 230 255
206 230 255
206 230 255
206 230 255
206 230 255
206 230 255
206 230 255
206 230 255
206 230 255
206 230 255
206 230 255
206 230 255
206 230 255
206 230 255
206 230 255
206 230 255
206 230 255
206 230 255
206 230 255
206 230 255
206 230 255
206 230 255
206 230 255
206 230 255
206 230 255
218 242 255
206 230 255
206 230 255
206 230 255
206 230 255
206 230 255
206 230 255
206 230 255
206 230 255
206 230 255
206 230 255
206 230 255
206 230 255
206 230 255
206 230 255
206 230 255
206 230 255
206 230 255
206 230 255
206 230 255
206 230 255
206 230 255
206 230 255
206 230 255
206 230 255
206 230 255
206 230 255
206 230 255
206 230 255
206 230 255
206 230 255
206 230 255
206 230 255
206 230 255
206 230 255
206 230 255
206 230 255
218 242 255
206 230 255
206 230 255
206 230 255
206 230 255
206 230 255
206 230 255
206 230 255
206 230 255
206 230 255
206 230 255
206 230 255
206 230 255
206 230 255
206 230 255
206 230 255
206 230 255
206 230 255
206 230 255
206 230 255
206 230 255
206 230 255
206 230 255
206 230 255
206 230 255
206 230 255
206 230 255
206 230 255
206 230 255
206 230 255
206 230 255
206 230 255
206 230 255
206 230 255
206 230 255
206 230 255
206 230 255
218 242 255
206 230 255
206 230 255
206 230 255
206 230 255
206 230 255
206 230 255
206 230 255
206 230 255
206 230 255
206 230 255
206 230 255
206 230 255
206 230 255
206 230 255
206 230 255
206 230 255
206 230 255
206 230 255
206 230 255
206 230 255
206 230 255
206 230 255
206 230 255
206 230 255
206 230 255
206 230 255
206 230 255
206 230 255
206 230 255
206 230 255
206 230 255
206 230 255
206 230 255
206 230 255
206 230 255
206 230 255
218 242 255
206 230 255
206 230 255
206 230 255
206 230 255
206 230 255
206 230 255
206 230 255
206 230 255
206 230 255
206 230 255
206 230 255
206 230 255
206 230 255
206 230 255
206 230 255
206 230 255
206 230 255
206 230 255
206 230 255
206 230 255
206 230 255
206 230 255
206 230 255
206 230 255
206 230 255
206 230 255
206 230 255
206 230 255
206 230 255
206 230 255
206 230 255
206 230 255
206 230 255
206 230 255
206 230 255
206 230 255
218 242 255
206 230 255
206 230 255
206 230 255
206 230 255
206 230 255
206 230 255
206 230 255
206 230 255
206 230 255
206 230 255
206 230 255
206 230 255
206 230 255
206 230 255
206 230 255
206 230 255
206 230 255
206 230 255
206 230 255
206 230 255
206 230 255
206 230 255
206 230 255
206 230 255
206 230 255
206 230 255
206 230 255
206 230 255
206 230 255
206 230 255
206 230 255
206 230 255
206 230 255
206 230 255
206 230 255
206 230 255
218 242 255
206 230 255
206 230 255
206 230 255
206 230 255
206 230 255
206 230 255
206 230 255
206 230 255
206 230 255
206 230 255
206 230 255
206 230 255
206 230 255
206 230 255
206 230 255
206 230 255
206 230 255
206 230 255
206 230 255
206 230 255
206 230 255
206 230 255
206 230 255
206 230 255
206 230 255
206 230 255
206 230 255
206 230 255
206 230 255
206 230 255
206 230 255
206 230 255
206 230 255
206 230 255
206 230 255
206 230 255
218 242 255
206 230 255
206 230 255
206 230 255
206 230 255
206 230 255
206 230 255
206 230 255
206 230 255
206 230 255
206 230 255
206 230 255
206 230 255
206 230 255
206 230 255
206 230 255
206 230 255
206 230 255
206 230 255
206 230 255
206 230 255
206 230 255
206 230 255
218 242 255
206 230 255
206 230 255
206 230 255
206 230 255
206 230 255
206 230 255
206 230 255
206 230 255
206 230 255
206 230 255
206 230 255
206 230 255
206 230 255
206 230 255
206 230 255
206 230 255
206 230 255
206 230 255
206 230 255
206 230 255
206 230 255
206 230 255
206 230 255
206 230 255
206 230 255
206 230 255
206 230 255
206 230 255
206 230 255
206 230 255
206 230 255
206 230 255
206 230 255
206 230 255
206 230 255
206 230 255
218 242 255
206 230 255
206 230 255
206 230 255
206 230 255
206 230 255
206 230 255
206 230 255
206 230 255
206 230 255
206 230 255
206 230 255
206 230 255
206 230 255
206 230 255
206 230 255
206 230 255
206 230 255
206 230 255
206 230 255
206 230 255
206 230 255
206 230 255
206 230 255
206 230 255
206 230 255
206 230 255
206 230 255
206 230 255
206 230 255
206 230 255
206 230 255
206 230 255
206 230 255
206 230 255
206 230 255
206 230 255
218 242 255
206 230 255
206 230 255
206 230 255
206 230 255
206 230 255
206 230 255
206 230 255
206 230 255
206 230 255
206 230 255
206 230 255
206 230 255
206 230 255
206 230 255
206 230 255
206 230 255
206 230 255
206 230 255
206 230 255
206 230 255
206 230 255
206 230 255
206 230 255
206 230 255
206 230 255
206 230 255
206 230 255
206 230 255
206 230 255
206 230 255
206 230 255
206 230 255
206 230 255
206 230 255
206 230 255
206 230 255
218 242 255
206 230 255
206 230 255
206 230 255
206 230 255
206 230 255
206 230 255
206 230 255
206 230 255
206 230 255
206 230 255
206 230 255
206 230 255
206 230 255
206 230 255
206 230 255
206 230 255
206 230 255
206 230 255
206 230 255
206 230 255
206 230 255
206 230 255
206 230 255
206 230 255
206 230 255
206 230 255
206 230 255
206 230 255
206 230 255
206 230 255
206 230 255
206 230 255
206 230 255
206 230 255
206 230 255
206 230 255
218 242 255
206 230 255
206 230 255
206 230 255
206 230 255
206 230 255
206 230 255
206 230 255
206 230 255
206 230 255
206 230 255
206 230 255
206 230 255
206 230 255
206 230 255
206 230 255
206 230 255
206 230 255
206 230 255
206 230 255
206 230 255
206 230 255
206 230 255
206 230 255
206 230 255
206 230 255
206 230 255
206 230 255
206 230 255
206 230 255
206 230 255
206 230 255
206 230 255
206 230 255
206 230 255
206 230 255
206 230 255
218 242 255
206 230 255
206 230 255
206 230 255
206 230 255
206 230 255
206 230 255
206 230 255
206 230 255
206 230 255
206 230 255
206 230 255
206 230 255
206 230 255
206 230 255
206 230 255
206 230 255
206 230 255
206 230 255
206 230 255
206 230 255
206 230 255
206 230 255
206 230 255
206 230 255
206 230 255
206 230 255
206 230 255
206 230 255
206 230 255
206 230 255
206 230 255
206 230 255
206 230 255
206 230 255
206 230 255
206 230 255
218 242 255
206 230 255
206 230 255
206 230 255
206 230 255
206 230 255
206 230 255
206 230 255
206 230 255
206 230 255
206 230 255
206 230 255
206 230 255
206 230 255
206 230 255
206 230 255
206 230 255
206 230 255
206 230 255
206 230 255
206 230 255
206 230 255
206 230 255
206 230 255
206 230 255
206 230 255
206 230 255
206 230 255
206 230 255
206 230 255
206 230 255
206 230 255
206 230 255
206 230 255
206 230 255
206 230 255
206 230 255
218 242 255
206 230 255
206 230 255
206 230 255
206 230 255
206 230 255
206 230 255
206 230 255
206 230 255
206 230 255
206 230 255
206 230 255
206 230 255
206 230 255
206 230 255
206 230 255
206 230 255
206 230 255
206 230 255
206 230 255
206 230 255
206 230 255
206 230 255
206 230 255
206 230 255
206 230 255
206 230 255
206 230 255
206 230 255
206 230 255
206 230 255
206 230 255
206 230 255
206 230 255
206 230 255
206 230 255
206 230 255
218 242 255
206 230 255
206 230 255
206 230 255
206 230 255
206 230 255
206 230 255
206 230 255
206 230 255
206 230 255
206 230 255
206 230 255
206 230 255
206 230 255
206 230 255
206 230 255
206 230 255
206 230 255
206 230 255
206 230 255
206 230 255
206 230 255
206 230 255
218 242 255
206 230 255
206 230 255
206 230 255
206 230 255
206 230 255
206 230 255
206 230 255
206 230 255
206 230 255
206 230 255
206 230 255
206 230 255
206 230 255
206 230 255
206 230 255
206 230 255
206 230 255
206 230 255
206 230 255
206 230 255
206 230 255
206 230 255
206 230 255
206 230 255
206 230 255
206 230 255
206 230 255
206 230 255
206 230 255
206 230 255
206 230 255
206 230 255
206 230 255
206 230 255
206 230 255
206 230 255
218 242 255
206 230 255
206 230 255
206 230 255
206 230 255
206 230 255
206 230 255
206 230 255
206 230 255
206 230 255
206 230 255
206 230 255
206 230 255
206 230 255
206 230 255
206 230 255
206 230 255
206 230 255
206 230 255
206 230 255
206 230 255
206 230 255
206 230 255
206 230 255
206 230 255
206 230 255
206 230 255
206 230 255
206 230 255
206 230 255
206 230 255
206 230 255
206 230 255
206 230 255
206 230 255
206 230 255
206 230 255
218 242 255
206 230 255
206 230 255
206 230 255
206 230 255
206 230 255
206 230 255
206 230 255
206 230 255
206 230 255
206 230 255
206 230 255
206 230 255
206 230 255
206 230 255
206 230 255
206 230 255
206 230 255
206 230 255
206 230 255
206 230 255
206 230 255
206 230 255
206 230 255
206 230 255
206 230 255
206 230 255
206 230 255
206 230 255
206 230 255
206 230 255
206 230 255
206 230 255
206 230 255
206 230 255
206 230 255
206 230 255
218 242 255
206 230 255
206 230 255
206 230 255
206 230 255
206 230 255
206 230 255
206 230 255
206 230 255
206 230 255
206 230 255
206 230 255
206 230 255
206 230 255
206 230 255
206 230 255
206 230 255
206 230 255
206 230 255
206 230 255
206 230 255
206 230 255
206 230 255
206 230 255
206 230 255
206 230 255
206 230 255
206 230 255
206 230 255
206 230 255
206 230 255
206 230 255
206 230 255
206 230 255
206 230 255
206 230 255
206 230 255
218 242 255
206 230 255
206 230 255
206 230 255
206 230 255
206 230 255
206 230 255
206 230 255
206 230 255
206 230 255
206 230 255
206 230 255
206 230 255
206 230 255
206 230 255
206 230 255
206 230 255
206 230 255
206 230 255
206 230 255
206 230 255
206 230 255
206 230 255
206 230 255
206 230 255
206 230 255
206 230 255
206 230 255
206 230 255
206 230 255
206 230 255
206 230 255
206 230 255
206 230 255
206 230 255
206 230 255
206 230 255
218 242 255
206 230 255
206 230 255
206 230 255
206 230 255
206 230 255
206 230 255
206 230 255
206 230 255
206 230 255
206 230 255
206 230 255
206 230 255
206 230 255
206 230 255
206 230 255
206 230 255
206 230 255
206 230 255
206 230 255
206 230 255
206 230 255
206 230 255
206 230 255
206 230 255
206 230 255
206 230 255
206 230 255
206 230 255
206 230 255
206 230 255
206 230 255
206 230 255
206 230 255
206 230 255
206 230 255
206 230 255
218 242 255
206 230 255
206 230 255
206 230 255
206 230 255
206 230 255
206 230 255
206 230 255
206 230 255
206 230 255
206 230 255
206 230 255
206 230 255
206 230 255
206 230 255
206 230 255
206 230 255
206 230 255
206 230 255
206 230 255
206 230 255
206 230 255
206 230 255
206 230 255
206 230 255
206 230 255
206 230 255
206 230 255
206 230 255
206 230 255
206 230 255
206 230 255
206 230 255
206 230 255
206 230 255
206 230 255
206 230 255
218 242 255
206 230 255
206 230 255
206 230 255
206 230 255
206 230 255
206 230 255
206 230 255
206 230 255
206 230 255
206 230 255
206 230 255
206 230 255
206 230 255
206 230 255
206 230 255
206 230 255
206 230 255
206 230 255
206 230 255
206 230 255
206 230 255
206 230 255
206 230 255
206 230 255
206 230 255
206 230 255
206 230 255
206 230 255
206 230 255
206 230 255
206 230 255
206 230 255
206 230 255
206 230 255
206 230 255
206 230 255
218 242 255
206 230 255
206 230 255
206 230 255
206 230 255
206 230 255
206 230 255
206 230 255
206 230 255
206 230 255
206 230 255
206 230 255
206 230 255
206 230 255
206 230 255
206 230 255
206 230 255
206 230 255
206 230 255
206 230 255
206 230 255
206 230 255
206 230 255
218 242 255
206 230 255
206 230 255
206 230 255
206 230 255
206 230 255
206 230 255
206 230 255
206 230 255
206 230 255
206 230 255
206 230 255
206 230 255
206 230 255
206 230 255
206 230 255
206 230 255
206 230 255
206 230 255
206 230 255
206 230 255
206 230 255
206 230 255
206 230 255
206 230 255
206 230 255
206 230 255
206 230 255
206 230 255
206 230 255
206 230 255
206 230 255
206 230 255
206 230 255
206 230 255
206 230 255
206 230 255
218 242 255
206 230 255
206 230 255
206 230 255
206 230 255
206 230 255
206 230 255
206 230 255
206 230 255
206 230 255
206 230 255
206 230 255
206 230 255
206 230 255
206 230 255
206 230 255
206 230 255
206 230 255
206 230 255
206 230 255
206 230 255
206 230 255
206 230 255
206 230 255
206 230 255
206 230 255
206 230 255
206 230 255
206 230 255
206 230 255
206 230 255
206 230 255
206 230 255
206 230 255
206 230 255
206 230 255
206 230 255
218 242 255
206 230 255
206 230 255
206 230 255
206 230 255
206 230 255
206 230 255
206 230 255
206 230 255
206 230 255
206 230 255
206 230 255
206 230 255
206 230 255
206 230 255
206 230 255
206 230 255
206 230 255
206 230 255
206 230 255
206 230 255
206 230 255
206 230 255
206 230 255
206 230 255
206 230 255
206 230 255
206 230 255
206 230 255
206 230 255
206 230 255
206 230 255
206 230 255
206 230 255
206 230 255
206 230 255
206 230 255
218 242 255
206 230 255
206 230 255
206 230 255
206 230 255
206 230 255
206 230 255
206 230 255
206 230 255
206 230 255
206 230 255
206 230 255
206 230 255
206 230 255
206 230 255
206 230 255
206 230 255
206 230 255
206 230 255
206 230 255
206 230 255
206 230 255
206 230 255
206 230 255
206 230 255
206 230 255
206 230 255
206 230 255
206 230 255
206 230 255
206 230 255
206 230 255
206 230 255
206 230 255
206 230 255
206 230 255
206 230 255
218 242 255
206 230 255
206 230 255
206 230 255
206 230 255
206 230 255
206 230 255
206 230 255
206 230 255
206 230 255
206 230 255
206 230 255
206 230 255
206 230 255
206 230 255
206 230 255
206 230 255
206 230 255
206 230 255
206 230 255
206 230 255
206 230 255
206 230 255
206 230 255
206 230 255
206 230 255
206 230 255
206 230 255
206 230 255
206 230 255
206 230 255
206 230 255
206 230 255
206 230 255
206 230 255
206 230 255
206 230 255
218 242 255
206 230 255
206 230 255
206 230 255
206 230 255
206 230 255
206 230 255
206 230 255
206 230 255
206 230 255
206 230 255
206 230 255
206 230 255
206 230 255
206 230 255
206 230 255
206 230 255
206 230 255
206 230 255
206 230 255
206 230 255
206 230 255
206 230 255
206 230 255
206 230 255
206 230 255
206 230 255
206 230 255
206 230 255
206 230 255
206 230 255
206 230 255
206 230 255
206 230 255
206 230 255
206 230 255
206 230 255
218 242 255
206 230 255
206 230 255
206 230 255
206 230 255
206 230 255
206 230 255
206 230 255
206 230 255
206 230 255
206 230 255
206 230 255
206 230 255
206 230 255
206 230 255
206 230 255
206 230 255
206 230 255
206 230 255
206 230 255
206 230 255
206 230 255
206 230 255
206 230 255
206 230 255
206 230 255
206 230 255
206 230 255
206 230 255
206 230 255
206 230 255
206 230 255
206 230 255
206 230 255
206 230 255
206 230 255
206 230 255
218 242 255
206 230 255
206 230 255
206 230 255
206 230 255
206 230 255
206 230 255
206 230 255
206 230 255
206 230 255
206 230 255
206 230 255
206 230 255
206 230 255
206 230 255
206 230 255
206 230 255
206 230 255
206 230 255
206 230 255
206 230 255
206 230 255
206 230 255
206 230 255
206 230 255
206 230 255
206 230 255
206 230 255
206 230 255
206 230 255
206 230 255
206 230 255
206 230 255
206 230 255
206 230 255
206 230 255
206 230 255
218 242 255
206 230 255
206 230 255
206 230 255
206 230 255
206 230 255
206 230 255
206 230 255
206 230 255
206 230 255
206 230 255
206 230 255
206 230 255
206 230 255
206 230 255
206 230 255
206 230 255
206 230 255
206 230 255
206 230 255
206 230 255
206 230 255
206 230 255
218 242 255
206 230 255
206 230 255
206 230 255
206 230 255
206 230 255
206 230 255
206 230 255
206 230 255
206 230 255
206 230 255
206 230 255
206 230 255
206 230 255
206 230 255
206 230 255
206 230 255
206 230 255
206 230 255
206 230 255
206 230 255
206 230 255
206 230 255
206 230 255
206 230 255
206 230 255
206 230 255
206 230 255
206 230 255
206 230 255
206 230 255
206 230 255
206 230 255
206 230 255
206 230 255
206 230 255
206 230 255
218 242 255
206 230 255
206 230 255
206 230 255
206 230 255
206 230 255
206 230 255
206 230 255
206 230 255
206 230 255
206 230 255
206 230 255
206 230 255
206 230 255
206 230 255
206 230 255
206 230 255
206 230 255
206 230 255
206 230 255
206 230 255
206 230 255
206 230 255
206 230 255
206 230 255
206 230 255
206 230 255
206 230 255
206 230 255
206 230 255
206 230 255
206 230 255
206 230 255
206 230 255
206 230 255
206 230 255
206 230 255
218 242 255
206 230 255
206 230 255
206 230 255
206 230 255
206 230 255
206 230 255
206 230 255
206 230 255
206 230 255
206 230 255
206 230 255
206 230 255
206 230 255
206 230 255
206 230 255
206 230 255
206 230 255
206 230 255
206 230 255
206 230 255
206 230 255
206 230 255
206 230 255
206 230 255
206 230 255
206 230 255
206 230 255
206 230 255
206 230 255
206 230 255
206 230 255
206 230 255
206 230 255
206 230 255
206 230 255
206 230 255
218 242 255
206 230 255
206 230 255
206 230 255
206 230 255
206 230 255
206 230 255
206 230 255
206 230 255
206 230 255
206 230 255
206 230 255
206 230 255
206 230 255
206 230 255
206 230 255
206 230 255
206 230 255
206 230 255
206 230 255
206 230 255
206 230 255
206 230 255
206 230 255
206 230 255
206 230 255
206 230 255
206 230 255
206 230 255
206 230 255
206 230 255
206 230 255
206 230 255
206 230 255
206 230 255
206 230 255
206 230 255
218 242 255
206 230 255
206 230 255
206 230 255
206 230 255
206 230 255
206 230 255
206 230 255
206 230 255
206 230 255
206 230 255
206 230 255
206 230 255
206 230 255
206 230 255
206 230 255
206 230 255
206 230 255
206 230 255
206 230 255
206 230 255
206 230 255
206 230 255
206 230 255
206 230 255
206 230 255
206 230 255
206 230 255
206 230 255
206 230 255
206 230 255
206 230 255
206 230 255
206 230 255
206 230 255
206 230 255
206 230 255
218 242 255
206 230 255
206 230 255
206 230 255
206 230 255
206 230 255
206 230 255
206 230 255
206 230 255
206 230 255
206 230 255
206 230 255
206 230 255
206 230 255
206 230 255
206 230 255
206 230 255
206 230 255
206 230 255
206 230 255
206 230 255
206 230 255
206 230 255
206 230 255
206 230 255
206 230 255
206 230 255
206 230 255
206 230 255
206 230 255
206 230 255
206 230 255
206 230 255
206 230 255
206 230 255
206 230 255
206 230 255
218 242 255
206 230 255
206 230 255
206 230 255
206 230 255
206 230 255
206 230 255
206 230 255
206 230 255
206 230 255
206 230 255
206 230 255
206 230 255
206 230 255
206 230 255
206 230 255
206 230 255
206 230 255
206 230 255
206 230 255
206 230 255
206 230 255
206 230 255
206 230 255
206 230 255
206 230 255
206 230 255
206 230 255
206 230 255
206 230 255
206 230 255
206 230 255
206 230 255
206 230 255
206 230 255
206 230 255
206 230 255
218 242 255
206 230 255
206 230 255
206 230 255
206 230 255
206 230 255
206 230 255
206 230 255
206 230 255
206 230 255
206 230 255
206 230 255
206 230 255
206 230 255
206 230 255
206 230 255
206 230 255
206 230 255
206 230 255
206 230 255
206 230 255
206 230 255
206 230 255
206 230 255
206 230 255
206 230 255
206 230 255
206 230 255
206 230 255
206 230 255
206 230 255
206 230 255
206 230 255
206 230 255
206 230 255
206 230 255
206 230 255
218 242 255
206 230 255
206 230 255
206 230 255
206 230 255
206 230 255
206 230 255
206 230 255
206 230 255
206 230 255
206 230 255
206 230 255
206 230 255
206 230 255
206 230 255
206 230 255
206 230 255
206 230 255
206 230 255
206 230 255
206 230 255
206 230 255
206 230 255
218 242 255
206 230 255
206 230 255
206 230 255
206 230 255
206 230 255
206 230 255
206 230 255
206 230 255
206 230 255
206 230 255
206 230 255
206 230 255
206 230 255
206 230 255
206 230 255
206 230 255
206 230 255
206 230 255
206 230 255
206 230 255
206 230 255
206 230 255
206 230 255
206 230 255
206 230 255
206 230 255
206 230 255
206 230 255
206 230 255
206 230 255
206 230 255
206 230 255
206 230 255
206 230 255
206 230 255
206 230 255
218 242 255
206 230 255
206 230 255
206 230 255
206 230 255
206 230 255
206 230 255
206 230 255
206 230 255
206 230 255
206 230 255
206 230 255
206 230 255
206 230 255
206 230 255
206 230 255
206 230 255
206 230 255
206 230 255
206 230 255
206 230 255
206 230 255
206 230 255
206 230 255
206 230 255
206 230 255
206 230 255
206 230 255
206 230 255
206 230 255
206 230 255
206 230 255
206 230 255
206 230 255
206 230 255
206 230 255
206 230 255
218 242 255
206 230 255
206 230 255
206 230 255
206 230 255
206 230 255
206 230 255
206 230 255
206 230 255
206 230 255
206 230 255
206 230 255
206 230 255
206 230 255
206 230 255
206 230 255
206 230 255
206 230 255
206 230 255
206 230 255
206 230 255
206 230 255
206 230 255
206 230 255
206 230 255
206 230 255
206 230 255
206 230 255
206 230 255
206 230 255
206 230 255
206 230 255
206 230 255
206 230 255
206 230 255
206 230 255
206 230 255
218 242 255
206 230 255
206 230 255
206 230 255
206 230 255
206 230 255
206 230 255
206 230 255
206 230 255
206 230 255
206 230 255
206 230 255
206 230 255
206 230 255
206 230 255
206 230 255
206 230 255
206 230 255
206 230 255
206 230 255
206 230 255
206 230 255
206 230 255
206 230 255
206 230 255
206 230 255
206 230 255
206 230 255
206 230 255
206 230 255
206 230 255
206 230 255
206 230 255
206 230 255
206 230 255
206 230 255
206 230 255
218 242 255
206 230 255
206 230 255
206 230 255
206 230 255
206 230 255
206 230 255
206 230 255
206 230 255
206 230 255
206 230 255
206 230 255
206 230 255
206 230 255
206 230 255
206 230 255
206 230 255
206 230 255
206 230 255
206 230 255
206 230 255
206 230 255
206 230 255
206 230 255
206 230 255
206 230 255
206 230 255
206 230 255
206 230 255
206 230 255
206 230 255
206 230 255
206 230 255
206 230 255
206 230 255
206 230 255
206 230 255
218 242 255
206 230 255
206 230 255
206 230 255
206 230 255
206 230 255
206 230 255
206 230 255
206 230 255
206 230 255
206 230 255
206 230 255
206 230 255
206 230 255
206 230 255
206 230 255
206 230 255
206 230 255
206 230 255
206 230 255
206 230 255
206 230 255
206 230 255
206 230 255
206 230 255
206 230 255
206 230 255
206 230 255
206 230 255
206 230 255
206 230 255
206 230 255
206 230 255
206 230 255
206 230 255
206 230 255
206 230 255
218 242 255
206 230 255
206 230 255
206 230 255
206 230 255
206 230 255
206 230 255
206 230 255
206 230 255
206 230 255
206 230 255
206 230 255
206 230 255
206 230 255
206 230 255
206 230 255
206 230 255
206 230 255
206 230 255
206 230 255
206 230 255
206 230 255
206 230 255
206 230 255
206 230 255
206 230 255
206 230 255
206 230 255
206 230 255
206 230 255
206 230 255
206 230 255
206 230 255
206 230 255
206 230 255
206 230 255
206 230 255
218 242 255
206 230 255
206 230 255
206 230 255
206 230 255
206 230 255
206 230 255
206 230 255
206 230 255
206 230 255
206 230 255
206 230 255
206 230 255
206 230 255
206 230 255
206 230 255
206 230 255
206 230 255
206 230 255
206 230 255
206 230 255
206 230 255
206 230 255
206 230 255
206 230 255
206 230 255
206 230 255
206 230 255
206 230 255
206 230 255
206 230 255
206 230 255
206 230 255
206 230 255
206 230 255
206 230 255
206 230 255
218 242 255
206 230 255
206 230 255
206 230 255
206 230 255
206 230 255
206 230 255
206 230 255
206 230 255
206 230 255
206 230 255
206 230 255
206 230 255
206 230 255
206 230 255
206 230 255
206 230 255
206 230 255
206 230 255
206 230 255
206 230 255
206 230 255
206 230 255
218 242 255
206 230 255
206 230 255
206 230 255
206 230 255
206 230 255
206 230 255
206 230 255
206 230 255
206 230 255
206 230 255
206 230 255
206 230 255
206 230 255
206 230 255
206 230 255
206 230 255
206 230 255
206 230 255
206 230 255
206 230 255
206 230 255
206 230 255
206 230 255
206 230 255
206 230 255
206 230 255
206 230 255
206 230 255
206 230 255
206 230 255
206 230 255
206 230 255
206 230 255
206 230 255
206 230 255
206 230 255
218 242 255
206 230 255
206 230 255
206 230 255
206 230 255
206 230 255
206 230 255
206 230 255
206 230 255
206 230 255
206 230 255
206 230 255
206 230 255
206 230 255
206 230 255
206 230 255
206 230 255
206 230 255
206 230 255
206 230 255
206 230 255
206 230 255
206 230 255
206 230 255
206 230 255
206 230 255
206 230 255
206 230 255
206 230 255
206 230 255
206 230 255
206 230 255
206 230 255
206 230 255
206 230 255
206 230 255
206 230 255
218 242 255
206 230 255
206 230 255
206 230 255
206 230 255
206 230 255
206 230 255
206 230 255
206 230 255
206 230 255
206 230 255
206 230 255
206 230 255
206 230 255
206 230 255
206 230 255
206 230 255
206 230 255
206 230 255
206 230 255
206 230 255
206 230 255
206 230 255
206 230 255
206 230 255
206 230 255
206 230 255
206 230 255
206 230 255
206 230 255
206 230 255
206 230 255
206 230 255
206 230 255
206 230 255
206 230 255
206 230 255
218 242 255
206 230 255
206 230 255
206 230 255
206 230 255
206 230 255
206 230 255
206 230 255
206 230 255
206 230 255
206 230 255
206 230 255
206 230 255
206 230 255
206 230 255
206 230 255
206 230 255
206 230 255
206 230 255
206 230 255
206 230 255
206 230 255
206 230 255
206 230 255
206 230 255
206 230 255
206 230 255
206 230 255
206 230 255
206 230 255
206 230 255
206 230 255
206 230 255
206 230 255
206 230 255
206 230 255
206 230 255
218 242 255
206 230 255
206 230 255
206 230 255
206 230 255
206 230 255
206 230 255
206 230 255
206 230 255
206 230 255
206 230 255
206 230 255
206 230 255
206 230 255
206 230 255
206 230 255
206 230 255
206 230 255
206 230 255
206 230 255
206 230 255
206 230 255
206 230 255
206 230 255
206 230 255
206 230 255
206 230 255
206 230 255
206 230 255
206 230 255
206 230 255
206 230 255
206 230 255
206 230 255
206 230 255
206 230 255
206 230 255
218 242 255
206 230 255
206 230 255
206 230 255
206 230 255
206 230 255
206 230 255
206 230 255
206 230 255
206 230 255
206 230 255
206 230 255
206 230 255
206 230 255
206 230 255
206 230 255
206 230 255
206 230 255
206 230 255
206 230 255
206 230 255
206 230 255
206 230 255
206 230 255
206 230 255
206 230 255
206 230 255
206 230 255
206 230 255
206 230 255
206 230 255
206 230 255
206 230 255
206 230 255
206 230 255
206 230 255
206 230 255
218 242 255
206 230 255
206 230 255
206 230 255
206 230 255
206 230 255
206 230 255
206 230 255
206 230 255
206 230 255
206 230 255
206 230 255
206 230 255
206 230 255
206 230 255
206 230 255
206 230 255
206 230 255
206 230 255
206 230 255
206 230 255
206 230 255
206 230 255
206 230 255
206 230 255
206 230 255
206 230 255
206 230 255
206 230 255
206 230 255
206 230 255
206 230 255
206 230 255
206 230 255
206 230 255
206 230 255
206 230 255
218 242 255
206 230 255
206 230 255
206 230 255
206 230 255
206 230 255
206 230 255
206 230 255
206 230 255
206 230 255
206 230 255
206 230 255
206 230 255
206 230 255
206 230 255
206 230 255
206 230 255
206 230 255
206 230 255
206 230 255
206 230 255
206 230 255
206 230 255
206 230 255
206 230 255
206 230 255
206 230 255
206 230 255
206 230 255
206 230 255
206 230 255
206 230 255
206 230 255
206 230 255
206 230 255
206 230 255
206 230 255
218 242 255
206 230 255
206 230 255
206 230 255
206 230 255
206 230 255
206 230 255
206 230 255
206 230 255
206 230 255
206 230 255
206 230 255
206 230 255
206 230 255
206 230 255
206 230 255
206 230 255
206 230 255
206 230 255
206 230 255
206 230 255
206 230 255
206 230 255
218 242 255
206 230 255
206 230 255
206 230 255
206 230 255
206 230 255
206 230 255
206 230 255
206 230 255
206 230 255
206 230 255
206 230 255
206 230 255
206 230 255
206 230 255
206 230 255
206 230 255
206 230 255
206 230 255
206 230 255
206 230 255
206 230 255
206 230 255
206 230 255
206 230 255
206 230 255
206 230 255
206 230 255
206 230 255
206 230 255
206 230 255
206 230 255
206 230 255
206 230 255
206 230 255
206 230 255
206 230 255
218 242 255
206 230 255
206 230 255
206 230 255
206 230 255
206 230 255
206 230 255
206 230 255
206 230 255
206 230 255
206 230 255
206 230 255
206 230 255
206 230 255
206 230 255
206 230 255
206 230 255
206 230 255
206 230 255
206 230 255
206 230 255
206 230 255
206 230 255
206 230 255
206 230 255
206 230 255
206 230 255
206 230 255
206 230 255
206 230 255
206 230 255
206 230 255
206 230 255
206 230 255
206 230 255
206 230 255
206 230 255
218 242 255
206 230 255
206 230 255
206 230 255
206 230 255
206 230 255
206 230 255
206 230 255
206 230 255
206 230 255
206 230 255
206 230 255
206 230 255
206 230 255
206 230 255
206 230 255
206 230 255
206 230 255
206 230 255
206 230 255
206 230 255
206 230 255
206 230 255
206 230 255
206 230 255
206 230 255
206 230 255
206 230 255
206 230 255
206 230 255
206 230 255
206 230 255
206 230 255
206 230 255
206 230 255
206 230 255
206 230 255
218 242 255
206 230 255
206 230 255
206 230 255
206 230 255
206 230 255
206 230 255
206 230 255
206 230 255
206 230 255
206 230 255
206 230 255
206 230 255
206 230 255
206 230 255
206 230 255
206 230 255
206 230 255
206 230 255
206 230 255
206 230 255
206 230 255
206 230 255
206 230 255
206 230 255
206 230 255
206 230 255
206 230 255
206 230 255
206 230 255
206 230 255
206 230 255
206 230 255
206 230 255
206 230 255
206 230 255
206 230 255
218 242 255
206 230 255
206 230 255
206 230 255
206 230 255
206 230 255
206 230 255
206 230 255
206 230 255
206 230 255
206 230 255
206 230 255
206 230 255
206 230 255
206 230 255
206 230 255
206 230 255
206 230 255
206 230 255
206 230 255
206 230 255
206 230 255
206 230 255
206 230 255
206 230 255
206 230 255
206 230 255
206 230 255
206 230 255
206 230 255
206 230 255
206 230 255
206 230 255
206 230 255
206 230 255
206 230 255
206 230 255
218 242 255
206 230 255
206 230 255
206 230 255
206 230 255
206 230 255
206 230 255
206 230 255
206 230 255
206 230 255
206 230 255
206 230 255
206 230 255
206 230 255
206 230 255
206 230 255
206 230 255
206 230 255
206 230 255
206 230 255
206 230 255
206 230 255
206 230 255
206 230 255
206 230 255
206 230 255
206 230 255
206 230 255
206 230 255
206 230 255
206 230 255
206 230 255
206 230 255
206 230 255
206 230 255
206 230 255
206 230 255
218 242 255
206 230 255
206 230 255
206 230 255
206 230 255
206 230 255
206 230 255
206 230 255
206 230 255
206 230 255
206 230 255
206 230 255
206 230 255
206 230 255
206 230 255
206 230 255
206 230 255
206 230 255
206 230 255
206 230 255
206 230 255
206 230 255
206 230 255
206 230 255
206 230 255
206 230 255
206 230 255
206 230 255
206 230 255
206 230 255
206 230 255
206 230 255
206 230 255
206 230 255
206 230 255
206 230 255
206 230 255
218 242 255
206 230 255
206 230 255
206 230 255
206 230 255
206 230 255
206 230 255
206 230 255
206 230 255
206 230 255
206 230 255
206 230 255
206 230 255
206 230 255
206 230 255
206 230 255
206 230 255
206 230 255
206 230 255
206 230 255
206 230 255
206 230 255
206 230 255
206 230 255
206 230 255
206 230 255
206 230 255
206 230 255
206 230 255
206 230 255
206 230 255
206 230 255
206 230 255
206 230 255
206 230 255
206 230 255
206 230 255
218 242 255
206 230 255
206 230 255
206 230 255
206 230 255
206 230 255
206 230 255
206 230 255
206 230 255
206 230 255
206 230 255
206 230 255
206 230 255
206 230 255
206 230 255
206 230 255
206 230 255
206 230 255
206 230 255
206 230 255
206 230 255
206 230 255
206 230 255
218 242 255
206 230 255
206 230 255
206 230 255
206 230 255
206 230 255
206 230 255
206 230 255
206 230 255
206 230 255
206 230 255
206 230 255
206 230 255
206 230 255
206 230 255
206 230 255
206 230 255
206 230 255
206 230 255
206 230 255
206 230 255
206 230 255
206 230 255
206 230 255
206 230 255
206 230 255
206 230 255
206 230 255
206 230 255
206 230 255
206 230 255
206 230 255
206 230 255
206 230 255
206 230 255
206 230 255
206 230 255
218 242 255
206 230 255
206 230 255
206 230 255
206 230 255
206 230 255
206 230 255
206 230 255
206 230 255
206 230 255
206 230 255
206 230 255
206 230 255
206 230 255
206 230 255
206 230 255
206 230 255
206 230 255
206 230 255
206 230 255
206 230 255
206 230 255
206 230 255
206 230 255
206 230 255
206 230 255
206 230 255
206 230 255
206 230 255
206 230 255
206 230 255
206 230 255
206 230 255
206 230 255
206 230 255
206 230 255
206 230 255
218 242 255
206 230 255
206 230 255
206 230 255
206 230 255
206 230 255
206 230 255
206 230 255
206 230 255
206 230 255
206 230 255
206 230 255
206 230 255
206 230 255
206 230 255
206 230 255
206 230 255
206 230 255
206 230 255
206 230 255
206 230 255
206 230 255
206 230 255
206 230 255
206 230 255
206 230 255
206 230 255
206 230 255
206 230 255
206 230 255
206 230 255
206 230 255
206 230 255
206 230 255
206 230 255
206 230 255
206 230 255
218 242 255
206 230 255
206 230 255
206 230 255
206 230 255
206 230 255
206 230 255
206 230 255
206 230 255
206 230 255
206 230 255
206 230 255
206 230 255
206 230 255
206 230 255
206 230 255
206 230 255
206 230 255
206 230 255
206 230 255
206 230 255
206 230 255
206 230 255
206 230 255
206 230 255
206 230 255
206 230 255
206 230 255
206 230 255
206 230 255
206 230 255
206 230 255
206 230 255
206 230 255
206 230 255
206 230 255
206 230 255
218 242 255
206 230 255
206 230 255
206 230 255
206 230 255
206 230 255
206 230 255
206 230 255
206 230 255
206 230 255
206 230 255
206 230 255
206 230 255
206 230 255
206 230 255
206 230 255
206 230 255
206 230 255
206 230 255
206 230 255
206 230 255
206 230 255
206 230 255
206 230 255
206 230 255
206 230 255
206 230 255
206 230 255
206 230 255
206 230 255
206 230 255
206 230 255
206 230 255
206 230 255
206 230 255
206 230 255
206 230 255
218 242 255
206 230 255
206 230 255
206 230 255
206 230 255
206 230 255
206 230 255
206 230 255
206 230 255
206 230 255
206 230 255
206 230 255
206 230 255
206 230 255
206 230 255
206 230 255
206 230 255
206 230 255
206 230 255
206 230 255
206 230 255
206 230 255
206 230 255
206 230 255
206 230 255
206 230 255
206 230 255
206 230 255
206 230 255
206 230 255
206 230 255
206 230 255
206 230 255
206 230 255
206 230 255
206 230 255
206 230 255
218 242 255
206 230 255
206 230 255
206 230 255
206 230 255
206 230 255
206 230 255
206 230 255
206 230 255
206 230 255
206 230 255
206 230 255
206 230 255
206 230 255
206 230 255
206 230 255
206 230 255
206 230 255
206 230 255
206 230 255
206 230 255
206 230 255
206 230 255
206 230 255
206 230 255
206 230 255
206 230 255
206 230 255
206 230 255
206 230 255
206 230 255
206 230 255
206 230 255
206 230 255
206 230 255
206 230 255
206 230 255
218 242 255
206 230 255
206 230 255
206 230 255
206 230 255
206 230 255
206 230 255
206 230 255
206 230 255
206 230 255
206 230 255
206 230 255
206 230 255
206 230 255
206 230 255
206 230 255
206 230 255
206 230 255
206 230 255
206 230 255
206 230 255
206 230 255
206 230 255
206 230 255
206 230 255
206 230 255
206 230 255
206 230 255
206 230 255
206 230 255
206 230 255
206 230 255
206 230 255
206 230 255
206 230 255
206 230 255
206 230 255
218 242 255
206 230 255
206 230 255
206 230 255
206 230 255
206 230 255
206 230 255
206 230 255
206 230 255
206 230 255
206 230 255
206 230 255
206 230 255
206 230 255
206 230 255
206 230 255
206 230 255
206 230 255
206 230 255
206 230 255
206 230 255
206 230 255
206 230 255
206 230 255
206 230 255
206 230 255
206 230 255
206 230 255
206 230 255
206 230 255
206 230 255
206 230 255
206 230 255
206 230 255
206 230 255
206 230 255
206 230 255
206 230 255
206 230 255
206 230 255
206 230 255
206 230 255
206 230 255
206 230 255
206 230 255
206 230 255
206 230 255
206 230 255
206 230 255
206 230 255
206 230 255
206 230 255
206 230 255
206 230 255
206 230 255
206 230 255
206 230 255
206 230 255
206 230 255
206 230 255
218 242 255
206 230 255
206 230 255
206 230 255
206 230 255
206 230 255
206 230 255
206 230 255
206 230 255
206 230 255
206 230 255
206 230 255
206 230 255
206 230 255
206 230 255
206 230 255
206 230 255
206 230 255
206 230 255
206 230 255
206 230 255
206 230 255
206 230 255
206 230 255
206 230 255
206 230 255
206 230 255
206 230 255
206 230 255
206 230 255
206 230 255
206 230 255
206 230 255
206 230 255
206 230 255
206 230 255
206 230 255
218 242 255
206 230 255
206 230 255
206 230 255
206 230 255
206 230 255
206 230 255
206 230 255
206 230 255
206 230 255
206 230 255
206 230 255
206 230 255
206 230 255
206 230 255
206 230 255
206 230 255
206 230 255
206 230 255
206 230 255
206 230 255
206 230 255
206 230 255
206 230 255
206 230 255
206 230 255
206 230 255
206 230 255
206 230 255
206 230 255
206 230 255
206 230 255
206 230 255
206 230 255
206 230 255
206 230 255
206 230 255
218 242 255
206 230 255
206 230 255
206 230 255
206 230 255
206 230 255
206 230 255
206 230 255
206 230 255
206 230 255
206 230 255
206 230 255
206 230 255
206 230 255
206 230 255
206 230 255
206 230 255
206 230 255
206 230 255
206 230 255
206 230 255
206 230 255
206 230 255
206 230 255
206 230 255
206 230 255
206 230 255
206 230 255
206 230 255
206 230 255
206 230 255
206 230 255
206 230 255
206 230 255
206 230 255
206 230 255
206 230 255
218 242 255
206 230 255
206 230 255
206 230 255
206 230 255
206 230 255
206 230 255
206 230 255
206 230 255
206 230 255
206 230 255
206 230 255
206 230 255
206 230 255
206 230 255
206 230 255
206 230 255
206 230 255
206 230 255
206 230 255
206 230 255
206 230 255
206 230 255
206 230 255
206 230 255
206 230 255
206 230 255
206 230 255
206 230 255
206 230 255
206 230 255
206 230 255
206 230 255
206 230 255
206 230 255
206 230 255
206 230 255
218 242 255
206 230 255
206 230 255
206 230 255
206 230 255
206 230 255
206 230 255
206 230 255
206 230 255
206 230 255
206 230 255
206 230 255
206 230 255
206 230 255
206 230 255
206 230 255
206 230 255
206 230 255
206 230 255
206 230 255
206 230 255
206 230 255
206 230 255
206 230 255
206 230 255
206 230 255
206 230 255
206 230 255
206 230 255
206 230 255
206 230 255
206 230 255
206 230 255
206 230 255
206 230 255
206 230 255
206 230 255
218 242 255
206 230 255
206 230 255
206 230 255
206 230 255
206 230 255
206 230 255
206 230 255
206 230 255
206 230 255
206 230 255
206 230 255
206 230 255
206 230 255
206 230 255
206 230 255
206 230 255
206 230 255
206 230 255
206 230 255
206 230 255
206 230 255
206 230 255
206 230 255
206 230 255
206 230 255
206 230 255
206 230 255
206 230 255
206 230 255
206 230 255
206 230 255
206 230 255
206 230 255
206 230 255
206 230 255
206 230 255
218 242 255
206 230 255
206 230 255
206 230 255
206 230 255
206 230 255
206 230 255
206 230 255
206 230 255
206 230 255
206 230 255
206 230 255
206 230 255
206 230 255
206 230 255
206 230 255
206 230 255
206 230 255
206 230 255
206 230 255
206 230 255
206 230 255
206 230 255
206 230 255
206 230 255
206 230 255
206 230 255
206 230 255
206 230 255
206 230 255
206 230 255
206 230 255
206 230 255
206 230 255
206 230 255
206 230 255
206 230 255
218 242 255
206 230 255
206 230 255
206 230 255
206 230 255
206 230 255
206 230 255
206 230 255
206 230 255
206 230 255
206 230 255
206 230 255
206 230 255
206 230 255
206 230 255
206 230 255
206 230 255
206 230 255
206 230 255
206 230 255
206 230 255
206 230 255
206 230 255
206 230 255
206 230 255
206 230 255
206 230 255
206 230 255
206 230 255
206 230 255
206 230 255
206 230 255
206 230 255
206 230 255
206 230 255
206 230 255
206 230 255
206 230 255
206 230 255
206 230 255
206 230 255
206 230 255
206 230 255
206 230 255
206 230 255
206 230 255
206 230 255
206 230 255
206 230 255
206 230 255
206 230 255
206 230 255
206 230 255
206 230 255
206 230 255
206 230 255
206 230 255
206 230 255
206 230 255
206 230 255
218 242 255
206 230 255
206 230 255
206 230 255
206 230 255
206 230 255
206 230 255
206 230 255
206 230 255
206 230 255
206 230 255
206 230 255
206 230 255
206 230 255
206 230 255
206 230 255
206 230 255
206 230 255
206 230 255
206 230 255
206 230 255
206 230 255
206 230 255
206 230 255
206 230 255
206 230 255
206 230 255
206 230 255
206 230 255
206 230 255
206 230 255
206 230 255
206 230 255
206 230 255
206 230 255
206 230 255
206 230 255
218 242 255
206 230 255
206 230 255
206 230 255
206 230 255
206 230 255
206 230 255
206 230 255
206 230 255
206 230 255
206 230 255
206 230 255
206 230 255
206 230 255
206 230 255
206 230 255
206 230 255
206 230 255
206 230 255
206 230 255
206 230 255
206 230 255
206 230 255
206 230 255
206 230 255
206 230 255
206 230 255
206 230 255
206 230 255
206 230 255
206 230 255
206 230 255
206 230 255
206 230 255
206 230 255
206 230 255
206 230 255
218 242 255
206 230 255
206 230 255
206 230 255
206 230 255
206 230 255
206 230 255
206 230 255
206 230 255
206 230 255
206 230 255
206 230 255
206 230 255
206 230 255
206 230 255
206 230 255
206 230 255
206 230 255
206 230 255
206 230 255
206 230 255
206 230 255
206 230 255
206 230 255
206 230 255
206 230 255
206 230 255
206 230 255
206 230 255
206 230 255
206 230 255
206 230 255
206 230 255
206 230 255
206 230 255
206 230 255
206 230 255
218 242 255
206 230 255
206 230 255
206 230 255
206 230 255
206 230 255
206 230 255
206 230 255
206 230 255
206 230 255
206 230 255
206 230 255
206 230 255
206 230 255
206 230 255
206 230 255
206 230 255
206 230 255
206 230 255
206 230 255
206 230 255
206 230 255
206 230 255
206 230 255
206 230 255
206 230 255
206 230 255
206 230 255
206 230 255
206 230 255
206 230 255
206 230 255
206 230 255
206 230 255
206 230 255
206 230 255
206 230 255
218 242 255
206 230 255
206 230 255
206 230 255
206 230 255
206 230 255
206 230 255
206 230 255
206 230 255
206 230 255
206 230 255
206 230 255
206 230 255
206 230 255
206 230 255
206 230 255
206 230 255
206 230 255
206 230 255
206 230 255
206 230 255
206 230 255
206 230 255
206 230 255
206 230 255
206 230 255
206 230 255
206 230 255
206 230 255
206 230 255
206 230 255
206 230 255
206 230 255
206 230 255
206 230 255
206 230 255
206 230 255
218 242 255
206 230 255
206 230 255
206 230 255
206 230 255
206 230 255
206 230 255
206 230 255
206 230 255
206 230 255
206 230 255
206 230 255
206 230 255
206 230 255
206 230 255
206 230 255
206 230 255
206 230 255
206 230 255
206 230 255
206 230 255
206 230 255
206 230 255
206 230 255
206 230 255
206 230 255
206 230 255
206 230 255
206 230 255
206 230 255
206 230 255
206 230 255
206 230 255
206 230 255
206 230 255
206 230 255
206 230 255
218 242 255
206 230 255
206 230 255
206 230 255
206 230 255
206 230 255
206 230 255
206 230 255
206 230 255
206 230 255
206 230 255
206 230 255
206 230 255
206 230 255
206 230 255
206 230 255
206 230 255
206 230 255
206 230 255
206 230 255
206 230 255
206 230 255
206 230 255
206 230 255
206 230 255
206 230 255
206 230 255
206 230 255
206 230 255
206 230 255
206 230 255
206 230 255
206 230 255
206 230 255
206 230 255
206 230 255
206 230 255
218 242 255
206 230 255
206 230 255
206 230 255
206 230 255
206 230 255
206 230 255
206 230 255
206 230 255
206 230 255
206 230 255
206 230 255
206 230 255
206 230 255
206 230 255
206 230 255
206 230 255
206 230 255
206 230 255
206 230 255
206 230 255
206 230 255
206 230 255
206 230 255
206 230 255
206 230 255
206 230 255
206 230 255
206 230 255
206 230 255
206 230 255
206 230 255
206 230 255
206 230 255
206 230 255
206 230 255
206 230 255
206 230 255
206 230 255
206 230 255
206 230 255
206 230 255
206 230 255
206 230 255
206 230 255
206 230 255
206 230 255
206 230 255
206 230 255
206 230 255
206 230 255
206 230 255
206 230 255
206 230 255
206 230 255
206 230 255
206 230 255
206 230 255
206 230 255
206 230 255
218 242 255
206 230 255
206 230 255
206 230 255
206 230 255
206 230 255
206 230 255
206 230 255
206 230 255
206 230 255
206 230 255
206 230 255
206 230 255
206 230 255
206 230 255
206 230 255
206 230 255
206 230 255
206 230 255
206 230 255
206 230 255
206 230 255
206 230 255
206 230 255
206 230 255
206 230 255
206 230 255
206 230 255
206 230 255
206 230 255
206 230 255
206 230 255
206 230 255
206 230 255
206 230 255
206 230 255
206 230 255
218 242 255
206 230 255
206 230 255
206 230 255
206 230 255
206 230 255
206 230 255
206 230 255
206 230 255
206 230 255
206 230 255
206 230 255
206 230 255
206 230 255
206 230 255
206 230 255
206 230 255
206 230 255
206 230 255
206 230 255
206 230 255
206 230 255
206 230 255
206 230 255
206 230 255
206 230 255
206 230 255
206 230 255
206 230 255
206 230 255
206 230 255
206 230 255
206 230 255
206 230 255
206 230 255
206 230 255
206 230 255
218 242 255
206 230 255
206 230 255
206 230 255
206 230 255
206 230 255
206 230 255
206 230 255
206 230 255
206 230 255
206 230 255
206 230 255
206 230 255
206 230 255
206 230 255
206 230 255
206 230 255
206 230 255
206 230 255
206 230 255
206 230 255
206 230 255
206 230 255
206 230 255
206 230 255
206 230 255
206 230 255
206 230 255
206 230 255
206 230 255
206 230 255
206 230 255
206 230 255
206 230 255
206 230 255
206 230 255
206 230 255
218 242 255
206 230 255
206 230 255
206 230 255
206 230 255
206 230 255
206 230 255
206 230 255
206 230 255
206 230 255
206 230 255
206 230 255
206 230 255
206 230 255
206 230 255
206 230 255
206 230 255
206 230 255
206 230 255
206 230 255
206 230 255
206 230 255
206 230 255
206 230 255
206 230 255
206 230 255
206 230 255
206 230 255
206 230 255
206 230 255
206 230 255
206 230 255
206 230 255
206 230 255
206 230 255
206 230 255
206 230 255
218 242 255
206 230 255
206 230 255
206 230 255
206 230 255
206 230 255
206 230 255
206 230 255
206 230 255
206 230 255
206 230 255
206 230 255
206 230 255
206 230 255
206 230 255
206 230 255
206 230 255
206 230 255
206 230 255
206 230 255
206 230 255
206 230 255
206 230 255
206 230 255
206 230 255
206 230 255
206 230 255
206 230 255
206 230 255
206 230 255
206 230 255
206 230 255
206 230 255
206 230 255
206 230 255
206 230 255
206 230 255
218 242 255
206 230 255
206 230 255
206 230 255
206 230 255
206 230 255
206 230 255
206 230 255
206 230 255
206 230 255
206 230 255
206 230 255
206 230 255
206 230 255
206 230 255
206 230 255
206 230 255
206 230 255
206 230 255
206 230 255
206 230 255
206 230 255
206 230 255
206 230 255
206 230 255
206 230 255
206 230 255
206 230 255
206 230 255
206 230 255
206 230 255
206 230 255
206 230 255
206 230 255
206 230 255
206 230 255
206 230 255
218 242 255
206 230 255
206 230 255
206 230 255
206 230 255
206 230 255
206 230 255
206 230 255
206 230 255
206 230 255
206 230 255
206 230 255
206 230 255
206 230 255
206 230 255
206 230 255
206 230 255
206 230 255
206 230 255
206 230 255
206 230 255
206 230 255
206 230 255
206 230 255
206 230 255
206 230 255
206 230 255
206 230 255
206 230 255
206 230 255
206 230 255
206 230 255
206 230 255
206 230 255
206 230 255
206 230 255
206 230 255
218 242 255
206 230 255
206 230 255
206 230 255
206 230 255
206 230 255
206 230 255
206 230 255
206 230 255
206 230 255
206 230 255
206 230 255
206 230 255
206 230 255
206 230 255
206 230 255
206 230 255
206 230 255
206 230 255
206 230 255
206 230 255
206 230 255
206 230 255
206 230 255
206 230 255
206 230 255
206 230 255
206 230 255
206 230 255
206 230 255
206 230 255
206 230 255
206 230 255
206 230 255
206 230 255
206 230 255
206 230 255
206 230 255
206 230 255
206 230 255
206 230 255
206 230 255
206 230 255
206 230 255
206 230 255
206 230 255
206 230 255
206 230 255
206 230 255
206 230 255
206 230 255
206 230 255
206 230 255
206 230 255
206 230 255
206 230 255
206 230 255
206 230 255
206 230 255
206 230 255
218 242 255
206 230 255
206 230 255
206 230 255
206 230 255
206 230 255
206 230 255
206 230 255
206 230 255
206 230 255
206 230 255
206 230 255
206 230 255
206 230 255
206 230 255
206 230 255
206 230 255
206 230 255
206 230 255
206 230 255
206 230 255
206 230 255
206 230 255
206 230 255
206 230 255
206 230 255
206 230 255
206 230 255
206 230 255
206 230 255
206 230 255
206 230 255
206 230 255
206 230 255
206 230 255
206 230 255
206 230 255
218 242 255
206 230 255
206 230 255
206 230 255
206 230 255
206 230 255
206 230 255
206 230 255
206 230 255
206 230 255
206 230 255
206 230 255
206 230 255
206 230 255
206 230 255
206 230 255
206 230 255
206 230 255
206 230 255
206 230 255
206 230 255
206 230 255
206 230 255
206 230 255
206 230 255
206 230 255
206 230 255
206 230 255
206 230 255
206 230 255
206 230 255
206 230 255
206 230 255
206 230 255
206 230 255
206 230 255
206 230 255
218 242 255
206 230 255
206 230 255
206 230 255
206 230 255
206 230 255
206 230 255
206 230 255
206 230 255
206 230 255
206 230 255
206 230 255
206 230 255
206 230 255
206 230 255
206 230 255
206 230 255
206 230 255
206 230 255
206 230 255
206 230 255
206 230 255
206 230 255
206 230 255
206 230 255
206 230 255
206 230 255
206 230 255
206 230 255
206 230 255
206 230 255
206 230 255
206 230 255
206 230 255
206 230 255
206 230 255
206 230 255
218 242 255
206 230 255
206 230 255
206 230 255
206 230 255
206 230 255
206 230 255
206 230 255
206 230 255
206 230 255
206 230 255
206 230 255
206 230 255
206 230 255
206 230 255
206 230 255
206 230 255
206 230 255
206 230 255
206 230 255
206 230 255
206 230 255
206 230 255
206 230 255
206 230 255
206 230 255
206 230 255
206 230 255
206 230 255
206 230 255
206 230 255
206 230 255
206 230 255
206 230 255
206 230 255
206 230 255
206 230 255
218 242 255
206 230 255
206 230 255
206 230 255
206 230 255
206 230 255
206 230 255
206 230 255
206 230 255
206 230 255
206 230 255
206 230 255
206 230 255
206 230 255
206 230 255
206 230 255
206 230 255
206 230 255
206 230 255
206 230 255
206 230 255
206 230 255
206 230 255
206 230 255
206 230 255
206 230 255
206 230 255
206 230 255
206 230 255
206 230 255
206 230 255
206 230 255
206 230 255
206 230 255
206 230 255
206 230 255
206 230 255
218 242 255
206 230 255
206 230 255
206 230 255
206 230 255
206 230 255
206 230 255
206 230 255
206 230 255
206 230 255
206 230 255
206 230 255
206 230 255
206 230 255
206 230 255
206 230 255
206 230 255
206 230 255
206 230 255
206 230 255
206 230 255
206 230 255
206 230 255
206 230 255
206 230 255
206 230 255
206 230 255
206 230 255
206 230 255
206 230 255
206 230 255
206 230 255
206 230 255
206 230 255
206 230 255
206 230 255
206 230 255
218 242 255
206 230 255
206 230 255
206 230 255
206 230 255
206 230 255
206 230 255
206 230 255
206 230 255
206 230 255
206 230 255
206 230 255
206 230 255
206 230 255
206 230 255
206 230 255
206 230 255
206 230 255
206 230 255
206 230 255
206 230 255
206 230 255
206 230 255
206 230 255
206 230 255
206 230 255
206 230 255
206 230 255
206 230 255
206 230 255
206 230 255
206 230 255
206 230 255
206 230 255
206 230 255
206 230 255
206 230 255
218 242 255
206 230 255
206 230 255
206 230 255
206 230 255
206 230 255
206 230 255
206 230 255
206 230 255
206 230 255
206 230 255
206 230 255
206 230 255
206 230 255
206 230 255
206 230 255
206 230 255
206 230 255
206 230 255
206 230 255
206 230 255
206 230 255
206 230 255
206 230 255
206 230 255
206 230 255
206 230 255
206 230 255
206 230 255
206 230 255
206 230 255
206 230 255
206 230 255
206 230 255
206 230 255
206 230 255
206 230 255
206 230 255
206 230 255
206 230 255
206 230 255
206 230 255
206 230 255
206 230 255
206 230 255
206 230 255
206 230 255
206 230 255
206 230 255
206 230 255
206 230 255
206 230 255
206 230 255
206 230 255
206 230 255
206 230 255
206 230 255
206 230 255
206 230 255
206 230 255
218 242 255
206 230 255
206 230 255
206 230 255
206 230 255
206 230 255
206 230 255
206 230 255
206 230 255
206 230 255
206 230 255
206 230 255
206 230 255
206 230 255
206 230 255
206 230 255
206 230 255
206 230 255
206 230 255
206 230 255
206 230 255
206 230 255
206 230 255
206 230 255
206 230 255
206 230 255
206 230 255
206 230 255
206 230 255
206 230 255
206 230 255
206 230 255
206 230 255
206 230 255
206 230 255
206 230 255
206 230 255
218 242 255
206 230 255
206 230 255
206 230 255
206 230 255
206 230 255
206 230 255
206 230 255
206 230 255
206 230 255
206 230 255
206 230 255
206 230 255
206 230 255
206 230 255
206 230 255
206 230 255
206 230 255
206 230 255
206 230 255
206 230 255
206 230 255
206 230 255
206 230 255
206 230 255
206 230 255
206 230 255
206 230 255
206 230 255
206 230 255
206 230 255
206 230 255
206 230 255
206 230 255
206 230 255
206 230 255
206 230 255
218 242 255
206 230 255
206 230 255
206 230 255
206 230 255
206 230 255
206 230 255
206 230 255
206 230 255
206 230 255
206 230 255
206 230 255
206 230 255
206 230 255
206 230 255
206 230 255
206 230 255
206 230 255
206 230 255
206 230 255
206 230 255
206 230 255
206 230 255
206 230 255
206 230 255
206 230 255
206 230 255
206 230 255
206 230 255
206 230 255
206 230 255
206 230 255
206 230 255
206 230 255
206 230 255
206 230 255
206 230 255
218 242 255
206 230 255
206 230 255
206 230 255
206 230 255
206 230 255
206 230 255
206 230 255
206 230 255
206 230 255
206 230 255
206 230 255
206 230 255
206 230 255
206 230 255
206 230 255
206 230 255
206 230 255
206 230 255
206 230 255
206 230 255
206 230 255
206 230 255
206 230 255
206 230 255
206 230 255
206 230 255
206 230 255
206 230 255
206 230 255
206 230 255
206 230 255
206 230 255
206 230 255
206 230 255
206 230 255
206 230 255
218 242 255
206 230 255
206 230 255
206 230 255
206 230 255
206 230 255
206 230 255
206 230 255
206 230 255
206 230 255
206 230 255
206 230 255
206 230 255
206 230 255
206 230 255
206 230 255
206 230 255
206 230 255
206 230 255
206 230 255
206 230 255
206 230 255
206 230 255
206 230 255
206 230 255
206 230 255
206 230 255
206 230 255
206 230 255
206 230 255
206 230 255
206 230 255
206 230 255
206 230 255
206 230 255
206 230 255
206 230 255
218 242 255
206 230 255
206 230 255
206 230 255
206 230 255
206 230 255
206 230 255
206 230 255
206 230 255
206 230 255
206 230 255
206 230 255
206 230 255
206 230 255
206 230 255
206 230 255
206 230 255
206 230 255
206 230 255
206 230 255
206 230 255
206 230 255
206 230 255
206 230 255
206 230 255
206 230 255
206 230 255
206 230 255
206 230 255
206 230 255
206 230 255
206 230 255
206 230 255
206 230 255
206 230 255
206 230 255
206 230 255
218 242 255
206 230 255
206 230 255
206 230 255
206 230 255
206 230 255
206 230 255
206 230 255
206 230 255
206 230 255
206 230 255
206 230 255
206 230 255
206 230 255
206 230 255
206 230 255
206 230 255
206 230 255
206 230 255
206 230 255
206 230 255
206 230 255
206 230 255
206 230 255
206 230 255
206 230 255
206 230 255
206 230 255
206 230 255
206 230 255
206 230 255
206 230 255
206 230 255
206 230 255
206 230 255
206 230 255
206 230 255
218 242 255
206 230 255
206 230 255
206 230 255
206 230 255
206 230 255
206 230 255
206 230 255
206 230 255
206 230 255
206 230 255
206 230 255
206 230 255
206 230 255
206 230 255
206 230 255
206 230 255
206 230 255
206 230 255
206 230 255
206 230 255
206 230 255
206 230 255
206 230 255
206 230 255
206 230 255
206 230 255
206 230 255
206 230 255
206 230 255
206 230 255
206 230 255
206 230 255
206 230 255
206 230 255
206 230 255
206 230 255
206 230 255
206 230 255
206 230 255
206 230 255
206 230 255
206 230 255
206 230 255
206 230 255
206 230 255
206 230 255
206 230 255
206 230 255
206 230 255
206 230 255
206 230 255
206 230 255
206 230 255
206 230 255
206 230 255
206 230 255
206 230 255
206 230 255
206 230 255
218 242 255
206 230 255
206 230 255
206 230 255
206 230 255
206 230 255
206 230 255
206 230 255
206 230 255
206 230 255
206 230 255
206 230 255
206 230 255
206 230 255
206 230 255
206 230 255
206 230 255
206 230 255
206 230 255
206 230 255
206 230 255
206 230 255
206 230 255
206 230 255
206 230 255
206 230 255
206 230 255
206 230 255
206 230 255
206 230 255
206 230 255
206 230 255
206 230 255
206 230 255
206 230 255
206 230 255
206 230 255
218 242 255
206 230 255
206 230 255
206 230 255
206 230 255
206 230 255
206 230 255
206 230 255
206 230 255
206 230 255
206 230 255
206 230 255
206 230 255
206 230 255
206 230 255
206 230 255
206 230 255
206 230 255
206 230 255
206 230 255
206 230 255
206 230 255
206 230 255
206 230 255
206 230 255
206 230 255
206 230 255
206 230 255
206 230 255
206 230 255
206 230 255
206 230 255
206 230 255
206 230 255
206 230 255
206 230 255
206 230 255
218 242 255
206 230 255
206 230 255
206 230 255
206 230 255
206 230 255
206 230 255
206 230 255
206 230 255
206 230 255
206 230 255
206 230 255
206 230 255
206 230 255
206 230 255
206 230 255
206 230 255
206 230 255
206 230 255
206 230 255
206 230 255
206 230 255
206 230 255
206 230 255
206 230 255
206 230 255
206 230 255
206 230 255
206 230 255
206 230 255
206 230 255
206 230 255
206 230 255
206 230 255
206 230 255
206 230 255
206 230 255
218 242 255
206 230 255
206 230 255
206 230 255
206 230 255
206 230 255
206 230 255
206 230 255
206 230 255
206 230 255
206 230 255
206 230 255
206 230 255
206 230 255
206 230 255
206 230 255
206 230 255
206 230 255
206 230 255
206 230 255
206 230 255
206 230 255
206 230 255
206 230 255
206 230 255
206 230 255
206 230 255
206 230 255
206 230 255
206 230 255
206 230 255
206 230 255
206 230 255
206 230 255
206 230 255
206 230 255
206 230 255
218 242 255
206 230 255
206 230 255
206 230 255
206 230 255
206 230 255
206 230 255
206 230 255
206 230 255
206 230 255
206 230 255
206 230 255
206 230 255
206 230 255
206 230 255
206 230 255
206 230 255
206 230 255
206 230 255
206 230 255
206 230 255
206 230 255
206 230 255
206 230 255
206 230 255
206 230 255
206 230 255
206 230 255
206 230 255
206 230 255
206 230 255
206 230 255
206 230 255
206 230 255
206 230 255
206 230 255
206 230 255
218 242 255
206 230 255
206 230 255
206 230 255
206 230 255
206 230 255
206 230 255
206 230 255
206 230 255
206 230 255
206 230 255
206 230 255
206 230 255
206 230 255
206 230 255
206 230 255
206 230 255
206 230 255
206 230 255
206 230 255
206 230 255
206 230 255
206 230 255
206 230 255
206 230 255
206 230 255
206 230 255
206 230 255
206 230 255
206 230 255
206 230 255
206 230 255
206 230 255
206 230 255
206 230 255
206 230 255
206 230 255
218 242 255
206 230 255
206 230 255
206 230 255
206 230 255
206 230 255
206 230 255
206 230 255
206 230 255
206 230 255
206 230 255
206 230 255
206 230 255
206 230 255
206 230 255
206 230 255
206 230 255
206 230 255
206 230 255
206 230 255
206 230 255
206 230 255
206 230 255
206 230 255
206 230 255
206 230 255
206 230 255
206 230 255
206 230 255
206 230 255
206 230 255
206 230 255
206 230 255
206 230 255
206 230 255
206 230 255
206 230 255
218 242 255
206 230 255
206 230 255
206 230 255
206 230 255
206 230 255
206 230 255
206 230 255
206 230 255
206 230 255
206 230 255
206 230 255
206 230 255
206 230 255
206 230 255
206 230 255
206 230 255
206 230 255
206 230 255
206 230 255
206 230 255
206 230 255
206 230 255
206 230 255
206 230 255
206 230 255
206 230 255
206 230 255
206 230 255
206 230 255
206 230 255
206 230 255
206 230 255
206 230 255
206 230 255
206 230 255
206 230 255
206 230 255
206 230 255
206 230 255
206 230 255
206 230 255
206 230 255
206 230 255
206 230 255
206 230 255
206 230 255
206 230 255
206 230 255
206 230 255
206 230 255
206 230 255
206 230 255
206 230 255
206 230 255
206 230 255
206 230 255
206 230 255
206 230 255
206 230 255
218 242 255
206 230 255
206 230 255
206 230 255
206 230 255
206 230 255
206 230 255
206 230 255
206 230 255
206 230 255
206 230 255
206 230 255
206 230 255
206 230 255
206 230 255
206 230 255
206 230 255
206 230 255
206 230 255
206 230 255
206 230 255
206 230 255
206 230 255
206 230 255
206 230 255
206 230 255
206 230 255
206 230 255
206 230 255
206 230 255
206 230 255
206 230 255
206 230 255
206 230 255
206 230 255
206 230 255
206 230 255
218 242 255
206 230 255
206 230 255
206 230 255
206 230 255
206 230 255
206 230 255
206 230 255
206 230 255
206 230 255
206 230 255
206 230 255
206 230 255
206 230 255
206 230 255
206 230 255
206 230 255
206 230 255
206 230 255
206 230 255
206 230 255
206 230 255
206 230 255
206 230 255
206 230 255
206 230 255
206 230 255
206 230 255
206 230 255
206 230 255
206 230 255
206 230 255
206 230 255
206 230 255
206 230 255
206 230 255
206 230 255
218 242 255
206 230 255
206 230 255
206 230 255
206 230 255
206 230 255
206 230 255
206 230 255
206 230 255
206 230 255
206 230 255
206 230 255
206 230 255
206 230 255
206 230 255
206 230 255
206 230 255
206 230 255
206 230 255
206 230 255
206 230 255
206 230 255
206 230 255
206 230 255
206 230 255
206 230 255
206 230 255
206 230 255
206 230 255
206 230 255
206 230 255
206 230 255
206 230 255
206 230 255
206 230 255
206 230 255
206 230 255
218 242 255
206 230 255
206 230 255
206 230 255
206 230 255
206 230 255
206 230 255
206 230 255
206 230 255
206 230 255
206 230 255
206 230 255
206 230 255
206 230 255
206 230 255
206 230 255
206 230 255
206 230 255
206 230 255
206 230 255
206 230 255
206 230 255
206 230 255
206 230 255
206 230 255
206 230 255
206 230 255
206 230 255
206 230 255
206 230 255
206 230 255
206 230 255
206 230 255
206 230 255
206 230 255
206 230 255
206 230 255
218 242 255
206 230 255
206 230 255
206 230 255
206 230 255
206 230 255
206 230 255
206 230 255
206 230 255
206 230 255
206 230 255
206 230 255
206 230 255
206 230 255
206 230 255
206 230 255
206 230 255
206 230 255
206 230 255
206 230 255
206 230 255
206 230 255
206 230 255
206 230 255
206 230 255
206 230 255
206 230 255
206 230 255
206 230 255
206 230 255
206 230 255
206 230 255
206 230 255
206 230 255
206 230 255
206 230 255
206 230 255
218 242 255
206 230 255
206 230 255
206 230 255
206 230 255
206 230 255
206 230 255
206 230 255
206 230 255
206 230 255
206 230 255
206 230 255
206 230 255
206 230 255
206 230 255
206 230 255
206 230 255
206 230 255
206 230 255
206 230 255
206 230 255
206 230 255
206 230 255
206 230 255
206 230 255
206 230 255
206 230 255
206 230 255
206 230 255
206 230 255
206 230 255
206 230 255
206 230 255
206 230 255
206 230 255
206 230 255
206 230 255
218 242 255
206 230 255
206 230 255
206 230 255
206 230 255
206 230 255
206 230 255
206 230 255
206 230 255
206 230 255
206 230 255
206 230 255
206 230 255
206 230 255
206 230 255
206 230 255
206 230 255
206 230 255
206 230 255
206 230 255
206 230 255
206 230 255
206 230 255
206 230 255
206 230 255
206 230 255
206 230 255
206 230 255
206 230 255
206 230 255
206 230 255
206 230 255
206 230 255
206 230 255
206 230 255
206 230 255
206 230 255
218 242 255
206 230 255
206 230 255
206 230 255
206 230 255
206 230 255
206 230 255
206 230 255
206 230 255
206 230 255
206 230 255
206 230 255
206 230 255
206 230 255
206 230 255
206 230 255
206 230 255
206 230 255
206 230 255
206 230 255
206 230 255
206 230 255
206 230 255
206 230 255
206 230 255
206 230 255
206 230 255
206 230 255
206 230 255
206 230 255
206 230 255
206 230 255
206 230 255
206 230 255
206 230 255
206 230 255
206 230 255
206 230 255
206 230 255
206 230 255
206 230 255
206 230 255
206 230 255
206 230 255
206 230 255
206 230 255
206 230 255
206 230 255
206 230 255
206 230 255
206 230 255
206 230 255
206 230 255
206 230 255
206 230 255
206 230 255
206 230 255
206 230 255
206 230 255
206 230 255
218 242 255
206 230 255
206 230 255
206 230 255
206 230 255
206 230 255
206 230 255
206 230 255
206 230 255
206 230 255
206 230 255
206 230 255
206 230 255
206 230 255
206 230 255
206 230 255
206 230 255
206 230 255
206 230 255
206 230 255
206 230 255
206 230 255
206 230 255
206 230 255
206 230 255
206 230 255
206 230 255
206 230 255
206 230 255
206 230 255
206 230 255
206 230 255
206 230 255
206 230 255
206 230 255
206 230 255
206 230 255
218 242 255
206 230 255
206 230 255
206 230 255
206 230 255
206 230 255
206 230 255
206 230 255
206 230 255
206 230 255
206 230 255
206 230 255
206 230 255
206 230 255
206 230 255
206 230 255
206 230 255
206 230 255
206 230 255
206 230 255
206 230 255
206 230 255
206 230 255
206 230 255
206 230 255
206 230 255
206 230 255
206 230 255
206 230 255
206 230 255
206 230 255
206 230 255
206 230 255
206 230 255
206 230 255
206 230 255
206 230 255
218 242 255
206 230 255
206 230 255
206 230 255
206 230 255
206 230 255
206 230 255
206 230 255
206 230 255
206 230 255
206 230 255
206 230 255
206 230 255
206 230 255
206 230 255
206 230 255
206 230 255
206 230 255
206 230 255
206 230 255
206 230 255
206 230 255
206 230 255
206 230 255
206 230 255
206 230 255
206 230 255
206 230 255
206 230 255
206 230 255
206 230 255
206 230 255
206 230 255
206 230 255
206 230 255
206 230 255
206 230 255
218 242 255
206 230 255
206 230 255
206 230 255
206 230 255
206 230 255
206 230 255
206 230 255
206 230 255
206 230 255
206 230 255
206 230 255
206 230 255
206 230 255
206 230 255
206 230 255
206 230 255
206 230 255
206 230 255
206 230 255
206 230 255
206 230 255
206 230 255
206 230 255
206 230 255
206 230 255
206 230 255
206 230 255
206 230 255
206 230 255
206 230 255
206 230 255
206 230 255
206 230 255
206 230 255
206 230 255
206 230 255
218 242 255
206 230 255
206 230 255
206 230 255
206 230 255
206 230 255
206 230 255
206 230 255
206 230 255
206 230 255
206 230 255
206 230 255
206 230 255
206 230 255
206 230 255
206 230 255
206 230 255
206 230 255
206 230 255
206 230 255
206 230 255
206 230 255
206 230 255
206 230 255
206 230 255
206 230 255
206 230 255
206 230 255
206 230 255
206 230 255
206 230 255
206 230 255
206 230 255
206 230 255
206 230 255
206 230 255
206 230 255
218 242 255
206 230 255
206 230 255
206 230 255
206 230 255
206 230 255
206 230 255
206 230 255
206 230 255
206 230 255
206 230 255
206 230 255
206 230 255
206 230 255
206 230 255
206 230 255
206 230 255
206 230 255
206 230 255
206 230 255
206 230 255
206 230 255
206 230 255
206 230 255
206 230 255
206 230 255
206 230 255
206 230 255
206 230 255
206 230 255
206 230 255
206 230 255
206 230 255
206 230 255
206 230 255
206 230 255
206 230 255
218 242 255
206 230 255
206 230 255
206 230 255
206 230 255
206 230 255
206 230 255
206 230 255
206 230 255
206 230 255
206 230 255
206 230 255
206 230 255
206 230 255
206 230 255
206 230 255
206 230 255
206 230 255
206 230 255
206 230 255
206 230 255
206 230 255
206 230 255
206 230 255
206 230 255
206 230 255
206 230 255
206 230 255
206 230 255
206 230 255
206 230 255
206 230 255
206 230 255
206 230 255
206 230 255
206 230 255
206 230 255
218 242 255
206 230 255
206 230 255
206 230 255
206 230 255
206 230 255
206 230 255
206 230 255
206 230 255
206 230 255
206 230 255
206 230 255
206 230 255
206 230 255
206 230 255
206 230 255
206 230 255
206 230 255
206 230 255
206 230 255
206 230 255
206 230 255
206 230 255
206 230 255
206 230 255
206 230 255
206 230 255
206 230 255
206 230 255
206 230 255
206 230 255
206 230 255
206 230 255
206 230 255
206 230 255
206 230 255
206 230 255
206 230 255
206 230 255
206 230 255
206 230 255
206 230 255
206 230 255
206 230 255
206 230 255
206 230 255
206 230 255
206 230 255
206 230 255
206 230 255
206 230 255
206 230 255
206 230 255
206 230 255
206 230 255
206 230 255
206 230 255
206 230 255
206 230 255
206 230 255
218 242 255
206 230 255
206 230 255
206 230 255
206 230 255
206 230 255
206 230 255
206 230 255
206 230 255
206 230 255
206 230 255
206 230 255
206 230 255
206 230 255
206 230 255
206 230 255
206 230 255
206 230 255
206 230 255
206 230 255
206 230 255
206 230 255
206 230 255
206 230 255
206 230 255
206 230 255
206 230 255
206 230 255
206 230 255
206 230 255
206 230 255
206 230 255
206 230 255
206 230 255
206 230 255
206 230 255
206 230 255
218 242 255
206 230 255
206 230 255
206 230 255
206 230 255
206 230 255
206 230 255
206 230 255
206 230 255
206 230 255
206 230 255
206 230 255
206 230 255
206 230 255
206 230 255
206 230 255
206 230 255
206 230 255
206 230 255
206 230 255
206 230 255
206 230 255
206 230 255
206 230 255
206 230 255
206 230 255
206 230 255
206 230 255
206 230 255
206 230 255
206 230 255
206 230 255
206 230 255
206 230 255
206 230 255
206 230 255
206 230 255
218 242 255
206 230 255
206 230 255
206 230 255
206 230 255
206 230 255
206 230 255
206 230 255
206 230 255
206 230 255
206 230 255
206 230 255
206 230 255
206 230 255
206 230 255
206 230 255
206 230 255
206 230 255
206 230 255
206 230 255
206 230 255
206 230 255
206 230 255
206 230 255
206 230 255
206 230 255
206 230 255
206 230 255
206 230 255
206 230 255
206 230 255
206 230 255
206 230 255
206 230 255
206 230 255
206 230 255
206 230 255
218 242 255
206 230 255
206 230 255
206 230 255
206 230 255
206 230 255
206 230 255
206 230 255
206 230 255
206 230 255
206 230 255
206 230 255
206 230 255
206 230 255
206 230 255
206 230 255
206 230 255
206 230 255
206 230 255
206 230 255
206 230 255
206 230 255
206 230 255
206 230 255
206 230 255
206 230 255
206 230 255
206 230 255
206 230 255
206 230 255
206 230 255
206 230 255
206 230 255
206 230 255
206 230 255
206 230 255
206 230 255
218 242 255
206 230 255
206 230 255
206 230 255
206 230 255
206 230 255
206 230 255
206 230 255
206 230 255
206 230 255
206 230 255
206 230 255
206 230 255
206 230 255
206 230 255
206 230 255
206 230 255
206 230 255
206 230 255
206 230 255
206 230 255
206 230 255
206 230 255
206 230 255
206 230 255
206 230 255
206 230 255
206 230 255
206 230 255
206 230 255
206 230 255
206 230 255
206 230 255
206 230 255
206 230 255
206 230 255
206 230 255
218 242 255
206 230 255
206 230 255
206 230 255
206 230 255
206 230 255
206 230 255
206 230 255
206 230 255
206 230 255
206 230 255
206 230 255
206 230 255
206 230 255
206 230 255
206 230 255
206 230 255
206 230 255
206 230 255
206 230 255
206 230 255
206 230 255
206 230 255
206 230 255
206 230 255
206 230 255
206 230 255
206 230 255
206 230 255
206 230 255
206 230 255
206 230 255
206 230 255
206 230 255
206 230 255
206 230 255
206 230 255
218 242 255
206 230 255
206 230 255
206 230 255
206 230 255
206 230 255
206 230 255
206 230 255
206 230 255
206 230 255
206 230 255
206 230 255
206 230 255
206 230 255
206 230 255
206 230 255
206 230 255
206 230 255
206 230 255
206 230 255
206 230 255
206 230 255
206 230 255
206 230 255
206 230 255
206 230 255
206 230 255
206 230 255
206 230 255
206 230 255
206 230 255
206 230 255
206 230 255
206 230 255
206 230 255
206 230 255
206 230 255
218 242 255
206 230 255
206 230 255
206 230 255
206 230 255
206 230 255
206 230 255
206 230 255
206 230 255
206 230 255
206 230 255
206 230 255
206 230 255
206 230 255
206 230 255
206 230 255
206 230 255
206 230 255
206 230 255
206 230 255
206 230 255
206 230 255
206 230 255
206 230 255
206 230 255
206 230 255
206 230 255
206 230 255
206 230 255
206 230 255
206 230 255
206 230 255
206 230 255
206 230 255
206 230 255
206 230 255
206 230 255
206 230 255
206 230 255
206 230 255
206 230 255
206 230 255
206 230 255
206 230 255
206 230 255
206 230 255
206 230 255
206 230 255
206 230 255
206 230 255
206 230 255
206 230 255
206 230 255
206 230 255
206 230 255
206 230 255
206 230 255
206 230 255
206 230 255
206 230 255
218 242 255
206 230 255
206 230 255
206 230 255
206 230 255
206 230 255
206 230 255
206 230 255
206 230 255
206 230 255
206 230 255
206 230 255
206 230 255
206 230 255
206 230 255
206 230 255
206 230 255
206 230 255
206 230 255
206 230 255
206 230 255
206 230 255
206 230 255
206 230 255
206 230 255
206 230 255
206 230 255
206 230 255
206 230 255
206 230 255
206 230 255
206 230 255
206 230 255
206 230 255
206 230 255
206 230 255
206 230 255
218 242 255
206 230 255
206 230 255
206 230 255
206 230 255
206 230 255
206 230 255
206 230 255
206 230 255
206 230 255
206 230 255
206 230 255
206 230 255
206 230 255
206 230 255
206 230 255
206 230 255
206 230 255
206 230 255
206 230 255
206 230 255
206 230 255
206 230 255
206 230 255
206 230 255
206 230 255
206 230 255
206 230 255
206 230 255
206 230 255
206 230 255
206 230 255
206 230 255
206 230 255
206 230 255
206 230 255
206 230 255
218 242 255
206 230 255
206 230 255
206 230 255
206 230 255
206 230 255
206 230 255
206 230 255
206 230 255
206 230 255
206 230 255
206 230 255
206 230 255
206 230 255
206 230 255
206 230 255
206 230 255
206 230 255
206 230 255
206 230 255
206 230 255
206 230 255
206 230 255
206 230 255
206 230 255
206 230 255
206 230 255
206 230 255
206 230 255
206 230 255
206 230 255
206 230 255
206 230 255
206 230 255
206 230 255
206 230 255
206 230 255
218 242 255
206 230 255
206 230 255
206 230 255
206 230 255
206 230 255
206 230 255
206 230 255
206 230 255
206 230 255
206 230 255
206 230 255
206 230 255
206 230 255
206 230 255
206 230 255
206 230 255
206 230 255
206 230 255
206 230 255
206 230 255
206 230 255
206 230 255
206 230 255
206 230 255
206 230 255
206 230 255
206 230 255
206 230 255
206 230 255
206 230 255
206 230 255
206 230 255
206 230 255
206 230 255
206 230 255
206 230 255
218 242 255
206 230 255
206 230 255
206 230 255
206 230 255
206 230 255
206 230 255
206 230 255
206 230 255
206 230 255
206 230 255
206 230 255
206 230 255
206 230 255
206 230 255
206 230 255
206 230 255
206 230 255
206 230 255
206 230 255
206 230 255
206 230 255
206 230 255
206 230 255
206 230 255
206 230 255
206 230 255
206 230 255
206 230 255
206 230 255
206 230 255
206 230 255
206 230 255
206 230 255
206 230 255
206 230 255
206 230 255
218 242 255
206 230 255
206 230 255
206 230 255
206 230 255
206 230 255
206 230 255
206 230 255
206 230 255
206 230 255
206 230 255
206 230 255
206 230 255
206 230 255
206 230 255
206 230 255
206 230 255
206 230 255
206 230 255
206 230 255
206 230 255
206 230 255
206 230 255
206 230 255
206 230 255
206 230 255
206 230 255
206 230 255
206 230 255
206 230 255
206 230 255
206 230 255
206 230 255
206 230 255
206 230 255
206 230 255
206 230 255
218 242 255
206 230 255
206 230 255
206 230 255
206 230 255
206 230 255
206 230 255
206 230 255
206 230 255
206 230 255
206 230 255
206 230 255
206 230 255
206 230 255
206 230 255
206 230 255
206 230 255
206 230 255
206 230 255
206 230 255
206 230 255
206 230 255
206 230 255
206 230 255
206 230 255
206 230 255
206 230 255
206 230 255
206 230 255
206 230 255
206 230 255
206 230 255
206 230 255
206 230 255
206 230 255
206 230 255
206 230 255
218 242 255
206 230 255
206 230 255
206 230 255
206 230 255
206 230 255
206 230 255
206 230 255
206 230 255
206 230 255
206 230 255
206 230 255
206 230 255
206 230 255
206 230 255
206 230 255
206 230 255
206 230 255
206 230 255
206 230 255
206 230 255
206 230 255
206 230 255
206 230 255
206 230 255
206 230 255
206 230 255
206 230 255
206 230 255
206 230 255
206 230 255
206 230 255
206 230 255
206 230 255
206 230 255
206 230 255
206 230 255
206 230 255
206 230 255
206 230 255
206 230 255
206 230 255
206 230 255
206 230 255
206 230 255
206 230 255
206 230 255
206 230 255
206 230 255
206 230 255
206 230 255
206 230 255
206 230 255
206 230 255
206 230 255
206 230 255
206 230 255
206 230 255
206 230 255
206 230 255
218 242 255
206 230 255
206 230 255
206 230 255
206 230 255
206 230 255
206 230 255
206 230 255
206 230 255
206 230 255
206 230 255
206 230 255
206 230 255
206 230 255
206 230 255
206 230 255
206 230 255
206 230 255
206 230 255
206 230 255
206 230 255
206 230 255
206 230 255
206 230 255
206 230 255
206 230 255
206 230 255
206 230 255
206 230 255
206 230 255
206 230 255
206 230 255
206 230 255
206 230 255
206 230 255
206 230 255
206 230 255
218 242 255
206 230 255
206 230 255
206 230 255
206 230 255
206 230 255
206 230 255
206 230 255
206 230 255
206 230 255
206 230 255
206 230 255
206 230 255
206 230 255
206 230 255
206 230 255
206 230 255
206 230 255
206 230 255
206 230 255
206 230 255
206 230 255
206 230 255
206 230 255
206 230 255
206 230 255
206 230 255
206 230 255
206 230 255
206 230 255
206 230 255
206 230 255
206 230 255
206 230 255
206 230 255
206 230 255
206 230 255
218 242 255
206 230 255
206 230 255
206 230 255
206 230 255
206 230 255
206 230 255
206 230 255
206 230 255
206 230 255
206 230 255
206 230 255
206 230 255
206 230 255
206 230 255
206 230 255
206 230 255
206 230 255
206 230 255
206 230 255
206 230 255
206 230 255
206 230 255
206 230 255
206 230 255
206 230 255
206 230 255
206 230 255
206 230 255
206 230 255
206 230 255
206 230 255
206 230 255
206 230 255
206 230 255
206 230 255
206 230 255
218 242 255
206 230 255
206 230 255
206 230 255
206 230 255
206 230 255
206 230 255
206 230 255
206 230 255
206 230 255
206 230 255
206 230 255
206 230 255
206 230 255
206 230 255
206 230 255
206 230 255
206 230 255
206 230 255
206 230 255
206 230 255
206 230 255
206 230 255
206 230 255
206 230 255
206 230 255
206 230 255
206 230 255
206 230 255
206 230 255
206 230 255
206 230 255
206 230 255
206 230 255
206 230 255
206 230 255
206 230 255
218 242 255
206 230 255
206 230 255
206 230 255
206 230 255
206 230 255
206 230 255
206 230 255
206 230 255
206 230 255
206 230 255
206 230 255
206 230 255
206 230 255
206 230 255
206 230 255
206 230 255
206 230 255
206 230 255
206 230 255
206 230 255
206 230 255
206 230 255
206 230 255
206 230 255
206 230 255
206 230 255
206 230 255
206 230 255
206 230 255
206 230 255
206 230 255
206 230 255
206 230 255
206 230 255
206 230 255
206 230 255
218 242 255
206 230 255
206 230 255
206 230 255
206 230 255
206 230 255
206 230 255
206 230 255
206 230 255
206 230 255
206 230 255
206 230 255
206 230 255
206 230 255
206 230 255
206 230 255
206 230 255
206 230 255
206 230 255
206 230 255
206 230 255
206 230 255
206 230 255
206 230 255
206 230 255
206 230 255
206 230 255
206 230 255
206 230 255
206 230 255
206 230 255
206 230 255
206 230 255
206 230 255
206 230 255
206 230 255
206 230 255
218 242 255
206 230 255
206 230 255
206 230 255
206 230 255
206 230 255
206 230 255
206 230 255
206 230 255
206 230 255
206 230 255
206 230 255
206 230 255
206 230 255
206 230 255
206 230 255
206 230 255
206 230 255
206 230 255
206 230 255
206 230 255
206 230 255
206 230 255
206 230 255
206 230 255
206 230 255
206 230 255
206 230 255
206 230 255
206 230 255
206 230 255
206 230 255
206 230 255
206 230 255
206 230 255
206 230 255
206 230 255
218 242 255
206 230 255
206 230 255
206 230 255
206 230 255
206 230 255
206 230 255
206 230 255
206 230 255
206 230 255
206 230 255
206 230 255
206 230 255
206 230 255
206 230 255
206 230 255
206 230 255
206 230 255
206 230 255
206 230 255
206 230 255
206 230 255
206 230 255
206 230 255
206 230 255
206 230 255
206 230 255
206 230 255
206 230 255
206 230 255
206 230 255
206 230 255
206 230 255
206 230 255
206 230 255
206 230 255
206 230 255
206 230 255
206 230 255
206 230 255
206 230 255
206 230 255
206 230 255
206 230 255
206 230 255
206 230 255
206 230 255
206 230 255
206 230 255
206 230 255
206 230 255
206 230 255
206 230 255
206 230 255
206 230 255
206 230 255
206 230 255
206 230 255
206 230 255
206 230 255
218 242 255
206 230 255
206 230 255
206 230 255
206 230 255
206 230 255
206 230 255
206 230 255
206 230 255
206 230 255
206 230 255
206 230 255
206 230 255
206 230 255
206 230 255
206 230 255
206 230 255
206 230 255
206 230 255
206 230 255
206 230 255
206 230 255
206 230 255
206 230 255
206 230 255
206 230 255
206 230 255
206 230 255
206 230 255
206 230 255
206 230 255
206 230 255
206 230 255
206 230 255
206 230 255
206 230 255
206 230 255
218 242 255
206 230 255
206 230 255
206 230 255
206 230 255
206 230 255
206 230 255
206 230 255
206 230 255
206 230 255
206 230 255
206 230 255
206 230 255
206 230 255
206 230 255
206 230 255
206 230 255
206 230 255
206 230 255
206 230 255
206 230 255
206 230 255
206 230 255
206 230 255
206 230 255
206 230 255
206 230 255
206 230 255
206 230 255
206 230 255
206 230 255
206 230 255
206 230 255
206 230 255
206 230 255
206 230 255
206 230 255
218 242 255
206 230 255
206 230 255
206 230 255
206 230 255
206 230 255
206 230 255
206 230 255
206 230 255
206 230 255
206 230 255
206 230 255
206 230 255
206 230 255
206 230 255
206 230 255
206 230 255
206 230 255
206 230 255
206 230 255
206 230 255
206 230 255
206 230 255
206 230 255
206 230 255
206 230 255
206 230 255
206 230 255
206 230 255
206 230 255
206 230 255
206 230 255
206 230 255
206 230 255
206 230 255
206 230 255
206 230 255
218 242 255
206 230 255
206 230 255
206 230 255
206 230 255
206 230 255
206 230 255
206 230 255
206 230 255
206 230 255
206 230 255
206 230 255
206 230 255
206 230 255
206 230 255
206 230 255
206 230 255
206 230 255
206 230 255
206 230 255
206 230 255
206 230 255
206 230 255
206 230 255
206 230 255
206 230 255
206 230 255
206 230 255
206 230 255
206 230 255
206 230 255
206 230 255
206 230 255
206 230 255
206 230 255
206 230 255
206 230 255
218 242 255
206 230 255
206 230 255
206 230 255
206 230 255
206 230 255
206 230 255
206 230 255
206 230 255
206 230 255
206 230 255
206 230 255
206 230 255
206 230 255
206 230 255
206 230 255
206 230 255
206 230 255
206 230 255
206 230 255
206 230 255
206 230 255
206 230 255
206 230 255
206 230 255
206 230 255
206 230 255
206 230 255
206 230 255
206 230 255
206 230 255
206 230 255
206 230 255
206 230 255
206 230 255
206 230 255
206 230 255
218 242 255
206 230 255
206 230 255
206 230 255
206 230 255
206 230 255
206 230 255
206 230 255
206 230 255
206 230 255
206 230 255
206 230 255
206 230 255
206 230 255
206 230 255
206 230 255
206 230 255
206 230 255
206 230 255
206 230 255
206 230 255
206 230 255
206 230 255
206 230 255
206 230 255
206 230 255
206 230 255
206 230 255
206 230 255
206 230 255
206 230 255
206 230 255
206 230 255
206 230 255
206 230 255
206 230 255
206 230 255
218 242 255
206 230 255
206 230 255
206 230 255
206 230 255
206 230 255
206 230 255
206 230 255
206 230 255
206 230 255
206 230 255
206 230 255
206 230 255
206 230 255
206 230 255
206 230 255
206 230 255
206 230 255
206 230 255
206 230 255
206 230 255
206 230 255
206 230 255
206 230 255
206 230 255
206 230 255
206 230 255
206 230 255
206 230 255
206 230 255
206 230 255
206 230 255
206 230 255
206 230 255
206 230 255
206 230 255
206 230 255
218 242 255
206 230 255
206 230 255
206 230 255
206 230 255
206 230 255
206 230 255
206 230 255
206 230 255
206 230 255
206 230 255
206 230 255
206 230 255
206 230 255
206 230 255
206 230 255
206 230 255
206 230 255
206 230 255
206 230 255
206 230 255
206 230 255
206 230 255
206 230 255
206 230 255
206 230 255
206 230 255
206 230 255
206 230 255
206 230 255
206 230 255
206 230 255
206 230 255
206 230 255
206 230 255
206 230 255
206 230 255
206 230 255
206 230 255
206 230 255
206 230 255
206 230 255
206 230 255
206 230 255
206 230 255
206 230 255
206 230 255
206 230 255
206 230 255
206 230 255
206 230 255
206 230 255
206 230 255
206 230 255
206 230 255
206 230 255
206 230 255
206 230 255
206 230 255
206 230 255
218 242 255
206 230 255
206 230 255
206 230 255
206 230 255
206 230 255
206 230 255
206 230 255
206 230 255
206 230 255
206 230 255
206 230 255
206 230 255
206 230 255
206 230 255
206 230 255
206 230 255
206 230 255
206 230 255
206 230 255
206 230 255
206 230 255
206 230 255
206 230 255
206 230 255
206 230 255
206 230 255
206 230 255
206 230 255
206 230 255
206 230 255
206 230 255
206 230 255
206 230 255
206 230 255
206 230 255
206 230 255
218 242 255
206 230 255
206 230 255
206 230 255
206 230 255
206 230 255
206 230 255
206 230 255
206 230 255
206 230 255
206 230 255
206 230 255
206 230 255
206 230 255
206 230 255
206 230 255
206 230 255
206 230 255
206 230 255
206 230 255
206 230 255
206 230 255
206 230 255
206 230 255
206 230 255
206 230 255
206 230 255
206 230 255
206 230 255
206 230 255
206 230 255
206 230 255
206 230 255
206 230 255
206 230 255
206 230 255
206 230 255
218 242 255
206 230 255
206 230 255
206 230 255
206 230 255
206 230 255
206 230 255
206 230 255
206 230 255
206 230 255
206 230 255
206 230 255
206 230 255
206 230 255
206 230 255
206 230 255
206 230 255
206 230 255
206 230 255
206 230 255
206 230 255
206 230 255
206 230 255
206 230 255
206 230 255
206 230 255
206 230 255
206 230 255
206 230 255
206 230 255
206 230 255
206 230 255
206 230 255
206 230 255
206 230 255
206 230 255
206 230 255
218 242 255
206 230 255
206 230 255
206 230 255
206 230 255
206 230 255
206 230 255
206 230 255
206 230 255
206 230 255
206 230 255
206 230 255
206 230 255
206 230 255
206 230 255
206 230 255
206 230 255
206 230 255
206 230 255
206 230 255
206 230 255
206 230 255
206 230 255
206 230 255
206 230 255
206 230 255
206 230 255
206 230 255
206 230 255
206 230 255
206 230 255
206 230 255
206 230 255
206 230 255
206 230 255
206 230 255
206 230 255
218 242 255
206 230 255
206 230 255
206 230 255
206 230 255
206 230 255
206 230 255
206 230 255
206 230 255
206 230 255
206 230 255
206 230 255
206 230 255
206 230 255
206 230 255
206 230 255
206 230 255
206 230 255
206 230 255
206 230 255
206 230 255
206 230 255
206 230 255
206 230 255
206 230 255
206 230 255
206 230 255
206 230 255
206 230 255
206 230 255
206 230 255
206 230 255
206 230 255
206 230 255
206 230 255
206 230 255
206 230 255
218 242 255
206 230 255
206 230 255
206 230 255
206 230 255
206 230 255
206 230 255
206 230 255
206 230 255
206 230 255
206 230 255
206 230 255
206 230 255
206 230 255
206 230 255
206 230 255
206 230 255
206 230 255
206 230 255
206 230 255
206 230 255
206 230 255
206 230 255
206 230 255
206 230 255
206 230 255
206 230 255
206 230 255
206 230 255
206 230 255
206 230 255
206 230 255
206 230 255
206 230 255
206 230 255
206 230 255
206 230 255
218 242 255
206 230 255
206 230 255
206 230 255
206 230 255
206 230 255
206 230 255
206 230 255
206 230 255
206 230 255
206 230 255
206 230 255
206 230 255
206 230 255
206 230 255
206 230 255
206 230 255
206 230 255
206 230 255
206 230 255
206 230 255
206 230 255
206 230 255
206 230 255
206 230 255
206 230 255
206 230 255
206 230 255
206 230 255
206 230 255
206 230 255
206 230 255
206 230 255
206 230 255
206 230 255
206 230 255
206 230 255
218 242 255
206 230 255
206 230 255
206 230 255
206 230 255
206 230 255
206 230 255
206 230 255
206 230 255
206 230 255
206 230 255
206 230 255
206 230 255
206 230 255
206 230 255
206 230 255
206 230 255
206 230 255
206 230 255
206 230 255
206 230 255
206 230 255
206 230 255
206 230 255
206 230 255
206 230 255
206 230 255
206 230 255
206 230 255
206 230 255
206 230 255
206 230 255
206 230 255
206 230 255
206 230 255
206 230 255
206 230 255
206 230 255
206 230 255
206 230 255
206 230 255
206 230 255
206 230 255
206 230 255
206 230 255
206 230 255
206 230 255
206 230 255
206 230 255
206 230 255
206 230 255
206 230 255
206 230 255
206 230 255
206 230 255
206 230 255
206 230 255
206 230 255
206 230 255
206 230 255
218 242 255
206 230 255
206 230 255
206 230 255
206 230 255
206 230 255
206 230 255
206 230 255
206 230 255
206 230 255
206 230 255
206 230 255
206 230 255
206 230 255
206 230 255
206 230 255
206 230 255
206 230 255
206 230 255
206 230 255
206 230 255
206 230 255
206 230 255
206 230 255
206 230 255
206 230 255
206 230 255
206 230 255
206 230 255
206 230 255
206 230 255
206 230 255
206 230 255
206 230 255
206 230 255
206 230 255
206 230 255
218 242 255
206 230 255
206 230 255
206 230 255
206 230 255
206 230 255
206 230 255
206 230 255
206 230 255
206 230 255
206 230 255
206 230 255
206 230 255
206 230 255
206 230 255
206 230 255
206 230 255
206 230 255
206 230 255
206 230 255
206 230 255
206 230 255
206 230 255
206 230 255
206 230 255
206 230 255
206 230 255
206 230 255
206 230 255
206 230 255
206 230 255
206 230 255
206 230 255
206 230 255
206 230 255
206 230 255
206 230 255
218 242 255
206 230 255
206 230 255
206 230 255
206 230 255
206 230 255
206 230 255
206 230 255
206 230 255
206 230 255
206 230 255
206 230 255
206 230 255
206 230 255
206 230 255
206 230 255
206 230 255
206 230 255
206 230 255
206 230 255
206 230 255
206 230 255
206 230 255
206 230 255
206 230 255
206 230 255
206 230 255
206 230 255
206 230 255
206 230 255
206 230 255
206 230 255
206 230 255
206 230 255
206 230 255
206 230 255
206 230 255
218 242 255
206 230 255
206 230 255
206 230 255
206 230 255
206 230 255
206 230 255
206 230 255
206 230 255
206 230 255
206 230 255
206 230 255
206 230 255
206 230 255
206 230 255
206 230 255
206 230 255
206 230 255
206 230 255
206 230 255
206 230 255
206 230 255
206 230 255
206 230 255
206 230 255
206 230 255
206 230 255
206 230 255
206 230 255
206 230 255
206 230 255
206 230 255
206 230 255
206 230 255
206 230 255
206 230 255
206 230 255
218 242 255
206 230 255
206 230 255
206 230 255
206 230 255
206 230 255
206 230 255
206 230 255
206 230 255
206 230 255
206 230 255
206 230 255
206 230 255
206 230 255
206 230 255
206 230 255
206 230 255
206 230 255
206 230 255
206 230 255
206 230 255
206 230 255
206 230 255
206 230 255
206 230 255
206 230 255
206 230 255
206 230 255
206 230 255
206 230 255
206 230 255
206 230 255
206 230 255
206 230 255
206 230 255
206 230 255
206 230 255
218 242 255
206 230 255
206 230 255
206 230 255
206 230 255
206 230 255
206 230 255
206 230 255
206 230 255
206 230 255
206 230 255
206 230 255
206 230 255
206 230 255
206 230 255
206 230 255
206 230 255
206 230 255
206 230 255
206 230 255
206 230 255
206 230 255
206 230 255
206 230 255
206 230 255
206 230 255
206 230 255
206 230 255
206 230 255
206 230 255
206 230 255
206 230 255
206 230 255
206 230 255
206 230 255
206 230 255
206 230 255
218 242 255
206 230 255
206 230 255
206 230 255
206 230 255
206 230 255
206 230 255
206 230 255
206 230 255
206 230 255
206 230 255
206 230 255
206 230 255
206 230 255
206 230 255
206 230 255
206 230 255
206 230 255
206 230 255
206 230 255
206 230 255
206 230 255
206 230 255
206 230 255
206 230 255
206 230 255
206 230 255
206 230 255
206 230 255
206 230 255
206 230 255
206 230 255
206 230 255
206 230 255
206 230 255
206 230 255
206 230 255
218 242 255
206 230 255
206 230 255
206 230 255
206 230 255
206 230 255
206 230 255
206 230 255
206 230 255
206 230 255
206 230 255
206 230 255
206 230 255
206 230 255
206 230 255
206 230 255
206 230 255
206 230 255
206 230 255
206 230 255
206 230 255
206 230 255
206 230 255
206 230 255
206 230 255
206 230 255
206 230 255
206 230 255
206 230 255
206 230 255
206 230 255
206 230 255
206 230 255
206 230 255
206 230 255
206 230 255
206 230 255
218 242 255
206 230 255
206 230 255
206 230 255
206 230 255
206 230 255
206 230 255
206 230 255
206 230 255
206 230 255
206 230 255
206 230 255
206 230 255
206 230 255
206 230 255
206 230 255
206 230 255
206 230 255
206 230 255
206 230 255
206 230 255
206 230 255
206 230 255
218 242 255
206 230 255
206 230 255
206 230 255
206 230 255
206 230 255
206 230 255
206 230 255
206 230 255
206 230 255
206 230 255
206 230 255
206 230 255
206 230 255
206 230 255
206 230 255
206 230 255
206 230 255
206 230 255
206 230 255
206 230 255
206 230 255
206 230 255
206 230 255
206 230 255
206 230 255
206 230 255
206 230 255
206 230 255
206 230 255
206 230 255
206 230 255
206 230 255
206 230 255
206 230 255
206 230 255
206 230 255
218 242 255
206 230 255
206 230 255
206 230 255
206 230 255
206 230 255
206 230 255
206 230 255
206 230 255
206 230 255
206 230 255
206 230 255
206 230 255
206 230 255
206 230 255
206 230 255
206 230 255
206 230 255
206 230 255
206 230 255
206 230 255
206 230 255
206 230 255
206 230 255
206 230 255
206 230 255
206 230 255
206 230 255
206 230 255
206 230 255
206 230 255
206 230 255
206 230 255
206 230 255
206 230 255
206 230 255
206 230 255
218 242 255
206 230 255
206 230 255
206 230 255
206 230 255
206 230 255
206 230 255
206 230 255
206 230 255
206 230 255
206 230 255
206 230 255
206 230 255
206 230 255
206 230 255
206 230 255
206 230 255
206 230 255
206 230 255
206 230 255
206 230 255
206 230 255
206 230 255
206 230 255
206 230 255
206 230 255
206 230 255
206 230 255
206 230 255
206 230 255
206 230 255
206 230 255
206 230 255
206 230 255
206 230 255
206 230 255
206 230 255
218 242 255
206 230 255
206 230 255
206 230 255
206 230 255
206 230 255
206 230 255
206 230 255
206 230 255
206 230 255
206 230 255
206 230 255
206 230 255
206 230 255
206 230 255
206 230 255
206 230 255
206 230 255
206 230 255
206 230 255
206 230 255
206 230 255
206 230 255
206 230 255
206 230 255
206 230 255
206 230 255
206 230 255
206 230 255
206 230 255
206 230 255
206 230 255
206 230 255
206 230 255
206 230 255
206 230 255
206 230 255
218 242 255
206 230 255
206 230 255
206 230 255
206 230 255
206 230 255
206 230 255
206 230 255
206 230 255
206 230 255
206 230 255
206 230 255
206 230 255
206 230 255
206 230 255
206 230 255
206 230 255
206 230 255
206 230 255
206 230 255
206 230 255
206 230 255
206 230 255
206 230 255
206 230 255
206 230 255
206 230 255
206 230 255
206 230 255
206 230 255
206 230 255
206 230 255
206 230 255
206 230 255
206 230 255
206 230 255
206 230 255
218 242 255
206 230 255
206 230 255
206 230 255
206 230 255
206 230 255
206 230 255
206 230 255
206 230 255
206 230 255
206 230 255
206 230 255
206 230 255
206 230 255
206 230 255
206 230 255
206 230 255
206 230 255
206 230 255
206 230 255
206 230 255
206 230 255
206 230 255
206 230 255
206 230 255
206 230 255
206 230 255
206 230 255
206 230 255
206 230 255
206 230 255
206 230 255
206 230 255
206 230 255
206 230 255
206 230 255
206 230 255
218 242 255
206 230 255
206 230 255
206 230 255
206 230 255
206 230 255
206 230 255
206 230 255
206 230 255
206 230 255
206 230 255
206 230 255
206 230 255
206 230 255
206 230 255
206 230 255
206 230 255
206 230 255
206 230 255
206 230 255
206 230 255
206 230 255
206 230 255
206 230 255
206 230 255
206 230 255
206 230 255
206 230 255
206 230 255
206 230 255
206 230 255
206 230 255
206 230 255
206 230 255
206 230 255
206 230 255
206 230 255
218 242 255
206 230 255
206 230 255
206 230 255
206 230 255
206 230 255
206 230 255
206 230 255
206 230 255
206 230 255
206 230 255
206 230 255
206 230 255
206 230 255
206 230 255
206 230 255
206 230 255
206 230 255
206 230 255
206 230 255
206 230 255
206 230 255
206 230 255
206 230 255
206 230 255
206 230 255
206 230 255
206 230 255
206 230 255
206 230 255
206 230 255
206 230 255
206 230 255
206 230 255
206 230 255
206 230 255
206 230 255
218 242 255
206 230 255
206 230 255
206 230 255
206 230 255
206 230 255
206 230 255
206 230 255
206 230 255
206 230 255
206 230 255
206 230 255
206 230 255
206 230 255
206 230 255
206 230 255
206 230 255
206 230 255
206 230 255
206 230 255
206 230 255
206 230 255
206 230 255
218 242 255
206 230 255
206 230 255
206 230 255
206 230 255
206 230 255
206 230 255
206 230 255
206 230 255
206 230 255
206 230 255
206 230 255
206 230 255
206 230 255
206 230 255
206 230 255
206 230 255
206 230 255
206 230 255
206 230 255
206 230 255
206 230 255
206 230 255
206 230 255
206 230 255
206 230 255
206 230 255
206 230 255
206 230 255
206 230 255
206 230 255
206 230 255
206 230 255
206 230 255
206 230 255
206 230 255
206 230 255
218 242 255
206 230 255
206 230 255
206 230 255
206 230 255
206 230 255
206 230 255
206 230 255
206 230 255
206 230 255
206 230 255
206 230 255
206 230 255
206 230 255
206 230 255
206 230 255
206 230 255
206 230 255
206 230 255
206 230 255
206 230 255
206 230 255
206 230 255
206 230 255
206 230 255
206 230 255
206 230 255
206 230 255
206 230 255
206 230 255
206 230 255
206 230 255
206 230 255
206 230 255
206 230 255
206 230 255
206 230 255
218 242 255
206 230 255
206 230 255
206 230 255
206 230 255
206 230 255
206 230 255
206 230 255
206 230 255
206 230 255
206 230 255
206 230 255
206 230 255
206 230 255
206 230 255
206 230 255
206 230 255
206 230 255
206 230 255
206 230 255
206 230 255
206 230 255
206 230 255
206 230 255
206 230 255
206 230 255
206 230 255
206 230 255
206 230 255
206 230 255
206 230 255
206 230 255
206 230 255
206 230 255
206 230 255
206 230 255
206 230 255
218 242 255
206 230 255
206 230 255
206 230 255
206 230 255
206 230 255
206 230 255
206 230 255
206 230 255
206 230 255
206 230 255
206 230 255
206 230 255
206 230 255
206 230 255
206 230 255
206 230 255
206 230 255
206 230 255
206 230 255
206 230 255
206 230 255
206 230 255
206 230 255
206 230 255
206 230 255
206 230 255
206 230 255
206 230 255
206 230 255
206 230 255
206 230 255
206 230 255
206 230 255
206 230 255
206 230 255
206 230 255
218 242 255
206 230 255
206 230 255
206 230 255
206 230 255
206 230 255
206 230 255
206 230 255
206 230 255
206 230 255
206 230 255
206 230 255
206 230 255
206 230 255
206 230 255
206 230 255
206 230 255
206 230 255
206 230 255
206 230 255
206 230 255
206 230 255
206 230 255
206 230 255
206 230 255
206 230 255
206 230 255
206 230 255
206 230 255
206 230 255
206 230 255
206 230 255
206 230 255
206 230 255
206 230 255
206 230 255
206 230 255
218 242 255
206 230 255
206 230 255
206 230 255
206 230 255
206 230 255
206 230 255
206 230 255
206 230 255
206 230 255
206 230 255
206 230 255
206 230 255
206 230 255
206 230 255
206 230 255
206 230 255
206 230 255
206 230 255
206 230 255
206 230 255
206 230 255
206 230 255
206 230 255
206 230 255
206 230 255
206 230 255
206 230 255
206 230 255
206 230 255
206 230 255
206 230 255
206 230 255
206 230 255
206 230 255
206 230 255
206 230 255
218 242 255
206 230 255
206 230 255
206 230 255
206 230 255
206 230 255
206 230 255
206 230 255
206 230 255
206 230 255
206 230 255
206 230 255
206 230 255
206 230 255
206 230 255
206 230 255
206 230 255
206 230 255
206 230 255
206 230 255
206 230 255
206 230 255
206 230 255
206 230 255
206 230 255
206 230 255
206 230 255
206 230 255
206 230 255
206 230 255
206 230 255
206 230 255
206 230 255
206 230 255
206 230 255
206 230 255
206 230 255
218 242 255
206 230 255
206 230 255
206 230 255
206 230 255
206 230 255
206 230 255
206 230 255
206 230 255
206 230 255
206 230 255
206 230 255
206 230 255
206 230 255
206 230 255
206 230 255
206 230 255
206 230 255
206 230 255
206 230 255
206 230 255
206 230 255
206 230 255
206 230 255
206 230 255
206 230 255
206 230 255
206 230 255
206 230 255
206 230 255
206 230 255
206 230 255
206 230 255
206 230 255
206 230 255
206 230 255
206 230 255
218 242 255
206 230 255
206 230 255
206 230 255
206 230 255
206 230 255
206 230 255
206 230 255
206 230 255
206 230 255
206 230 255
206 230 255
206 230 255
206 230 255
206 230 255
206 230 255
206 230 255
206 230 255
206 230 255
206 230 255
206 230 255
206 230 255
206 230 255
218 242 255
206 230 255
206 230 255
206 230 255
206 230 255
206 230 255
206 230 255
206 230 255
206 230 255
206 230 255
206 230 255
206 230 255
206 230 255
206 230 255
206 230 255
206 230 255
206 230 255
206 230 255
206 230 255
206 230 255
206 230 255
206 230 255
206 230 255
206 230 255
206 230 255
206 230 255
206 230 255
206 230 255
206 230 255
206 230 255
206 230 255
206 230 255
206 230 255
206 230 255
206 230 255
206 230 255
206 230 255
218 242 255
206 230 255
206 230 255
206 230 255
206 230 255
206 230 255
206 230 255
206 230 255
206 230 255
206 230 255
206 230 255
206 230 255
206 230 255
206 230 255
206 230 255
206 230 255
206 230 255
206 230 255
206 230 255
206 230 255
206 230 255
206 230 255
206 230 255
206 230 255
206 230 255
206 230 255
206 230 255
206 230 255
206 230 255
206 230 255
206 230 255
206 230 255
206 230 255
206 230 255
206 230 255
206 230 255
206 230 255
218 242 255
206 230 255
206 230 255
206 230 255
206 230 255
206 230 255
206 230 255
206 230 255
206 230 255
206 230 255
206 230 255
206 230 255
206 230 255
206 230 255
206 230 255
206 230 255
206 230 255
206 230 255
206 230 255
206 230 255
206 230 255
206 230 255
206 230 255
206 230 255
206 230 255
206 230 255
206 230 255
206 230 255
206 230 255
206 230 255
206 230 255
206 230 255
206 230 255
206 230 255
206 230 255
206 230 255
206 230 255
218 242 255
206 230 255
206 230 255
206 230 255
206 230 255
206 230 255
206 230 255
206 230 255
206 230 255
206 230 255
206 230 255
206 230 255
206 230 255
206 230 255
206 230 255
206 230 255
206 230 255
206 230 255
206 230 255
206 230 255
206 230 255
206 230 255
206 230 255
206 230 255
206 230 255
206 230 255
206 230 255
206 230 255
206 230 255
206 230 255
206 230 255
206 230 255
206 230 255
206 230 255
206 230 255
206 230 255
206 230 255
218 242 255
206 230 255
206 230 255
206 230 255
206 230 255
206 230 255
206 230 255
206 230 255
206 230 255
206 230 255
206 230 255
206 230 255
206 230 255
206 230 255
206 230 255
206 230 255
206 230 255
206 230 255
206 230 255
206 230 255
206 230 255
206 230 255
206 230 255
206 230 255
206 230 255
206 230 255
206 230 255
206 230 255
206 230 255
206 230 255
206 230 255
206 230 255
206 230 255
206 230 255
206 230 255
206 230 255
206 230 255
218 242 255
206 230 255
206 230 255
206 230 255
206 230 255
206 230 255
206 230 255
206 230 255
206 230 255
206 230 255
206 230 255
206 230 255
206 230 255
206 230 255
206 230 255
206 230 255
206 230 255
206 230 255
206 230 255
206 230 255
206 230 255
206 230 255
206 230 255
206 230 255
206 230 255
206 230 255
206 230 255
206 230 255
206 230 255
206 230 255
206 230 255
206 230 255
206 230 255
206 230 255
206 230 255
206 230 255
206 230 255
218 242 255
206 230 255
206 230 255
206 230 255
206 230 255
206 230 255
206 230 255
206 230 255
206 230 255
206 230 255
206 230 255
206 230 255
206 230 255
206 230 255
206 230 255
206 230 255
206 230 255
206 230 255
206 230 255
206 230 255
206 230 255
206 230 255
206 230 255
206 230 255
206 230 255
206 230 255
206 230 255
206 230 255
206 230 255
206 230 255
206 230 255
206 230 255
206 230 255
206 230 255
206 230 255
206 230 255
206 230 255
218 242 255
206 230 255
206 230 255
206 230 255
206 230 255
206 230 255
206 230 255
206 230 255
206 230 255
206 230 255
206 230 255
206 230 255
206 230 255
206 230 255
206 230 255
206 230 255
206 230 255
206 230 255
206 230 255
206 230 255
206 230 255
206 230 255
206 230 255
206 230 255
206 230 255
206 230 255
206 230 255
206 230 255
206 230 255
206 230 255
206 230 255
206 230 255
206 230 255
206 230 255
206 230 255
206 230 255
206 230 255
218 242 255
206 230 255
206 230 255
206 230 255
206 230 255
206 230 255
206 230 255
206 230 255
206 230 255
206 230 255
206 230 255
206 230 255
206 230 255
206 230 255
206 230 255
206 230 255
206 230 255
206 230 255
206 230 255
206 230 255
206 230 255
206 230 255
206 230 255
218 242 255
206 230 255
206 230 255
206 230 255
206 230 255
206 230 255
206 230 255
206 230 255
206 230 255
206 230 255
206 230 255
206 230 255
206 230 255
206 230 255
206 230 255
206 230 255
206 230 255
206 230 255
206 230 255
206 230 255
206 230 255
206 230 255
206 230 255
206 230 255
206 230 255
206 230 255
206 230 255
206 230 255
206 230 255
206 230 255
206 230 255
206 230 255
206 230 255
206 230 255
206 230 255
206 230 255
206 230 255
218 242 255
206 230 255
206 230 255
206 230 255
206 230 255
206 230 255
206 230 255
206 230 255
206 230 255
206 230 255
206 230 255
206 230 255
206 230 255
206 230 255
206 230 255
206 230 255
206 230 255
206 230 255
206 230 255
206 230 255
206 230 255
206 230 255
206 230 255
206 230 255
206 230 255
206 230 255
206 230 255
206 230 255
206 230 255
206 230 255
206 230 255
206 230 255
206 230 255
206 230 255
206 230 255
206 230 255
206 230 255
218 242 255
206 230 255
206 230 255
206 230 255
206 230 255
206 230 255
206 230 255
206 230 255
206 230 255
206 230 255
206 230 255
206 230 255
206 230 255
206 230 255
206 230 255
206 230 255
206 230 255
206 230 255
206 230 255
206 230 255
206 230 255
206 230 255
206 230 255
206 230 255
206 230 255
206 230 255
206 230 255
206 230 255
206 230 255
206 230 255
206 230 255
206 230 255
206 230 255
206 230 255
206 230 255
206 230 255
206 230 255
218 242 255
206 230 255
206 230 255
206 230 255
206 230 255
206 230 255
206 230 255
206 230 255
206 230 255
206 230 255
206 230 255
206 230 255
206 230 255
206 230 255
206 230 255
206 230 255
206 230 255
206 230 255
206 230 255
206 230 255
206 230 255
206 230 255
206 230 255
206 230 255
206 230 255
206 230 255
206 230 255
206 230 255
206 230 255
206 230 255
206 230 255
206 230 255
206 230 255
206 230 255
206 230 255
206 230 255
206 230 255
218 242 255
206 230 255
206 230 255
206 230 255
206 230 255
206 230 255
206 230 255
206 230 255
206 230 255
206 230 255
206 230 255
206 230 255
206 230 255
206 230 255
206 230 255
206 230 255
206 230 255
206 230 255
206 230 255
206 230 255
206 230 255
206 230 255
206 230 255
206 230 255
206 230 255
206 230 255
206 230 255
206 230 255
206 230 255
206 230 255
206 230 255
206 230 255
206 230 255
206 230 255
206 230 255
206 230 255
206 230 255
218 242 255
206 230 255
206 230 255
206 230 255
206 230 255
206 230 255
206 230 255
206 230 255
206 230 255
206 230 255
206 230 255
206 230 255
206 230 255
206 230 255
206 230 255
206 230 255
206 230 255
206 230 255
206 230 255
206 230 255
206 230 255
206 230 255
206 230 255
206 230 255
206 230 255
206 230 255
206 230 255
206 230 255
206 230 255
206 230 255
206 230 255
206 230 255
206 230 255
206 230 255
206 230 255
206 230 255
206 230 255
218 242 255
206 230 255
206 230 255
206 230 255
206 230 255
206 230 255
206 230 255
206 230 255
206 230 255
206 230 255
206 230 255
206 230 255
206 230 255
206 230 255
206 230 255
206 230 255
206 230 255
206 230 255
206 230 255
206 230 255
206 230 255
206 230 255
206 230 255
206 230 255
206 230 255
206 230 255
206 230 255
206 230 255
206 230 255
206 230 255
206 230 255
206 230 255
206 230 255
206 230 255
206 230 255
206 230 255
206 230 255
218 242 255
206 230 255
206 230 255
206 230 255
206 230 255
206 230 255
206 230 255
206 230 255
206 230 255
206 230 255
206 230 255
206 230 255
206 230 255
206 230 255
206 230 255
206 230 255
206 230 255
206 230 255
206 230 255
206 230 255
206 230 255
206 230 255
206 230 255
206 230 255
206 230 255
206 230 255
206 230 255
206 230 255
206 230 255
206 230 255
206 230 255
206 230 255
206 230 255
206 230 255
206 230 255
206 230 255
206 230 255
218 242 255
206 230 255
206 230 255
206 230 255
206 230 255
206 230 255
206 230 255
206 230 255
206 230 255
206 230 255
206 230 255
206 230 255
206 230 255
206 230 255
206 230 255
206 230 255
206 230 255
206 230 255
206 230 255
206 230 255
206 230 255
206 230 255
206 230 255
218 242 255
206 230 255
206 230 255
206 230 255
206 230 255
206 230 255
206 230 255
206 230 255
206 230 255
206 230 255
206 230 255
206 230 255
206 230 255
206 230 255
206 230 255
206 230 255
206 230 255
206 230 255
206 230 255
206 230 255
206 230 255
206 230 255
206 230 255
206 230 255
206 230 255
206 230 255
206 230 255
206 230 255
206 230 255
206 230 255
206 230 255
206 230 255
206 230 255
206 230 255
206 230 255
206 230 255
206 230 255
218 242 255
206 230 255
206 230 255
206 230 255
206 230 255
206 230 255
206 230 255
206 230 255
206 230 255
206 230 255
206 230 255
206 230 255
206 230 255
206 230 255
206 230 255
206 230 255
206 230 255
206 230 255
206 230 255
206 230 255
206 230 255
206 230 255
206 230 255
206 230 255
206 230 255
206 230 255
206 230 255
206 230 255
206 230 255
206 230 255
206 230 255
206 230 255
206 230 255
206 230 255
206 230 255
206 230 255
206 230 255
218 242 255
206 230 255
206 230 255
206 230 255
206 230 255
206 230 255
206 230 255
206 230 255
206 230 255
206 230 255
206 230 255
206 230 255
206 230 255
206 230 255
206 230 255
206 230 255
206 230 255
206 230 255
206 230 255
206 230 255
206 230 255
206 230 255
206 230 255
206 230 255
206 230 255
206 230 255
206 230 255
206 230 255
206 230 255
206 230 255
206 230 255
206 230 255
206 230 255
206 230 255
206 230 255
206 230 255
206 230 255
218 242 255
206 230 255
206 230 255
206 230 255
206 230 255
206 230 255
206 230 255
206 230 255
206 230 255
206 230 255
206 230 255
206 230 255
206 230 255
206 230 255
206 230 255
206 230 255
206 230 255
206 230 255
206 230 255
206 230 255
206 230 255
206 230 255
206 230 255
206 230 255
206 230 255
206 230 255
206 230 255
206 230 255
206 230 255
206 230 255
206 230 255
206 230 255
206 230 255
206 230 255
206 230 255
206 230 255
206 230 255
218 242 255
206 230 255
206 230 255
206 230 255
206 230 255
206 230 255
206 230 255
206 230 255
206 230 255
206 230 255
206 230 255
206 230 255
206 230 255
206 230 255
206 230 255
206 230 255
206 230 255
206 230 255
206 230 255
206 230 255
206 230 255
206 230 255
206 230 255
206 230 255
206 230 255
206 230 255
206 230 255
206 230 255
206 230 255
206 230 255
206 230 255
206 230 255
206 230 255
206 230 255
206 230 255
206 230 255
206 230 255
218 242 255
206 230 255
206 230 255
206 230 255
206 230 255
206 230 255
206 230 255
206 230 255
206 230 255
206 230 255
206 230 255
206 230 255
206 230 255
206 230 255
206 230 255
206 230 255
206 230 255
206 230 255
206 230 255
206 230 255
206 230 255
206 230 255
206 230 255
206 230 255
206 230 255
206 230 255
206 230 255
206 230 255
206 230 255
206 230 255
206 230 255
206 230 255
206 230 255
206 230 255
206 230 255
206 230 255
206 230 255
218 242 255
206 230 255
206 230 255
206 230 255
206 230 255
206 230 255
206 230 255
206 230 255
206 230 255
206 230 255
206 230 255
206 230 255
206 230 255
206 230 255
206 230 255
206 230 255
206 230 255
206 230 255
206 230 255
206 230 255
206 230 255
206 230 255
206 230 255
206 230 255
206 230 255
206 230 255
206 230 255
206 230 255
206 230 255
206 230 255
206 230 255
206 230 255
206 230 255
206 230 255
206 230 255
206 230 255
206 230 255
218 242 255
206 230 255
206 230 255
206 230 255
206 230 255
206 230 255
206 230 255
206 230 255
206 230 255
206 230 255
206 230 255
206 230 255
206 230 255
206 230 255
206 230 255
206 230 255
206 230 255
206 230 255
206 230 255
206 230 255
206 230 255
206 230 255
206 230 255
206 230 255
206 230 255
206 230 255
206 230 255
206 230 255
206 230 255
206 230 255
206 230 255
206 230 255
206 230 255
206 230 255
206 230 255
206 230 255
206 230 255
218 242 255
206 230 255
206 230 255
206 230 255
206 230 255
206 230 255
206 230 255
206 230 255
206 230 255
206 230 255
206 230 255
206 230 255
206 230 255
206 230 255
206 230 255
206 230 255
206 230 255
206 230 255
206 230 255
206 230 255
206 230 255
206 230 255
206 230 255
218 242 255
206 230 255
206 230 255
206 230 255
206 230 255
206 230 255
206 230 255
206 230 255
206 230 255
206 230 255
206 230 255
206 230 255
206 230 255
206 230 255
206 230 255
206 230 255
206 230 255
206 230 255
206 230 255
206 230 255
206 230 255
206 230 255
206 230 255
206 230 255
206 230 255
206 230 255
206 230 255
206 230 255
206 230 255
206 230 255
206 230 255
206 230 255
206 230 255
206 230 255
206 230 255
206 230 255
206 230 255
218 242 255
206 230 255
206 230 255
206 230 255
206 230 255
206 230 255
206 230 255
206 230 255
206 230 255
206 230 255
206 230 255
206 230 255
206 230 255
206 230 255
206 230 255
206 230 255
206 230 255
206 230 255
206 230 255
206 230 255
206 230 255
206 230 255
206 230 255
206 230 255
206 230 255
206 230 255
206 230 255
206 230 255
206 230 255
206 230 255
206 230 255
206 230 255
206 230 255
206 230 255
206 230 255
206 230 255
206 230 255
218 242 255
206 230 255
206 230 255
206 230 255
206 230 255
206 230 255
206 230 255
206 230 255
206 230 255
206 230 255
206 230 255
206 230 255
206 230 255
206 230 255
206 230 255
206 230 255
206 230 255
206 230 255
206 230 255
206 230 255
206 230 255
206 230 255
206 230 255
206 230 255
206 230 255
206 230 255
206 230 255
206 230 255
206 230 255
206 230 255
206 230 255
206 230 255
206 230 255
206 230 255
206 230 255
206 230 255
206 230 255
218 242 255
206 230 255
206 230 255
206 230 255
206 230 255
206 230 255
206 230 255
206 230 255
206 230 255
206 230 255
206 230 255
206 230 255
206 230 255
206 230 255
206 230 255
206 230 255
206 230 255
206 230 255
206 230 255
206 230 255
206 230 255
206 230 255
206 230 255
206 230 255
206 230 255
206 230 255
206 230 255
206 230 255
206 230 255
206 230 255
206 230 255
206 230 255
206 230 255
206 230 255
206 230 255
206 230 255
206 230 255
218 242 255
206 230 255
206 230 255
206 230 255
206 230 255
206 230 255
206 230 255
206 230 255
206 230 255
206 230 255
206 230 255
206 230 255
206 230 255
206 230 255
206 230 255
206 230 255
206 230 255
206 230 255
206 230 255
206 230 255
206 230 255
206 230 255
206 230 255
206 230 255
206 230 255
206 230 255
206 230 255
206 230 255
206 230 255
206 230 255
206 230 255
206 230 255
206 230 255
206 230 255
206 230 255
206 230 255
206 230 255
218 242 255
206 230 255
206 230 255
206 230 255
206 230 255
206 230 255
206 230 255
206 230 255
206 230 255
206 230 255
206 230 255
206 230 255
206 230 255
206 230 255
206 230 255
206 230 255
206 230 255
206 230 255
206 230 255
206 230 255
206 230 255
206 230 255
206 230 255
206 230 255
206 230 255
206 230 255
206 230 255
206 230 255
206 230 255
206 230 255
206 230 255
206 230 255
206 230 255
206 230 255
206 230 255
206 230 255
206 230 255
218 242 255
206 230 255
206 230 255
206 230 255
206 230 255
206 230 255
206 230 255
206 230 255
206 230 255
206 230 255
206 230 255
206 230 255
206 230 255
206 230 255
206 230 255
206 230 255
206 230 255
206 230 255
206 230 255
206 230 255
206 230 255
206 230 255
206 230 255
206 230 255
206 230 255
206 230 255
206 230 255
206 230 255
206 230 255
206 230 255
206 230 255
206 230 255
206 230 255
206 230 255
206 230 255
206 230 255
206 230 255
218 242 255
206 230 255
206 230 255
206 230 255
206 230 255
206 230 255
206 230 255
206 230 255
206 230 255
206 230 255
206 230 255
206 230 255
206 230 255
206 230 255
206 230 255
206 230 255
206 230 255
206 230 255
206 230 255
206 230 255
206 230 255
206 230 255
206 230 255
206 230 255
206 230 255
206 230 255
206 230 255
206 230 255
206 230 255
206 230 255
206 230 255
206 230 255
206 230 255
206 230 255
206 230 255
206 230 255
206 230 255
218 242 255
206 230 255
206 230 255
206 230 255
206 230 255
206 230 255
206 230 255
206 230 255
206 230 255
206 230 255
206 230 255
206 230 255
206 230 255
206 230 255
206 230 255
206 230 255
206 230 255
206 230 255
206 230 255
206 230 255
206 230 255
206 230 255
206 230 255
218 242 255
206 230 255
206 230 255
206 230 255
206 230 255
206 230 255
206 230 255
206 230 255
206 230 255
206 230 255
206 230 255
206 230 255
206 230 255
206 230 255
206 230 255
206 230 255
206 230 255
206 230 255
206 230 255
206 230 255
206 230 255
206 230 255
206 230 255
206 230 255
206 230 255
206 230 255
206 230 255
206 230 255
206 230 255
206 230 255
206 230 255
206 230 255
206 230 255
206 230 255
206 230 255
206 230 255
206 230 255
218 242 255
206 230 255
206 230 255
206 230 255
206 230 255
206 230 255
206 230 255
206 230 255
206 230 255
206 230 255
206 230 255
206 230 255
206 230 255
206 230 255
206 230 255
206 230 255
206 230 255
206 230 255
206 230 255
206 230 255
206 230 255
206 230 255
206 230 255
206 230 255
206 230 255
206 230 255
206 230 255
206 230 255
206 230 255
206 230 255
206 230 255
206 230 255
206 230 255
206 230 255
206 230 255
206 230 255
206 230 255
218 242 255
206 230 255
206 230 255
206 230 255
206 230 255
206 230 255
206 230 255
206 230 255
206 230 255
206 230 255
206 230 255
206 230 255
206 230 255
206 230 255
206 230 255
206 230 255
206 230 255
206 230 255
206 230 255
206 230 255
206 230 255
206 230 255
206 230 255
206 230 255
206 230 255
206 230 255
206 230 255
206 230 255
206 230 255
206 230 255
206 230 255
206 230 255
206 230 255
206 230 255
206 230 255
206 230 255
206 230 255
218 242 255
206 230 255
206 230 255
206 230 255
206 230 255
206 230 255
206 230 255
206 230 255
206 230 255
206 230 255
206 230 255
206 230 255
206 230 255
206 230 255
206 230 255
206 230 255
206 230 255
206 230 255
206 230 255
206 230 255
206 230 255
206 230 255
206 230 255
206 230 255
206 230 255
206 230 255
206 230 255
206 230 255
206 230 255
206 230 255
206 230 255
206 230 255
206 230 255
206 230 255
206 230 255
206 230 255
206 230 255
218 242 255
206 230 255
206 230 255
206 230 255
206 230 255
206 230 255
206 230 255
206 230 255
206 230 255
206 230 255
206 230 255
206 230 255
206 230 255
206 230 255
206 230 255
206 230 255
206 230 255
206 230 255
206 230 255
206 230 255
206 230 255
206 230 255
206 230 255
206 230 255
206 230 255
206 230 255
206 230 255
206 230 255
206 230 255
206 230 255
206 230 255
206 230 255
206 230 255
206 230 255
206 230 255
206 230 255
206 230 255
218 242 255
206 230 255
206 230 255
206 230 255
206 230 255
206 230 255
206 230 255
206 230 255
206 230 255
206 230 255
206 230 255
206 230 255
206 230 255
206 230 255
206 230 255
206 230 255
206 230 255
206 230 255
206 230 255
206 230 255
206 230 255
206 230 255
206 230 255
206 230 255
206 230 255
206 230 255
206 230 255
206 230 255
206 230 255
206 230 255
206 230 255
206 230 255
206 230 255
206 230 255
206 230 255
206 230 255
206 230 255
218 242 255
206 230 255
206 230 255
206 230 255
206 230 255
206 230 255
206 230 255
206 230 255
206 230 255
206 230 255
206 230 255
206 230 255
206 230 255
206 230 255
206 230 255
206 230 255
206 230 255
206 230 255
206 230 255
206 230 255
206 230 255
206 230 255
206 230 255
206 230 255
206 230 255
206 230 255
206 230 255
206 230 255
206 230 255
206 230 255
206 230 255
206 230 255
206 230 255
206 230 255
206 230 255
206 230 255
206 230 255
218 242 255
206 230 255
206 230 255
206 230 255
206 230 255
206 230 255
206 230 255
206 230 255
206 230 255
206 230 255
206 230 255
206 230 255
206 230 255
206 230 255
206 230 255
206 230 255
206 230 255
206 230 255
206 230 255
206 230 255
206 230 255
206 230 255
206 230 255
206 230 255
206 230 255
206 230 255
206 230 255
206 230 255
206 230 255
206 230 255
206 230 255
206 230 255
206 230 255
206 230 255
206 230 255
206 230 255
206 230 255
218 242 255
206 230 255
206 230 255
206 230 255
206 230 255
206 230 255
206 230 255
206 230 255
206 230 255
206 230 255
206 230 255
206 230 255
206 230 255
206 230 255
206 230 255
206 230 255
206 230 255
206 230 255
206 230 255
206 230 255
206 230 255
206 230 255
206 230 255
218 242 255
206 230 255
206 230 255
206 230 255
206 230 255
206 230 255
206 230 255
206 230 255
206 230 255
206 230 255
206 230 255
206 230 255
206 230 255
206 230 255
206 230 255
206 230 255
206 230 255
206 230 255
206 230 255
206 230 255
206 230 255
206 230 255
206 230 255
206 230 255
206 230 255
206 230 255
206 230 255
206 230 255
206 230 255
206 230 255
206 230 255
206 230 255
206 230 255
206 230 255
206 230 255
206 230 255
206 230 255
218 242 255
206 230 255
206 230 255
206 230 255
206 230 255
206 230 255
206 230 255
206 230 255
206 230 255
206 230 255
206 230 255
206 230 255
206 230 255
206 230 255
206 230 255
206 230 255
206 230 255
206 230 255
206 230 255
206 230 255
206 230 255
206 230 255
206 230 255
206 230 255
206 230 255
206 230 255
206 230 255
206 230 255
206 230 255
206 230 255
206 230 255
206 230 255
206 230 255
206 230 255
206 230 255
206 230 255
206 230 255
218 242 255
206 230 255
206 230 255
206 230 255
206 230 255
206 230 255
206 230 255
206 230 255
206 230 255
206 230 255
206 230 255
206 230 255
206 230 255
206 230 255
206 230 255
206 230 255
206 230 255
206 230 255
206 230 255
206 230 255
206 230 255
206 230 255
206 230 255
206 230 255
206 230 255
206 230 255
206 230 255
206 230 255
206 230 255
206 230 255
206 230 255
206 230 255
206 230 255
206 230 255
206 230 255
206 230 255
206 230 255
218 242 255
206 230 255
206 230 255
206 230 255
206 230 255
206 230 255
206 230 255
206 230 255
206 230 255
206 230 255
206 230 255
206 230 255
206 230 255
206 230 255
206 230 255
206 230 255
206 230 255
206 230 255
206 230 255
206 230 255
206 230 255
206 230 255
206 230 255
206 230 255
206 230 255
206 230 255
206 230 255
206 230 255
206 230 255
206 230 255
206 230 255
206 230 255
206 230 255
206 230 255
206 230 255
206 230 255
206 230 255
218 242 255
206 230 255
206 230 255
206 230 255
206 230 255
206 230 255
206 230 255
206 230 255
206 230 255
206 230 255
206 230 255
206 230 255
206 230 255
206 230 255
206 230 255
206 230 255
206 230 255
206 230 255
206 230 255
206 230 255
206 230 255
206 230 255
206 230 255
206 230 255
206 230 255
206 230 255
206 230 255
206 230 255
206 230 255
206 230 255
206 230 255
206 230 255
206 230 255
206 230 255
206 230 255
206 230 255
206 230 255
218 242 255
206 230 255
206 230 255
206 230 255
206 230 255
206 230 255
206 230 255
206 230 255
206 230 255
206 230 255
206 230 255
206 230 255
206 230 255
206 230 255
206 230 255
206 230 255
206 230 255
206 230 255
206 230 255
206 230 255
206 230 255
206 230 255
206 230 255
206 230 255
206 230 255
206 230 255
206 230 255
206 230 255
206 230 255
206 230 255
206 230 255
206 230 255
206 230 255
206 230 255
206 230 255
206 230 255
206 230 255
218 242 255
206 230 255
206 230 255
206 230 255
206 230 255
206 230 255
206 230 255
206 230 255
206 230 255
206 230 255
206 230 255
206 230 255
206 230 255
206 230 255
206 230 255
206 230 255
206 230 255
206 230 255
206 230 255
206 230 255
206 230 255
206 230 255
206 230 255
206 230 255
206 230 255
206 230 255
206 230 255
206 230 255
206 230 255
206 230 255
206 230 255
206 230 255
206 230 255
206 230 255
206 230 255
206 230 255
206 230 255
218 242 255
206 230 255
206 230 255
206 230 255
206 230 255
206 230 255
206 230 255
206 230 255
206 230 255
206 230 255
206 230 255
206 230 255
206 230 255
206 230 255
206 230 255
206 230 255
206 230 255
206 230 255
206 230 255
206 230 255
206 230 255
206 230 255
206 230 255
206 230 255
206 230 255
206 230 255
206 230 255
206 230 255
206 230 255
206 230 255
206 230 255
206 230 255
206 230 255
206 230 255
206 230 255
206 230 255
206 230 255
218 242 255
206 230 255
206 230 255
206 230 255
206 230 255
206 230 255
206 230 255
206 230 255
206 230 255
206 230 255
206 230 255
206 230 255
206 230 255
206 230 255
206 230 255
206 230 255
206 230 255
206 230 255
206 230 255
206 230 255
206 230 255
206 230 255
206 230 255
218 242 255
206 230 255
206 230 255
206 230 255
206 230 255
206 230 255
206 230 255
206 230 255
206 230 255
206 230 255
206 230 255
206 230 255
206 230 255
206 230 255
206 230 255
206 230 255
206 230 255
206 230 255
206 230 255
206 230 255
206 230 255
206 230 255
206 230 255
206 230 255
206 230 255
206 230 255
206 230 255
206 230 255
206 230 255
206 230 255
206 230 255
206 230 255
206 230 255
206 230 255
206 230 255
206 230 255
206 230 255
218 242 255
206 230 255
206 230 255
206 230 255
206 230 255
206 230 255
206 230 255
206 230 255
206 230 255
206 230 255
206 230 255
206 230 255
206 230 255
206 230 255
206 230 255
206 230 255
206 230 255
206 230 255
206 230 255
206 230 255
206 230 255
206 230 255
206 230 255
206 230 255
206 230 255
206 230 255
206 230 255
206 230 255
206 230 255
206 230 255
206 230 255
206 230 255
206 230 255
206 230 255
206 230 255
206 230 255
206 230 255
218 242 255
206 230 255
206 230 255
206 230 255
206 230 255
206 230 255
206 230 255
206 230 255
206 230 255
206 230 255
206 230 255
206 230 255
206 230 255
206 230 255
206 230 255
206 230 255
206 230 255
206 230 255
206 230 255
206 230 255
206 230 255
206 230 255
206 230 255
206 230 255
206 230 255
206 230 255
206 230 255
206 230 255
206 230 255
206 230 255
206 230 255
206 230 255
206 230 255
206 230 255
206 230 255
206 230 255
206 230 255
218 242 255
206 230 255
206 230 255
206 230 255
206 230 255
206 230 255
206 230 255
206 230 255
206 230 255
206 230 255
206 230 255
206 230 255
206 230 255
206 230 255
206 230 255
206 230 255
206 230 255
206 230 255
206 230 255
206 230 255
206 230 255
206 230 255
206 230 255
206 230 255
206 230 255
206 230 255
206 230 255
206 230 255
206 230 255
206 230 255
206 230 255
206 230 255
206 230 255
206 230 255
206 230 255
206 230 255
206 230 255
218 242 255
206 230 255
206 230 255
206 230 255
206 230 255
206 230 255
206 230 255
206 230 255
206 230 255
206 230 255
206 230 255
206 230 255
206 230 255
206 230 255
206 230 255
206 230 255
206 230 255
206 230 255
206 230 255
206 230 255
206 230 255
206 230 255
206 230 255
206 230 255
206 230 255
206 230 255
206 230 255
206 230 255
206 230 255
206 230 255
206 230 255
206 230 255
206 230 255
206 230 255
206 230 255
206 230 255
206 230 255
218 242 255
206 230 255
206 230 255
206 230 255
206 230 255
206 230 255
206 230 255
206 230 255
206 230 255
206 230 255
206 230 255
206 230 255
206 230 255
206 230 255
206 230 255
206 230 255
206 230 255
206 230 255
206 230 255
206 230 255
206 230 255
206 230 255
206 230 255
206 230 255
206 230 255
206 230 255
206 230 255
206 230 255
206 230 255
206 230 255
206 230 255
206 230 255
206 230 255
206 230 255
206 230 255
206 230 255
206 230 255
218 242 255
206 230 255
206 230 255
206 230 255
206 230 255
206 230 255
206 230 255
206 230 255
206 230 255
206 230 255
206 230 255
206 230 255
206 230 255
206 230 255
206 230 255
206 230 255
206 230 255
206 230 255
206 230 255
206 230 255
206 230 255
206 230 255
206 230 255
206 230 255
206 230 255
206 230 255
206 230 255
206 230 255
206 230 255
206 230 255
206 230 255
206 230 255
206 230 255
206 230 255
206 230 255
206 230 255
206 230 255
218 242 255
206 230 255
206 230 255
206 230 255
206 230 255
206 230 255
206 230 255
206 230 255
206 230 255
206 230 255
206 230 255
206 230 255
206 230 255
206 230 255
206 230 255
206 230 255
206 230 255
206 230 255
206 230 255
206 230 255
206 230 255
206 230 255
206 230 255
206 230 255
206 230 255
206 230 255
206 230 255
206 230 255
206 230 255
206 230 255
206 230 255
206 230 255
206 230 255
206 230 255
206 230 255
206 230 255
206 230 255
218 242 255
206 230 255
206 230 255
206 230 255
206 230 255
206 230 255
206 230 255
206 230 255
206 230 255
206 230 255
206 230 255
206 230 255
206 230 255
206 230 255
206 230 255
206 230 255
206 230 255
206 230 255
206 230 255
206 230 255
206 230 255
206 230 255
206 230 255
218 242 255
206 230 255
206 230 255
206 230 255
206 230 255
206 230 255
206 230 255
206 230 255
206 230 255
206 230 255
206 230 255
206 230 255
206 230 255
206 230 255
206 230 255
206 230 255
206 230 255
206 230 255
206 230 255
206 230 255
206 230 255
206 230 255
206 230 255
206 230 255
206 230 255
206 230 255
206 230 255
206 230 255
206 230 255
206 230 255
206 230 255
206 230 255
206 230 255
206 230 255
206 230 255
206 230 255
206 230 255
218 242 255
206 230 255
206 230 255
206 230 255
206 230 255
206 230 255
206 230 255
206 230 255
206 230 255
206 230 255
206 230 255
206 230 255
206 230 255
206 230 255
206 230 255
206 230 255
206 230 255
206 230 255
206 230 255
206 230 255
206 230 255
206 230 255
206 230 255
206 230 255
206 230 255
206 230 255
206 230 255
206 230 255
206 230 255
206 230 255
206 230 255
206 230 255
206 230 255
206 230 255
206 230 255
206 230 255
206 230 255
218 242 255
206 230 255
206 230 255
206 230 255
206 230 255
206 230 255
206 230 255
206 230 255
206 230 255
206 230 255
206 230 255
206 230 255
206 230 255
206 230 255
206 230 255
206 230 255
206 230 255
206 230 255
206 230 255
206 230 255
206 230 255
206 230 255
206 230 255
206 230 255
206 230 255
206 230 255
206 230 255
206 230 255
206 230 255
206 230 255
206 230 255
206 230 255
206 230 255
206 230 255
206 230 255
206 230 255
206 230 255
218 242 255
206 230 255
206 230 255
206 230 255
206 230 255
206 230 255
206 230 255
206 230 255
206 230 255
206 230 255
206 230 255
206 230 255
206 230 255
206 230 255
206 230 255
206 230 255
206 230 255
206 230 255
206 230 255
206 230 255
206 230 255
206 230 255
206 230 255
206 230 255
206 230 255
206 230 255
206 230 255
206 230 255
206 230 255
206 230 255
206 230 255
206 230 255
206 230 255
206 230 255
206 230 255
206 230 255
206 230 255
218 242 255
206 230 255
206 230 255
206 230 255
206 230 255
206 230 255
206 230 255
206 230 255
206 230 255
206 230 255
206 230 255
206 230 255
206 230 255
206 230 255
206 230 255
206 230 255
206 230 255
206 230 255
206 230 255
206 230 255
206 230 255
206 230 255
206 230 255
206 230 255
206 230 255
206 230 255
206 230 255
206 230 255
206 230 255
206 230 255
206 230 255
206 230 255
206 230 255
206 230 255
206 230 255
206 230 255
206 230 255
218 242 255
206 230 255
206 230 255
206 230 255
206 230 255
206 230 255
206 230 255
206 230 255
206 230 255
206 230 255
206 230 255
206 230 255
206 230 255
206 230 255
206 230 255
206 230 255
206 230 255
206 230 255
206 230 255
206 230 255
206 230 255
206 230 255
206 230 255
206 230 255
206 230 255
206 230 255
206 230 255
206 230 255
206 230 255
206 230 255
206 230 255
206 230 255
206 230 255
206 230 255
206 230 255
206 230 255
206 230 255
218 242 255
206 230 255
206 230 255
206 230 255
206 230 255
206 230 255
206 230 255
206 230 255
206 230 255
206 230 255
206 230 255
206 230 255
206 230 255
206 230 255
206 230 255
206 230 255
206 230 255
206 230 255
206 230 255
206 230 255
206 230 255
206 230 255
206 230 255
206 230 255
206 230 255
206 230 255
206 230 255
206 230 255
206 230 255
206 230 255
206 230 255
206 230 255
206 230 255
206 230 255
206 230 255
206 230 255
206 230 255
218 242 255
206 230 255
206 230 255
206 230 255
206 230 255
206 230 255
206 230 255
206 230 255
206 230 255
206 230 255
206 230 255
206 230 255
206 230 255
206 230 255
206 230 255
206 230 255
206 230 255
206 230 255
206 230 255
206 230 255
206 230 255
206 230 255
206 230 255
206 230 255
206 230 255
206 230 255
206 230 255
206 230 255
206 230 255
206 230 255
206 230 255
206 230 255
206 230 255
206 230 255
206 230 255
206 230 255
206 230 255
218 242 255
206 230 255
206 230 255
206 230 255
206 230 255
206 230 255
206 230 255
206 230 255
206 230 255
206 230 255
206 230 255
206 230 255
206 230 255
206 230 255
206 230 255
206 230 255
206 230 255
206 230 255
206 230 255
206 230 255
206 230 255
206 230 255
206 230 255
218 242 255
206 230 255
206 230 255
206 230 255
206 230 255
206 230 255
206 230 255
206 230 255
206 230 255
206 230 255
206 230 255
206 230 255
206 230 255
206 230 255
206 230 255
206 230 255
206 230 255
206 230 255
206 230 255
206 230 255
206 230 255
206 230 255
206 230 255
206 230 255
206 230 255
206 230 255
206 230 255
206 230 255
206 230 255
206 230 255
206 230 255
206 230 255
206 230 255
206 230 255
206 230 255
206 230 255
206 230 255
218 242 255
206 230 255
206 230 255
206 230 255
206 230 255
206 230 255
206 230 255
206 230 255
206 230 255
206 230 255
206 230 255
206 230 255
206 230 255
206 230 255
206 230 255
206 230 255
206 230 255
206 230 255
206 230 255
206 230 255
206 230 255
206 230 255
206 230 255
206 230 255
206 230 255
206 230 255
206 230 255
206 230 255
206 230 255
206 230 255
206 230 255
206 230 255
206 230 255
206 230 255
206 230 255
206 230 255
206 230 255
218 242 255
206 230 255
206 230 255
206 230 255
206 230 255
206 230 255
206 230 255
206 230 255
206 230 255
206 230 255
206 230 255
206 230 255
206 230 255
206 230 255
206 230 255
206 230 255
206 230 255
206 230 255
206 230 255
206 230 255
206 230 255
206 230 255
206 230 255
206 230 255
206 230 255
206 230 255
206 230 255
206 230 255
206 230 255
206 230 255
206 230 255
206 230 255
206 230 255
206 230 255
206 230 255
206 230 255
206 230 255
218 242 255
206 230 255
206 230 255
206 230 255
206 230 255
206 230 255
206 230 255
206 230 255
206 230 255
206 230 255
206 230 255
206 230 255
206 230 255
206 230 255
206 230 255
206 230 255
206 230 255
206 230 255
206 230 255
206 230 255
206 230 255
206 230 255
206 230 255
206 230 255
206 230 255
206 230 255
206 230 255
206 230 255
206 230 255
206 230 255
206 230 255
206 230 255
206 230 255
206 230 255
206 230 255
206 230 255
206 230 255
218 242 255
206 230 255
206 230 255
206 230 255
206 230 255
206 230 255
206 230 255
206 230 255
206 230 255
206 230 255
206 230 255
206 230 255
206 230 255
206 230 255
206 230 255
206 230 255
206 230 255
206 230 255
206 230 255
206 230 255
206 230 255
206 230 255
206 230 255
206 230 255
206 230 255
206 230 255
206 230 255
206 230 255
206 230 255
206 230 255
206 230 255
206 230 255
206 230 255
206 230 255
206 230 255
206 230 255
206 230 255
218 242 255
206 230 255
206 230 255
206 230 255
206 230 255
206 230 255
206 230 255
206 230 255
206 230 255
206 230 255
206 230 255
206 230 255
206 230 255
206 230 255
206 230 255
206 230 255
206 230 255
206 230 255
206 230 255
206 230 255
206 230 255
206 230 255
206 230 255
206 230 255
206 230 255
206 230 255
206 230 255
206 230 255
206 230 255
206 230 255
206 230 255
206 230 255
206 230 255
206 230 255
206 230 255
206 230 255
206 230 255
218 242 255
206 230 255
206 230 255
206 230 255
206 230 255
206 230 255
206 230 255
206 230 255
206 230 255
206 230 255
206 230 255
206 230 255
206 230 255
206 230 255
206 230 255
206 230 255
206 230 255
206 230 255
206 230 255
206 230 255
206 230 255
206 230 255
206 230 255
206 230 255
206 230 255
206 230 255
206 230 255
206 230 255
206 230 255
206 230 255
206 230 255
206 230 255
206 230 255
206 230 255
206 230 255
206 230 255
206 230 255
218 242 255
206 230 255
206 230 255
206 230 255
206 230 255
206 230 255
206 230 255
206 230 255
206 230 255
206 230 255
206 230 255
206 230 255
206 230 255
206 230 255
206 230 255
206 230 255
206 230 255
206 230 255
206 230 255
206 230 255
206 230 255
206 230 255
206 230 255
206 230 255
206 230 255
206 230 255
206 230 255
206 230 255
206 230 255
206 230 255
206 230 255
206 230 255
206 230 255
206 230 255
206 230 255
206 230 255
206 230 255
218 242 255
206 230 255
206 230 255
206 230 255
206 230 255
206 230 255
206 230 255
206 230 255
206 230 255
206 230 255
206 230 255
206 230 255
206 230 255
206 230 255
206 230 255
206 230 255
206 230 255
206 230 255
206 230 255
206 230 255
206 230 255
206 230 255
206 230 255
218 242 255
206 230 255
206 230 255
206 230 255
206 230 255
206 230 255
206 230 255
206 230 255
206 230 255
206 230 255
206 230 255
206 230 255
206 230 255
206 230 255
206 230 255
206 230 255
206 230 255
206 230 255
206 230 255
206 230 255
206 230 255
206 230 255
206 230 255
206 230 255
206 230 255
206 230 255
206 230 255
206 230 255
206 230 255
206 230 255
206 230 255
206 230 255
206 230 255
206 230 255
206 230 255
206 230 255
206 230 255
218 242 255
206 230 255
206 230 255
206 230 255
206 230 255
206 230 255
206 230 255
206 230 255
206 230 255
206 230 255
206 230 255
206 230 255
206 230 255
206 230 255
206 230 255
206 230 255
206 230 255
206 230 255
206 230 255
206 230 255
206 230 255
206 230 255
206 230 255
206 230 255
206 230 255
206 230 255
206 230 255
206 230 255
206 230 255
206 230 255
206 230 255
206 230 255
206 230 255
206 230 255
206 230 255
206 230 255
206 230 255
218 242 255
206 230 255
206 230 255
206 230 255
206 230 255
206 230 255
206 230 255
206 230 255
206 230 255
206 230 255
206 230 255
206 230 255
206 230 255
206 230 255
206 230 255
206 230 255
206 230 255
206 230 255
206 230 255
206 230 255
206 230 255
206 230 255
206 230 255
206 230 255
206 230 255
206 230 255
206 230 255
206 230 255
206 230 255
206 230 255
206 230 255
206 230 255
206 230 255
206 230 255
206 230 255
206 230 255
206 230 255
218 242 255
206 230 255
206 230 255
206 230 255
206 230 255
206 230 255
206 230 255
206 230 255
206 230 255
206 230 255
206 230 255
206 230 255
206 230 255
206 230 255
206 230 255
206 230 255
206 230 255
206 230 255
206 230 255
206 230 255
206 230 255
206 230 255
206 230 255
206 230 255
206 230 255
206 230 255
206 230 255
206 230 255
206 230 255
206 230 255
206 230 255
206 230 255
206 230 255
206 230 255
206 230 255
206 230 255
206 230 255
218 242 255
206 230 255
206 230 255
206 230 255
206 230 255
206 230 255
206 230 255
206 230 255
206 230 255
206 230 255
206 230 255
206 230 255
206 230 255
206 230 255
206 230 255
206 230 255
206 230 255
206 230 255
206 230 255
206 230 255
206 230 255
206 230 255
206 230 255
206 230 255
206 230 255
206 230 255
206 230 255
206 230 255
206 230 255
206 230 255
206 230 255
206 230 255
206 230 255
206 230 255
206 230 255
206 230 255
206 230 255
218 242 255
206 230 255
206 230 255
206 230 255
206 230 255
206 230 255
206 230 255
206 230 255
206 230 255
206 230 255
206 230 255
206 230 255
206 230 255
206 230 255
206 230 255
206 230 255
206 230 255
206 230 255
206 230 255
206 230 255
206 230 255
206 230 255
206 230 255
206 230 255
206 230 255
206 230 255
206 230 255
206 230 255
206 230 255
206 230 255
206 230 255
206 230 255
206 230 255
206 230 255
206 230 255
206 230 255
206 230 255
218 242 255
206 230 255
206 230 255
206 230 255
206 230 255
206 230 255
206 230 255
206 230 255
206 230 255
206 230 255
206 230 255
206 230 255
206 230 255
206 230 255
206 230 255
206 230 255
206 230 255
206 230 255
206 230 255
206 230 255
206 230 255
206 230 255
206 230 255
206 230 255
206 230 255
206 230 255
206 230 255
206 230 255
206 230 255
206 230 255
206 230 255
206 230 255
206 230 255
206 230 255
206 230 255
206 230 255
206 230 255
218 242 255
206 230 255
206 230 255
206 230 255
206 230 255
206 230 255
206 230 255
206 230 255
206 230 255
206 230 255
206 230 255
206 230 255
206 230 255
206 230 255
206 230 255
206 230 255
206 230 255
206 230 255
206 230 255
206 230 255
206 230 255
206 230 255
206 230 255
206 230 255
206 230 255
206 230 255
206 230 255
206 230 255
206 230 255
206 230 255
206 230 255
206 230 255
206 230 255
206 230 255
206 230 255
206 230 255
206 230 255
218 242 255
206 230 255
206 230 255
206 230 255
206 230 255
206 230 255
206 230 255
206 230 255
206 230 255
206 230 255
206 230 255
206 230 255
206 230 255
206 230 255
206 230 255
206 230 255
206 230 255
206 230 255
206 230 255
206 230 255
206 230 255
206 230 255
206 230 255
218 242 255
206 230 255
206 230 255
206 230 255
206 230 255
206 230 255
206 230 255
206 230 255
206 230 255
206 230 255
206 230 255
206 230 255
206 230 255
206 230 255
206 230 255
206 230 255
206 230 255
206 230 255
206 230 255
206 230 255
206 230 255
206 230 255
206 230 255
206 230 255
206 230 255
206 230 255
206 230 255
206 230 255
206 230 255
206 230 255
206 230 255
206 230 255
206 230 255
206 230 255
206 230 255
206 230 255
206 230 255
218 242 255
206 230 255
206 230 255
206 230 255
206 230 255
206 230 255
206 230 255
206 230 255
206 230 255
206 230 255
206 230 255
206 230 255
206 230 255
206 230 255
206 230 255
206 230 255
206 230 255
206 230 255
206 230 255
206 230 255
206 230 255
206 230 255
206 230 255
206 230 255
206 230 255
206 230 255
206 230 255
206 230 255
206 230 255
206 230 255
206 230 255
206 230 255
206 230 255
206 230 255
206 230 255
206 230 255
206 230 255
218 242 255
206 230 255
206 230 255
206 230 255
206 230 255
206 230 255
206 230 255
206 230 255
206 230 255
206 230 255
206 230 255
206 230 255
206 230 255
206 230 255
206 230 255
206 230 255
206 230 255
206 230 255
206 230 255
206 230 255
206 230 255
206 230 255
206 230 255
206 230 255
206 230 255
206 230 255
206 230 255
206 230 255
206 230 255
206 230 255
206 230 255
206 230 255
206 230 255
206 230 255
206 230 255
206 230 255
206 230 255
218 242 255
206 230 255
206 230 255
206 230 255
206 230 255
206 230 255
206 230 255
206 230 255
206 230 255
206 230 255
206 230 255
206 230 255
206 230 255
206 230 255
206 230 255
206 230 255
206 230 255
206 230 255
206 230 255
206 230 255
206 230 255
206 230 255
206 230 255
206 230 255
206 230 255
206 230 255
206 230 255
206 230 255
206 230 255
206 230 255
206 230 255
206 230 255
206 230 255
206 230 255
206 230 255
206 230 255
206 230 255
218 242 255
206 230 255
206 230 255
206 230 255
206 230 255
206 230 255
206 230 255
206 230 255
206 230 255
206 230 255
206 230 255
206 230 255
206 230 255
206 230 255
206 230 255
206 230 255
206 230 255
206 230 255
206 230 255
206 230 255
206 230 255
206 230 255
206 230 255
206 230 255
206 230 255
206 230 255
206 230 255
206 230 255
206 230 255
206 230 255
206 230 255
206 230 255
206 230 255
206 230 255
206 230 255
206 230 255
206 230 255
218 242 255
206 230 255
206 230 255
206 230 255
206 230 255
206 230 255
206 230 255
206 230 255
206 230 255
206 230 255
206 230 255
206 230 255
206 230 255
206 230 255
206 230 255
206 230 255
206 230 255
206 230 255
206 230 255
206 230 255
206 230 255
206 230 255
206 230 255
206 230 255
206 230 255
206 230 255
206 230 255
206 230 255
206 230 255
206 230 255
206 230 255
206 230 255
206 230 255
206 230 255
206 230 255
206 230 255
206 230 255
218 242 255
206 230 255
206 230 255
206 230 255
206 230 255
206 230 255
206 230 255
206 230 255
206 230 255
206 230 255
206 230 255
206 230 255
206 230 255
206 230 255
206 230 255
206 230 255
206 230 255
206 230 255
206 230 255
206 230 255
206 230 255
206 230 255
206 230 255
206 230 255
206 230 255
206 230 255
206 230 255
206 230 255
206 230 255
206 230 255
206 230 255
206 230 255
206 230 255
206 230 255
206 230 255
206 230 255
206 230 255
218 242 255
206 230 255
206 230 255
206 230 255
206 230 255
206 230 255
206 230 255
206 230 255
206 230 255
206 230 255
206 230 255
206 230 255
206 230 255
206 230 255
206 230 255
206 230 255
206 230 255
206 230 255
206 230 255
206 230 255
206 230 255
206 230 255
206 230 255
206 230 255
206 230 255
206 230 255
206 230 255
206 230 255
206 230 255
206 230 255
206 230 255
206 230 255
206 230 255
206 230 255
206 230 255
206 230 255
206 230 255
218 242 255
206 230 255
206 230 255
206 230 255
206 230 255
206 230 255
206 230 255
206 230 255
206 230 255
206 230 255
206 230 255
206 230 255
206 230 255
206 230 255
206 230 255
206 230 255
206 230 255
206 230 255
206 230 255
206 230 255
206 230 255
206 230 255
206 230 255
218 242 255
206 230 255
206 230 255
206 230 255
206 230 255
206 230 255
206 230 255
206 230 255
206 230 255
206 230 255
206 230 255
206 230 255
206 230 255
206 230 255
206 230 255
206 230 255
206 230 255
206 230 255
206 230 255
206 230 255
206 230 255
206 230 255
206 230 255
206 230 255
206 230 255
206 230 255
206 230 255
206 230 255
206 230 255
206 230 255
206 230 255
206 230 255
206 230 255
206 230 255
206 230 255
206 230 255
206 230 255
218 242 255
206 230 255
206 230 255
206 230 255
206 230 255
206 230 255
206 230 255
206 230 255
206 230 255
206 230 255
206 230 255
206 230 255
206 230 255
206 230 255
206 230 255
206 230 255
206 230 255
206 230 255
206 230 255
206 230 255
206 230 255
206 230 255
206 230 255
206 230 255
206 230 255
206 230 255
206 230 255
206 230 255
206 230 255
206 230 255
206 230 255
206 230 255
206 230 255
206 230 255
206 230 255
206 230 255
206 230 255
218 242 255
206 230 255
206 230 255
206 230 255
206 230 255
206 230 255
206 230 255
206 230 255
206 230 255
206 230 255
206 230 255
206 230 255
206 230 255
206 230 255
206 230 255
206 230 255
206 230 255
206 230 255
206 230 255
206 230 255
206 230 255
206 230 255
206 230 255
206 230 255
206 230 255
206 230 255
206 230 255
206 230 255
206 230 255
206 230 255
206 230 255
206 230 255
206 230 255
206 230 255
206 230 255
206 230 255
206 230 255
218 242 255
206 230 255
206 230 255
206 230 255
206 230 255
206 230 255
206 230 255
206 230 255
206 230 255
206 230 255
206 230 255
206 230 255
206 230 255
206 230 255
206 230 255
206 230 255
206 230 255
206 230 255
206 230 255
206 230 255
206 230 255
206 230 255
206 230 255
206 230 255
206 230 255
206 230 255
206 230 255
206 230 255
206 230 255
206 230 255
206 230 255
206 230 255
206 230 255
206 230 255
206 230 255
206 230 255
206 230 255
218 242 255
206 230 255
206 230 255
206 230 255
206 230 255
206 230 255
206 230 255
206 230 255
206 230 255
206 230 255
206 230 255
206 230 255
206 230 255
206 230 255
206 230 255
206 230 255
206 230 255
206 230 255
206 230 255
206 230 255
206 230 255
206 230 255
206 230 255
206 230 255
206 230 255
206 230 255
206 230 255
206 230 255
206 230 255
206 230 255
206 230 255
206 230 255
206 230 255
206 230 255
206 230 255
206 230 255
206 230 255
218 242 255
206 230 255
206 230 255
206 230 255
206 230 255
206 230 255
206 230 255
206 230 255
206 230 255
206 230 255
206 230 255
206 230 255
206 230 255
206 230 255
206 230 255
206 230 255
206 230 255
206 230 255
206 230 255
206 230 255
206 230 255
206 230 255
206 230 255
206 230 255
206 230 255
206 230 255
206 230 255
206 230 255
206 230 255
206 230 255
206 230 255
206 230 255
206 230 255
206 230 255
206 230 255
206 230 255
206 230 255
218 242 255
206 230 255
206 230 255
206 230 255
206 230 255
206 230 255
206 230 255
206 230 255
206 230 255
206 230 255
206 230 255
206 230 255
206 230 255
206 230 255
206 230 255
206 230 255
206 230 255
206 230 255
206 230 255
206 230 255
206 230 255
206 230 255
206 230 255
206 230 255
206 230 255
206 230 255
206 230 255
206 230 255
206 230 255
206 230 255
206 230 255
206 230 255
206 230 255
206 230 255
206 230 255
206 230 255
206 230 255
218 242 255
206 230 255
206 230 255
206 230 255
206 230 255
206 230 255
206 230 255
206 230 255
206 230 255
206 230 255
206 230 255
206 230 255
206 230 255
206 230 255
206 230 255
206 230 255
206 230 255
206 230 255
206 230 255
206 230 255
206 230 255
206 230 255
206 230 255
206 230 255
206 230 255
206 230 255
206 230 255
206 230 255
206 230 255
206 230 255
206 230 255
206 230 255
206 230 255
206 230 255
206 230 255
206 230 255
206 230 255
218 242 255
206 230 255
206 230 255
206 230 255
206 230 255
206 230 255
206 230 255
206 230 255
206 230 255
206 230 255
206 230 255
206 230 255
206 230 255
206 230 255
206 230 255
206 230 255
206 230 255
206 230 255
206 230 255
206 230 255
206 230 255
206 230 255
206 230 255
218 242 255
206 230 255
206 230 255
206 230 255
206 230 255
206 230 255
206 230 255
206 230 255
206 230 255
206 230 255
206 230 255
206 230 255
206 230 255
206 230 255
206 230 255
206 230 255
206 230 255
206 230 255
206 230 255
206 230 255
206 230 255
206 230 255
206 230 255
206 230 255
206 230 255
206 230 255
206 230 255
206 230 255
206 230 255
206 230 255
206 230 255
206 230 255
206 230 255
206 230 255
206 230 255
206 230 255
206 230 255
218 242 255
206 230 255
206 230 255
206 230 255
206 230 255
206 230 255
206 230 255
206 230 255
206 230 255
206 230 255
206 230 255
206 230 255
206 230 255
206 230 255
206 230 255
206 230 255
206 230 255
206 230 255
206 230 255
206 230 255
206 230 255
206 230 255
206 230 255
206 230 255
206 230 255
206 230 255
206 230 255
206 230 255
206 230 255
206 230 255
206 230 255
206 230 255
206 230 255
206 230 255
206 230 255
206 230 255
206 230 255
218 242 255
206 230 255
206 230 255
206 230 255
206 230 255
206 230 255
206 230 255
206 230 255
206 230 255
206 230 255
206 230 255
206 230 255
206 230 255
206 230 255
206 230 255
206 230 255
206 230 255
206 230 255
206 230 255
206 230 255
206 230 255
206 230 255
206 230 255
206 230 255
206 230 255
206 230 255
206 230 255
206 230 255
206 230 255
206 230 255
206 230 255
206 230 255
206 230 255
206 230 255
206 230 255
206 230 255
206 230 255
218 242 255
206 230 255
206 230 255
206 230 255
206 230 255
206 230 255
206 230 255
206 230 255
206 230 255
206 230 255
206 230 255
206 230 255
206 230 255
206 230 255
206 230 255
206 230 255
206 230 255
206 230 255
206 230 255
206 230 255
206 230 255
206 230 255
206 230 255
206 230 255
206 230 255
206 230 255
206 230 255
206 230 255
206 230 255
206 230 255
206 230 255
206 230 255
206 230 255
206 230 255
206 230 255
206 230 255
206 230 255
218 242 255
206 230 255
206 230 255
206 230 255
206 230 255
206 230 255
206 230 255
206 230 255
206 230 255
206 230 255
206 230 255
206 230 255
206 230 255
206 230 255
206 230 255
206 230 255
206 230 255
206 230 255
206 230 255
206 230 255
206 230 255
206 230 255
206 230 255
206 230 255
206 230 255
206 230 255
206 230 255
206 230 255
206 230 255
206 230 255
206 230 255
206 230 255
206 230 255
206 230 255
206 230 255
206 230 255
206 230 255
218 242 255
206 230 255
206 230 255
206 230 255
206 230 255
206 230 255
206 230 255
206 230 255
206 230 255
206 230 255
206 230 255
206 230 255
206 230 255
206 230 255
206 230 255
206 230 255
206 230 255
206 230 255
206 230 255
206 230 255
206 230 255
206 230 255
206 230 255
206 230 255
206 230 255
206 230 255
206 230 255
206 230 255
206 230 255
206 230 255
206 230 255
206 230 255
206 230 255
206 230 255
206 230 255
206 230 255
206 230 255
218 242 255
206 230 255
206 230 255
206 230 255
206 230 255
206 230 255
206 230 255
206 230 255
206 230 255
206 230 255
206 230 255
206 230 255
206 230 255
206 230 255
206 230 255
206 230 255
206 230 255
206 230 255
206 230 255
206 230 255
206 230 255
206 230 255
206 230 255
206 230 255
206 230 255
206 230 255
206 230 255
206 230 255
206 230 255
206 230 255
206 230 255
206 230 255
206 230 255
206 230 255
206 230 255
206 230 255
206 230 255
218 242 255
206 230 255
206 230 255
206 230 255
206 230 255
206 230 255
206 230 255
206 230 255
206 230 255
206 230 255
206 230 255
206 230 255
206 230 255
206 230 255
206 230 255
206 230 255
206 230 255
206 230 255
206 230 255
206 230 255
206 230 255
206 230 255
206 230 255
206 230 255
206 230 255
206 230 255
206 230 255
206 230 255
206 230 255
206 230 255
206 230 255
206 230 255
206 230 255
206 230 255
206 230 255
206 230 255
206 230 255
218 242 255
206 230 255
206 230 255
206 230 255
206 230 255
206 230 255
206 230 255
206 230 255
206 230 255
206 230 255
206 230 255
206 230 255
206 230 255
206 230 255
206 230 255
206 230 255
206 230 255
206 230 255
206 230 255
206 230 255
206 230 255
206 230 255
206 230 255
218 242 255
206 230 255
206 230 255
206 230 255
206 230 255
206 230 255
206 230 255
206 230 255
206 230 255
206 230 255
206 230 255
206 230 255
206 230 255
206 230 255
206 230 255
206 230 255
206 230 255
206 230 255
206 230 255
206 230 255
206 230 255
206 230 255
206 230 255
206 230 255
206 230 255
206 230 255
206 230 255
206 230 255
206 230 255
206 230 255
206 230 255
206 230 255
206 230 255
206 230 255
206 230 255
206 230 255
206 230 255
218 242 255
206 230 255
206 230 255
206 230 255
206 230 255
206 230 255
206 230 255
206 230 255
206 230 255
206 230 255
206 230 255
206 230 255
206 230 255
206 230 255
206 230 255
206 230 255
206 230 255
206 230 255
206 230 255
206 230 255
206 230 255
206 230 255
206 230 255
206 230 255
206 230 255
206 230 255
206 230 255
206 230 255
206 230 255
206 230 255
206 230 255
206 230 255
206 230 255
206 230 255
206 230 255
206 230 255
206 230 255
218 242 255
206 230 255
206 230 255
206 230 255
206 230 255
206 230 255
206 230 255
206 230 255
206 230 255
206 230 255
206 230 255
206 230 255
206 230 255
206 230 255
206 230 255
206 230 255
206 230 255
206 230 255
206 230 255
206 230 255
206 230 255
206 230 255
206 230 255
206 230 255
206 230 255
206 230 255
206 230 255
206 230 255
206 230 255
206 230 255
206 230 255
206 230 255
206 230 255
206 230 255
206 230 255
206 230 255
206 230 255
218 242 255
206 230 255
206 230 255
206 230 255
206 230 255
206 230 255
206 230 255
206 230 255
206 230 255
206 230 255
206 230 255
206 230 255
206 230 255
206 230 255
206 230 255
206 230 255
206 230 255
206 230 255
206 230 255
206 230 255
206 230 255
206 230 255
206 230 255
206 230 255
206 230 255
206 230 255
206 230 255
206 230 255
206 230 255
206 230 255
206 230 255
206 230 255
206 230 255
206 230 255
206 230 255
206 230 255
206 230 255
218 242 255
206 230 255
206 230 255
206 230 255
206 230 255
206 230 255
206 230 255
206 230 255
206 230 255
206 230 255
206 230 255
206 230 255
206 230 255
206 230 255
206 230 255
206 230 255
206 230 255
206 230 255
206 230 255
206 230 255
206 230 255
206 230 255
206 230 255
206 230 255
206 230 255
206 230 255
206 230 255
206 230 255
206 230 255
206 230 255
206 230 255
206 230 255
206 230 255
206 230 255
206 230 255
206 230 255
206 230 255
218 242 255
206 230 255
206 230 255
206 230 255
206 230 255
206 230 255
206 230 255
206 230 255
206 230 255
206 230 255
206 230 255
206 230 255
206 230 255
206 230 255
206 230 255
206 230 255
206 230 255
206 230 255
206 230 255
206 230 255
206 230 255
206 230 255
206 230 255
206 230 255
206 230 255
206 230 255
206 230 255
206 230 255
206 230 255
206 230 255
206 230 255
206 230 255
206 230 255
206 230 255
206 230 255
206 230 255
206 230 255
218 242 255
206 230 255
206 230 255
206 230 255
206 230 255
206 230 255
206 230 255
206 230 255
206 230 255
206 230 255
206 230 255
206 230 255
206 230 255
206 230 255
206 230 255
206 230 255
206 230 255
206 230 255
206 230 255
206 230 255
206 230 255
206 230 255
206 230 255
206 230 255
206 230 255
206 230 255
206 230 255
206 230 255
206 230 255
206 230 255
206 230 255
206 230 255
206 230 255
206 230 255
206 230 255
206 230 255
206 230 255
218 242 255
206 230 255
206 230 255
206 230 255
206 230 255
206 230 255
206 230 255
206 230 255
206 230 255
206 230 255
206 230 255
206 230 255
206 230 255
206 230 255
206 230 255
206 230 255
206 230 255
206 230 255
206 230 255
206 230 255
206 230 255
206 230 255
206 230 255
206 230 255
206 230 255
206 230 255
206 230 255
206 230 255
206 230 255
206 230 255
206 230 255
206 230 255
206 230 255
206 230 255
206 230 255
206 230 255
206 230 255
218 242 255
206 230 255
206 230 255
206 230 255
206 230 255
206 230 255
206 230 255
206 230 255
206 230 255
206 230 255
206 230 255
206 230 255
206 230 255
206 230 255
206 230 255
206 230 255
206 230 255
206 230 255
206 230 255
206 230 255
206 230 255
206 230 255
206 230 255
218 242 255
206 230 255
206 230 255
206 230 255
206 230 255
206 230 255
206 230 255
206 230 255
206 230 255
206 230 255
206 230 255
206 230 255
206 230 255
206 230 255
206 230 255
206 230 255
206 230 255
206 230 255
206 230 255
206 230 255
206 230 255
206 230 255
206 230 255
206 230 255
206 230 255
206 230 255
206 230 255
206 230 255
206 230 255
206 230 255
206 230 255
206 230 255
206 230 255
206 230 255
206 230 255
206 230 255
206 230 255
218 242 255
206 230 255
206 230 255
206 230 255
206 230 255
206 230 255
206 230 255
206 230 255
206 230 255
206 230 255
206 230 255
206 230 255
206 230 255
206 230 255
206 230 255
206 230 255
206 230 255
206 230 255
206 230 255
206 230 255
206 230 255
206 230 255
206 230 255
206 230 255
206 230 255
206 230 255
206 230 255
206 230 255
206 230 255
206 230 255
206 230 255
206 230 255
206 230 255
206 230 255
206 230 255
206 230 255
206 230 255
218 242 255
206 230 255
206 230 255
206 230 255
206 230 255
206 230 255
206 230 255
206 230 255
206 230 255
206 230 255
206 230 255
206 230 255
206 230 255
206 230 255
206 230 255
206 230 255
206 230 255
206 230 255
206 230 255
206 230 255
206 230 255
206 230 255
206 230 255
206 230 255
206 230 255
206 230 255
206 230 255
206 230 255
206 230 255
206 230 255
206 230 255
206 230 255
206 230 255
206 230 255
206 230 255
206 230 255
206 230 255
218 242 255
206 230 255
206 230 255
206 230 255
206 230 255
206 230 255
206 230 255
206 230 255
206 230 255
206 230 255
206 230 255
206 230 255
206 230 255
206 230 255
206 230 255
206 230 255
206 230 255
206 230 255
206 230 255
206 230 255
206 230 255
206 230 255
206 230 255
206 230 255
206 230 255
206 230 255
206 230 255
206 230 255
206 230 255
206 230 255
206 230 255
206 230 255
206 230 255
206 230 255
206 230 255
206 230 255
206 230 255
218 242 255
206 230 255
206 230 255
206 230 255
206 230 255
206 230 255
206 230 255
206 230 255
206 230 255
206 230 255
206 230 255
206 230 255
206 230 255
206 230 255
206 230 255
206 230 255
206 230 255
206 230 255
206 230 255
206 230 255
206 230 255
206 230 255
206 230 255
206 230 255
206 230 255
206 230 255
206 230 255
206 230 255
206 230 255
206 230 255
206 230 255
206 230 255
206 230 255
206 230 255
206 230 255
206 230 255
206 230 255
218 242 255
206 230 255
206 230 255
206 230 255
206 230 255
206 230 255
206 230 255
206 230 255
206 230 255
206 230 255
206 230 255
206 230 255
206 230 255
206 230 255
206 230 255
206 230 255
206 230 255
206 230 255
206 230 255
206 230 255
206 230 255
206 230 255
206 230 255
206 230 255
206 230 255
206 230 255
206 230 255
206 230 255
206 230 255
206 230 255
206 230 255
206 230 255
206 230 255
206 230 255
206 230 255
206 230 255
206 230 255
218 242 255
206 230 255
206 230 255
206 230 255
206 230 255
206 230 255
206 230 255
206 230 255
206 230 255
206 230 255
206 230 255
206 230 255
206 230 255
206 230 255
206 230 255
206 230 255
206 230 255
206 230 255
206 230 255
206 230 255
206 230 255
206 230 255
206 230 255
206 230 255
206 230 255
206 230 255
206 230 255
206 230 255
206 230 255
206 230 255
206 230 255
206 230 255
206 230 255
206 230 255
206 230 255
206 230 255
206 230 255
218 242 255
206 230 255
206 230 255
206 230 255
206 230 255
206 230 255
206 230 255
206 230 255
206 230 255
206 230 255
206 230 255
206 230 255
206 230 255
206 230 255
206 230 255
206 230 255
206 230 255
206 230 255
206 230 255
206 230 255
206 230 255
206 230 255
206 230 255
206 230 255
206 230 255
206 230 255
206 230 255
206 230 255
206 230 255
206 230 255
206 230 255
206 230 255
206 230 255
206 230 255
206 230 255
206 230 255
206 230 255
218 242 255
206 230 255
206 230 255
206 230 255
206 230 255
206 230 255
206 230 255
206 230 255
206 230 255
206 230 255
206 230 255
206 230 255
206 230 255
206 230 255
206 230 255
206 230 255
206 230 255
206 230 255
206 230 255
206 230 255
206 230 255
206 230 255
206 230 255
218 242 255
206 230 255
206 230 255
206 230 255
206 230 255
206 230 255
206 230 255
206 230 255
206 230 255
206 230 255
206 230 255
206 230 255
206 230 255
206 230 255
206 230 255
206 230 255
206 230 255
206 230 255
206 230 255
206 230 255
206 230 255
206 230 255
206 230 255
206 230 255
206 230 255
206 230 255
206 230 255
206 230 255
206 230 255
206 230 255
206 230 255
206 230 255
206 230 255
206 230 255
206 230 255
206 230 255
206 230 255
218 242 255
206 230 255
206 230 255
206 230 255
206 230 255
206 230 255
206 230 255
206 230 255
206 230 255
206 230 255
206 230 255
206 230 255
206 230 255
206 230 255
206 230 255
206 230 255
206 230 255
206 230 255
206 230 255
206 230 255
206 230 255
206 230 255
206 230 255
206 230 255
206 230 255
206 230 255
206 230 255
206 230 255
206 230 255
206 230 255
206 230 255
206 230 255
206 230 255
206 230 255
206 230 255
206 230 255
206 230 255
218 242 255
206 230 255
206 230 255
206 230 255
206 230 255
206 230 255
206 230 255
206 230 255
206 230 255
206 230 255
206 230 255
206 230 255
206 230 255
206 230 255
206 230 255
206 230 255
206 230 255
206 230 255
206 230 255
206 230 255
206 230 255
206 230 255
206 230 255
206 230 255
206 230 255
206 230 255
206 230 255
206 230 255
206 230 255
206 230 255
206 230 255
206 230 255
206 230 255
206 230 255
206 230 255
206 230 255
206 230 255
218 242 255
206 230 255
206 230 255
206 230 255
206 230 255
206 230 255
206 230 255
206 230 255
206 230 255
206 230 255
206 230 255
206 230 255
206 230 255
206 230 255
206 230 255
206 230 255
206 230 255
206 230 255
206 230 255
206 230 255
206 230 255
206 230 255
206 230 255
206 230 255
206 230 255
206 230 255
206 230 255
206 230 255
206 230 255
206 230 255
206 230 255
206 230 255
206 230 255
206 230 255
206 230 255
206 230 255
206 230 255
218 242 255
206 230 255
206 230 255
206 230 255
206 230 255
206 230 255
206 230 255
206 230 255
206 230 255
206 230 255
206 230 255
206 230 255
206 230 255
206 230 255
206 230 255
206 230 255
206 230 255
206 230 255
206 230 255
206 230 255
206 230 255
206 230 255
206 230 255
206 230 255
206 230 255
206 230 255
206 230 255
206 230 255
206 230 255
206 230 255
206 230 255
206 230 255
206 230 255
206 230 255
206 230 255
206 230 255
206 230 255
218 242 255
206 230 255
206 230 255
206 230 255
206 230 255
206 230 255
206 230 255
206 230 255
206 230 255
206 230 255
206 230 255
206 230 255
206 230 255
206 230 255
206 230 255
206 230 255
206 230 255
206 230 255
206 230 255
206 230 255
206 230 255
206 230 255
206 230 255
206 230 255
206 230 255
206 230 255
206 230 255
206 230 255
206 230 255
206 230 255
206 230 255
206 230 255
206 230 255
206 230 255
206 230 255
206 230 255
206 230 255
218 242 255
206 230 255
206 230 255
206 230 255
206 230 255
206 230 255
206 230 255
206 230 255
206 230 255
206 230 255
206 230 255
206 230 255
206 230 255
206 230 255
206 230 255
206 230 255
206 230 255
206 230 255
206 230 255
206 230 255
206 230 255
206 230 255
206 230 255
206 230 255
206 230 255
206 230 255
206 230 255
206 230 255
206 230 255
206 230 255
206 230 255
206 230 255
206 230 255
206 230 255
206 230 255
206 230 255
206 230 255
218 242 255
206 230 255
206 230 255
206 230 255
206 230 255
206 230 255
206 230 255
206 230 255
206 230 255
206 230 255
206 230 255
206 230 255
206 230 255
206 230 255
206 230 255
206 230 255
206 230 255
206 230 255
206 230 255
206 230 255
206 230 255
206 230 255
206 230 255
206 230 255
206 230 255
206 230 255
206 230 255
206 230 255
206 230 255
206 230 255
206 230 255
206 230 255
206 230 255
206 230 255
206 230 255
206 230 255
206 230 255
218 242 255
206 230 255
206 230 255
206 230 255
206 230 255
206 230 255
206 230 255
206 230 255
206 230 255
206 230 255
206 230 255
206 230 255
206 230 255
206 230 255
206 230 255
206 230 255
206 230 255
206 230 255
206 230 255
206 230 255
206 230 255
206 230 255
206 230 255
218 242 255
206 230 255
206 230 255
206 230 255
206 230 255
206 230 255
206 230 255
206 230 255
206 230 255
206 230 255
206 230 255
206 230 255
206 230 255
206 230 255
206 230 255
206 230 255
206 230 255
206 230 255
206 230 255
206 230 255
206 230 255
206 230 255
206 230 255
206 230 255
206 230 255
206 230 255
206 230 255
206 230 255
206 230 255
206 230 255
206 230 255
206 230 255
206 230 255
206 230 255
206 230 255
206 230 255
206 230 255
218 242 255
206 230 255
206 230 255
206 230 255
206 230 255
206 230 255
206 230 255
206 230 255
206 230 255
206 230 255
206 230 255
206 230 255
206 230 255
206 230 255
206 230 255
206 230 255
206 230 255
206 230 255
206 230 255
206 230 255
206 230 255
206 230 255
206 230 255
206 230 255
206 230 255
206 230 255
206 230 255
206 230 255
206 230 255
206 230 255
206 230 255
206 230 255
206 230 255
206 230 255
206 230 255
206 230 255
206 230 255
218 242 255
206 230 255
206 230 255
206 230 255
206 230 255
206 230 255
206 230 255
206 230 255
206 230 255
206 230 255
206 230 255
206 230 255
206 230 255
206 230 255
206 230 255
206 230 255
206 230 255
206 230 255
206 230 255
206 230 255
206 230 255
206 230 255
206 230 255
206 230 255
206 230 255
206 230 255
206 230 255
206 230 255
206 230 255
206 230 255
206 230 255
206 230 255
206 230 255
206 230 255
206 230 255
206 230 255
206 230 255
218 242 255
206 230 255
206 230 255
206 230 255
206 230 255
206 230 255
206 230 255
206 230 255
206 230 255
206 230 255
206 230 255
206 230 255
206 230 255
206 230 255
206 230 255
206 230 255
206 230 255
206 230 255
206 230 255
206 230 255
206 230 255
206 230 255
206 230 255
206 230 255
206 230 255
206 230 255
206 230 255
206 230 255
206 230 255
206 230 255
206 230 255
206 230 255
206 230 255
206 230 255
206 230 255
206 230 255
206 230 255
218 242 255
206 230 255
206 230 255
206 230 255
206 230 255
206 230 255
206 230 255
206 230 255
206 230 255
206 230 255
206 230 255
206 230 255
206 230 255
206 230 255
206 230 255
206 230 255
206 230 255
206 230 255
206 230 255
206 230 255
206 230 255
206 230 255
206 230 255
206 230 255
206 230 255
206 230 255
206 230 255
206 230 255
206 230 255
206 230 255
206 230 255
206 230 255
206 230 255
206 230 255
206 230 255
206 230 255
206 230 255
218 242 255
206 230 255
206 230 255
206 230 255
206 230 255
206 230 255
206 230 255
206 230 255
206 230 255
206 230 255
206 230 255
206 230 255
206 230 255
206 230 255
206 230 255
206 230 255
206 230 255
206 230 255
206 230 255
206 230 255
206 230 255
206 230 255
206 230 255
206 230 255
206 230 255
206 230 255
206 230 255
206 230 255
206 230 255
206 230 255
206 230 255
206 230 255
206 230 255
206 230 255
206 230 255
206 230 255
206 230 255
218 242 255
206 230 255
206 230 255
206 230 255
206 230 255
206 230 255
206 230 255
206 230 255
206 230 255
206 230 255
206 230 255
206 230 255
206 230 255
206 230 255
206 230 255
206 230 255
206 230 255
206 230 255
206 230 255
206 230 255
206 230 255
206 230 255
206 230 255
206 230 255
206 230 255
206 230 255
206 230 255
206 230 255
206 230 255
206 230 255
206 230 255
206 230 255
206 230 255
206 230 255
206 230 255
206 230 255
206 230 255
218 242 255
206 230 255
206 230 255
206 230 255
206 230 255
206 230 255
206 230 255
206 230 255
206 230 255
206 230 255
206 230 255
206 230 255
206 230 255
206 230 255
206 230 255
206 230 255
206 230 255
206 230 255
206 230 255
206 230 255
206 230 255
206 230 255
206 230 255
206 230 255
206 230 255
206 230 255
206 230 255
206 230 255
206 230 255
206 230 255
206 230 255
206 230 255
206 230 255
206 230 255
206 230 255
206 230 255
206 230 255
218 242 255
206 230 255
206 230 255
206 230 255
206 230 255
206 230 255
206 230 255
206 230 255
206 230 255
206 230 255
206 230 255
206 230 255
206 230 255
206 230 255
206 230 255
206 230 255
206 230 255
206 230 255
206 230 255
206 230 255
206 230 255
206 230 255
206 230 255
218 242 255
206 230 255
206 230 255
206 230 255
206 230 255
206 230 255
206 230 255
206 230 255
206 230 255
206 230 255
206 230 255
206 230 255
206 230 255
206 230 255
206 230 255
206 230 255
206 230 255
206 230 255
206 230 255
206 230 255
206 230 255
206 230 255
206 230 255
206 230 255
206 230 255
206 230 255
206 230 255
206 230 255
206 230 255
206 230 255
206 230 255
206 230 255
206 230 255
206 230 255
206 230 255
206 230 255
206 230 255
218 242 255
206 230 255
206 230 255
206 230 255
206 230 255
206 230 255
206 230 255
206 230 255
206 230 255
206 230 255
206 230 255
206 230 255
206 230 255
206 230 255
206 230 255
206 230 255
206 230 255
206 230 255
206 230 255
206 230 255
206 230 255
206 230 255
206 230 255
206 230 255
206 230 255
206 230 255
206 230 255
206 230 255
206 230 255
206 230 255
206 230 255
206 230 255
206 230 255
206 230 255
206 230 255
206 230 255
206 230 255
218 242 255
206 230 255
206 230 255
206 230 255
206 230 255
206 230 255
206 230 255
206 230 255
206 230 255
206 230 255
206 230 255
206 230 255
206 230 255
206 230 255
206 230 255
206 230 255
206 230 255
206 230 255
206 230 255
206 230 255
206 230 255
206 230 255
206 230 255
206 230 255
206 230 255
206 230 255
206 230 255
206 230 255
206 230 255
206 230 255
206 230 255
206 230 255
206 230 255
206 230 255
206 230 255
206 230 255
206 230 255
218 242 255
206 230 255
206 230 255
206 230 255
206 230 255
206 230 255
206 230 255
206 230 255
206 230 255
206 230 255
206 230 255
206 230 255
206 230 255
206 230 255
206 230 255
206 230 255
206 230 255
206 230 255
206 230 255
206 230 255
206 230 255
206 230 255
206 230 255
206 230 255
206 230 255
206 230 255
206 230 255
206 230 255
206 230 255
206 230 255
206 230 255
206 230 255
206 230 255
206 230 255
206 230 255
206 230 255
206 230 255
218 242 255
206 230 255
206 230 255
206 230 255
206 230 255
206 230 255
206 230 255
206 230 255
206 230 255
206 230 255
206 230 255
206 230 255
206 230 255
206 230 255
206 230 255
206 230 255
206 230 255
206 230 255
206 230 255
206 230 255
206 230 255
206 230 255
206 230 255
206 230 255
206 230 255
206 230 255
206 230 255
206 230 255
206 230 255
206 230 255
206 230 255
206 230 255
206 230 255
206 230 255
206 230 255
206 230 255
206 230 255
218 242 255
206 230 255
206 230 255
206 230 255
206 230 255
206 230 255
206 230 255
206 230 255
206 230 255
206 230 255
206 230 255
206 230 255
206 230 255
206 230 255
206 230 255
206 230 255
206 230 255
206 230 255
206 230 255
206 230 255
206 230 255
206 230 255
206 230 255
206 230 255
206 230 255
206 230 255
206 230 255
206 230 255
206 230 255
206 230 255
206 230 255
206 230 255
206 230 255
206 230 255
206 230 255
206 230 255
206 230 255
218 242 255
206 230 255
206 230 255
206 230 255
206 230 255
206 230 255
206 230 255
206 230 255
206 230 255
206 230 255
206 230 255
206 230 255
206 230 255
206 230 255
206 230 255
206 230 255
206 230 255
206 230 255
206 230 255
206 230 255
206 230 255
206 230 255
206 230 255
206 230 255
206 230 255
206 230 255
206 230 255
206 230 255
206 230 255
206 230 255
206 230 255
206 230 255
206 230 255
206 230 255
206 230 255
206 230 255
206 230 255
218 242 255
206 230 255
206 230 255
206 230 255
206 230 255
206 230 255
206 230 255
206 230 255
206 230 255
206 230 255
206 230 255
206 230 255
206 230 255
206 230 255
206 230 255
206 230 255
206 230 255
206 230 255
206 230 255
206 230 255
206 230 255
206 230 255
206 230 255
206 230 255
206 230 255
206 230 255
206 230 255
206 230 255
206 230 255
206 230 255
206 230 255
206 230 255
206 230 255
206 230 255
206 230 255
206 230 255
206 230 255
218 242 255
206 230 255
206 230 255
206 230 255
206 230 255
206 230 255
206 230 255
206 230 255
206 230 255
206 230 255
206 230 255
206 230 255
206 230 255
206 230 255
206 230 255
206 230 255
206 230 255
206 230 255
206 230 255
206 230 255
206 230 255
206 230 255
206 230 255
218 242 255
206 230 255
206 230 255
206 230 255
206 230 255
206 230 255
206 230 255
206 230 255
206 230 255
206 230 255
206 230 255
206 230 255
206 230 255
206 230 255
206 230 255
206 230 255
206 230 255
206 230 255
206 230 255
206 230 255
206 230 255
206 230 255
206 230 255
206 230 255
206 230 255
206 230 255
206 230 255
206 230 255
206 230 255
206 230 255
206 230 255
206 230 255
206 230 255
206 230 255
206 230 255
206 230 255
206 230 255
218 242 255
206 230 255
206 230 255
206 230 255
206 230 255
206 230 255
206 230 255
206 230 255
206 230 255
206 230 255
206 230 255
206 230 255
206 230 255
206 230 255
206 230 255
206 230 255
206 230 255
206 230 255
206 230 255
206 230 255
206 230 255
206 230 255
206 230 255
206 230 255
206 230 255
206 230 255
206 230 255
206 230 255
206 230 255
206 230 255
206 230 255
206 230 255
206 230 255
206 230 255
206 230 255
206 230 255
206 230 255
218 242 255
206 230 255
206 230 255
206 230 255
206 230 255
206 230 255
206 230 255
206 230 255
206 230 255
206 230 255
206 230 255
206 230 255
206 230 255
206 230 255
206 230 255
206 230 255
206 230 255
206 230 255
206 230 255
206 230 255
206 230 255
206 230 255
206 230 255
206 230 255
206 230 255
206 230 255
206 230 255
206 230 255
206 230 255
206 230 255
206 230 255
206 230 255
206 230 255
206 230 255
206 230 255
206 230 255
206 230 255
218 242 255
206 230 255
206 230 255
206 230 255
206 230 255
206 230 255
206 230 255
206 230 255
206 230 255
206 230 255
206 230 255
206 230 255
206 230 255
206 230 255
206 230 255
206 230 255
206 230 255
206 230 255
206 230 255
206 230 255
206 230 255
206 230 255
206 230 255
206 230 255
206 230 255
206 230 255
206 230 255
206 230 255
206 230 255
206 230 255
206 230 255
206 230 255
206 230 255
206 230 255
206 230 255
206 230 255
206 230 255
218 242 255
206 230 255
206 230 255
206 230 255
206 230 255
206 230 255
206 230 255
206 230 255
206 230 255
206 230 255
206 230 255
206 230 255
206 230 255
206 230 255
206 230 255
206 230 255
206 230 255
206 230 255
206 230 255
206 230 255
206 230 255
206 230 255
206 230 255
206 230 255
206 230 255
206 230 255
206 230 255
206 230 255
206 230 255
206 230 255
206 230 255
206 230 255
206 230 255
206 230 255
206 230 255
206 230 255
206 230 255
218 242 255
206 230 255
206 230 255
206 230 255
206 230 255
206 230 255
206 230 255
206 230 255
206 230 255
206 230 255
206 230 255
206 230 255
206 230 255
206 230 255
206 230 255
206 230 255
206 230 255
206 230 255
206 230 255
206 230 255
206 230 255
206 230 255
206 230 255
206 230 255
206 230 255
206 230 255
206 230 255
206 230 255
206 230 255
206 230 255
206 230 255
206 230 255
206 230 255
206 230 255
206 230 255
206 230 255
206 230 255
218 242 255
206 230 255
206 230 255
206 230 255
206 230 255
206 230 255
206 230 255
206 230 255
206 230 255
206 230 255
206 230 255
206 230 255
206 230 255
206 230 255
206 230 255
206 230 255
206 230 255
206 230 255
206 230 255
206 230 255
206 230 255
206 230 255
206 230 255
206 230 255
206 230 255
206 230 255
206 230 255
206 230 255
206 230 255
206 230 255
206 230 255
206 230 255
206 230 255
206 230 255
206 230 255
206 230 255
206 230 255
218 242 255
206 230 255
206 230 255
206 230 255
206 230 255
206 230 255
206 230 255
206 230 255
206 230 255
206 230 255
206 230 255
206 230 255
206 230 255
206 230 255
206 230 255
206 230 255
206 230 255
206 230 255
206 230 255
206 230 255
206 230 255
206 230 255
206 230 255
206 230 255
206 230 255
206 230 255
206 230 255
206 230 255
206 230 255
206 230 255
206 230 255
206 230 255
206 230 255
206 230 255
206 230 255
206 230 255
206 230 255
218 242 255
206 230 255
206 230 255
206 230 255
206 230 255
206 230 255
206 230 255
206 230 255
206 230 255
206 230 255
206 230 255
206 230 255
206 230 255
206 230 255
206 230 255
206 230 255
206 230 255
206 230 255
206 230 255
206 230 255
206 230 255
206 230 255
206 230 255
218 242 255
206 230 255
206 230 255
206 230 255
206 230 255
206 230 255
206 230 255
206 230 255
206 230 255
206 230 255
206 230 255
206 230 255
206 230 255
206 230 255
206 230 255
206 230 255
206 230 255
206 230 255
206 230 255
206 230 255
206 230 255
206 230 255
206 230 255
206 230 255
206 230 255
206 230 255
206 230 255
206 230 255
206 230 255
206 230 255
206 230 255
206 230 255
206 230 255
206 230 255
206 230 255
206 230 255
206 230 255
218 242 255
206 230 255
206 230 255
206 230 255
206 230 255
206 230 255
206 230 255
206 230 255
206 230 255
206 230 255
206 230 255
206 230 255
206 230 255
206 230 255
206 230 255
206 230 255
206 230 255
206 230 255
206 230 255
206 230 255
206 230 255
206 230 255
206 230 255
206 230 255
206 230 255
206 230 255
206 230 255
206 230 255
206 230 255
206 230 255
206 230 255
206 230 255
206 230 255
206 230 255
206 230 255
206 230 255
206 230 255
218 242 255
206 230 255
206 230 255
206 230 255
206 230 255
206 230 255
206 230 255
206 230 255
206 230 255
206 230 255
206 230 255
206 230 255
206 230 255
206 230 255
206 230 255
206 230 255
206 230 255
206 230 255
206 230 255
206 230 255
206 230 255
206 230 255
206 230 255
206 230 255
206 230 255
206 230 255
206 230 255
206 230 255
206 230 255
206 230 255
206 230 255
206 230 255
206 230 255
206 230 255
206 230 255
206 230 255
206 230 255
218 242 255
206 230 255
206 230 255
206 230 255
206 230 255
206 230 255
206 230 255
206 230 255
206 230 255
206 230 255
206 230 255
206 230 255
206 230 255
206 230 255
206 230 255
206 230 255
206 230 255
206 230 255
206 230 255
206 230 255
206 230 255
206 230 255
206 230 255
206 230 255
206 230 255
206 230 255
206 230 255
206 230 255
206 230 255
206 230 255
206 230 255
206 230 255
206 230 255
206 230 255
206 230 255
206 230 255
206 230 255
218 242 255
206 230 255
206 230 255
206 230 255
206 230 255
206 230 255
206 230 255
206 230 255
206 230 255
206 230 255
206 230 255
206 230 255
206 230 255
206 230 255
206 230 255
206 230 255
206 230 255
206 230 255
206 230 255
206 230 255
206 230 255
206 230 255
206 230 255
206 230 255
206 230 255
206 230 255
206 230 255
206 230 255
206 230 255
206 230 255
206 230 255
206 230 255
206 230 255
206 230 255
206 230 255
206 230 255
206 230 255
218 242 255
206 230 255
206 230 255
206 230 255
206 230 255
206 230 255
206 230 255
206 230 255
206 230 255
206 230 255
206 230 255
206 230 255
206 230 255
206 230 255
206 230 255
206 230 255
206 230 255
206 230 255
206 230 255
206 230 255
206 230 255
206 230 255
206 230 255
206 230 255
206 230 255
206 230 255
206 230 255
206 230 255
206 230 255
206 230 255
206 230 255
206 230 255
206 230 255
206 230 255
206 230 255
206 230 255
206 230 255
218 242 255
206 230 255
206 230 255
206 230 255
206 230 255
206 230 255
206 230 255
206 230 255
206 230 255
206 230 255
206 230 255
206 230 255
206 230 255
206 230 255
206 230 255
206 230 255
206 230 255
206 230 255
206 230 255
206 230 255
206 230 255
206 230 255
206 230 255
206 230 255
206 230 255
206 230 255
206 230 255
206 230 255
206 230 255
206 230 255
206 230 255
206 230 255
206 230 255
206 230 255
206 230 255
206 230 255
206 230 255
218 242 255
206 230 255
206 230 255
206 230 255
206 230 255
206 230 255
206 230 255
206 230 255
206 230 255
206 230 255
206 230 255
206 230 255
206 230 255
206 230 255
206 230 255
206 230 255
206 230 255
206 230 255
206 230 255
206 230 255
206 230 255
206 230 255
206 230 255
206 230 255
206 230 255
206 230 255
206 230 255
206 230 255
206 230 255
206 230 255
206 230 255
206 230 255
206 230 255
206 230 255
206 230 255
206 230 255
206 230 255
218 242 255
206 230 255
206 230 255
206 230 255
206 230 255
206 230 255
206 230 255
206 230 255
206 230 255
206 230 255
206 230 255
206 230 255
206 230 255
206 230 255
206 230 255
206 230 255
206 230 255
206 230 255
206 230 255
206 230 255
206 230 255
206 230 255
206 230 255
218 242 255
206 230 255
206 230 255
206 230 255
206 230 255
206 230 255
206 230 255
206 230 255
206 230 255
206 230 255
206 230 255
206 230 255
206 230 255
206 230 255
206 230 255
206 230 255
206 230 255
206 230 255
206 230 255
206 230 255
206 230 255
206 230 255
206 230 255
206 230 255
206 230 255
206 230 255
206 230 255
206 230 255
206 230 255
206 230 255
206 230 255
206 230 255
206 230 255
206 230 255
206 230 255
206 230 255
206 230 255
218 242 255
206 230 255
206 230 255
206 230 255
206 230 255
206 230 255
206 230 255
206 230 255
206 230 255
206 230 255
206 230 255
206 230 255
206 230 255
206 230 255
206 230 255
206 230 255
206 230 255
206 230 255
206 230 255
206 230 255
206 230 255
206 230 255
206 230 255
206 230 255
206 230 255
206 230 255
206 230 255
206 230 255
206 230 255
206 230 255
206 230 255
206 230 255
206 230 255
206 230 255
206 230 255
206 230 255
206 230 255
218 242 255
206 230 255
206 230 255
206 230 255
206 230 255
206 230 255
206 230 255
206 230 255
206 230 255
206 230 255
206 230 255
206 230 255
206 230 255
206 230 255
206 230 255
206 230 255
206 230 255
206 230 255
206 230 255
206 230 255
206 230 255
206 230 255
206 230 255
206 230 255
206 230 255
206 230 255
206 230 255
206 230 255
206 230 255
206 230 255
206 230 255
206 230 255
206 230 255
206 230 255
206 230 255
206 230 255
206 230 255
218 242 255
206 230 255
206 230 255
206 230 255
206 230 255
206 230 255
206 230 255
206 230 255
206 230 255
206 230 255
206 230 255
206 230 255
206 230 255
206 230 255
206 230 255
206 230 255
206 230 255
206 230 255
206 230 255
206 230 255
206 230 255
206 230 255
206 230 255
206 230 255
206 230 255
206 230 255
206 230 255
206 230 255
206 230 255
206 230 255
206 230 255
206 230 255
206 230 255
206 230 255
206 230 255
206 230 255
206 230 255
218 242 255
206 230 255
206 230 255
206 230 255
206 230 255
206 230 255
206 230 255
206 230 255
206 230 255
206 230 255
206 230 255
206 230 255
206 230 255
206 230 255
206 230 255
206 230 255
206 230 255
206 230 255
206 230 255
206 230 255
206 230 255
206 230 255
206 230 255
206 230 255
206 230 255
206 230 255
206 230 255
206 230 255
206 230 255
206 230 255
206 230 255
206 230 255
206 230 255
206 230 255
206 230 255
206 230 255
206 230 255
218 242 255
206 230 255
206 230 255
206 230 255
206 230 255
206 230 255
206 230 255
206 230 255
206 230 255
206 230 255
206 230 255
206 230 255
206 230 255
206 230 255
206 230 255
206 230 255
206 230 255
206 230 255
206 230 255
206 230 255
206 230 255
206 230 255
206 230 255
206 230 255
206 230 255
206 230 255
206 230 255
206 230 255
206 230 255
206 230 255
206 230 255
206 230 255
206 230 255
206 230 255
206 230 255
206 230 255
206 230 255
218 242 255
206 230 255
206 230 255
206 230 255
206 230 255
206 230 255
206 230 255
206 230 255
206 230 255
206 230 255
206 230 255
206 230 255
206 230 255
206 230 255
206 230 255
206 230 255
206 230 255
206 230 255
206 230 255
206 230 255
206 230 255
206 230 255
206 230 255
206 230 255
206 230 255
206 230 255
206 230 255
206 230 255
206 230 255
206 230 255
206 230 255
206 230 255
206 230 255
206 230 255
206 230 255
206 230 255
206 230 255
218 242 255
206 230 255
206 230 255
206 230 255
206 230 255
206 230 255
206 230 255
206 230 255
206 230 255
206 230 255
206 230 255
206 230 255
206 230 255
206 230 255
206 230 255
206 230 255
206 230 255
206 230 255
206 230 255
206 230 255
206 230 255
206 230 255
206 230 255
206 230 255
206 230 255
206 230 255
206 230 255
206 230 255
206 230 255
206 230 255
206 230 255
206 230 255
206 230 255
206 230 255
206 230 255
206 230 255
206 230 255
218 242 255
206 230 255
206 230 255
206 230 255
206 230 255
206 230 255
206 230 255
206 230 255
206 230 255
206 230 255
206 230 255
206 230 255
206 230 255
206 230 255
206 230 255
206 230 255
206 230 255
206 230 255
206 230 255
206 230 255
206 230 255
206 230 255
206 230 255
206 230 255
206 230 255
206 230 255
206 230 255
206 230 255
206 230 255
206 230 255
206 230 255
206 230 255
206 230 255
206 230 255
206 230 255
206 230 255
206 230 255
206 230 255
206 230 255
206 230 255
206 230 255
206 230 255
206 230 255
206 230 255
206 230 255
206 230 255
206 230 255
206 230 255
206 230 255
206 230 255
206 230 255
206 230 255
206 230 255
206 230 255
206 230 255
206 230 255
206 230 255
206 230 255
206 230 255
206 230 255
218 242 255
206 230 255
206 230 255
206 230 255
206 230 255
206 230 255
206 230 255
206 230 255
206 230 255
206 230 255
206 230 255
206 230 255
206 230 255
206 230 255
206 230 255
206 230 255
206 230 255
206 230 255
206 230 255
206 230 255
206 230 255
206 230 255
206 230 255
206 230 255
206 230 255
206 230 255
206 230 255
206 230 255
206 230 255
206 230 255
206 230 255
206 230 255
206 230 255
206 230 255
206 230 255
206 230 255
206 230 255
218 242 255
206 230 255
206 230 255
206 230 255
206 230 255
206 230 255
206 230 255
206 230 255
206 230 255
206 230 255
206 230 255
206 230 255
206 230 255
206 230 255
206 230 255
206 230 255
206 230 255
206 230 255
206 230 255
206 230 255
206 230 255
206 230 255
206 230 255
206 230 255
206 230 255
206 230 255
206 230 255
206 230 255
206 230 255
206 230 255
206 230 255
206 230 255
206 230 255
206 230 255
206 230 255
206 230 255
206 230 255
218 242 255
206 230 255
206 230 255
206 230 255
206 230 255
206 230 255
206 230 255
206 230 255
206 230 255
206 230 255
206 230 255
206 230 255
206 230 255
206 230 255
206 230 255
206 230 255
206 230 255
206 230 255
206 230 255
206 230 255
206 230 255
206 230 255
206 230 255
206 230 255
206 230 255
206 230 255
206 230 255
206 230 255
206 230 255
206 230 255
206 230 255
206 230 255
206 230 255
206 230 255
206 230 255
206 230 255
206 230 255
218 242 255
206 230 255
206 230 255
206 230 255
206 230 255
206 230 255
206 230 255
206 230 255
206 230 255
206 230 255
206 230 255
206 230 255
206 230 255
206 230 255
206 230 255
206 230 255
206 230 255
206 230 255
206 230 255
206 230 255
206 230 255
206 230 255
206 230 255
206 230 255
206 230 255
206 230 255
206 230 255
206 230 255
206 230 255
206 230 255
206 230 255
206 230 255
206 230 255
206 230 255
206 230 255
206 230 255
206 230 255
218 242 255
206 230 255
206 230 255
206 230 255
206 230 255
206 230 255
206 230 255
206 230 255
206 230 255
206 230 255
206 230 255
206 230 255
206 230 255
206 230 255
206 230 255
206 230 255
206 230 255
206 230 255
206 230 255
206 230 255
206 230 255
206 230 255
206 230 255
206 230 255
206 230 255
206 230 255
206 230 255
206 230 255
206 230 255
206 230 255
206 230 255
206 230 255
206 230 255
206 230 255
206 230 255
206 230 255
206 230 255
218 242 255
206 230 255
206 230 255
206 230 255
206 230 255
206 230 255
206 230 255
206 230 255
206 230 255
206 230 255
206 230 255
206 230 255
206 230 255
206 230 255
206 230 255
206 230 255
206 230 255
206 230 255
206 230 255
206 230 255
206 230 255
206 230 255
206 230 255
206 230 255
206 230 255
206 230 255
206 230 255
206 230 255
206 230 255
206 230 255
206 230 255
206 230 255
206 230 255
206 230 255
206 230 255
206 230 255
206 230 255
218 242 255
206 230 255
206 230 255
206 230 255
206 230 255
206 230 255
206 230 255
206 230 255
206 230 255
206 230 255
206 230 255
206 230 255
206 230 255
206 230 255
206 230 255
206 230 255
206 230 255
206 230 255
206 230 255
206 230 255
206 230 255
206 230 255
206 230 255
206 230 255
206 230 255
206 230 255
206 230 255
206 230 255
206 230 255
206 230 255
206 230 255
206 230 255
206 230 255
206 230 255
206 230 255
206 230 255
206 230 255
218 242 255
206 230 255
206 230 255
206 230 255
206 230 255
206 230 255
206 230 255
206 230 255
206 230 255
206 230 255
206 230 255
206 230 255
206 230 255
206 230 255
206 230 255
206 230 255
206 230 255
206 230 255
206 230 255
206 230 255
206 230 255
206 230 255
206 230 255
206 230 255
206 230 255
206 230 255
206 230 255
206 230 255
206 230 255
206 230 255
206 230 255
206 230 255
206 230 255
206 230 255
206 230 255
206 230 255
206 230 255
206 230 255
206 230 255
206 230 255
206 230 255
206 230 255
206 230 255
206 230 255
206 230 255
206 230 255
206 230 255
206 230 255
206 230 255
206 230 255
206 230 255
206 230 255
206 230 255
206 230 255
206 230 255
206 230 255
206 230 255
206 230 255
206 230 255
206 230 255
218 242 255
206 230 255
206 230 255
206 230 255
206 230 255
206 230 255
206 230 255
206 230 255
206 230 255
206 230 255
206 230 255
206 230 255
206 230 255
206 230 255
206 230 255
206 230 255
206 230 255
206 230 255
206 230 255
206 230 255
206 230 255
206 230 255
206 230 255
206 230 255
206 230 255
206 230 255
206 230 255
206 230 255
206 230 255
206 230 255
206 230 255
206 230 255
206 230 255
206 230 255
206 230 255
206 230 255
206 230 255
218 242 255
206 230 255
206 230 255
206 230 255
206 230 255
206 230 255
206 230 255
206 230 255
206 230 255
206 230 255
206 230 255
206 230 255
206 230 255
206 230 255
206 230 255
206 230 255
206 230 255
206 230 255
206 230 255
206 230 255
206 230 255
206 230 255
206 230 255
206 230 255
206 230 255
206 230 255
206 230 255
206 230 255
206 230 255
206 230 255
206 230 255
206 230 255
206 230 255
206 230 255
206 230 255
206 230 255
206 230 255
218 242 255
206 230 255
206 230 255
206 230 255
206 230 255
206 230 255
206 230 255
206 230 255
206 230 255
206 230 255
206 230 255
206 230 255
206 230 255
206 230 255
206 230 255
206 230 255
206 230 255
206 230 255
206 230 255
206 230 255
206 230 255
206 230 255
206 230 255
206 230 255
206 230 255
206 230 255
206 230 255
206 230 255
206 230 255
206 230 255
206 230 255
206 230 255
206 230 255
206 230 255
206 230 255
206 230 255
206 230 255
218 242 255
206 230 255
206 230 255
206 230 255
206 230 255
206 230 255
206 230 255
206 230 255
206 230 255
206 230 255
206 230 255
206 230 255
206 230 255
206 230 255
206 230 255
206 230 255
206 230 255
206 230 255
206 230 255
206 230 255
206 230 255
206 230 255
206 230 255
206 230 255
206 230 255
206 230 255
206 230 255
206 230 255
206 230 255
206 230 255
206 230 255
206 230 255
206 230 255
206 230 255
206 230 255
206 230 255
206 230 255
218 242 255
206 230 255
206 230 255
206 230 255
206 230 255
206 230 255
206 230 255
206 230 255
206 230 255
206 230 255
206 230 255
206 230 255
206 230 255
206 230 255
206 230 255
206 230 255
206 230 255
206 230 255
206 230 255
206 230 255
206 230 255
206 230 255
206 230 255
206 230 255
206 230 255
206 230 255
206 230 255
206 230 255
206 230 255
206 230 255
206 230 255
206 230 255
206 230 255
206 230 255
206 230 255
206 230 255
206 230 255
218 242 255
206 230 255
206 230 255
206 230 255
206 230 255
206 230 255
206 230 255
206 230 255
206 230 255
206 230 255
206 230 255
206 230 255
206 230 255
206 230 255
206 230 255
206 230 255
206 230 255
206 230 255
206 230 255
206 230 255
206 230 255
206 230 255
206 230 255
206 230 255
206 230 255
206 230 255
206 230 255
206 230 255
206 230 255
206 230 255
206 230 255
206 230 255
206 230 255
206 230 255
206 230 255
206 230 255
206 230 255
218 242 255
206 230 255
206 230 255
206 230 255
206 230 255
206 230 255
206 230 255
206 230 255
206 230 255
206 230 255
206 230 255
206 230 255
206 230 255
206 230 255
206 230 255
206 230 255
206 230 255
206 230 255
206 230 255
206 230 255
206 230 255
206 230 255
206 230 255
206 230 255
206 230 255
206 230 255
206 230 255
206 230 255
206 230 255
206 230 255
206 230 255
206 230 255
206 230 255
206 230 255
206 230 255
206 230 255
206 230 255
218 242 255
206 230 255
206 230 255
206 230 255
206 230 255
206 230 255
206 230 255
206 230 255
206 230 255
206 230 255
206 230 255
206 230 255
206 230 255
206 230 255
206 230 255
206 230 255
206 230 255
206 230 255
206 230 255
206 230 255
206 230 255
206 230 255
206 230 255
206 230 255
206 230 255
206 230 255
206 230 255
206 230 255
206 230 255
206 230 255
206 230 255
206 230 255
206 230 255
206 230 255
206 230 255
206 230 255
206 230 255
206 230 255
206 230 255
206 230 255
206 230 255
206 230 255
206 230 255
206 230 255
206 230 255
206 230 255
206 230 255
206 230 255
206 230 255
206 230 255
206 230 255
206 230 255
206 230 255
206 230 255
206 230 255
206 230 255
206 230 255
206 230 255
206 230 255
206 230 255
218 242 255
206 230 255
206 230 255
206 230 255
206 230 255
206 230 255
206 230 255
206 230 255
206 230 255
206 230 255
206 230 255
206 230 255
206 230 255
206 230 255
206 230 255
206 230 255
206 230 255
206 230 255
206 230 255
206 230 255
206 230 255
206 230 255
206 230 255
206 230 255
206 230 255
206 230 255
206 230 255
206 230 255
206 230 255
206 230 255
206 230 255
206 230 255
206 230 255
206 230 255
206 230 255
206 230 255
206 230 255
218 242 255
206 230 255
206 230 255
206 230 255
206 230 255
206 230 255
206 230 255
206 230 255
206 230 255
206 230 255
206 230 255
206 230 255
206 230 255
206 230 255
206 230 255
206 230 255
206 230 255
206 230 255
206 230 255
206 230 255
206 230 255
206 230 255
206 230 255
206 230 255
206 230 255
206 230 255
206 230 255
206 230 255
206 230 255
206 230 255
206 230 255
206 230 255
206 230 255
206 230 255
206 230 255
206 230 255
206 230 255
218 242 255
206 230 255
206 230 255
206 230 255
206 230 255
206 230 255
206 230 255
206 230 255
206 230 255
206 230 255
206 230 255
206 230 255
206 230 255
206 230 255
206 230 255
206 230 255
206 230 255
206 230 255
206 230 255
206 230 255
206 230 255
206 230 255
206 230 255
206 230 255
206 230 255
206 230 255
206 230 255
206 230 255
206 230 255
206 230 255
206 230 255
206 230 255
206 230 255
206 230 255
206 230 255
206 230 255
206 230 255
218 242 255
206 230 255
206 230 255
206 230 255
206 230 255
206 230 255
206 230 255
206 230 255
206 230 255
206 230 255
206 230 255
206 230 255
206 230 255
206 230 255
206 230 255
206 230 255
206 230 255
206 230 255
206 230 255
206 230 255
206 230 255
206 230 255
206 230 255
206 230 255
206 230 255
206 230 255
206 230 255
206 230 255
206 230 255
206 230 255
206 230 255
206 230 255
206 230 255
206 230 255
206 230 255
206 230 255
206 230 255
218 242 255
206 230 255
206 230 255
206 230 255
206 230 255
206 230 255
206 230 255
206 230 255
206 230 255
206 230 255
206 230 255
206 230 255
206 230 255
206 230 255
206 230 255
206 230 255
206 230 255
206 230 255
206 230 255
206 230 255
206 230 255
206 230 255
206 230 255
206 230 255
206 230 255
206 230 255
206 230 255
206 230 255
206 230 255
206 230 255
206 230 255
206 230 255
206 230 255
206 230 255
206 230 255
206 230 255
206 230 255
218 242 255
206 230 255
206 230 255
206 230 255
206 230 255
206 230 255
206 230 255
206 230 255
206 230 255
206 230 255
206 230 255
206 230 255
206 230 255
206 230 255
206 230 255
206 230 255
206 230 255
206 230 255
206 230 255
206 230 255
206 230 255
206 230 255
206 230 255
206 230 255
206 230 255
206 230 255
206 230 255
206 230 255
206 230 255
206 230 255
206 230 255
206 230 255
206 230 255
206 230 255
206 230 255
206 230 255
206 230 255
218 242 255
206 230 255
206 230 255
206 230 255
206 230 255
206 230 255
206 230 255
206 230 255
206 230 255
206 230 255
206 230 255
206 230 255
206 230 255
206 230 255
206 230 255
206 230 255
206 230 255
206 230 255
206 230 255
206 230 255
206 230 255
206 230 255
206 230 255
206 230 255
206 230 255
206 230 255
206 230 255
206 230 255
206 230 255
206 230 255
206 230 255
206 230 255
206 230 255
206 230 255
206 230 255
206 230 255
206 230 255
218 242 255
206 230 255
206 230 255
206 230 255
206 230 255
206 230 255
206 230 255
206 230 255
206 230 255
206 230 255
206 230 255
206 230 255
206 230 255
206 230 255
206 230 255
206 230 255
206 230 255
206 230 255
206 230 255
206 230 255
206 230 255
206 230 255
206 230 255
206 230 255
206 230 255
206 230 255
206 230 255
206 230 255
206 230 255
206 230 255
206 230 255
206 230 255
206 230 255
206 230 255
206 230 255
206 230 255
206 230 255
206 230 255
206 230 255
206 230 255
206 230 255
206 230 255
206 230 255
206 230 255
206 230 255
206 230 255
206 230 255
206 230 255
206 230 255
206 230 255
206 230 255
206 230 255
206 230 255
206 230 255
206 230 255
206 230 255
206 230 255
206 230 255
206 230 255
206 230 255
218 242 255
206 230 255
206 230 255
206 230 255
206 230 255
206 230 255
206 230 255
206 230 255
206 230 255
206 230 255
206 230 255
206 230 255
206 230 255
206 230 255
206 230 255
206 230 255
206 230 255
206 230 255
206 230 255
206 230 255
206 230 255
206 230 255
206 230 255
206 230 255
206 230 255
206 230 255
206 230 255
206 230 255
206 230 255
206 230 255
206 230 255
206 230 255
206 230 255
206 230 255
206 230 255
206 230 255
206 230 255
218 242 255
206 230 255
206 230 255
206 230 255
206 230 255
206 230 255
206 230 255
206 230 255
206 230 255
206 230 255
206 230 255
206 230 255
206 230 255
206 230 255
206 230 255
206 230 255
206 230 255
206 230 255
206 230 255
206 230 255
206 230 255
206 230 255
206 230 255
206 230 255
206 230 255
206 230 255
206 230 255
206 230 255
206 230 255
206 230 255
206 230 255
206 230 255
206 230 255
206 230 255
206 230 255
206 230 255
206 230 255
218 242 255
206 230 255
206 230 255
206 230 255
206 230 255
206 230 255
206 230 255
206 230 255
206 230 255
206 230 255
206 230 255
206 230 255
206 230 255
206 230 255
206 230 255
206 230 255
206 230 255
206 230 255
206 230 255
206 230 255
206 230 255
206 230 255
206 230 255
206 230 255
206 230 255
206 230 255
206 230 255
206 230 255
206 230 255
206 230 255
206 230 255
206 230 255
206 230 255
206 230 255
206 230 255
206 230 255
206 230 255
218 242 255
206 230 255
206 230 255
206 230 255
206 230 255
206 230 255
206 230 255
206 230 255
206 230 255
206 230 255
206 230 255
206 230 255
206 230 255
206 230 255
206 230 255
206 230 255
206 230 255
206 230 255
206 230 255
206 230 255
206 230 255
206 230 255
206 230 255
206 230 255
206 230 255
206 230 255
206 230 255
206 230 255
206 230 255
206 230 255
206 230 255
206 230 255
206 230 255
206 230 255
206 230 255
206 230 255
206 230 255
218 242 255
206 230 255
206 230 255
206 230 255
206 230 255
206 230 255
206 230 255
206 230 255
206 230 255
206 230 255
206 230 255
206 230 255
206 230 255
206 230 255
206 230 255
206 230 255
206 230 255
206 230 255
206 230 255
206 230 255
206 230 255
206 230 255
206 230 255
206 230 255
206 230 255
206 230 255
206 230 255
206 230 255
206 230 255
206 230 255
206 230 255
206 230 255
206 230 255
206 230 255
206 230 255
206 230 255
206 230 255
218 242 255
206 230 255
206 230 255
206 230 255
206 230 255
206 230 255
206 230 255
206 230 255
206 230 255
206 230 255
206 230 255
206 230 255
206 230 255
206 230 255
206 230 255
206 230 255
206 230 255
206 230 255
206 230 255
206 230 255
206 230 255
206 230 255
206 230 255
206 230 255
206 230 255
206 230 255
206 230 255
206 230 255
206 230 255
206 230 255
206 230 255
206 230 255
206 230 255
206 230 255
206 230 255
206 230 255
206 230 255
218 242 255
206 230 255
206 230 255
206 230 255
206 230 255
206 230 255
206 230 255
206 230 255
206 230 255
206 230 255
206 230 255
206 230 255
206 230 255
206 230 255
206 230 255
206 230 255
206 230 255
206 230 255
206 230 255
206 230 255
206 230 255
206 230 255
206 230 255
206 230 255
206 230 255
206 230 255
206 230 255
206 230 255
206 230 255
206 230 255
206 230 255
206 230 255
206 230 255
206 230 255
206 230 255
206 230 255
206 230 255
218 242 255
206 230 255
206 230 255
206 230 255
206 230 255
206 230 255
206 230 255
206 230 255
206 230 255
206 230 255
206 230 255
206 230 255
206 230 255
206 230 255
206 230 255
206 230 255
206 230 255
206 230 255
206 230 255
206 230 255
206 230 255
206 230 255
206 230 255
206 230 255
206 230 255
206 230 255
206 230 255
206 230 255
206 230 255
206 230 255
206 230 255
206 230 255
206 230 255
206 230 255
206 230 255
206 230 255
206 230 255
206 230 255
206 230 255
206 230 255
206 230 255
206 230 255
206 230 255
206 230 255
206 230 255
206 230 255
206 230 255
206 230 255
206 230 255
206 230 255
206 230 255
206 230 255
206 230 255
206 230 255
206 230 255
206 230 255
206 230 255
206 230 255
206 230 255
206 230 255
218 242 255
206 230 255
206 230 255
206 230 255
206 230 255
206 230 255
206 230 255
206 230 255
206 230 255
206 230 255
206 230 255
206 230 255
206 230 255
206 230 255
206 230 255
206 230 255
206 230 255
206 230 255
206 230 255
206 230 255
206 230 255
206 230 255
206 230 255
206 230 255
206 230 255
206 230 255
206 230 255
206 230 255
206 230 255
206 230 255
206 230 255
206 230 255
206 230 255
206 230 255
206 230 255
206 230 255
206 230 255
218 242 255
206 230 255
206 230 255
206 230 255
206 230 255
206 230 255
206 230 255
206 230 255
206 230 255
206 230 255
206 230 255
206 230 255
206 230 255
206 230 255
206 230 255
206 230 255
206 230 255
206 230 255
206 230 255
206 230 255
206 230 255
206 230 255
206 230 255
206 230 255
206 230 255
206 230 255
206 230 255
206 230 255
206 230 255
206 230 255
206 230 255
206 230 255
206 230 255
206 230 255
206 230 255
206 230 255
206 230 255
218 242 255
206 230 255
206 230 255
206 230 255
206 230 255
206 230 255
206 230 255
206 230 255
206 230 255
206 230 255
206 230 255
206 230 255
206 230 255
206 230 255
206 230 255
206 230 255
206 230 255
206 230 255
206 230 255
206 230 255
206 230 255
206 230 255
206 230 255
206 230 255
206 230 255
206 230 255
206 230 255
206 230 255
206 230 255
206 230 255
206 230 255
206 230 255
206 230 255
206 230 255
206 230 255
206 230 255
206 230 255
218 242 255
206 230 255
206 230 255
206 230 255
206 230 255
206 230 255
206 230 255
206 230 255
206 230 255
206 230 255
206 230 255
206 230 255
206 230 255
206 230 255
206 230 255
206 230 255
206 230 255
206 230 255
206 230 255
206 230 255
206 230 255
206 230 255
206 230 255
206 230 255
206 230 255
206 230 255
206 230 255
206 230 255
206 230 255
206 230 255
206 230 255
206 230 255
206 230 255
206 230 255
206 230 255
206 230 255
206 230 255
218 242 255
206 230 255
206 230 255
206 230 255
206 230 255
206 230 255
206 230 255
206 230 255
206 230 255
206 230 255
206 230 255
206 230 255
206 230 255
206 230 255
206 230 255
206 230 255
206 230 255
206 230 255
206 230 255
206 230 255
206 230 255
206 230 255
206 230 255
206 230 255
206 230 255
206 230 255
206 230 255
206 230 255
206 230 255
206 230 255
206 230 255
206 230 255
206 230 255
206 230 255
206 230 255
206 230 255
206 230 255
218 242 255
206 230 255
206 230 255
206 230 255
206 230 255
206 230 255
206 230 255
206 230 255
206 230 255
206 230 255
206 230 255
206 230 255
206 230 255
206 230 255
206 230 255
206 230 255
206 230 255
206 230 255
206 230 255
206 230 255
206 230 255
206 230 255
206 230 255
206 230 255
206 230 255
206 230 255
206 230 255
206 230 255
206 230 255
206 230 255
206 230 255
206 230 255
206 230 255
206 230 255
206 230 255
206 230 255
206 230 255
218 242 255
206 230 255
206 230 255
206 230 255
206 230 255
206 230 255
206 230 255
206 230 255
206 230 255
206 230 255
206 230 255
206 230 255
206 230 255
206 230 255
206 230 255
206 230 255
206 230 255
206 230 255
206 230 255
206 230 255
206 230 255
206 230 255
206 230 255
206 230 255
206 230 255
206 230 255
206 230 255
206 230 255
206 230 255
206 230 255
206 230 255
206 230 255
206 230 255
206 230 255
206 230 255
206 230 255
206 230 255
218 242 255
206 230 255
206 230 255
206 230 255
206 230 255
206 230 255
206 230 255
206 230 255
206 230 255
206 230 255
206 230 255
206 230 255
206 230 255
206 230 255
206 230 255
206 230 255
206 230 255
206 230 255
206 230 255
206 230 255
206 230 255
206 230 255
206 230 255
206 230 255
206 230 255
206 230 255
206 230 255
206 230 255
206 230 255
206 230 255
206 230 255
206 230 255
206 230 255
206 230 255
206 230 255
206 230 255
206 230 255
206 230 255
206 230 255
206 230 255
206 230 255
206 230 255
206 230 255
206 230 255
206 230 255
206 230 255
206 230 255
206 230 255
206 230 255
206 230 255
206 230 255
206 230 255
206 230 255
206 230 255
206 230 255
206 230 255
206 230 255
206 230 255
206 230 255
206 230 255
218 242 255
206 230 255
206 230 255
206 230 255
206 230 255
206 230 255
206 230 255
206 230 255
206 230 255
206 230 255
206 230 255
206 230 255
206 230 255
206 230 255
206 230 255
206 230 255
206 230 255
206 230 255
206 230 255
206 230 255
206 230 255
206 230 255
206 230 255
206 230 255
206 230 255
206 230 255
206 230 255
206 230 255
206 230 255
206 230 255
206 230 255
206 230 255
206 230 255
206 230 255
206 230 255
206 230 255
206 230 255
218 242 255
206 230 255
206 230 255
206 230 255
206 230 255
206 230 255
206 230 255
206 230 255
206 230 255
206 230 255
206 230 255
206 230 255
206 230 255
206 230 255
206 230 255
206 230 255
206 230 255
206 230 255
206 230 255
206 230 255
206 230 255
206 230 255
206 230 255
206 230 255
206 230 255
206 230 255
206 230 255
206 230 255
206 230 255
206 230 255
206 230 255
206 230 255
206 230 255
206 230 255
206 230 255
206 230 255
206 230 255
218 242 255
206 230 255
206 230 255
206 230 255
206 230 255
206 230 255
206 230 255
206 230 255
206 230 255
206 230 255
206 230 255
206 230 255
206 230 255
206 230 255
206 230 255
206 230 255
206 230 255
206 230 255
206 230 255
206 230 255
206 230 255
206 230 255
206 230 255
206 230 255
206 230 255
206 230 255
206 230 255
206 230 255
206 230 255
206 230 255
206 230 255
206 230 255
206 230 255
206 230 255
206 230 255
206 230 255
206 230 255
218 242 255
206 230 255
206 230 255
206 230 255
206 230 255
206 230 255
206 230 255
206 230 255
206 230 255
206 230 255
206 230 255
206 230 255
206 230 255
206 230 255
206 230 255
206 230 255
206 230 255
206 230 255
206 230 255
206 230 255
206 230 255
206 230 255
206 230 255
206 230 255
206 230 255
206 230 255
206 230 255
206 230 255
206 230 255
206 230 255
206 230 255
206 230 255
206 230 255
206 230 255
206 230 255
206 230 255
206 230 255
218 242 255
206 230 255
206 230 255
206 230 255
206 230 255
206 230 255
206 230 255
206 230 255
206 230 255
206 230 255
206 230 255
206 230 255
206 230 255
206 230 255
206 230 255
206 230 255
206 230 255
206 230 255
206 230 255
206 230 255
206 230 255
206 230 255
206 230 255
206 230 255
206 230 255
206 230 255
206 230 255
206 230 255
206 230 255
206 230 255
206 230 255
206 230 255
206 230 255
206 230 255
206 230 255
206 230 255
206 230 255
218 242 255
206 230 255
206 230 255
206 230 255
206 230 255
206 230 255
206 230 255
206 230 255
206 230 255
206 230 255
206 230 255
206 230 255
206 230 255
206 230 255
206 230 255
206 230 255
206 230 255
206 230 255
206 230 255
206 230 255
206 230 255
206 230 255
206 230 255
206 230 255
206 230 255
206 230 255
206 230 255
206 230 255
206 230 255
206 230 255
206 230 255
206 230 255
206 230 255
206 230 255
206 230 255
206 230 255
206 230 255
218 242 255
206 230 255
206 230 255
206 230 255
206 230 255
206 230 255
206 230 255
206 230 255
206 230 255
206 230 255
206 230 255
206 230 255
206 230 255
206 230 255
206 230 255
206 230 255
206 230 255
206 230 255
206 230 255
206 230 255
206 230 255
206 230 255
206 230 255
206 230 255
206 230 255
206 230 255
206 230 255
206 230 255
206 230 255
206 230 255
206 230 255
206 230 255
206 230 255
206 230 255
206 230 255
206 230 255
206 230 255
218 242 255
206 230 255
206 230 255
206 230 255
206 230 255
206 230 255
206 230 255
206 230 255
206 230 255
206 230 255
206 230 255
206 230 255
206 230 255
206 230 255
206 230 255
206 230 255
206 230 255
206 230 255
206 230 255
206 230 255
206 230 255
206 230 255
206 230 255
206 230 255
206 230 255
206 230 255
206 230 255
206 230 255
206 230 255
206 230 255
206 230 255
206 230 255
206 230 255
206 230 255
206 230 255
206 230 255
206 230 255
206 230 255
206 230 255
206 230 255
206 230 255
206 230 255
206 230 255
206 230 255
206 230 255
206 230 255
206 230 255
206 230 255
206 230 255
206 230 255
206 230 255
206 230 255
206 230 255
206 230 255
206 230 255
206 230 255
206 230 255
206 230 255
206 230 255
206 230 255
218 242 255
206 230 255
206 230 255
206 230 255
206 230 255
206 230 255
206 230 255
206 230 255
206 230 255
206 230 255
206 230 255
206 230 255
206 230 255
206 230 255
206 230 255
206 230 255
206 230 255
206 230 255
206 230 255
206 230 255
206 230 255
206 230 255
206 230 255
206 230 255
206 230 255
206 230 255
206 230 255
206 230 255
206 230 255
206 230 255
206 230 255
206 230 255
206 230 255
206 230 255
206 230 255
206 230 255
206 230 255
218 242 255
206 230 255
206 230 255
206 230 255
206 230 255
206 230 255
206 230 255
206 230 255
206 230 255
206 230 255
206 230 255
206 230 255
206 230 255
206 230 255
206 230 255
206 230 255
206 230 255
206 230 255
206 230 255
206 230 255
206 230 255
206 230 255
206 230 255
206 230 255
206 230 255
206 230 255
206 230 255
206 230 255
206 230 255
206 230 255
206 230 255
206 230 255
206 230 255
206 230 255
206 230 255
206 230 255
206 230 255
218 242 255
206 230 255
206 230 255
206 230 255
206 230 255
206 230 255
206 230 255
206 230 255
206 230 255
206 230 255
206 230 255
206 230 255
206 230 255
206 230 255
206 230 255
206 230 255
206 230 255
206 230 255
206 230 255
206 230 255
206 230 255
206 230 255
206 230 255
206 230 255
206 230 255
206 230 255
206 230 255
206 230 255
206 230 255
206 230 255
206 230 255
206 230 255
206 230 255
206 230 255
206 230 255
206 230 255
206 230 255
218 242 255
206 230 255
206 230 255
206 230 255
206 230 255
206 230 255
206 230 255
206 230 255
206 230 255
206 230 255
206 230 255
206 230 255
206 230 255
206 230 255
206 230 255
206 230 255
206 230 255
206 230 255
206 230 255
206 230 255
206 230 255
206 230 255
206 230 255
206 230 255
206 230 255
206 230 255
206 230 255
206 230 255
206 230 255
206 230 255
206 230 255
206 230 255
206 230 255
206 230 255
206 230 255
206 230 255
206 230 255
218 242 255
206 230 255
206 230 255
206 230 255
206 230 255
206 230 255
206 230 255
206 230 255
206 230 255
206 230 255
206 230 255
206 230 255
206 230 255
206 230 255
206 230 255
206 230 255
206 230 255
206 230 255
206 230 255
206 230 255
206 230 255
206 230 255
206 230 255
206 230 255
206 230 255
206 230 255
206 230 255
206 230 255
206 230 255
206 230 255
206 230 255
206 230 255
206 230 255
206 230 255
206 230 255
206 230 255
206 230 255
218 242 255
206 230 255
206 230 255
206 230 255
206 230 255
206 230 255
206 230 255
206 230 255
206 230 255
206 230 255
206 230 255
206 230 255
206 230 255
206 230 255
206 230 255
206 230 255
206 230 255
206 230 255
206 230 255
206 230 255
206 230 255
206 230 255
206 230 255
206 230 255
206 230 255
206 230 255
206 230 255
206 230 255
206 230 255
206 230 255
206 230 255
206 230 255
206 230 255
206 230 255
206 230 255
206 230 255
206 230 255
218 242 255
206 230 255
206 230 255
206 230 255
206 230 255
206 230 255
206 230 255
206 230 255
206 230 255
206 230 255
206 230 255
206 230 255
206 230 255
206 230 255
206 230 255
206 230 255
206 230 255
206 230 255
206 230 255
206 230 255
206 230 255
206 230 255
206 230 255
206 230 255
206 230 255
206 230 255
206 230 255
206 230 255
206 230 255
206 230 255
206 230 255
206 230 255
206 230 255
206 230 255
206 230 255
206 230 255
206 230 255
218 242 255
206 230 255
206 230 255
206 230 255
206 230 255
206 230 255
206 230 255
206 230 255
206 230 255
206 230 255
206 230 255
206 230 255
206 230 255
206 230 255
206 230 255
206 230 255
206 230 255
206 230 255
206 230 255
206 230 255
206 230 255
206 230 255
206 230 255
206 230 255
206 230 255
206 230 255
206 230 255
206 230 255
206 230 255
206 230 255
206 230 255
206 230 255
206 230 255
206 230 255
206 230 255
206 230 255
206 230 255
206 230 255
206 230 255
206 230 255
206 230 255
206 230 255
206 230 255
206 230 255
206 230 255
206 230 255
206 230 255
206 230 255
206 230 255
206 230 255
206 230 255
206 230 255
206 230 255
206 230 255
206 230 255
206 230 255
206 230 255
206 230 255
206 230 255
206 230 255
218 242 255
206 230 255
206 230 255
206 230 255
206 230 255
206 230 255
206 230 255
206 230 255
206 230 255
206 230 255
206 230 255
206 230 255
206 230 255
206 230 255
206 230 255
206 230 255
206 230 255
206 230 255
206 230 255
206 230 255
206 230 255
206 230 255
206 230 255
206 230 255
206 230 255
206 230 255
206 230 255
206 230 255
206 230 255
206 230 255
206 230 255
206 230 255
206 230 255
206 230 255
206 230 255
206 230 255
206 230 255
218 242 255
206 230 255
206 230 255
206 230 255
206 230 255
206 230 255
206 230 255
206 230 255
206 230 255
206 230 255
206 230 255
206 230 255
206 230 255
206 230 255
206 230 255
206 230 255
206 230 255
206 230 255
206 230 255
206 230 255
206 230 255
206 230 255
206 230 255
206 230 255
206 230 255
206 230 255
206 230 255
206 230 255
206 230 255
206 230 255
206 230 255
206 230 255
206 230 255
206 230 255
206 230 255
206 230 255
206 230 255
218 242 255
206 230 255
206 230 255
206 230 255
206 230 255
206 230 255
206 230 255
206 230 255
206 230 255
206 230 255
206 230 255
206 230 255
206 230 255
206 230 255
206 230 255
206 230 255
206 230 255
206 230 255
206 230 255
206 230 255
206 230 255
206 230 255
206 230 255
206 230 255
206 230 255
206 230 255
206 230 255
206 230 255
206 230 255
206 230 255
206 230 255
206 230 255
206 230 255
206 230 255
206 230 255
206 230 255
206 230 255
218 242 255
206 230 255
206 230 255
206 230 255
206 230 255
206 230 255
206 230 255
206 230 255
206 230 255
206 230 255
206 230 255
206 230 255
206 230 255
206 230 255
206 230 255
206 230 255
206 230 255
206 230 255
206 230 255
206 230 255
206 230 255
206 230 255
206 230 255
206 230 255
206 230 255
206 230 255
206 230 255
206 230 255
206 230 255
206 230 255
206 230 255
206 230 255
206 230 255
206 230 255
206 230 255
206 230 255
206 230 255
218 242 255
206 230 255
206 230 255
206 230 255
206 230 255
206 230 255
206 230 255
206 230 255
206 230 255
206 230 255
206 230 255
206 230 255
206 230 255
206 230 255
206 230 255
206 230 255
206 230 255
206 230 255
206 230 255
206 230 255
206 230 255
206 230 255
206 230 255
206 230 255
206 230 255
206 230 255
206 230 255
206 230 255
206 230 255
206 230 255
206 230 255
206 230 255
206 230 255
206 230 255
206 230 255
206 230 255
206 230 255
218 242 255
206 230 255
206 230 255
206 230 255
206 230 255
206 230 255
206 230 255
206 230 255
206 230 255
206 230 255
206 230 255
206 230 255
206 230 255
206 230 255
206 230 255
206 230 255
206 230 255
206 230 255
206 230 255
206 230 255
206 230 255
206 230 255
206 230 255
206 230 255
206 230 255
206 230 255
206 230 255
206 230 255
206 230 255
206 230 255
206 230 255
206 230 255
206 230 255
206 230 255
206 230 255
206 230 255
206 230 255
218 242 255
206 230 255
206 230 255
206 230 255
206 230 255
206 230 255
206 230 255
206 230 255
206 230 255
206 230 255
206 230 255
206 230 255
206 230 255
206 230 255
206 230 255
206 230 255
206 230 255
206 230 255
206 230 255
206 230 255
206 230 255
206 230 255
206 230 255
206 230 255
206 230 255
206 230 255
206 230 255
206 230 255
206 230 255
206 230 255
206 230 255
206 230 255
206 230 255
206 230 255
206 230 255
206 230 255
206 230 255
218 242 255
206 230 255
206 230 255
206 230 255
206 230 255
206 230 255
206 230 255
206 230 255
206 230 255
206 230 255
206 230 255
206 230 255
206 230 255
206 230 255
206 230 255
206 230 255
206 230 255
206 230 255
206 230 255
206 230 255
206 230 255
206 230 255
206 230 255
206 230 255
206 230 255
206 230 255
206 230 255
206 230 255
206 230 255
206 230 255
206 230 255
206 230 255
206 230 255
206 230 255
206 230 255
206 230 255
206 230 255
206 230 255
206 230 255
206 230 255
206 230 255
206 230 255
206 230 255
206 230 255
206 230 255
206 230 255
206 230 255
206 230 255
206 230 255
206 230 255
206 230 255
206 230 255
206 230 255
206 230 255
206 230 255
206 230 255
206 230 255
206 230 255
206 230 255
206 230 255
218 242 255
206 230 255
206 230 255
206 230 255
206 230 255
206 230 255
206 230 255
206 230 255
206 230 255
206 230 255
206 230 255
206 230 255
206 230 255
206 230 255
206 230 255
206 230 255
206 230 255
206 230 255
206 230 255
206 230 255
206 230 255
206 230 255
206 230 255
206 230 255
206 230 255
206 230 255
206 230 255
206 230 255
206 230 255
206 230 255
206 230 255
206 230 255
206 230 255
206 230 255
206 230 255
206 230 255
206 230 255
218 242 255
206 230 255
206 230 255
206 230 255
206 230 255
206 230 255
206 230 255
206 230 255
206 230 255
206 230 255
206 230 255
206 230 255
206 230 255
206 230 255
206 230 255
206 230 255
206 230 255
206 230 255
206 230 255
206 230 255
206 230 255
206 230 255
206 230 255
206 230 255
206 230 255
206 230 255
206 230 255
206 230 255
206 230 255
206 230 255
206 230 255
206 230 255
206 230 255
206 230 255
206 230 255
206 230 255
206 230 255
218 242 255
206 230 255
206 230 255
206 230 255
206 230 255
206 230 255
206 230 255
206 230 255
206 230 255
206 230 255
206 230 255
206 230 255
206 230 255
206 230 255
206 230 255
206 230 255
206 230 255
206 230 255
206 230 255
206 230 255
206 230 255
206 230 255
206 230 255
206 230 255
206 230 255
206 230 255
206 230 255
206 230 255
206 230 255
206 230 255
206 230 255
206 230 255
206 230 255
206 230 255
206 230 255
206 230 255
206 230 255
218 242 255
206 230 255
206 230 255
206 230 255
206 230 255
206 230 255
206 230 255
206 230 255
206 230 255
206 230 255
206 230 255
206 230 255
206 230 255
206 230 255
206 230 255
206 230 255
206 230 255
206 230 255
206 230 255
206 230 255
206 230 255
206 230 255
206 230 255
206 230 255
206 230 255
206 230 255
206 230 255
206 230 255
206 230 255
206 230 255
206 230 255
206 230 255
206 230 255
206 230 255
206 230 255
206 230 255
206 230 255
218 242 255
206 230 255
206 230 255
206 230 255
206 230 255
206 230 255
206 230 255
206 230 255
206 230 255
206 230 255
206 230 255
206 230 255
206 230 255
206 230 255
206 230 255
206 230 255
206 230 255
206 230 255
206 230 255
206 230 255
206 230 255
206 230 255
206 230 255
206 230 255
206 230 255
206 230 255
206 230 255
206 230 255
206 230 255
206 230 255
206 230 255
206 230 255
206 230 255
206 230 255
206 230 255
206 230 255
206 230 255
218 242 255
206 230 255
206 230 255
206 230 255
206 230 255
206 230 255
206 230 255
206 230 255
206 230 255
206 230 255
206 230 255
206 230 255
206 230 255
206 230 255
206 230 255
206 230 255
206 230 255
206 230 255
206 230 255
206 230 255
206 230 255
206 230 255
206 230 255
206 230 255
206 230 255
206 230 255
206 230 255
206 230 255
206 230 255
206 230 255
206 230 255
206 230 255
206 230 255
206 230 255
206 230 255
206 230 255
206 230 255
218 242 255
206 230 255
206 230 255
206 230 255
206 230 255
206 230 255
206 230 255
206 230 255
206 230 255
206 230 255
206 230 255
206 230 255
206 230 255
206 230 255
206 230 255
206 230 255
206 230 255
206 230 255
206 230 255
206 230 255
206 230 255
206 230 255
206 230 255
206 230 255
206 230 255
206 230 255
206 230 255
206 230 255
206 230 255
206 230 255
206 230 255
206 230 255
206 230 255
206 230 255
206 230 255
206 230 255
206 230 255
218 242 255
206 230 255
206 230 255
206 230 255
206 230 255
206 230 255
206 230 255
206 230 255
206 230 255
206 230 255
206 230 255
206 230 255
206 230 255
206 230 255
206 230 255
206 230 255
206 230 255
206 230 255
206 230 255
206 230 255
206 230 255
206 230 255
206 230 255
206 230 255
206 230 255
206 230 255
206 230 255
206 230 255
206 230 255
206 230 255
206 230 255
206 230 255
206 230 255
206 230 255
206 230 255
206 230 255
206 230 255
206 230 255
206 230 255
206 230 255
206 230 255
206 230 255
206 230 255
206 230 255
206 230 255
206 230 255
206 230 255
206 230 255
206 230 255
206 230 255
206 230 255
206 230 255
206 230 255
206 230 255
206 230 255
206 230 255
206 230 255
206 230 255
206 230 255
206 230 255
218 242 255
206 230 255
206 230 255
206 230 255
206 230 255
206 230 255
206 230 255
206 230 255
206 230 255
206 230 255
206 230 255
206 230 255
206 230 255
206 230 255
206 230 255
206 230 255
206 230 255
206 230 255
206 230 255
206 230 255
206 230 255
206 230 255
206 230 255
206 230 255
206 230 255
206 230 255
206 230 255
206 230 255
206 230 255
206 230 255
206 230 255
206 230 255
206 230 255
206 230 255
206 230 255
206 230 255
206 230 255
218 242 255
206 230 255
206 230 255
206 230 255
206 230 255
206 230 255
206 230 255
206 230 255
206 230 255
206 230 255
206 230 255
206 230 255
206 230 255
206 230 255
206 230 255
206 230 255
206 230 255
206 230 255
206 230 255
206 230 255
206 230 255
206 230 255
206 230 255
206 230 255
206 230 255
206 230 255
206 230 255
206 230 255
206 230 255
206 230 255
206 230 255
206 230 255
206 230 255
206 230 255
206 230 255
206 230 255
206 230 255
218 242 255
206 230 255
206 230 255
206 230 255
206 230 255
206 230 255
206 230 255
206 230 255
206 230 255
206 230 255
206 230 255
206 230 255
206 230 255
206 230 255
206 230 255
206 230 255
206 230 255
206 230 255
206 230 255
206 230 255
206 230 255
206 230 255
206 230 255
206 230 255
206 230 255
206 230 255
206 230 255
206 230 255
206 230 255
206 230 255
206 230 255
206 230 255
206 230 255
206 230 255
206 230 255
206 230 255
206 230 255
218 242 255
206 230 255
206 230 255
206 230 255
206 230 255
206 230 255
206 230 255
206 230 255
206 230 255
206 230 255
206 230 255
206 230 255
206 230 255
206 230 255
206 230 255
206 230 255
206 230 255
206 230 255
206 230 255
206 230 255
206 230 255
206 230 255
206 230 255
206 230 255
206 230 255
206 230 255
206 230 255
206 230 255
206 230 255
206 230 255
206 230 255
206 230 255
206 230 255
206 230 255
206 230 255
206 230 255
206 230 255
218 242 255
206 230 255
206 230 255
206 230 255
206 230 255
206 230 255
206 230 255
206 230 255
206 230 255
206 230 255
206 230 255
206 230 255
206 230 255
206 230 255
206 230 255
206 230 255
206 230 255
206 230 255
206 230 255
206 230 255
206 230 255
206 230 255
206 230 255
206 230 255
206 230 255
206 230 255
206 230 255
206 230 255
206 230 255
206 230 255
206 230 255
206 230 255
206 230 255
206 230 255
206 230 255
206 230 255
206 230 255
218 242 255
206 230 255
206 230 255
206 230 255
206 230 255
206 230 255
206 230 255
206 230 255
206 230 255
206 230 255
206 230 255
206 230 255
206 230 255
206 230 255
206 230 255
206 230 255
206 230 255
206 230 255
206 230 255
206 230 255
206 230 255
206 230 255
206 230 255
206 230 255
206 230 255
206 230 255
206 230 255
206 230 255
206 230 255
206 230 255
206 230 255
206 230 255
206 230 255
206 230 255
206 230 255
206 230 255
206 230 255
218 242 255
206 230 255
206 230 255
206 230 255
206 230 255
206 230 255
206 230 255
206 230 255
206 230 255
206 230 255
206 230 255
206 230 255
206 230 255
206 230 255
206 230 255
206 230 255
206 230 255
206 230 255
206 230 255
206 230 255
206 230 255
206 230 255
206 230 255
206 230 255
206 230 255
206 230 255
206 230 255
206 230 255
206 230 255
206 230 255
206 230 255
206 230 255
206 230 255
206 230 255
206 230 255
206 230 255
206 230 255
218 242 255
206 230 255
206 230 255
206 230 255
206 230 255
206 230 255
206 230 255
206 230 255
206 230 255
206 230 255
206 230 255
206 230 255
206 230 255
206 230 255
206 230 255
206 230 255
206 230 255
206 230 255
206 230 255
206 230 255
206 230 255
206 230 255
206 230 255
206 230 255
206 230 255
206 230 255
206 230 255
206 230 255
206 230 255
206 230 255
206 230 255
206 230 255
206 230 255
206 230 255
206 230 255
206 230 255
206 230 255
206 230 255
206 230 255
206 230 255
206 230 255
206 230 255
206 230 255
206 230 255
206 230 255
206 230 255
206 230 255
206 230 255
206 230 255
206 230 255
206 230 255
206 230 255
206 230 255
206 230 255
206 230 255
206 230 255
206 230 255
206 230 255
206 230 255
206 230 255
218 242 255
206 230 255
206 230 255
206 230 255
206 230 255
206 230 255
206 230 255
206 230 255
206 230 255
206 230 255
206 230 255
206 230 255
206 230 255
206 230 255
206 230 255
206 230 255
206 230 255
206 230 255
206 230 255
206 230 255
206 230 255
206 230 255
206 230 255
206 230 255
206 230 255
206 230 255
206 230 255
206 230 255
206 230 255
206 230 255
206 230 255
206 230 255
206 230 255
206 230 255
206 230 255
206 230 255
206 230 255
218 242 255
206 230 255
206 230 255
206 230 255
206 230 255
206 230 255
206 230 255
206 230 255
206 230 255
206 230 255
206 230 255
206 230 255
206 230 255
206 230 255
206 230 255
206 230 255
206 230 255
206 230 255
206 230 255
206 230 255
206 230 255
206 230 255
206 230 255
206 230 255
206 230 255
206 230 255
206 230 255
206 230 255
206 230 255
206 230 255
206 230 255
206 230 255
206 230 255
206 230 255
206 230 255
206 230 255
206 230 255
218 242 255
206 230 255
206 230 255
206 230 255
206 230 255
206 230 255
206 230 255
206 230 255
206 230 255
206 230 255
206 230 255
206 230 255
206 230 255
206 230 255
206 230 255
206 230 255
206 230 255
206 230 255
206 230 255
206 230 255
206 230 255
206 230 255
206 230 255
206 230 255
206 230 255
206 230 255
206 230 255
206 230 255
206 230 255
206 230 255
206 230 255
206 230 255
206 230 255
206 230 255
206 230 255
206 230 255
206 230 255
218 242 255
206 230 255
206 230 255
206 230 255
206 230 255
206 230 255
206 230 255
206 230 255
206 230 255
206 230 255
206 230 255
206 230 255
206 230 255
206 230 255
206 230 255
206 230 255
206 230 255
206 230 255
206 230 255
206 230 255
206 230 255
206 230 255
206 230 255
206 230 255
206 230 255
206 230 255
206 230 255
206 230 255
206 230 255
206 230 255
206 230 255
206 230 255
206 230 255
206 230 255
206 230 255
206 230 255
206 230 255
218 242 255
206 230 255
206 230 255
206 230 255
206 230 255
206 230 255
206 230 255
206 230 255
206 230 255
206 230 255
206 230 255
206 230 255
206 230 255
206 230 255
206 230 255
206 230 255
206 230 255
206 230 255
206 230 255
206 230 255
206 230 255
206 230 255
206 230 255
206 230 255
206 230 255
206 230 255
206 230 255
206 230 255
206 230 255
206 230 255
206 230 255
206 230 255
206 230 255
206 230 255
206 230 255
206 230 255
206 230 255
218 242 255
206 230 255
206 230 255
206 230 255
206 230 255
206 230 255
206 230 255
206 230 255
206 230 255
206 230 255
206 230 255
206 230 255
206 230 255
206 230 255
206 230 255
206 230 255
206 230 255
206 230 255
206 230 255
206 230 255
206 230 255
206 230 255
206 230 255
206 230 255
206 230 255
206 230 255
206 230 255
206 230 255
206 230 255
206 230 255
206 230 255
206 230 255
206 230 255
206 230 255
206 230 255
206 230 255
206 230 255
218 242 255
206 230 255
206 230 255
206 230 255
206 230 255
206 230 255
206 230 255
206 230 255
206 230 255
206 230 255
206 230 255
206 230 255
206 230 255
206 230 255
206 230 255
206 230 255
206 230 255
206 230 255
206 230 255
206 230 255
206 230 255
206 230 255
206 230 255
206 230 255
206 230 255
206 230 255
206 230 255
206 230 255
206 230 255
206 230 255
206 230 255
206 230 255
206 230 255
206 230 255
206 230 255
206 230 255
206 230 255
218 242 255
206 230 255
206 230 255
206 230 255
206 230 255
206 230 255
206 230 255
206 230 255
206 230 255
206 230 255
206 230 255
206 230 255
206 230 255
206 230 255
206 230 255
206 230 255
206 230 255
206 230 255
206 230 255
206 230 255
206 230 255
206 230 255
206 230 255
206 230 255
206 230 255
206 230 255
206 230 255
206 230 255
206 230 255
206 230 255
206 230 255
206 230 255
206 230 255
206 230 255
206 230 255
183 215 255
183 215 255
183 215 255
183 215 255
183 215 255
183 215 255
183 215 255
183 215 255
183 215 255
183 215 255
183 215 255
183 215 255
183 215 255
183 215 255
183 215 255
183 215 255
183 215 255
183 215 255
183 215 255
183 215 255
183 215 255
183 215 255
183 215 255
183 215 255
183 215 255
195 227 255
183 215 255
183 215 255
183 215 255
183 215 255
183 215 255
183 215 255
183 215 255
183 215 255
183 215 255
183 215 255
183 215 255
183 215 255
183 215 255
183 215 255
183 215 255
183 215 255
183 215 255
183 215 255
183 215 255
183 215 255
183 215 255
183 215 255
183 215 255
183 215 255
183 215 255
183 215 255
183 215 255
183 215 255
183 215 255
183 215 255
183 215 255
183 215 255
183 215 255
183 215 255
183 215 255
183 215 255
195 227 255
183 215 255
183 215 255
183 215 255
183 215 255
183 215 255
183 215 255
183 215 255
183 215 255
183 215 255
183 215 255
183 215 255
183 215 255
183 215 255
183 215 255
183 215 255
183 215 255
183 215 255
183 215 255
183 215 255
183 215 255
183 215 255
183 215 255
183 215 255
183 215 255
183 215 255
183 215 255
183 215 255
183 215 255
183 215 255
183 215 255
183 215 255
183 215 255
183 215 255
183 215 255
183 215 255
183 215 255
195 227 255
183 215 255
183 215 255
183 215 255
183 215 255
183 215 255
183 215 255
183 215 255
183 215 255
183 215 255
183 215 255
183 215 255
183 215 255
183 215 255
183 215 255
183 215 255
183 215 255
183 215 255
183 215 255
183 215 255
183 215 255
183 215 255
183 215 255
183 215 255
183 215 255
183 215 255
183 215 255
183 215 255
183 215 255
183 215 255
183 215 255
183 215 255
183 215 255
183 215 255
183 215 255
183 215 255
183 215 255
195 227 255
183 215 255
183 215 255
183 215 255
183 215 255
183 215 255
183 215 255
183 215 255
183 215 255
183 215 255
183 215 255
183 215 255
183 215 255
183 215 255
183 215 255
183 215 255
183 215 255
183 215 255
183 215 255
183 215 255
183 215 255
183 215 255
183 215 255
183 215 255
183 215 255
183 215 255
183 215 255
183 215 255
183 215 255
183 215 255
183 215 255
183 215 255
183 215 255
183 215 255
183 215 255
183 215 255
183 215 255
195 227 255
183 215 255
183 215 255
183 215 255
183 215 255
183 215 255
183 215 255
183 215 255
183 215 255
183 215 255
183 215 255
183 215 255
183 215 255
183 215 255
183 215 255
183 215 255
183 215 255
183 215 255
183 215 255
183 215 255
183 215 255
183 215 255
183 215 255
183 215 255
183 215 255
183 215 255
183 215 255
183 215 255
183 215 255
183 215 255
183 215 255
183 215 255
183 215 255
183 215 255
183 215 255
183 215 255
183 215 255
195 227 255
183 215 255
183 215 255
183 215 255
183 215 255
183 215 255
183 215 255
183 215 255
183 215 255
183 215 255
183 215 255
183 215 255
183 215 255
183 215 255
183 215 255
183 215 255
183 215 255
183 215 255
183 215 255
183 215 255
183 215 255
183 215 255
183 215 255
183 215 255
183 215 255
183 215 255
183 215 255
183 215 255
183 215 255
183 215 255
183 215 255
183 215 255
183 215 255
183 215 255
183 215 255
183 215 255
183 215 255
195 227 255
183 215 255
183 215 255
183 215 255
183 215 255
183 215 255
183 215 255
183 215 255
183 215 255
183 215 255
183 215 255
183 215 255
183 215 255
183 215 255
183 215 255
183 215 255
183 215 255
183 215 255
183 215 255
183 215 255
183 215 255
183 215 255
183 215 255
183 215 255
183 215 255
183 215 255
183 215 255
183 215 255
183 215 255
183 215 255
183 215 255
183 215 255
183 215 255
183 215 255
183 215 255
183 215 255
183 215 255
195 227 255
183 215 255
183 215 255
183 215 255
183 215 255
183 215 255
183 215 255
183 215 255
183 215 255
183 215 255
183 215 255
183 215 255
183 215 255
183 215 255
183 215 255
183 215 255
183 215 255
183 215 255
183 215 255
183 215 255
183 215 255
183 215 255
183 215 255
183 215 255
183 215 255
183 215 255
183 215 255
183 215 255
183 215 255
183 215 255
183 215 255
183 215 255
183 215 255
183 215 255
183 215 255
183 215 255
183 215 255
183 215 255
183 215 255
183 215 255
183 215 255
183 215 255
183 215 255
183 215 255
183 215 255
183 215 255
183 215 255
183 215 255
183 215 255
183 215 255
183 215 255
183 215 255
183 215 255
183 215 255
183 215 255
183 215 255
183 215 255
183 215 255
183 215 255
183 215 255
195 227 255
183 215 255
183 215 255
183 215 255
183 215 255
183 215 255
183 215 255
183 215 255
183 215 255
183 215 255
183 215 255
183 215 255
183 215 255
183 215 255
183 215 255
183 215 255
183 215 255
183 215 255
183 215 255
183 215 255
183 215 255
183 215 255
183 215 255
183 215 255
183 215 255
183 215 255
183 215 255
183 215 255
183 215 255
183 215 255
183 215 255
183 215 255
183 215 255
183 215 255
183 215 255
183 215 255
183 215 255
195 227 255
183 215 255
183 215 255
183 215 255
183 215 255
183 215 255
183 215 255
183 215 255
183 215 255
183 215 255
183 215 255
183 215 255
183 215 255
183 215 255
183 215 255
183 215 255
183 215 255
183 215 255
183 215 255
183 215 255
183 215 255
183 215 255
183 215 255
183 215 255
183 215 255
183 215 255
183 215 255
183 215 255
183 215 255
183 215 255
183 215 255
183 215 255
183 215 255
183 215 255
183 215 255
183 215 255
183 215 255
195 227 255
183 215 255
183 215 255
183 215 255
183 215 255
183 215 255
183 215 255
183 215 255
183 215 255
183 215 255
183 215 255
183 215 255
183 215 255
183 215 255
183 215 255
183 215 255
183 215 255
183 215 255
183 215 255
183 215 255
183 215 255
183 215 255
183 215 255
183 215 255
183 215 255
183 215 255
183 215 255
183 215 255
183 215 255
183 215 255
183 215 255
183 215 255
183 215 255
183 215 255
183 215 255
183 215 255
183 215 255
195 227 255
183 215 255
183 215 255
183 215 255
183 215 255
183 215 255
183 215 255
183 215 255
183 215 255
183 215 255
183 215 255
183 215 255
183 215 255
183 215 255
183 215 255
183 215 255
183 215 255
183 215 255
183 215 255
183 215 255
183 215 255
183 215 255
183 215 255
183 215 255
183 215 255
183 215 255
183 215 255
183 215 255
183 215 255
183 215 255
183 215 255
183 215 255
183 215 255
183 215 255
183 215 255
183 215 255
183 215 255
195 227 255
183 215 255
183 215 255
183 215 255
183 215 255
183 215 255
183 215 255
183 215 255
183 215 255
183 215 255
183 215 255
183 215 255
183 215 255
183 215 255
183 215 255
183 215 255
183 215 255
183 215 255
183 215 255
183 215 255
183 215 255
183 215 255
183 215 255
183 215 255
183 215 255
183 215 255
183 215 255
183 215 255
183 215 255
183 215 255
183 215 255
183 215 255
183 215 255
183 215 255
183 215 255
183 215 255
183 215 255
195 227 255
183 215 255
183 215 255
183 215 255
183 215 255
183 215 255
183 215 255
183 215 255
183 215 255
183 215 255
183 215 255
183 215 255
183 215 255
183 215 255
183 215 255
183 215 255
183 215 255
183 215 255
183 215 255
183 215 255
183 215 255
183 215 255
183 215 255
183 215 255
183 215 255
183 215 255
183 215 255
183 215 255
183 215 255
183 215 255
183 215 255
183 215 255
183 215 255
183 215 255
183 215 255
183 215 255
183 215 255
195 227 255
183 215 255
183 215 255
183 215 255
183 215 255
183 215 255
183 215 255
183 215 255
183 215 255
183 215 255
183 215 255
183 215 255
183 215 255
183 215 255
183 215 255
183 215 255
183 215 255
183 215 255
183 215 255
183 215 255
183 215 255
183 215 255
183 215 255
183 215 255
183 215 255
183 215 255
183 215 255
183 215 255
183 215 255
183 215 255
183 215 255
183 215 255
183 215 255
183 215 255
183 215 255
183 215 255
183 215 255
195 227 255
183 215 255
183 215 255
183 215 255
183 215 255
183 215 255
183 215 255
183 215 255
183 215 255
183 215 255
183 215 255
183 215 255
183 215 255
183 215 255
183 215 255
183 215 255
183 215 255
183 215 255
183 215 255
183 215 255
183 215 255
183 215 255
183 215 255
183 215 255
183 215 255
183 215 255
183 215 255
183 215 255
183 215 255
183 215 255
183 215 255
183 215 255
183 215 255
183 215 255
183 215 255
183 215 255
183 215 255
183 215 255
183 215 255
183 215 255
183 215 255
183 215 255
183 215 255
183 215 255
183 215 255
183 215 255
183 215 255
183 215 255
183 215 255
183 215 255
183 215 255
183 215 255
183 215 255
183 215 255
183 215 255
183 215 255
183 215 255
183 215 255
183 215 255
183 215 255
195 227 255
183 215 255
183 215 255
183 215 255
183 215 255
183 215 255
183 215 255
183 215 255
183 215 255
183 215 255
183 215 255
183 215 255
183 215 255
183 215 255
183 215 255
183 215 255
183 215 255
183 215 255
183 215 255
183 215 255
183 215 255
183 215 255
183 215 255
183 215 255
183 215 255
183 215 255
183 215 255
183 215 255
183 215 255
183 215 255
183 215 255
183 215 255
183 215 255
183 215 255
183 215 255
183 215 255
183 215 255
195 227 255
183 215 255
183 215 255
183 215 255
183 215 255
183 215 255
183 215 255
183 215 255
183 215 255
183 215 255
183 215 255
183 215 255
183 215 255
183 215 255
183 215 255
183 215 255
183 215 255
183 215 255
183 215 255
183 215 255
183 215 255
183 215 255
183 215 255
183 215 255
183 215 255
183 215 255
183 215 255
183 215 255
183 215 255
183 215 255
183 215 255
183 215 255
183 215 255
183 215 255
183 215 255
183 215 255
183 215 255
195 227 255
183 215 255
183 215 255
183 215 255
183 215 255
183 215 255
183 215 255
183 215 255
183 215 255
183 215 255
183 215 255
183 215 255
183 215 255
183 215 255
183 215 255
183 215 255
183 215 255
183 215 255
183 215 255
183 215 255
183 215 255
183 215 255
183 215 255
183 215 255
183 215 255
183 215 255
183 215 255
183 215 255
183 215 255
183 215 255
183 215 255
183 215 255
183 215 255
183 215 255
183 215 255
183 215 255
183 215 255
195 227 255
183 215 255
183 215 255
183 215 255
183 215 255
183 215 255
183 215 255
183 215 255
183 215 255
183 215 255
183 215 255
183 215 255
183 215 255
183 215 255
183 215 255
183 215 255
183 215 255
183 215 255
183 215 255
183 215 255
183 215 255
183 215 255
183 215 255
183 215 255
183 215 255
183 215 255
183 215 255
183 215 255
183 215 255
183 215 255
183 215 255
183 215 255
183 215 255
183 215 255
183 215 255
183 215 255
183 215 255
195 227 255
183 215 255
183 215 255
183 215 255
183 215 255
183 215 255
183 215 255
183 215 255
183 215 255
183 215 255
183 215 255
183 215 255
183 215 255
183 215 255
183 215 255
183 215 255
183 215 255
183 215 255
183 215 255
183 215 255
183 215 255
183 215 255
183 215 255
183 215 255
183 215 255
183 215 255
183 215 255
183 215 255
183 215 255
183 215 255
183 215 255
183 215 255
183 215 255
183 215 255
183 215 255
183 215 255
183 215 255
195 227 255
183 215 255
183 215 255
183 215 255
183 215 255
183 215 255
183 215 255
183 215 255
183 215 255
183 215 255
183 215 255
183 215 255
183 215 255
183 215 255
183 215 255
183 215 255
183 215 255
183 215 255
183 215 255
183 215 255
183 215 255
183 215 255
183 215 255
183 215 255
183 215 255
183 215 255
183 215 255
183 215 255
183 215 255
183 215 255
183 215 255
183 215 255
183 215 255
183 215 255
183 215 255
183 215 255
183 215 255
195 227 255
183 215 255
183 215 255
183 215 255
183 215 255
183 215 255
183 215 255
183 215 255
183 215 255
183 215 255
183 215 255
183 215 255
183 215 255
183 215 255
183 215 255
183 215 255
183 215 255
183 215 255
183 215 255
183 215 255
183 215 255
183 215 255
183 215 255
183 215 255
183 215 255
183 215 255
183 215 255
183 215 255
183 215 255
183 215 255
183 215 255
183 215 255
183 215 255
183 215 255
183 215 255
183 215 255
183 215 255
195 227 255
183 215 255
183 215 255
183 215 255
183 215 255
183 215 255
183 215 255
183 215 255
183 215 255
183 215 255
183 215 255
183 215 255
183 215 255
183 215 255
183 215 255
183 215 255
183 215 255
183 215 255
183 215 255
183 215 255
183 215 255
183 215 255
183 215 255
183 215 255
183 215 255
183 215 255
183 215 255
183 215 255
183 215 255
183 215 255
183 215 255
183 215 255
183 215 255
183 215 255
183 215 255
183 215 255
183 215 255
195 227 255
183 215 255
183 215 255
183 215 255
183 215 255
183 215 255
183 215 255
183 215 255
183 215 255
183 215 255
183 215 255
183 215 255
183 215 255
183 215 255
183 215 255
183 215 255
183 215 255
183 215 255
183 215 255
183 215 255
183 215 255
183 215 255
183 215 255
195 227 255
183 215 255
183 215 255
183 215 255
183 215 255
183 215 255
183 215 255
183 215 255
183 215 255
183 215 255
183 215 255
183 215 255
183 215 255
183 215 255
183 215 255
183 215 255
183 215 255
183 215 255
183 215 255
183 215 255
183 215 255
183 215 255
183 215 255
183 215 255
183 215 255
183 215 255
183 215 255
183 215 255
183 215 255
183 215 255
183 215 255
183 215 255
183 215 255
183 215 255
183 215 255
183 215 255
183 215 255
195 227 255
183 215 255
183 215 255
183 215 255
183 215 255
183 215 255
183 215 255
183 215 255
183 215 255
183 215 255
183 215 255
183 215 255
183 215 255
183 215 255
183 215 255
183 215 255
183 215 255
183 215 255
183 215 255
183 215 255
183 215 255
183 215 255
183 215 255
183 215 255
183 215 255
183 215 255
183 215 255
183 215 255
183 215 255
183 215 255
183 215 255
183 215 255
183 215 255
183 215 255
183 215 255
183 215 255
183 215 255
195 227 255
183 215 255
183 215 255
183 215 255
183 215 255
183 215 255
183 215 255
183 215 255
183 215 255
183 215 255
183 215 255
183 215 255
183 215 255
183 215 255
183 215 255
183 215 255
183 215 255
183 215 255
183 215 255
183 215 255
183 215 255
183 215 255
183 215 255
183 215 255
183 215 255
183 215 255
183 215 255
183 215 255
183 215 255
183 215 255
183 215 255
183 215 255
183 215 255
183 215 255
183 215 255
183 215 255
183 215 255
195 227 255
183 215 255
183 215 255
183 215 255
183 215 255
183 215 255
183 215 255
183 215 255
183 215 255
183 215 255
183 215 255
183 215 255
183 215 255
183 215 255
183 215 255
183 215 255
183 215 255
183 215 255
183 215 255
183 215 255
183 215 255
183 215 255
183 215 255
183 215 255
183 215 255
183 215 255
183 215 255
183 215 255
183 215 255
183 215 255
183 215 255
183 215 255
183 215 255
183 215 255
183 215 255
183 215 255
183 215 255
195 227 255
183 215 255
183 215 255
183 215 255
183 215 255
183 215 255
183 215 255
183 215 255
183 215 255
183 215 255
183 215 255
183 215 255
183 215 255
183 215 255
183 215 255
183 215 255
183 215 255
183 215 255
183 215 255
183 215 255
183 215 255
183 215 255
183 215 255
183 215 255
183 215 255
183 215 255
183 215 255
183 215 255
183 215 255
183 215 255
183 215 255
183 215 255
183 215 255
183 215 255
183 215 255
183 215 255
183 215 255
195 227 255
183 215 255
183 215 255
183 215 255
183 215 255
183 215 255
183 215 255
183 215 255
183 215 255
183 215 255
183 215 255
183 215 255
183 215 255
183 215 255
183 215 255
183 215 255
183 215 255
183 215 255
183 215 255
183 215 255
183 215 255
183 215 255
183 215 255
183 215 255
183 215 255
183 215 255
183 215 255
183 215 255
183 215 255
183 215 255
183 215 255
183 215 255
183 215 255
183 215 255
183 215 255
183 215 255
183 215 255
195 227 255
183 215 255
183 215 255
183 215 255
183 215 255
183 215 255
183 215 255
183 215 255
183 215 255
183 215 255
183 215 255
183 215 255
183 215 255
183 215 255
183 215 255
183 215 255
183 215 255
183 215 255
183 215 255
183 215 255
183 215 255
183 215 255
183 215 255
183 215 255
183 215 255
183 215 255
183 215 255
183 215 255
183 215 255
183 215 255
183 215 255
183 215 255
183 215 255
183 215 255
183 215 255
183 215 255
183 215 255
195 227 255
183 215 255
183 215 255
183 215 255
183 215 255
183 215 255
183 215 255
183 215 255
183 215 255
183 215 255
183 215 255
183 215 255
183 215 255
183 215 255
183 215 255
183 215 255
183 215 255
183 215 255
183 215 255
183 215 255
183 215 255
183 215 255
183 215 255
183 215 255
183 215 255
183 215 255
183 215 255
183 215 255
183 215 255
183 215 255
183 215 255
183 215 255
183 215 255
183 215 255
183 215 255
183 215 255
183 215 255
195 227 255
183 215 255
183 215 255
183 215 255
183 215 255
183 215 255
183 215 255
183 215 255
183 215 255
183 215 255
183 215 255
183 215 255
183 215 255
183 215 255
183 215 255
183 215 255
183 215 255
183 215 255
183 215 255
183 215 255
183 215 255
183 215 255
183 215 255
195 227 255
183 215 255
183 215 255
183 215 255
183 215 255
183 215 255
183 215 255
183 215 255
183 215 255
183 215 255
183 215 255
183 215 255
183 215 255
183 215 255
183 215 255
183 215 255
183 215 255
183 215 255
183 215 255
183 215 255
183 215 255
183 215 255
183 215 255
183 215 255
183 215 255
183 215 255
183 215 255
183 215 255
183 215 255
183 215 255
183 215 255
183 215 255
183 215 255
183 215 255
183 215 255
183 215 255
183 215 255
195 227 255
183 215 255
183 215 255
183 215 255
183 215 255
183 215 255
183 215 255
183 215 255
183 215 255
183 215 255
183 215 255
183 215 255
183 215 255
183 215 255
183 215 255
183 215 255
183 215 255
183 215 255
183 215 255
183 215 255
183 215 255
183 215 255
183 215 255
183 215 255
183 215 255
183 215 255
183 215 255
183 215 255
183 215 255
183 215 255
183 215 255
183 215 255
183 215 255
183 215 255
183 215 255
183 215 255
183 215 255
195 227 255
183 215 255
183 215 255
183 215 255
183 215 255
183 215 255
183 215 255
183 215 255
183 215 255
183 215 255
183 215 255
183 215 255
183 215 255
183 215 255
183 215 255
183 215 255
183 215 255
183 215 255
183 215 255
183 215 255
183 215 255
183 215 255
183 215 255
183 215 255
183 215 255
183 215 255
183 215 255
183 215 255
183 215 255
183 215 255
183 215 255
183 215 255
183 215 255
183 215 255
183 215 255
183 215 255
183 215 255
195 227 255
183 215 255
183 215 255
183 215 255
183 215 255
183 215 255
183 215 255
183 215 255
183 215 255
183 215 255
183 215 255
183 215 255
183 215 255
183 215 255
183 215 255
183 215 255
183 215 255
183 215 255
183 215 255
183 215 255
183 215 255
183 215 255
183 215 255
183 215 255
183 215 255
183 215 255
183 215 255
183 215 255
183 215 255
183 215 255
183 215 255
183 215 255
183 215 255
183 215 255
183 215 255
183 215 255
183 215 255
195 227 255
183 215 255
183 215 255
183 215 255
183 215 255
183 215 255
183 215 255
183 215 255
183 215 255
183 215 255
183 215 255
183 215 255
183 215 255
183 215 255
183 215 255
183 215 255
183 215 255
183 215 255
183 215 255
183 215 255
183 215 255
183 215 255
183 215 255
183 215 255
183 215 255
183 215 255
183 215 255
183 215 255
183 215 255
183 215 255
183 215 255
183 215 255
183 215 255
183 215 255
183 215 255
183 215 255
183 215 255
195 227 255
183 215 255
183 215 255
183 215 255
183 215 255
183 215 255
183 215 255
183 215 255
183 215 255
183 215 255
183 215 255
183 215 255
183 215 255
183 215 255
183 215 255
183 215 255
183 215 255
183 215 255
183 215 255
183 215 255
183 215 255
183 215 255
183 215 255
183 215 255
183 215 255
183 215 255
183 215 255
183 215 255
183 215 255
183 215 255
183 215 255
183 215 255
183 215 255
183 215 255
183 215 255
183 215 255
183 215 255
195 227 255
183 215 255
183 215 255
183 215 255
183 215 255
183 215 255
183 215 255
183 215 255
183 215 255
183 215 255
183 215 255
183 215 255
183 215 255
183 215 255
183 215 255
183 215 255
183 215 255
183 215 255
183 215 255
183 215 255
183 215 255
183 215 255
183 215 255
183 215 255
183 215 255
183 215 255
183 215 255
183 215 255
183 215 255
183 215 255
183 215 255
183 215 255
183 215 255
183 215 255
183 215 255
183 215 255
183 215 255
195 227 255
183 215 255
183 215 255
183 215 255
183 215 255
183 215 255
183 215 255
183 215 255
183 215 255
183 215 255
183 215 255
183 215 255
183 215 255
183 215 255
183 215 255
183 215 255
183 215 255
183 215 255
183 215 255
183 215 255
183 215 255
183 215 255
183 215 255
183 215 255
183 215 255
183 215 255
183 215 255
183 215 255
183 215 255
183 215 255
183 215 255
183 215 255
183 215 255
183 215 255
183 215 255
183 215 255
183 215 255
195 227 255
183 215 255
183 215 255
183 215 255
183 215 255
183 215 255
183 215 255
183 215 255
183 215 255
183 215 255
183 215 255
183 215 255
183 215 255
183 215 255
183 215 255
183 215 255
183 215 255
183 215 255
183 215 255
183 215 255
183 215 255
183 215 255
183 215 255
195 227 255
183 215 255
183 215 255
183 215 255
183 215 255
183 215 255
183 215 255
183 215 255
183 215 255
183 215 255
183 215 255
183 215 255
183 215 255
183 215 255
183 215 255
183 215 255
183 215 255
183 215 255
183 215 255
183 215 255
183 215 255
183 215 255
183 215 255
183 215 255
183 215 255
183 215 255
183 215 255
183 215 255
183 215 255
183 215 255
183 215 255
183 215 255
183 215 255
183 215 255
183 215 255
183 215 255
183 215 255
195 227 255
183 215 255
183 215 255
183 215 255
183 215 255
183 215 255
183 215 255
183 215 255
183 215 255
183 215 255
183 215 255
183 215 255
183 215 255
183 215 255
183 215 255
183 215 255
183 215 255
183 215 255
183 215 255
183 215 255
183 215 255
183 215 255
183 215 255
183 215 255
183 215 255
183 215 255
183 215 255
183 215 255
183 215 255
183 215 255
183 215 255
183 215 255
183 215 255
183 215 255
183 215 255
183 215 255
183 215 255
195 227 255
183 215 255
183 215 255
183 215 255
183 215 255
183 215 255
183 215 255
183 215 255
183 215 255
183 215 255
183 215 255
183 215 255
183 215 255
183 215 255
183 215 255
183 215 255
183 215 255
183 215 255
183 215 255
183 215 255
183 215 255
183 215 255
183 215 255
183 215 255
183 215 255
183 215 255
183 215 255
183 215 255
183 215 255
183 215 255
183 215 255
183 215 255
183 215 255
183 215 255
183 215 255
183 215 255
183 215 255
195 227 255
183 215 255
183 215 255
183 215 255
183 215 255
183 215 255
183 215 255
183 215 255
183 215 255
183 215 255
183 215 255
183 215 255
183 215 255
183 215 255
183 215 255
183 215 255
183 215 255
183 215 255
183 215 255
183 215 255
183 215 255
183 215 255
183 215 255
183 215 255
183 215 255
183 215 255
183 215 255
183 215 255
183 215 255
183 215 255
183 215 255
183 215 255
183 215 255
183 215 255
183 215 255
183 215 255
183 215 255
195 227 255
183 215 255
183 215 255
183 215 255
183 215 255
183 215 255
183 215 255
183 215 255
183 215 255
183 215 255
183 215 255
183 215 255
183 215 255
183 215 255
183 215 255
183 215 255
183 215 255
183 215 255
183 215 255
183 215 255
183 215 255
183 215 255
183 215 255
183 215 255
183 215 255
183 215 255
183 215 255
183 215 255
183 215 255
183 215 255
183 215 255
183 215 255
183 215 255
183 215 255
183 215 255
183 215 255
183 215 255
195 227 255
183 215 255
183 215 255
183 215 255
183 215 255
183 215 255
183 215 255
183 215 255
183 215 255
183 215 255
183 215 255
183 215 255
183 215 255
183 215 255
183 215 255
183 215 255
183 215 255
183 215 255
183 215 255
183 215 255
183 215 255
183 215 255
183 215 255
183 215 255
183 215 255
183 215 255
183 215 255
183 215 255
183 215 255
183 215 255
183 215 255
183 215 255
183 215 255
183 215 255
183 215 255
183 215 255
183 215 255
195 227 255
183 215 255
183 215 255
183 215 255
183 215 255
183 215 255
183 215 255
183 215 255
183 215 255
183 215 255
183 215 255
183 215 255
183 215 255
183 215 255
183 215 255
183 215 255
183 215 255
183 215 255
183 215 255
183 215 255
183 215 255
183 215 255
183 215 255
183 215 255
183 215 255
183 215 255
183 215 255
183 215 255
183 215 255
183 215 255
183 215 255
183 215 255
183 215 255
183 215 255
183 215 255
183 215 255
183 215 255
195 227 255
183 215 255
183 215 255
183 215 255
183 215 255
183 215 255
183 215 255
183 215 255
183 215 255
183 215 255
183 215 255
183 215 255
183 215 255
183 215 255
183 215 255
183 215 255
183 215 255
183 215 255
183 215 255
183 215 255
183 215 255
183 215 255
183 215 255
183 215 255
183 215 255
183 215 255
183 215 255
183 215 255
183 215 255
183 215 255
183 215 255
183 215 255
183 215 255
183 215 255
183 215 255
183 215 255
183 215 255
195 227 255
183 215 255
183 215 255
183 215 255
183 215 255
183 215 255
183 215 255
183 215 255
183 215 255
183 215 255
183 215 255
183 215 255
183 215 255
183 215 255
183 215 255
183 215 255
183 215 255
183 215 255
183 215 255
183 215 255
183 215 255
183 215 255
183 215 255
195 227 255
183 215 255
183 215 255
183 215 255
183 215 255
183 215 255
183 215 255
183 215 255
183 215 255
183 215 255
183 215 255
183 215 255
183 215 255
183 215 255
183 215 255
183 215 255
183 215 255
183 215 255
183 215 255
183 215 255
183 215 255
183 215 255
183 215 255
183 215 255
183 215 255
183 215 255
183 215 255
183 215 255
183 215 255
183 215 255
183 215 255
183 215 255
183 215 255
183 215 255
183 215 255
183 215 255
183 215 255
195 227 255
183 215 255
183 215 255
183 215 255
183 215 255
183 215 255
183 215 255
183 215 255
183 215 255
183 215 255
183 215 255
183 215 255
183 215 255
183 215 255
183 215 255
183 215 255
183 215 255
183 215 255
183 215 255
183 215 255
183 215 255
183 215 255
183 215 255
183 215 255
183 215 255
183 215 255
183 215 255
183 215 255
183 215 255
183 215 255
183 215 255
183 215 255
183 215 255
183 215 255
183 215 255
183 215 255
183 215 255
195 227 255
183 215 255
183 215 255
183 215 255
183 215 255
183 215 255
183 215 255
183 215 255
183 215 255
183 215 255
183 215 255
183 215 255
183 215 255
183 215 255
183 215 255
183 215 255
183 215 255
183 215 255
183 215 255
183 215 255
183 215 255
183 215 255
183 215 255
183 215 255
183 215 255
183 215 255
183 215 255
183 215 255
183 215 255
183 215 255
183 215 255
183 215 255
183 215 255
183 215 255
183 215 255
183 215 255
183 215 255
195 227 255
183 215 255
183 215 255
183 215 255
183 215 255
183 215 255
183 215 255
183 215 255
183 215 255
183 215 255
183 215 255
183 215 255
183 215 255
183 215 255
183 215 255
183 215 255
183 215 255
183 215 255
183 215 255
183 215 255
183 215 255
183 215 255
183 215 255
183 215 255
183 215 255
183 215 255
183 215 255
183 215 255
183 215 255
183 215 255
183 215 255
183 215 255
183 215 255
183 215 255
183 215 255
183 215 255
183 215 255
195 227 255
183 215 255
183 215 255
183 215 255
183 215 255
183 215 255
183 215 255
183 215 255
183 215 255
183 215 255
183 215 255
183 215 255
183 215 255
183 215 255
183 215 255
183 215 255
183 215 255
183 215 255
183 215 255
183 215 255
183 215 255
183 215 255
183 215 255
183 215 255
183 215 255
183 215 255
183 215 255
183 215 255
183 215 255
183 215 255
183 215 255
183 215 255
183 215 255
183 215 255
183 215 255
183 215 255
183 215 255
195 227 255
183 215 255
183 215 255
183 215 255
183 215 255
183 215 255
183 215 255
183 215 255
183 215 255
183 215 255
183 215 255
183 215 255
183 215 255
183 215 255
183 215 255
183 215 255
183 215 255
183 215 255
183 215 255
183 215 255
183 215 255
183 215 255
183 215 255
183 215 255
183 215 255
183 215 255
183 215 255
183 215 255
183 215 255
183 215 255
183 215 255
183 215 255
183 215 255
183 215 255
183 215 255
183 215 255
183 215 255
195 227 255
183 215 255
183 215 255
183 215 255
183 215 255
183 215 255
183 215 255
183 215 255
183 215 255
183 215 255
183 215 255
183 215 255
183 215 255
183 215 255
183 215 255
183 215 255
183 215 255
183 215 255
183 215 255
183 215 255
183 215 255
183 215 255
183 215 255
183 215 255
183 215 255
183 215 255
183 215 255
183 215 255
183 215 255
183 215 255
183 215 255
183 215 255
183 215 255
183 215 255
183 215 255
183 215 255
183 215 255
195 227 255
183 215 255
183 215 255
183 215 255
183 215 255
183 215 255
183 215 255
183 215 255
183 215 255
183 215 255
183 215 255
183 215 255
183 215 255
183 215 255
183 215 255
183 215 255
183 215 255
183 215 255
183 215 255
183 215 255
183 215 255
183 215 255
183 215 255
183 215 255
183 215 255
183 215 255
183 215 255
183 215 255
183 215 255
183 215 255
183 215 255
183 215 255
183 215 255
183 215 255
183 215 255
183 215 255
183 215 255
195 227 255
183 215 255
183 215 255
183 215 255
183 215 255
183 215 255
183 215 255
183 215 255
183 215 255
183 215 255
183 215 255
183 215 255
183 215 255
183 215 255
183 215 255
183 215 255
183 215 255
183 215 255
183 215 255
183 215 255
183 215 255
183 215 255
183 215 255
195 227 255
183 215 255
183 215 255
183 215 255
183 215 255
183 215 255
183 215 255
183 215 255
183 215 255
183 215 255
183 215 255
183 215 255
183 215 255
183 215 255
183 215 255
183 215 255
183 215 255
183 215 255
183 215 255
183 215 255
183 215 255
183 215 255
183 215 255
183 215 255
183 215 255
183 215 255
183 215 255
183 215 255
183 215 255
183 215 255
183 215 255
183 215 255
183 215 255
183 215 255
183 215 255
183 215 255
183 215 255
195 227 255
183 215 255
183 215 255
183 215 255
183 215 255
183 215 255
183 215 255
183 215 255
183 215 255
183 215 255
183 215 255
183 215 255
183 215 255
183 215 255
183 215 255
183 215 255
183 215 255
183 215 255
183 215 255
183 215 255
183 215 255
183 215 255
183 215 255
183 215 255
183 215 255
183 215 255
183 215 255
183 215 255
183 215 255
183 215 255
183 215 255
183 215 255
183 215 255
183 215 255
183 215 255
183 215 255
183 215 255
195 227 255
183 215 255
183 215 255
183 215 255
183 215 255
183 215 255
183 215 255
183 215 255
183 215 255
183 215 255
183 215 255
183 215 255
183 215 255
183 215 255
183 215 255
183 215 255
183 215 255
183 215 255
183 215 255
183 215 255
183 215 255
183 215 255
183 215 255
183 215 255
183 215 255
183 215 255
183 215 255
183 215 255
183 215 255
183 215 255
183 215 255
183 215 255
183 215 255
183 215 255
183 215 255
183 215 255
183 215 255
195 227 255
183 215 255
183 215 255
183 215 255
183 215 255
183 215 255
183 215 255
183 215 255
183 215 255
183 215 255
183 215 255
183 215 255
183 215 255
183 215 255
183 215 255
183 215 255
183 215 255
183 215 255
183 215 255
183 215 255
183 215 255
183 215 255
183 215 255
183 215 255
183 215 255
183 215 255
183 215 255
183 215 255
183 215 255
183 215 255
183 215 255
183 215 255
183 215 255
183 215 255
183 215 255
183 215 255
183 215 255
195 227 255
183 215 255
183 215 255
183 215 255
183 215 255
183 215 255
183 215 255
183 215 255
183 215 255
183 215 255
183 215 255
183 215 255
183 215 255
183 215 255
183 215 255
183 215 255
183 215 255
183 215 255
183 215 255
183 215 255
183 215 255
183 215 255
183 215 255
183 215 255
183 215 255
183 215 255
183 215 255
183 215 255
183 215 255
183 215 255
183 215 255
183 215 255
183 215 255
183 215 255
183 215 255
183 215 255
183 215 255
195 227 255
183 215 255
183 215 255
183 215 255
183 215 255
183 215 255
183 215 255
183 215 255
183 215 255
183 215 255
183 215 255
183 215 255
183 215 255
183 215 255
183 215 255
183 215 255
183 215 255
183 215 255
183 215 255
183 215 255
183 215 255
183 215 255
183 215 255
183 215 255
183 215 255
183 215 255
183 215 255
183 215 255
183 215 255
183 215 255
183 215 255
183 215 255
183 215 255
183 215 255
183 215 255
183 215 255
183 215 255
195 227 255
183 215 255
183 215 255
183 215 255
183 215 255
183 215 255
183 215 255
183 215 255
183 215 255
183 215 255
183 215 255
183 215 255
183 215 255
183 215 255
183 215 255
183 215 255
183 215 255
183 215 255
183 215 255
183 215 255
183 215 255
183 215 255
183 215 255
183 215 255
183 215 255
183 215 255
183 215 255
183 215 255
183 215 255
183 215 255
183 215 255
183 215 255
183 215 255
183 215 255
183 215 255
183 215 255
183 215 255
195 227 255
183 215 255
183 215 255
183 215 255
183 215 255
183 215 255
183 215 255
183 215 255
183 215 255
183 215 255
183 215 255
183 215 255
183 215 255
183 215 255
183 215 255
183 215 255
183 215 255
183 215 255
183 215 255
183 215 255
183 215 255
183 215 255
183 215 255
183 215 255
183 215 255
183 215 255
183 215 255
183 215 255
183 215 255
183 215 255
183 215 255
183 215 255
183 215 255
183 215 255
183 215 255
183 215 255
183 215 255
195 227 255
183 215 255
183 215 255
183 215 255
183 215 255
183 215 255
183 215 255
183 215 255
183 215 255
183 215 255
183 215 255
183 215 255
183 215 255
183 215 255
183 215 255
183 215 255
183 215 255
183 215 255
183 215 255
183 215 255
183 215 255
183 215 255
183 215 255
195 227 255
183 215 255
183 215 255
183 215 255
183 215 255
183 215 255
183 215 255
183 215 255
183 215 255
183 215 255
183 215 255
183 215 255
183 215 255
183 215 255
183 215 255
183 215 255
183 215 255
183 215 255
183 215 255
183 215 255
183 215 255
183 215 255
183 215 255
183 215 255
183 215 255
183 215 255
183 215 255
183 215 255
183 215 255
183 215 255
183 215 255
183 215 255
183 215 255
183 215 255
183 215 255
183 215 255
183 215 255
195 227 255
183 215 255
183 215 255
183 215 255
183 215 255
183 215 255
183 215 255
183 215 255
183 215 255
183 215 255
183 215 255
183 215 255
183 215 255
183 215 255
183 215 255
183 215 255
183 215 255
183 215 255
183 215 255
183 215 255
183 215 255
183 215 255
183 215 255
183 215 255
183 215 255
183 215 255
183 215 255
183 215 255
183 215 255
183 215 255
183 215 255
183 215 255
183 215 255
183 215 255
183 215 255
183 215 255
183 215 255
195 227 255
183 215 255
183 215 255
183 215 255
183 215 255
183 215 255
183 215 255
183 215 255
183 215 255
183 215 255
183 215 255
183 215 255
183 215 255
183 215 255
183 215 255
183 215 255
183 215 255
183 215 255
183 215 255
183 215 255
183 215 255
183 215 255
183 215 255
183 215 255
183 215 255
183 215 255
183 215 255
183 215 255
183 215 255
183 215 255
183 215 255
183 215 255
183 215 255
183 215 255
183 215 255
183 215 255
183 215 255
195 227 255
183 215 255
183 215 255
183 215 255
183 215 255
183 215 255
183 215 255
183 215 255
183 215 255
183 215 255
183 215 255
183 215 255
183 215 255
183 215 255
183 215 255
183 215 255
183 215 255
183 215 255
183 215 255
183 215 255
183 215 255
183 215 255
183 215 255
183 215 255
183 215 255
183 215 255
183 215 255
183 215 255
183 215 255
183 215 255
183 215 255
183 215 255
183 215 255
183 215 255
183 215 255
183 215 255
183 215 255
195 227 255
183 215 255
183 215 255
183 215 255
183 215 255
183 215 255
183 215 255
183 215 255
183 215 255
183 215 255
183 215 255
183 215 255
183 215 255
183 215 255
183 215 255
183 215 255
183 215 255
183 215 255
183 215 255
183 215 255
183 215 255
183 215 255
183 215 255
183 215 255
183 215 255
183 215 255
183 215 255
183 215 255
183 215 255
183 215 255
183 215 255
183 215 255
183 215 255
183 215 255
183 215 255
183 215 255
183 215 255
195 227 255
183 215 255
183 215 255
183 215 255
183 215 255
183 215 255
183 215 255
183 215 255
183 215 255
183 215 255
183 215 255
183 215 255
183 215 255
183 215 255
183 215 255
183 215 255
183 215 255
183 215 255
183 215 255
183 215 255
183 215 255
183 215 255
183 215 255
183 215 255
183 215 255
183 215 255
183 215 255
183 215 255
183 215 255
183 215 255
183 215 255
183 215 255
183 215 255
183 215 255
183 215 255
183 215 255
183 215 255
195 227 255
183 215 255
183 215 255
183 215 255
183 215 255
183 215 255
183 215 255
183 215 255
183 215 255
183 215 255
183 215 255
183 215 255
183 215 255
183 215 255
183 215 255
183 215 255
183 215 255
183 215 255
183 215 255
183 215 255
183 215 255
183 215 255
183 215 255
183 215 255
183 215 255
183 215 255
183 215 255
183 215 255
183 215 255
183 215 255
183 215 255
183 215 255
183 215 255
183 215 255
183 215 255
183 215 255
183 215 255
195 227 255
183 215 255
183 215 255
183 215 255
183 215 255
183 215 255
183 215 255
183 215 255
183 215 255
183 215 255
183 215 255
183 215 255
183 215 255
183 215 255
183 215 255
183 215 255
183 215 255
183 215 255
183 215 255
183 215 255
183 215 255
183 215 255
183 215 255
183 215 255
183 215 255
183 215 255
183 215 255
183 215 255
183 215 255
183 215 255
183 215 255
183 215 255
183 215 255
183 215 255
183 215 255
183 215 255
183 215 255
195 227 255
183 215 255
183 215 255
183 215 255
183 215 255
183 215 255
183 215 255
183 215 255
183 215 255
183 215 255
183 215 255
183 215 255
183 215 255
183 215 255
183 215 255
183 215 255
183 215 255
183 215 255
183 215 255
183 215 255
183 215 255
183 215 255
183 215 255
195 227 255
183 215 255
183 215 255
183 215 255
183 215 255
183 215 255
183 215 255
183 215 255
183 215 255
183 215 255
183 215 255
183 215 255
183 215 255
183 215 255
183 215 255
183 215 255
183 215 255
183 215 255
183 215 255
183 215 255
183 215 255
183 215 255
183 215 255
183 215 255
183 215 255
183 215 255
183 215 255
183 215 255
183 215 255
183 215 255
183 215 255
183 215 255
183 215 255
183 215 255
183 215 255
183 215 255
183 215 255
195 227 255
183 215 255
183 215 255
183 215 255
183 215 255
183 215 255
183 215 255
183 215 255
183 215 255
183 215 255
183 215 255
183 215 255
183 215 255
183 215 255
183 215 255
183 215 255
183 215 255
183 215 255
183 215 255
183 215 255
183 215 255
183 215 255
183 215 255
183 215 255
183 215 255
183 215 255
183 215 255
183 215 255
183 215 255
183 215 255
183 215 255
183 215 255
183 215 255
183 215 255
183 215 255
183 215 255
183 215 255
195 227 255
183 215 255
183 215 255
183 215 255
183 215 255
183 215 255
183 215 255
183 215 255
183 215 255
183 215 255
183 215 255
183 215 255
183 215 255
183 215 255
183 215 255
183 215 255
183 215 255
183 215 255
183 215 255
183 215 255
183 215 255
183 215 255
183 215 255
183 215 255
183 215 255
183 215 255
183 215 255
183 215 255
183 215 255
183 215 255
183 215 255
183 215 255
183 215 255
183 215 255
183 215 255
183 215 255
183 215 255
195 227 255
183 215 255
183 215 255
183 215 255
183 215 255
183 215 255
183 215 255
183 215 255
183 215 255
183 215 255
183 215 255
183 215 255
183 215 255
183 215 255
183 215 255
183 215 255
183 215 255
183 215 255
183 215 255
183 215 255
183 215 255
183 215 255
183 215 255
183 215 255
183 215 255
183 215 255
183 215 255
183 215 255
183 215 255
183 215 255
183 215 255
183 215 255
183 215 255
183 215 255
183 215 255
183 215 255
183 215 255
195 227 255
183 215 255
183 215 255
183 215 255
183 215 255
183 215 255
183 215 255
183 215 255
183 215 255
183 215 255
183 215 255
183 215 255
183 215 255
183 215 255
183 215 255
183 215 255
183 215 255
183 215 255
183 215 255
183 215 255
183 215 255
183 215 255
183 215 255
183 215 255
183 215 255
183 215 255
183 215 255
183 215 255
183 215 255
183 215 255
183 215 255
183 215 255
183 215 255
183 215 255
183 215 255
183 215 255
183 215 255
195 227 255
183 215 255
183 215 255
183 215 255
183 215 255
183 215 255
183 215 255
183 215 255
183 215 255
183 215 255
183 215 255
183 215 255
183 215 255
183 215 255
183 215 255
183 215 255
183 215 255
183 215 255
183 215 255
183 215 255
183 215 255
183 215 255
183 215 255
183 215 255
183 215 255
183 215 255
183 215 255
183 215 255
183 215 255
183 215 255
183 215 255
183 215 255
183 215 255
183 215 255
183 215 255
183 215 255
183 215 255
195 227 255
183 215 255
183 215 255
183 215 255
183 215 255
183 215 255
183 215 255
183 215 255
183 215 255
183 215 255
183 215 255
183 215 255
183 215 255
183 215 255
183 215 255
183 215 255
183 215 255
183 215 255
183 215 255
183 215 255
183 215 255
183 215 255
183 215 255
183 215 255
183 215 255
183 215 255
183 215 255
183 215 255
183 215 255
183 215 255
183 215 255
183 215 255
183 215 255
183 215 255
183 215 255
183 215 255
183 215 255
195 227 255
183 215 255
183 215 255
183 215 255
183 215 255
183 215 255
183 215 255
183 215 255
183 215 255
183 215 255
183 215 255
183 215 255
183 215 255
183 215 255
183 215 255
183 215 255
183 215 255
183 215 255
183 215 255
183 215 255
183 215 255
183 215 255
183 215 255
183 215 255
183 215 255
183 215 255
183 215 255
183 215 255
183 215 255
183 215 255
183 215 255
183 215 255
183 215 255
183 215 255
183 215 255
183 215 255
183 215 255
195 227 255
183 215 255
183 215 255
183 215 255
183 215 255
183 215 255
183 215 255
183 215 255
183 215 255
183 215 255
183 215 255
183 215 255
183 215 255
183 215 255
183 215 255
183 215 255
183 215 255
183 215 255
183 215 255
183 215 255
183 215 255
183 215 255
183 215 255
195 227 255
183 215 255
183 215 255
183 215 255
183 215 255
183 215 255
183 215 255
183 215 255
183 215 255
183 215 255
183 215 255
183 215 255
183 215 255
183 215 255
183 215 255
183 215 255
183 215 255
183 215 255
183 215 255
183 215 255
183 215 255
183 215 255
183 215 255
183 215 255
183 215 255
183 215 255
183 215 255
183 215 255
183 215 255
183 215 255
183 215 255
183 215 255
183 215 255
183 215 255
183 215 255
183 215 255
183 215 255
195 227 255
183 215 255
183 215 255
183 215 255
183 215 255
183 215 255
183 215 255
183 215 255
183 215 255
183 215 255
183 215 255
183 215 255
183 215 255
183 215 255
183 215 255
183 215 255
183 215 255
183 215 255
183 215 255
183 215 255
183 215 255
183 215 255
183 215 255
183 215 255
183 215 255
183 215 255
183 215 255
183 215 255
183 215 255
183 215 255
183 215 255
183 215 255
183 215 255
183 215 255
183 215 255
183 215 255
183 215 255
195 227 255
183 215 255
183 215 255
183 215 255
183 215 255
183 215 255
183 215 255
183 215 255
183 215 255
183 215 255
183 215 255
183 215 255
183 215 255
183 215 255
183 215 255
183 215 255
183 215 255
183 215 255
183 215 255
183 215 255
183 215 255
183 215 255
183 215 255
183 215 255
183 215 255
183 215 255
183 215 255
183 215 255
183 215 255
183 215 255
183 215 255
183 215 255
183 215 255
183 215 255
183 215 255
183 215 255
183 215 255
195 227 255
183 215 255
183 215 255
183 215 255
183 215 255
183 215 255
183 215 255
183 215 255
183 215 255
183 215 255
183 215 255
183 215 255
183 215 255
183 215 255
183 215 255
183 215 255
183 215 255
183 215 255
183 215 255
183 215 255
183 215 255
183 215 255
183 215 255
183 215 255
183 215 255
183 215 255
183 215 255
183 215 255
183 215 255
183 215 255
183 215 255
183 215 255
183 215 255
183 215 255
183 215 255
183 215 255
183 215 255
195 227 255
183 215 255
183 215 255
183 215 255
183 215 255
183 215 255
183 215 255
183 215 255
183 215 255
183 215 255
183 215 255
183 215 255
183 215 255
183 215 255
183 215 255
183 215 255
183 215 255
183 215 255
183 215 255
183 215 255
183 215 255
183 215 255
183 215 255
183 215 255
183 215 255
183 215 255
183 215 255
183 215 255
183 215 255
183 215 255
183 215 255
183 215 255
183 215 255
183 215 255
183 215 255
183 215 255
183 215 255
195 227 255
183 215 255
183 215 255
183 215 255
183 215 255
183 215 255
183 215 255
183 215 255
183 215 255
183 215 255
183 215 255
183 215 255
183 215 255
183 215 255
183 215 255
183 215 255
183 215 255
183 215 255
183 215 255
183 215 255
183 215 255
183 215 255
183 215 255
183 215 255
183 215 255
183 215 255
183 215 255
183 215 255
183 215 255
183 215 255
183 215 255
183 215 255
183 215 255
183 215 255
183 215 255
183 215 255
183 215 255
195 227 255
183 215 255
183 215 255
183 215 255
183 215 255
183 215 255
183 215 255
183 215 255
183 215 255
183 215 255
183 215 255
183 215 255
183 215 255
183 215 255
183 215 255
183 215 255
183 215 255
183 215 255
183 215 255
183 215 255
183 215 255
183 215 255
183 215 255
183 215 255
183 215 255
183 215 255
183 215 255
183 215 255
183 215 255
183 215 255
183 215 255
183 215 255
183 215 255
183 215 255
183 215 255
183 215 255
183 215 255
195 227 255
183 215 255
183 215 255
183 215 255
183 215 255
183 215 255
183 215 255
183 215 255
183 215 255
183 215 255
183 215 255
183 215 255
183 215 255
183 215 255
183 215 255
183 215 255
183 215 255
183 215 255
183 215 255
183 215 255
183 215 255
183 215 255
183 215 255
183 215 255
183 215 255
183 215 255
183 215 255
183 215 255
183 215 255
183 215 255
183 215 255
183 215 255
183 215 255
183 215 255
183 215 255
183 215 255
183 215 255
195 227 255
183 215 255
183 215 255
183 215 255
183 215 255
183 215 255
183 215 255
183 215 255
183 215 255
183 215 255
183 215 255
183 215 255
183 215 255
183 215 255
183 215 255
183 215 255
183 215 255
183 215 255
183 215 255
183 215 255
183 215 255
183 215 255
183 215 255
195 227 255
183 215 255
183 215 255
183 215 255
183 215 255
183 215 255
183 215 255
183 215 255
183 215 255
183 215 255
183 215 255
183 215 255
183 215 255
183 215 255
183 215 255
183 215 255
183 215 255
183 215 255
183 215 255
183 215 255
183 215 255
183 215 255
183 215 255
183 215 255
183 215 255
183 215 255
183 215 255
183 215 255
183 215 255
183 215 255
183 215 255
183 215 255
183 215 255
183 215 255
183 215 255
183 215 255
183 215 255
195 227 255
183 215 255
183 215 255
183 215 255
183 215 255
183 215 255
183 215 255
183 215 255
183 215 255
183 215 255
183 215 255
183 215 255
183 215 255
183 215 255
183 215 255
183 215 255
183 215 255
183 215 255
183 215 255
183 215 255
183 215 255
183 215 255
183 215 255
183 215 255
183 215 255
183 215 255
183 215 255
183 215 255
183 215 255
183 215 255
183 215 255
183 215 255
183 215 255
183 215 255
183 215 255
183 215 255
183 215 255
195 227 255
183 215 255
183 215 255
183 215 255
183 215 255
183 215 255
183 215 255
183 215 255
183 215 255
183 215 255
183 215 255
183 215 255
183 215 255
183 215 255
183 215 255
183 215 255
183 215 255
183 215 255
183 215 255
183 215 255
183 215 255
183 215 255
183 215 255
183 215 255
183 215 255
183 215 255
183 215 255
183 215 255
183 215 255
183 215 255
183 215 255
183 215 255
183 215 255
183 215 255
183 215 255
183 215 255
183 215 255
195 227 255
183 215 255
183 215 255
183 215 255
183 215 255
183 215 255
183 215 255
183 215 255
183 215 255
183 215 255
183 215 255
183 215 255
183 215 255
183 215 255
183 215 255
183 215 255
183 215 255
183 215 255
183 215 255
183 215 255
183 215 255
183 215 255
183 215 255
183 215 255
183 215 255
183 215 255
183 215 255
183 215 255
183 215 255
183 215 255
183 215 255
183 215 255
183 215 255
183 215 255
183 215 255
183 215 255
183 215 255
195 227 255
183 215 255
183 215 255
183 215 255
183 215 255
183 215 255
183 215 255
183 215 255
183 215 255
183 215 255
183 215 255
183 215 255
183 215 255
183 215 255
183 215 255
183 215 255
183 215 255
183 215 255
183 215 255
183 215 255
183 215 255
183 215 255
183 215 255
183 215 255
183 215 255
183 215 255
183 215 255
183 215 255
183 215 255
183 215 255
183 215 255
183 215 255
183 215 255
183 215 255
183 215 255
183 215 255
183 215 255
195 227 255
183 215 255
183 215 255
183 215 255
183 215 255
183 215 255
183 215 255
183 215 255
183 215 255
183 215 255
183 215 255
183 215 255
183 215 255
183 215 255
183 215 255
183 215 255
183 215 255
183 215 255
183 215 255
183 215 255
183 215 255
183 215 255
183 215 255
183 215 255
183 215 255
183 215 255
183 215 255
183 215 255
183 215 255
183 215 255
183 215 255
183 215 255
183 215 255
183 215 255
183 215 255
183 215 255
183 215 255
195 227 255
183 215 255
183 215 255
183 215 255
183 215 255
183 215 255
183 215 255
183 215 255
183 215 255
183 215 255
183 215 255
183 215 255
183 215 255
183 215 255
183 215 255
183 215 255
183 215 255
183 215 255
183 215 255
183 215 255
183 215 255
183 215 255
183 215 255
183 215 255
183 215 255
183 215 255
183 215 255
183 215 255
183 215 255
183 215 255
183 215 255
183 215 255
183 215 255
183 215 255
183 215 255
183 215 255
183 215 255
195 227 255
183 215 255
183 215 255
183 215 255
183 215 255
183 215 255
183 215 255
183 215 255
183 215 255
183 215 255
183 215 255
183 215 255
183 215 255
183 215 255
183 215 255
183 215 255
183 215 255
183 215 255
183 215 255
183 215 255
183 215 255
183 215 255
183 215 255
183 215 255
183 215 255
183 215 255
183 215 255
183 215 255
183 215 255
183 215 255
183 215 255
183 215 255
183 215 255
183 215 255
183 215 255
183 215 255
183 215 255
195 227 255
183 215 255
183 215 255
183 215 255
183 215 255
183 215 255
183 215 255
183 215 255
183 215 255
183 215 255
183 215 255
183 215 255
183 215 255
183 215 255
183 215 255
183 215 255
183 215 255
183 215 255
183 215 255
183 215 255
183 215 255
183 215 255
183 215 255
195 227 255
183 215 255
183 215 255
183 215 255
183 215 255
183 215 255
183 215 255
183 215 255
183 215 255
183 215 255
183 215 255
183 215 255
183 215 255
183 215 255
183 215 255
183 215 255
183 215 255
183 215 255
183 215 255
183 215 255
183 215 255
183 215 255
183 215 255
183 215 255
183 215 255
183 215 255
183 215 255
183 215 255
183 215 255
183 215 255
183 215 255
183 215 255
183 215 255
183 215 255
183 215 255
183 215 255
183 215 255
195 227 255
183 215 255
183 215 255
183 215 255
183 215 255
183 215 255
183 215 255
183 215 255
183 215 255
183 215 255
183 215 255
183 215 255
183 215 255
183 215 255
183 215 255
183 215 255
183 215 255
183 215 255
183 215 255
183 215 255
183 215 255
183 215 255
183 215 255
183 215 255
183 215 255
183 215 255
183 215 255
183 215 255
183 215 255
183 215 255
183 215 255
183 215 255
183 215 255
183 215 255
183 215 255
183 215 255
183 215 255
195 227 255
183 215 255
183 215 255
183 215 255
183 215 255
183 215 255
183 215 255
183 215 255
183 215 255
183 215 255
183 215 255
183 215 255
183 215 255
183 215 255
183 215 255
183 215 255
183 215 255
183 215 255
183 215 255
183 215 255
183 215 255
183 215 255
183 215 255
183 215 255
183 215 255
183 215 255
183 215 255
183 215 255
183 215 255
183 215 255
183 215 255
183 215 255
183 215 255
183 215 255
183 215 255
183 215 255
183 215 255
195 227 255
183 215 255
183 215 255
183 215 255
183 215 255
183 215 255
183 215 255
183 215 255
183 215 255
183 215 255
183 215 255
183 215 255
183 215 255
183 215 255
183 215 255
183 215 255
183 215 255
183 215 255
183 215 255
183 215 255
183 215 255
183 215 255
183 215 255
183 215 255
183 215 255
183 215 255
183 215 255
183 215 255
183 215 255
183 215 255
183 215 255
183 215 255
183 215 255
183 215 255
183 215 255
183 215 255
183 215 255
195 227 255
183 215 255
183 215 255
183 215 255
183 215 255
183 215 255
183 215 255
183 215 255
183 215 255
183 215 255
183 215 255
183 215 255
183 215 255
183 215 255
183 215 255
183 215 255
183 215 255
183 215 255
183 215 255
183 215 255
183 215 255
183 215 255
183 215 255
183 215 255
183 215 255
183 215 255
183 215 255
183 215 255
183 215 255
183 215 255
183 215 255
183 215 255
183 215 255
183 215 255
183 215 255
183 215 255
183 215 255
195 227 255
183 215 255
183 215 255
183 215 255
183 215 255
183 215 255
183 215 255
183 215 255
183 215 255
183 215 255
183 215 255
183 215 255
183 215 255
183 215 255
183 215 255
183 215 255
183 215 255
183 215 255
183 215 255
183 215 255
183 215 255
183 215 255
183 215 255
183 215 255
183 215 255
183 215 255
183 215 255
183 215 255
183 215 255
183 215 255
183 215 255
183 215 255
183 215 255
183 215 255
183 215 255
183 215 255
183 215 255
195 227 255
183 215 255
183 215 255
183 215 255
183 215 255
183 215 255
183 215 255
183 215 255
183 215 255
183 215 255
183 215 255
183 215 255
183 215 255
183 215 255
183 215 255
183 215 255
183 215 255
183 215 255
183 215 255
183 215 255
183 215 255
183 215 255
183 215 255
183 215 255
183 215 255
183 215 255
183 215 255
183 215 255
183 215 255
183 215 255
183 215 255
183 215 255
183 215 255
183 215 255
183 215 255
183 215 255
183 215 255
195 227 255
183 215 255
183 215 255
183 215 255
183 215 255
183 215 255
183 215 255
183 215 255
183 215 255
183 215 255
183 215 255
183 215 255
183 215 255
183 215 255
183 215 255
183 215 255
183 215 255
183 215 255
183 215 255
183 215 255
183 215 255
183 215 255
183 215 255
183 215 255
183 215 255
183 215 255
183 215 255
183 215 255
183 215 255
183 215 255
183 215 255
183 215 255
183 215 255
183 215 255
183 215 255
183 215 255
183 215 255
195 227 255
183 215 255
183 215 255
183 215 255
183 215 255
183 215 255
183 215 255
183 215 255
183 215 255
183 215 255
183 215 255
183 215 255
183 215 255
183 215 255
183 215 255
183 215 255
183 215 255
183 215 255
183 215 255
183 215 255
183 215 255
183 215 255
183 215 255
195 227 255
183 215 255
183 215 255
183 215 255
183 215 255
183 215 255
183 215 255
183 215 255
183 215 255
183 215 255
183 215 255
183 215 255
183 215 255
183 215 255
183 215 255
183 215 255
183 215 255
183 215 255
183 215 255
183 215 255
183 215 255
183 215 255
183 215 255
183 215 255
183 215 255
183 215 255
183 215 255
183 215 255
183 215 255
183 215 255
183 215 255
183 215 255
183 215 255
183 215 255
183 215 255
183 215 255
183 215 255
195 227 255
183 215 255
183 215 255
183 215 255
183 215 255
183 215 255
183 215 255
183 215 255
183 215 255
183 215 255
183 215 255
183 215 255
183 215 255
183 215 255
183 215 255
183 215 255
183 215 255
183 215 255
183 215 255
183 215 255
183 215 255
183 215 255
183 215 255
183 215 255
183 215 255
183 215 255
183 215 255
183 215 255
183 215 255
183 215 255
183 215 255
183 215 255
183 215 255
183 215 255
183 215 255
183 215 255
183 215 255
195 227 255
183 215 255
183 215 255
183 215 255
183 215 255
183 215 255
183 215 255
183 215 255
183 215 255
183 215 255
183 215 255
183 215 255
183 215 255
183 215 255
183 215 255
183 215 255
183 215 255
183 215 255
183 215 255
183 215 255
183 215 255
183 215 255
183 215 255
183 215 255
183 215 255
183 215 255
183 215 255
183 215 255
183 215 255
183 215 255
183 215 255
183 215 255
183 215 255
183 215 255
183 215 255
183 215 255
183 215 255
195 227 255
183 215 255
183 215 255
183 215 255
183 215 255
183 215 255
183 215 255
183 215 255
183 215 255
183 215 255
183 215 255
183 215 255
183 215 255
183 215 255
183 215 255
183 215 255
183 215 255
183 215 255
183 215 255
183 215 255
183 215 255
183 215 255
183 215 255
183 215 255
183 215 255
183 215 255
183 215 255
183 215 255
183 215 255
183 215 255
183 215 255
183 215 255
183 215 255
183 215 255
183 215 255
183 215 255
183 215 255
195 227 255
183 215 255
183 215 255
183 215 255
183 215 255
183 215 255
183 215 255
183 215 255
183 215 255
183 215 255
183 215 255
183 215 255
183 215 255
183 215 255
183 215 255
183 215 255
183 215 255
183 215 255
183 215 255
183 215 255
183 215 255
183 215 255
183 215 255
183 215 255
183 215 255
183 215 255
183 215 255
183 215 255
183 215 255
183 215 255
183 215 255
183 215 255
183 215 255
183 215 255
183 215 255
183 215 255
183 215 255
195 227 255
183 215 255
183 215 255
183 215 255
183 215 255
183 215 255
183 215 255
183 215 255
183 215 255
183 215 255
183 215 255
183 215 255
183 215 255
183 215 255
183 215 255
183 215 255
183 215 255
183 215 255
183 215 255
183 215 255
183 215 255
183 215 255
183 215 255
183 215 255
183 215 255
183 215 255
183 215 255
183 215 255
183 215 255
183 215 255
183 215 255
183 215 255
183 215 255
183 215 255
183 215 255
183 215 255
183 215 255
195 227 255
183 215 255
183 215 255
183 215 255
183 215 255
183 215 255
183 215 255
183 215 255
183 215 255
183 215 255
183 215 255
183 215 255
183 215 255
183 215 255
183 215 255
183 215 255
183 215 255
183 215 255
183 215 255
183 215 255
183 215 255
183 215 255
183 215 255
183 215 255
183 215 255
183 215 255
183 215 255
183 215 255
183 215 255
183 215 255
183 215 255
183 215 255
183 215 255
183 215 255
183 215 255
183 215 255
183 215 255
195 227 255
183 215 255
183 215 255
183 215 255
183 215 255
183 215 255
183 215 255
183 215 255
183 215 255
183 215 255
183 215 255
183 215 255
183 215 255
183 215 255
183 215 255
183 215 255
183 215 255
183 215 255
183 215 255
183 215 255
183 215 255
183 215 255
183 215 255
183 215 255
183 215 255
183 215 255
183 215 255
183 215 255
183 215 255
183 215 255
183 215 255
183 215 255
183 215 255
183 215 255
183 215 255
183 215 255
183 215 255
195 227 255
183 215 255
183 215 255
183 215 255
183 215 255
183 215 255
183 215 255
183 215 255
183 215 255
183 215 255
183 215 255
183 215 255
183 215 255
183 215 255
183 215 255
183 215 255
183 215 255
183 215 255
183 215 255
183 215 255
183 215 255
183 215 255
183 215 255
195 227 255
183 215 255
183 215 255
183 215 255
183 215 255
183 215 255
183 215 255
183 215 255
183 215 255
183 215 255
183 215 255
183 215 255
183 215 255
183 215 255
183 215 255
183 215 255
183 215 255
183 215 255
183 215 255
183 215 255
183 215 255
183 215 255
183 215 255
183 215 255
183 215 255
183 215 255
183 215 255
183 215 255
183 215 255
183 215 255
183 215 255
183 215 255
183 215 255
183 215 255
183 215 255
183 215 255
183 215 255
195 227 255
183 215 255
183 215 255
183 215 255
183 215 255
183 215 255
183 215 255
183 215 255
183 215 255
183 215 255
183 215 255
183 215 255
183 215 255
183 215 255
183 215 255
183 215 255
183 215 255
183 215 255
183 215 255
183 215 255
183 215 255
183 215 255
183 215 255
183 215 255
183 215 255
183 215 255
183 215 255
183 215 255
183 215 255
183 215 255
183 215 255
183 215 255
183 215 255
183 215 255
183 215 255
183 215 255
183 215 255
195 227 255
183 215 255
183 215 255
183 215 255
183 215 255
183 215 255
183 215 255
183 215 255
183 215 255
183 215 255
183 215 255
183 215 255
183 215 255
183 215 255
183 215 255
183 215 255
183 215 255
183 215 255
183 215 255
183 215 255
183 215 255
183 215 255
183 215 255
183 215 255
183 215 255
183 215 255
183 215 255
183 215 255
183 215 255
183 215 255
183 215 255
183 215 255
183 215 255
183 215 255
183 215 255
183 215 255
183 215 255
195 227 255
183 215 255
183 215 255
183 215 255
183 215 255
183 215 255
183 215 255
183 215 255
183 215 255
183 215 255
183 215 255
183 215 255
183 215 255
183 215 255
183 215 255
183 215 255
183 215 255
183 215 255
183 215 255
183 215 255
183 215 255
183 215 255
183 215 255
183 215 255
183 215 255
183 215 255
183 215 255
183 215 255
183 215 255
183 215 255
183 215 255
183 215 255
183 215 255
183 215 255
183 215 255
183 215 255
183 215 255
195 227 255
183 215 255
183 215 255
183 215 255
183 215 255
183 215 255
183 215 255
183 215 255
183 215 255
183 215 255
183 215 255
183 215 255
183 215 255
183 215 255
183 215 255
183 215 255
183 215 255
183 215 255
183 215 255
183 215 255
183 215 255
183 215 255
183 215 255
183 215 255
183 215 255
183 215 255
183 215 255
183 215 255
183 215 255
183 215 255
183 215 255
183 215 255
183 215 255
183 215 255
183 215 255
183 215 255
183 215 255
195 227 255
183 215 255
183 215 255
183 215 255
183 215 255
183 215 255
183 215 255
183 215 255
183 215 255
183 215 255
183 215 255
183 215 255
183 215 255
183 215 255
183 215 255
183 215 255
183 215 255
183 215 255
183 215 255
183 215 255
183 215 255
183 215 255
183 215 255
183 215 255
183 215 255
183 215 255
183 215 255
183 215 255
183 215 255
183 215 255
183 215 255
183 215 255
183 215 255
183 215 255
183 215 255
183 215 255
183 215 255
195 227 255
183 215 255
183 215 255
183 215 255
183 215 255
183 215 255
183 215 255
183 215 255
183 215 255
183 215 255
183 215 255
183 215 255
183 215 255
183 215 255
183 215 255
183 215 255
183 215 255
183 215 255
183 215 255
183 215 255
183 215 255
183 215 255
183 215 255
183 215 255
183 215 255
183 215 255
183 215 255
183 215 255
183 215 255
183 215 255
183 215 255
183 215 255
183 215 255
183 215 255
183 215 255
183 215 255
183 215 255
195 227 255
183 215 255
183 215 255
183 215 255
183 215 255
183 215 255
183 215 255
183 215 255
183 215 255
183 215 255
183 215 255
183 215 255
183 215 255
183 215 255
183 215 255
183 215 255
183 215 255
183 215 255
183 215 255
183 215 255
183 215 255
183 215 255
183 215 255
183 215 255
183 215 255
183 215 255
183 215 255
183 215 255
183 215 255
183 215 255
183 215 255
183 215 255
183 215 255
183 215 255
183 215 255
183 215 255
183 215 255
195 227 255
183 215 255
183 215 255
183 215 255
183 215 255
183 215 255
183 215 255
183 215 255
183 215 255
183 215 255
183 215 255
183 215 255
183 215 255
183 215 255
183 215 255
183 215 255
183 215 255
183 215 255
183 215 255
183 215 255
183 215 255
183 215 255
183 215 255
195 227 255
183 215 255
183 215 255
183 215 255
183 215 255
183 215 255
183 215 255
183 215 255
183 215 255
183 215 255
183 215 255
183 215 255
183 215 255
183 215 255
183 215 255
183 215 255
183 215 255
183 215 255
183 215 255
183 215 255
183 215 255
183 215 255
183 215 255
183 215 255
183 215 255
183 215 255
183 215 255
183 215 255
183 215 255
183 215 255
183 215 255
183 215 255
183 215 255
183 215 255
183 215 255
183 215 255
183 215 255
195 227 255
183 215 255
183 215 255
183 215 255
183 215 255
183 215 255
183 215 255
183 215 255
183 215 255
183 215 255
183 215 255
183 215 255
183 215 255
183 215 255
183 215 255
183 215 255
183 215 255
183 215 255
183 215 255
183 215 255
183 215 255
183 215 255
183 215 255
183 215 255
183 215 255
183 215 255
183 215 255
183 215 255
183 215 255
183 215 255
183 215 255
183 215 255
183 215 255
183 215 255
183 215 255
183 215 255
183 215 255
195 227 255
183 215 255
183 215 255
183 215 255
183 215 255
183 215 255
183 215 255
183 215 255
183 215 255
183 215 255
183 215 255
183 215 255
183 215 255
183 215 255
183 215 255
183 215 255
183 215 255
183 215 255
183 215 255
183 215 255
183 215 255
183 215 255
183 215 255
183 215 255
183 215 255
183 215 255
183 215 255
183 215 255
183 215 255
183 215 255
183 215 255
183 215 255
183 215 255
183 215 255
183 215 255
183 215 255
183 215 255
195 227 255
183 215 255
183 215 255
183 215 255
183 215 255
183 215 255
183 215 255
183 215 255
183 215 255
183 215 255
183 215 255
183 215 255
183 215 255
183 215 255
183 215 255
183 215 255
183 215 255
183 215 255
183 215 255
183 215 255
183 215 255
183 215 255
183 215 255
183 215 255
183 215 255
183 215 255
183 215 255
183 215 255
183 215 255
183 215 255
183 215 255
183 215 255
183 215 255
183 215 255
183 215 255
183 215 255
183 215 255
195 227 255
183 215 255
183 215 255
183 215 255
183 215 255
183 215 255
183 215 255
183 215 255
183 215 255
183 215 255
183 215 255
183 215 255
183 215 255
183 215 255
183 215 255
183 215 255
183 215 255
183 215 255
183 215 255
183 215 255
183 215 255
183 215 255
183 215 255
183 215 255
183 215 255
183 215 255
183 215 255
183 215 255
183 215 255
183 215 255
183 215 255
183 215 255
183 215 255
183 215 255
183 215 255
183 215 255
183 215 255
195 227 255
183 215 255
183 215 255
183 215 255
183 215 255
183 215 255
183 215 255
183 215 255
183 215 255
183 215 255
183 215 255
183 215 255
183 215 255
183 215 255
183 215 255
183 215 255
183 215 255
183 215 255
183 215 255
183 215 255
183 215 255
183 215 255
183 215 255
183 215 255
183 215 255
183 215 255
183 215 255
183 215 255
183 215 255
183 215 255
183 215 255
183 215 255
183 215 255
183 215 255
183 215 255
183 215 255
183 215 255
195 227 255
183 215 255
183 215 255
183 215 255
183 215 255
183 215 255
183 215 255
183 215 255
183 215 255
183 215 255
183 215 255
183 215 255
183 215 255
183 215 255
183 215 255
183 215 255
183 215 255
183 215 255
183 215 255
183 215 255
183 215 255
183 215 255
183 215 255
183 215 255
183 215 255
183 215 255
183 215 255
183 215 255
183 215 255
183 215 255
183 215 255
183 215 255
183 215 255
183 215 255
183 215 255
183 215 255
183 215 255
195 227 255
183 215 255
183 215 255
183 215 255
183 215 255
183 215 255
183 215 255
183 215 255
183 215 255
183 215 255
183 215 255
183 215 255
183 215 255
183 215 255
183 215 255
183 215 255
183 215 255
183 215 255
183 215 255
183 215 255
183 215 255
183 215 255
183 215 255
183 215 255
183 215 255
183 215 255
183 215 255
183 215 255
183 215 255
183 215 255
183 215 255
183 215 255
183 215 255
183 215 255
183 215 255
183 215 255
183 215 255
195 227 255
183 215 255
183 215 255
183 215 255
183 215 255
183 215 255
183 215 255
183 215 255
183 215 255
183 215 255
183 215 255
183 215 255
183 215 255
183 215 255
183 215 255
183 215 255
183 215 255
183 215 255
183 215 255
183 215 255
183 215 255
183 215 255
183 215 255
195 227 255
183 215 255
183 215 255
183 215 255
183 215 255
183 215 255
183 215 255
183 215 255
183 215 255
183 215 255
183 215 255
183 215 255
183 215 255
183 215 255
183 215 255
183 215 255
183 215 255
183 215 255
183 215 255
183 215 255
183 215 255
183 215 255
183 215 255
183 215 255
183 215 255
183 215 255
183 215 255
183 215 255
183 215 255
183 215 255
183 215 255
183 215 255
183 215 255
183 215 255
183 215 255
183 215 255
183 215 255
195 227 255
183 215 255
183 215 255
183 215 255
183 215 255
183 215 255
183 215 255
183 215 255
183 215 255
183 215 255
183 215 255
183 215 255
183 215 255
183 215 255
183 215 255
183 215 255
183 215 255
183 215 255
183 215 255
183 215 255
183 215 255
183 215 255
183 215 255
183 215 255
183 215 255
183 215 255
183 215 255
183 215 255
183 215 255
183 215 255
183 215 255
183 215 255
183 215 255
183 215 255
183 215 255
183 215 255
183 215 255
195 227 255
183 215 255
183 215 255
183 215 255
183 215 255
183 215 255
183 215 255
183 215 255
183 215 255
183 215 255
183 215 255
183 215 255
183 215 255
183 215 255
183 215 255
183 215 255
183 215 255
183 215 255
183 215 255
183 215 255
183 215 255
183 215 255
183 215 255
183 215 255
183 215 255
183 215 255
183 215 255
183 215 255
183 215 255
183 215 255
183 215 255
183 215 255
183 215 255
183 215 255
183 215 255
183 215 255
183 215 255
195 227 255
183 215 255
183 215 255
183 215 255
183 215 255
183 215 255
183 215 255
183 215 255
183 215 255
183 215 255
183 215 255
183 215 255
183 215 255
183 215 255
183 215 255
183 215 255
183 215 255
183 215 255
183 215 255
183 215 255
183 215 255
183 215 255
183 215 255
183 215 255
183 215 255
183 215 255
183 215 255
183 215 255
183 215 255
183 215 255
183 215 255
183 215 255
183 215 255
183 215 255
183 215 255
183 215 255
183 215 255
195 227 255
183 215 255
183 215 255
183 215 255
183 215 255
183 215 255
183 215 255
183 215 255
183 215 255
183 215 255
183 215 255
183 215 255
183 215 255
183 215 255
183 215 255
183 215 255
183 215 255
183 215 255
183 215 255
183 215 255
183 215 255
183 215 255
183 215 255
183 215 255
183 215 255
183 215 255
183 215 255
183 215 255
183 215 255
183 215 255
183 215 255
183 215 255
183 215 255
183 215 255
183 215 255
183 215 255
183 215 255
195 227 255
183 215 255
183 215 255
183 215 255
183 215 255
183 215 255
183 215 255
183 215 255
183 215 255
183 215 255
183 215 255
183 215 255
183 215 255
183 215 255
183 215 255
183 215 255
183 215 255
183 215 255
183 215 255
183 215 255
183 215 255
183 215 255
183 215 255
183 215 255
183 215 255
183 215 255
183 215 255
183 215 255
183 215 255
183 215 255
183 215 255
183 215 255
183 215 255
183 215 255
183 215 255
183 215 255
183 215 255
195 227 255
183 215 255
183 215 255
183 215 255
183 215 255
183 215 255
183 215 255
183 215 255
183 215 255
183 215 255
183 215 255
183 215 255
183 215 255
183 215 255
183 215 255
183 215 255
183 215 255
183 215 255
183 215 255
183 215 255
183 215 255
183 215 255
183 215 255
183 215 255
183 215 255
183 215 255
183 215 255
183 215 255
183 215 255
183 215 255
183 215 255
183 215 255
183 215 255
183 215 255
183 215 255
183 215 255
183 215 255
195 227 255
183 215 255
183 215 255
183 215 255
183 215 255
183 215 255
183 215 255
183 215 255
183 215 255
183 215 255
183 215 255
183 215 255
183 215 255
183 215 255
183 215 255
183 215 255
183 215 255
183 215 255
183 215 255
183 215 255
183 215 255
183 215 255
183 215 255
183 215 255
183 215 255
183 215 255
183 215 255
183 215 255
183 215 255
183 215 255
183 215 255
183 215 255
183 215 255
183 215 255
183 215 255
183 215 255
183 215 255
195 227 255
183 215 255
183 215 255
183 215 255
183 215 255
183 215 255
183 215 255
183 215 255
183 215 255
183 215 255
183 215 255
183 215 255
183 215 255
183 215 255
183 215 255
183 215 255
183 215 255
183 215 255
183 215 255
183 215 255
183 215 255
183 215 255
183 215 255
195 227 255
183 215 255
183 215 255
183 215 255
183 215 255
183 215 255
183 215 255
183 215 255
183 215 255
183 215 255
183 215 255
183 215 255
183 215 255
183 215 255
183 215 255
183 215 255
183 215 255
183 215 255
183 215 255
183 215 255
183 215 255
183 215 255
183 215 255
183 215 255
183 215 255
183 215 255
183 215 255
183 215 255
183 215 255
183 215 255
183 215 255
183 215 255
183 215 255
183 215 255
183 215 255
183 215 255
183 215 255
195 227 255
183 215 255
183 215 255
183 215 255
183 215 255
183 215 255
183 215 255
183 215 255
183 215 255
183 215 255
183 215 255
183 215 255
183 215 255
183 215 255
183 215 255
183 215 255
183 215 255
183 215 255
183 215 255
183 215 255
183 215 255
183 215 255
183 215 255
183 215 255
183 215 255
183 215 255
183 215 255
183 215 255
183 215 255
183 215 255
183 215 255
183 215 255
183 215 255
183 215 255
183 215 255
183 215 255
183 215 255
195 227 255
183 215 255
183 215 255
183 215 255
183 215 255
183 215 255
183 215 255
183 215 255
183 215 255
183 215 255
183 215 255
183 215 255
183 215 255
183 215 255
183 215 255
183 215 255
183 215 255
183 215 255
183 215 255
183 215 255
183 215 255
183 215 255
183 215 255
183 215 255
183 215 255
183 215 255
183 215 255
183 215 255
183 215 255
183 215 255
183 215 255
183 215 255
183 215 255
183 215 255
183 215 255
183 215 255
183 215 255
195 227 255
183 215 255
183 215 255
183 215 255
183 215 255
183 215 255
183 215 255
183 215 255
183 215 255
183 215 255
183 215 255
183 215 255
183 215 255
183 215 255
183 215 255
183 215 255
183 215 255
183 215 255
183 215 255
183 215 255
183 215 255
183 215 255
183 215 255
183 215 255
183 215 255
183 215 255
183 215 255
183 215 255
183 215 255
183 215 255
183 215 255
183 215 255
183 215 255
183 215 255
183 215 255
183 215 255
183 215 255
195 227 255
183 215 255
183 215 255
183 215 255
183 215 255
183 215 255
183 215 255
183 215 255
183 215 255
183 215 255
183 215 255
183 215 255
183 215 255
183 215 255
183 215 255
183 215 255
183 215 255
183 215 255
183 215 255
183 215 255
183 215 255
183 215 255
183 215 255
183 215 255
183 215 255
183 215 255
183 215 255
183 215 255
183 215 255
183 215 255
183 215 255
183 215 255
183 215 255
183 215 255
183 215 255
183 215 255
183 215 255
195 227 255
183 215 255
183 215 255
183 215 255
183 215 255
183 215 255
183 215 255
183 215 255
183 215 255
183 215 255
183 215 255
183 215 255
183 215 255
183 215 255
183 215 255
183 215 255
183 215 255
183 215 255
183 215 255
183 215 255
183 215 255
183 215 255
183 215 255
183 215 255
183 215 255
183 215 255
183 215 255
183 215 255
183 215 255
183 215 255
183 215 255
183 215 255
183 215 255
183 215 255
183 215 255
183 215 255
183 215 255
195 227 255
183 215 255
183 215 255
183 215 255
183 215 255
183 215 255
183 215 255
183 215 255
183 215 255
183 215 255
183 215 255
183 215 255
183 215 255
183 215 255
183 215 255
183 215 255
183 215 255
183 215 255
183 215 255
183 215 255
183 215 255
183 215 255
183 215 255
183 215 255
183 215 255
183 215 255
183 215 255
183 215 255
183 215 255
183 215 255
183 215 255
183 215 255
183 215 255
183 215 255
183 215 255
183 215 255
183 215 255
195 227 255
183 215 255
183 215 255
183 215 255
183 215 255
183 215 255
183 215 255
183 215 255
183 215 255
183 215 255
183 215 255
183 215 255
183 215 255
183 215 255
183 215 255
183 215 255
183 215 255
183 215 255
183 215 255
183 215 255
183 215 255
183 215 255
183 215 255
183 215 255
183 215 255
183 215 255
183 215 255
183 215 255
183 215 255
183 215 255
183 215 255
183 215 255
183 215 255
183 215 255
183 215 255
183 215 255
183 215 255
195 227 255
183 215 255
183 215 255
183 215 255
183 215 255
183 215 255
183 215 255
183 215 255
183 215 255
183 215 255
183 215 255
183 215 255
183 215 255
183 215 255
183 215 255
183 215 255
183 215 255
183 215 255
183 215 255
183 215 255
183 215 255
183 215 255
183 215 255
195 227 255
183 215 255
183 215 255
183 215 255
183 215 255
183 215 255
183 215 255
183 215 255
183 215 255
183 215 255
183 215 255
183 215 255
183 215 255
183 215 255
183 215 255
183 215 255
183 215 255
183 215 255
183 215 255
183 215 255
183 215 255
183 215 255
183 215 255
183 215 255
183 215 255
183 215 255
183 215 255
183 215 255
183 215 255
183 215 255
183 215 255
183 215 255
183 215 255
183 215 255
183 215 255
183 215 255
183 215 255
195 227 255
183 215 255
183 215 255
183 215 255
183 215 255
183 215 255
183 215 255
183 215 255
183 215 255
183 215 255
183 215 255
183 215 255
183 215 255
183 215 255
183 215 255
183 215 255
183 215 255
183 215 255
183 215 255
183 215 255
183 215 255
183 215 255
183 215 255
183 215 255
183 215 255
183 215 255
183 215 255
183 215 255
183 215 255
183 215 255
183 215 255
183 215 255
183 215 255
183 215 255
183 215 255
183 215 255
183 215 255
195 227 255
183 215 255
183 215 255
183 215 255
183 215 255
183 215 255
183 215 255
183 215 255
183 215 255
183 215 255
183 215 255
183 215 255
183 215 255
183 215 255
183 215 255
183 215 255
183 215 255
183 215 255
183 215 255
183 215 255
183 215 255
183 215 255
183 215 255
183 215 255
183 215 255
183 215 255
183 215 255
183 215 255
183 215 255
183 215 255
183 215 255
183 215 255
183 215 255
183 215 255
183 215 255
183 215 255
183 215 255
195 227 255
183 215 255
183 215 255
183 215 255
183 215 255
183 215 255
183 215 255
183 215 255
183 215 255
183 215 255
183 215 255
183 215 255
183 215 255
183 215 255
183 215 255
183 215 255
183 215 255
183 215 255
183 215 255
183 215 255
183 215 255
183 215 255
183 215 255
183 215 255
183 215 255
183 215 255
183 215 255
183 215 255
183 215 255
183 215 255
183 215 255
183 215 255
183 215 255
183 215 255
183 215 255
183 215 255
183 215 255
195 227 255
183 215 255
183 215 255
183 215 255
183 215 255
183 215 255
183 215 255
183 215 255
183 215 255
183 215 255
183 215 255
183 215 255
183 215 255
183 215 255
183 215 255
183 215 255
183 215 255
183 215 255
183 215 255
183 215 255
183 215 255
183 215 255
183 215 255
183 215 255
183 215 255
183 215 255
183 215 255
183 215 255
183 215 255
183 215 255
183 215 255
183 215 255
183 215 255
183 215 255
183 215 255
183 215 255
183 215 255
195 227 255
183 215 255
183 215 255
183 215 255
183 215 255
183 215 255
183 215 255
183 215 255
183 215 255
183 215 255
183 215 255
183 215 255
183 215 255
183 215 255
183 215 255
183 215 255
183 215 255
183 215 255
183 215 255
183 215 255
183 215 255
183 215 255
183 215 255
183 215 255
183 215 255
183 215 255
183 215 255
183 215 255
183 215 255
183 215 255
183 215 255
183 215 255
183 215 255
183 215 255
183 215 255
183 215 255
183 215 255
195 227 255
183 215 255
183 215 255
183 215 255
183 215 255
183 215 255
183 215 255
183 215 255
183 215 255
183 215 255
183 215 255
183 215 255
183 215 255
183 215 255
183 215 255
183 215 255
183 215 255
183 215 255
183 215 255
183 215 255
183 215 255
183 215 255
183 215 255
183 215 255
183 215 255
183 215 255
183 215 255
183 215 255
183 215 255
183 215 255
183 215 255
183 215 255
183 215 255
183 215 255
183 215 255
183 215 255
183 215 255
195 227 255
183 215 255
183 215 255
183 215 255
183 215 255
183 215 255
183 215 255
183 215 255
183 215 255
183 215 255
183 215 255
183 215 255
183 215 255
183 215 255
183 215 255
183 215 255
183 215 255
183 215 255
183 215 255
183 215 255
183 215 255
183 215 255
183 215 255
183 215 255
183 215 255
183 215 255
183 215 255
183 215 255
183 215 255
183 215 255
183 215 255
183 215 255
183 215 255
183 215 255
183 215 255
183 215 255
183 215 255
195 227 255
183 215 255
183 215 255
183 215 255
183 215 255
183 215 255
183 215 255
183 215 255
183 215 255
183 215 255
183 215 255
183 215 255
183 215 255
183 215 255
183 215 255
183 215 255
183 215 255
183 215 255
183 215 255
183 215 255
183 215 255
183 215 255
183 215 255
195 227 255
183 215 255
183 215 255
183 215 255
183 215 255
183 215 255
183 215 255
183 215 255
183 215 255
183 215 255
183 215 255
183 215 255
183 215 255
183 215 255
183 215 255
183 215 255
183 215 255
183 215 255
183 215 255
183 215 255
183 215 255
183 215 255
183 215 255
183 215 255
183 215 255
183 215 255
183 215 255
183 215 255
183 215 255
183 215 255
183 215 255
183 215 255
183 215 255
183 215 255
183 215 255
183 215 255
183 215 255
195 227 255
183 215 255
183 215 255
183 215 255
183 215 255
183 215 255
183 215 255
183 215 255
183 215 255
183 215 255
183 215 255
183 215 255
183 215 255
183 215 255
183 215 255
183 215 255
183 215 255
183 215 255
183 215 255
183 215 255
183 215 255
183 215 255
183 215 255
183 215 255
183 215 255
183 215 255
183 215 255
183 215 255
183 215 255
183 215 255
183 215 255
183 215 255
183 215 255
183 215 255
183 215 255
183 215 255
183 215 255
195 227 255
183 215 255
183 215 255
183 215 255
183 215 255
183 215 255
183 215 255
183 215 255
183 215 255
183 215 255
183 215 255
183 215 255
183 215 255
183 215 255
183 215 255
183 215 255
183 215 255
183 215 255
183 215 255
183 215 255
183 215 255
183 215 255
183 215 255
183 215 255
183 215 255
183 215 255
183 215 255
183 215 255
183 215 255
183 215 255
183 215 255
183 215 255
183 215 255
183 215 255
183 215 255
183 215 255
183 215 255
195 227 255
183 215 255
183 215 255
183 215 255
183 215 255
183 215 255
183 215 255
183 215 255
183 215 255
183 215 255
183 215 255
183 215 255
183 215 255
183 215 255
183 215 255
183 215 255
183 215 255
183 215 255
183 215 255
183 215 255
183 215 255
183 215 255
183 215 255
183 215 255
183 215 255
183 215 255
183 215 255
183 215 255
183 215 255
183 215 255
183 215 255
183 215 255
183 215 255
183 215 255
183 215 255
183 215 255
183 215 255
195 227 255
183 215 255
183 215 255
183 215 255
183 215 255
183 215 255
183 215 255
183 215 255
183 215 255
183 215 255
183 215 255
183 215 255
183 215 255
183 215 255
183 215 255
183 215 255
183 215 255
183 215 255
183 215 255
183 215 255
183 215 255
183 215 255
183 215 255
183 215 255
183 215 255
183 215 255
183 215 255
183 215 255
183 215 255
183 215 255
183 215 255
183 215 255
183 215 255
183 215 255
183 215 255
183 215 255
183 215 255
195 227 255
183 215 255
183 215 255
183 215 255
183 215 255
183 215 255
183 215 255
183 215 255
183 215 255
183 215 255
183 215 255
183 215 255
183 215 255
183 215 255
183 215 255
183 215 255
183 215 255
183 215 255
183 215 255
183 215 255
183 215 255
183 215 255
183 215 255
183 215 255
183 215 255
183 215 255
183 215 255
183 215 255
183 215 255
183 215 255
183 215 255
183 215 255
183 215 255
183 215 255
183 215 255
183 215 255
183 215 255
195 227 255
183 215 255
183 215 255
183 215 255
183 215 255
183 215 255
183 215 255
183 215 255
183 215 255
183 215 255
183 215 255
183 215 255
183 215 255
183 215 255
183 215 255
183 215 255
183 215 255
183 215 255
183 215 255
183 215 255
183 215 255
183 215 255
183 215 255
183 215 255
183 215 255
183 215 255
183 215 255
183 215 255
183 215 255
183 215 255
183 215 255
183 215 255
183 215 255
183 215 255
183 215 255
183 215 255
183 215 255
195 227 255
183 215 255
183 215 255
183 215 255
183 215 255
183 215 255
183 215 255
183 215 255
183 215 255
183 215 255
183 215 255
183 215 255
183 215 255
183 215 255
183 215 255
183 215 255
183 215 255
183 215 255
183 215 255
183 215 255
183 215 255
183 215 255
183 215 255
183 215 255
183 215 255
183 215 255
183 215 255
183 215 255
183 215 255
183 215 255
183 215 255
183 215 255
183 215 255
183 215 255
183 215 255
183 215 255
183 215 255
195 227 255
183 215 255
183 215 255
183 215 255
183 215 255
183 215 255
183 215 255
183 215 255
183 215 255
183 215 255
183 215 255
183 215 255
183 215 255
183 215 255
183 215 255
183 215 255
183 215 255
183 215 255
183 215 255
183 215 255
183 215 255
183 215 255
183 215 255
195 227 255
183 215 255
183 215 255
183 215 255
183 215 255
183 215 255
183 215 255
183 215 255
183 215 255
183 215 255
183 215 255
183 215 255
183 215 255
183 215 255
183 215 255
183 215 255
183 215 255
183 215 255
183 215 255
183 215 255
183 215 255
183 215 255
183 215 255
183 215 255
183 215 255
183 215 255
183 215 255
183 215 255
183 215 255
183 215 255
183 215 255
183 215 255
183 215 255
183 215 255
183 215 255
183 215 255
183 215 255
195 227 255
183 215 255
183 215 255
183 215 255
183 215 255
183 215 255
183 215 255
183 215 255
183 215 255
183 215 255
183 215 255
183 215 255
183 215 255
183 215 255
183 215 255
183 215 255
183 215 255
183 215 255
183 215 255
183 215 255
183 215 255
183 215 255
183 215 255
183 215 255
183 215 255
183 215 255
183 215 255
183 215 255
183 215 255
183 215 255
183 215 255
183 215 255
183 215 255
183 215 255
183 215 255
183 215 255
183 215 255
195 227 255
183 215 255
183 215 255
183 215 255
183 215 255
183 215 255
183 215 255
183 215 255
183 215 255
183 215 255
183 215 255
183 215 255
183 215 255
183 215 255
183 215 255
183 215 255
183 215 255
183 215 255
183 215 255
183 215 255
183 215 255
183 215 255
183 215 255
183 215 255
183 215 255
183 215 255
183 215 255
183 215 255
183 215 255
183 215 255
183 215 255
183 215 255
183 215 255
183 215 255
183 215 255
183 215 255
183 215 255
195 227 255
183 215 255
183 215 255
183 215 255
183 215 255
183 215 255
183 215 255
183 215 255
183 215 255
183 215 255
183 215 255
183 215 255
183 215 255
183 215 255
183 215 255
183 215 255
183 215 255
183 215 255
183 215 255
183 215 255
183 215 255
183 215 255
183 215 255
183 215 255
183 215 255
183 215 255
183 215 255
183 215 255
183 215 255
183 215 255
183 215 255
183 215 255
183 215 255
183 215 255
183 215 255
183 215 255
183 215 255
195 227 255
183 215 255
183 215 255
183 215 255
183 215 255
183 215 255
183 215 255
183 215 255
183 215 255
183 215 255
183 215 255
183 215 255
183 215 255
183 215 255
183 215 255
183 215 255
183 215 255
183 215 255
183 215 255
183 215 255
183 215 255
183 215 255
183 215 255
183 215 255
183 215 255
183 215 255
183 215 255
183 215 255
183 215 255
183 215 255
183 215 255
183 215 255
183 215 255
183 215 255
183 215 255
183 215 255
183 215 255
195 227 255
183 215 255
183 215 255
183 215 255
183 215 255
183 215 255
183 215 255
183 215 255
183 215 255
183 215 255
183 215 255
183 215 255
183 215 255
183 215 255
183 215 255
183 215 255
183 215 255
183 215 255
183 215 255
183 215 255
183 215 255
183 215 255
183 215 255
183 215 255
183 215 255
183 215 255
183 215 255
183 215 255
183 215 255
183 215 255
183 215 255
183 215 255
183 215 255
183 215 255
183 215 255
183 215 255
183 215 255
195 227 255
183 215 255
183 215 255
183 215 255
183 215 255
183 215 255
183 215 255
183 215 255
183 215 255
183 215 255
183 215 255
183 215 255
183 215 255
183 215 255
183 215 255
183 215 255
183 215 255
183 215 255
183 215 255
183 215 255
183 215 255
183 215 255
183 215 255
183 215 255
183 215 255
183 215 255
183 215 255
183 215 255
183 215 255
183 215 255
183 215 255
183 215 255
183 215 255
183 215 255
183 215 255
183 215 255
183 215 255
195 227 255
183 215 255
183 215 255
183 215 255
183 215 255
183 215 255
183 215 255
183 215 255
183 215 255
183 215 255
183 215 255
183 215 255
183 215 255
183 215 255
183 215 255
183 215 255
183 215 255
183 215 255
183 215 255
183 215 255
183 215 255
183 215 255
183 215 255
183 215 255
183 215 255
183 215 255
183 215 255
183 215 255
183 215 255
183 215 255
183 215 255
183 215 255
183 215 255
183 215 255
183 215 255
183 215 255
183 215 255
195 227 255
183 215 255
183 215 255
183 215 255
183 215 255
183 215 255
183 215 255
183 215 255
183 215 255
183 215 255
183 215 255
183 215 255
183 215 255
183 215 255
183 215 255
183 215 255
183 215 255
183 215 255
183 215 255
183 215 255
183 215 255
183 215 255
183 215 255
195 227 255
183 215 255
183 215 255
183 215 255
183 215 255
183 215 255
183 215 255
183 215 255
183 215 255
183 215 255
183 215 255
183 215 255
183 215 255
183 215 255
183 215 255
183 215 255
183 215 255
183 215 255
183 215 255
183 215 255
183 215 255
183 215 255
183 215 255
183 215 255
183 215 255
183 215 255
183 215 255
183 215 255
183 215 255
183 215 255
183 215 255
183 215 255
183 215 255
183 215 255
183 215 255
183 215 255
183 215 255
195 227 255
183 215 255
183 215 255
183 215 255
183 215 255
183 215 255
183 215 255
183 215 255
183 215 255
183 215 255
183 215 255
183 215 255
183 215 255
183 215 255
183 215 255
183 215 255
183 215 255
183 215 255
183 215 255
183 215 255
183 215 255
183 215 255
183 215 255
183 215 255
183 215 255
183 215 255
183 215 255
183 215 255
183 215 255
183 215 255
183 215 255
183 215 255
183 215 255
183 215 255
183 215 255
183 215 255
183 215 255
195 227 255
183 215 255
183 215 255
183 215 255
183 215 255
183 215 255
183 215 255
183 215 255
183 215 255
183 215 255
183 215 255
183 215 255
183 215 255
183 215 255
183 215 255
183 215 255
183 215 255
183 215 255
183 215 255
183 215 255
183 215 255
183 215 255
183 215 255
183 215 255
183 215 255
183 215 255
183 215 255
183 215 255
183 215 255
183 215 255
183 215 255
183 215 255
183 215 255
183 215 255
183 215 255
183 215 255
183 215 255
195 227 255
183 215 255
183 215 255
183 215 255
183 215 255
183 215 255
183 215 255
183 215 255
183 215 255
183 215 255
183 215 255
183 215 255
183 215 255
183 215 255
183 215 255
183 215 255
183 215 255
183 215 255
183 215 255
183 215 255
183 215 255
183 215 255
183 215 255
183 215 255
183 215 255
183 215 255
183 215 255
183 215 255
183 215 255
183 215 255
183 215 255
183 215 255
183 215 255
183 215 255
183 215 255
183 215 255
183 215 255
195 227 255
183 215 255
183 215 255
183 215 255
183 215 255
183 215 255
183 215 255
183 215 255
183 215 255
183 215 255
183 215 255
183 215 255
183 215 255
183 215 255
183 215 255
183 215 255
183 215 255
183 215 255
183 215 255
183 215 255
183 215 255
183 215 255
183 215 255
183 215 255
183 215 255
183 215 255
183 215 255
183 215 255
183 215 255
183 215 255
183 215 255
183 215 255
183 215 255
183 215 255
183 215 255
183 215 255
183 215 255
195 227 255
183 215 255
183 215 255
183 215 255
183 215 255
183 215 255
183 215 255
183 215 255
183 215 255
183 215 255
183 215 255
183 215 255
183 215 255
183 215 255
183 215 255
183 215 255
183 215 255
183 215 255
183 215 255
183 215 255
183 215 255
183 215 255
183 215 255
183 215 255
183 215 255
183 215 255
183 215 255
183 215 255
183 215 255
183 215 255
183 215 255
183 215 255
183 215 255
183 215 255
183 215 255
183 215 255
183 215 255
195 227 255
183 215 255
183 215 255
183 215 255
183 215 255
183 215 255
183 215 255
183 215 255
183 215 255
183 215 255
183 215 255
183 215 255
183 215 255
183 215 255
183 215 255
183 215 255
183 215 255
183 215 255
183 215 255
183 215 255
183 215 255
183 215 255
183 215 255
183 215 255
183 215 255
183 215 255
183 215 255
183 215 255
183 215 255
183 215 255
183 215 255
183 215 255
183 215 255
183 215 255
183 215 255
183 215 255
183 215 255
195 227 255
183 215 255
183 215 255
183 215 255
183 215 255
183 215 255
183 215 255
183 215 255
183 215 255
183 215 255
183 215 255
183 215 255
183 215 255
183 215 255
183 215 255
183 215 255
183 215 255
183 215 255
183 215 255
183 215 255
183 215 255
183 215 255
183 215 255
183 215 255
183 215 255
183 215 255
183 215 255
183 215 255
183 215 255
183 215 255
183 215 255
183 215 255
183 215 255
183 215 255
183 215 255
183 215 255
183 215 255
195 227 255
183 215 255
183 215 255
183 215 255
183 215 255
183 215 255
183 215 255
183 215 255
183 215 255
183 215 255
183 215 255
183 215 255
183 215 255
183 215 255
183 215 255
183 215 255
183 215 255
183 215 255
183 215 255
183 215 255
183 215 255
183 215 255
183 215 255
195 227 255
183 215 255
183 215 255
183 215 255
183 215 255
183 215 255
183 215 255
183 215 255
183 215 255
183 215 255
183 215 255
183 215 255
183 215 255
183 215 255
183 215 255
183 215 255
183 215 255
183 215 255
183 215 255
183 215 255
183 215 255
183 215 255
183 215 255
183 215 255
183 215 255
183 215 255
183 215 255
183 215 255
183 215 255
183 215 255
183 215 255
183 215 255
183 215 255
183 215 255
183 215 255
183 215 255
183 215 255
195 227 255
183 215 255
183 215 255
183 215 255
183 215 255
183 215 255
183 215 255
183 215 255
183 215 255
183 215 255
183 215 255
183 215 255
183 215 255
183 215 255
183 215 255
183 215 255
183 215 255
183 215 255
183 215 255
183 215 255
183 215 255
183 215 255
183 215 255
183 215 255
183 215 255
183 215 255
183 215 255
183 215 255
183 215 255
183 215 255
183 215 255
183 215 255
183 215 255
183 215 255
183 215 255
183 215 255
183 215 255
195 227 255
183 215 255
183 215 255
183 215 255
183 215 255
183 215 255
183 215 255
183 215 255
183 215 255
183 215 255
183 215 255
183 215 255
183 215 255
183 215 255
183 215 255
183 215 255
183 215 255
183 215 255
183 215 255
183 215 255
183 215 255
183 215 255
183 215 255
183 215 255
183 215 255
183 215 255
183 215 255
183 215 255
183 215 255
183 215 255
183 215 255
183 215 255
183 215 255
183 215 255
183 215 255
183 215 255
183 215 255
195 227 255
183 215 255
183 215 255
183 215 255
183 215 255
183 215 255
183 215 255
183 215 255
183 215 255
183 215 255
183 215 255
183 215 255
183 215 255
183 215 255
183 215 255
183 215 255
183 215 255
183 215 255
183 215 255
183 215 255
183 215 255
183 215 255
183 215 255
183 215 255
183 215 255
183 215 255
183 215 255
183 215 255
183 215 255
183 215 255
183 215 255
183 215 255
183 215 255
183 215 255
183 215 255
183 215 255
183 215 255
195 227 255
183 215 255
183 215 255
183 215 255
183 215 255
183 215 255
183 215 255
183 215 255
183 215 255
183 215 255
183 215 255
183 215 255
183 215 255
183 215 255
183 215 255
183 215 255
183 215 255
183 215 255
183 215 255
183 215 255
183 215 255
183 215 255
183 215 255
183 215 255
183 215 255
183 215 255
183 215 255
183 215 255
183 215 255
183 215 255
183 215 255
183 215 255
183 215 255
183 215 255
183 215 255
183 215 255
183 215 255
195 227 255
183 215 255
183 215 255
183 215 255
183 215 255
183 215 255
183 215 255
183 215 255
183 215 255
183 215 255
183 215 255
183 215 255
183 215 255
183 215 255
183 215 255
183 215 255
183 215 255
183 215 255
183 215 255
183 215 255
183 215 255
183 215 255
183 215 255
183 215 255
183 215 255
183 215 255
183 215 255
183 215 255
183 215 255
183 215 255
183 215 255
183 215 255
183 215 255
183 215 255
183 215 255
183 215 255
183 215 255
195 227 255
183 215 255
183 215 255
183 215 255
183 215 255
183 215 255
183 215 255
183 215 255
183 215 255
183 215 255
183 215 255
183 215 255
183 215 255
183 215 255
183 215 255
183 215 255
183 215 255
183 215 255
183 215 255
183 215 255
183 215 255
183 215 255
183 215 255
183 215 255
183 215 255
183 215 255
183 215 255
183 215 255
183 215 255
183 215 255
183 215 255
183 215 255
183 215 255
183 215 255
183 215 255
183 215 255
183 215 255
195 227 255
183 215 255
183 215 255
183 215 255
183 215 255
183 215 255
183 215 255
183 215 255
183 215 255
183 215 255
183 215 255
183 215 255
183 215 255
183 215 255
183 215 255
183 215 255
183 215 255
183 215 255
183 215 255
183 215 255
183 215 255
183 215 255
183 215 255
183 215 255
183 215 255
183 215 255
183 215 255
183 215 255
183 215 255
183 215 255
183 215 255
183 215 255
183 215 255
183 215 255
183 215 255
183 215 255
183 215 255
195 227 255
183 215 255
183 215 255
183 215 255
183 215 255
183 215 255
183 215 255
183 215 255
183 215 255
183 215 255
183 215 255
183 215 255
183 215 255
183 215 255
183 215 255
183 215 255
183 215 255
183 215 255
183 215 255
183 215 255
183 215 255
183 215 255
183 215 255
195 227 255
183 215 255
183 215 255
183 215 255
183 215 255
183 215 255
183 215 255
183 215 255
183 215 255
183 215 255
183 215 255
183 215 255
183 215 255
183 215 255
183 215 255
183 215 255
183 215 255
183 215 255
183 215 255
183 215 255
183 215 255
183 215 255
183 215 255
183 215 255
183 215 255
183 215 255
183 215 255
183 215 255
183 215 255
183 215 255
183 215 255
183 215 255
183 215 255
183 215 255
183 215 255
183 215 255
183 215 255
195 227 255
183 215 255
183 215 255
183 215 255
183 215 255
183 215 255
183 215 255
183 215 255
183 215 255
183 215 255
183 215 255
183 215 255
183 215 255
183 215 255
183 215 255
183 215 255
183 215 255
183 215 255
183 215 255
183 215 255
183 215 255
183 215 255
183 215 255
183 215 255
183 215 255
183 215 255
183 215 255
183 215 255
183 215 255
183 215 255
183 215 255
183 215 255
183 215 255
183 215 255
183 215 255
183 215 255
183 215 255
195 227 255
183 215 255
183 215 255
183 215 255
183 215 255
183 215 255
183 215 255
183 215 255
183 215 255
183 215 255
183 215 255
183 215 255
183 215 255
183 215 255
183 215 255
183 215 255
183 215 255
183 215 255
183 215 255
183 215 255
183 215 255
183 215 255
183 215 255
183 215 255
183 215 255
183 215 255
183 215 255
183 215 255
183 215 255
183 215 255
183 215 255
183 215 255
183 215 255
183 215 255
183 215 255
183 215 255
183 215 255
195 227 255
183 215 255
183 215 255
183 215 255
183 215 255
183 215 255
183 215 255
183 215 255
183 215 255
183 215 255
183 215 255
183 215 255
183 215 255
183 215 255
183 215 255
183 215 255
183 215 255
183 215 255
183 215 255
183 215 255
183 215 255
183 215 255
183 215 255
183 215 255
183 215 255
183 215 255
183 215 255
183 215 255
183 215 255
183 215 255
183 215 255
183 215 255
183 215 255
183 215 255
183 215 255
183 215 255
183 215 255
195 227 255
183 215 255
183 215 255
183 215 255
183 215 255
183 215 255
183 215 255
183 215 255
183 215 255
183 215 255
183 215 255
183 215 255
183 215 255
183 215 255
183 215 255
183 215 255
183 215 255
183 215 255
183 215 255
183 215 255
183 215 255
183 215 255
183 215 255
183 215 255
183 215 255
183 215 255
183 215 255
183 215 255
183 215 255
183 215 255
183 215 255
183 215 255
183 215 255
183 215 255
183 215 255
183 215 255
183 215 255
195 227 255
183 215 255
183 215 255
183 215 255
183 215 255
183 215 255
183 215 255
183 215 255
183 215 255
183 215 255
183 215 255
183 215 255
183 215 255
183 215 255
183 215 255
183 215 255
183 215 255
183 215 255
183 215 255
183 215 255
183 215 255
183 215 255
183 215 255
183 215 255
183 215 255
183 215 255
183 215 255
183 215 255
183 215 255
183 215 255
183 215 255
183 215 255
183 215 255
183 215 255
183 215 255
183 215 255
183 215 255
195 227 255
183 215 255
183 215 255
183 215 255
183 215 255
183 215 255
183 215 255
183 215 255
183 215 255
183 215 255
183 215 255
183 215 255
183 215 255
183 215 255
183 215 255
183 215 255
183 215 255
183 215 255
183 215 255
183 215 255
183 215 255
183 215 255
183 215 255
183 215 255
183 215 255
183 215 255
183 215 255
183 215 255
183 215 255
183 215 255
183 215 255
183 215 255
183 215 255
183 215 255
183 215 255
183 215 255
183 215 255
195 227 255
183 215 255
183 215 255
183 215 255
183 215 255
183 215 255
183 215 255
183 215 255
183 215 255
183 215 255
183 215 255
183 215 255
183 215 255
183 215 255
183 215 255
183 215 255
183 215 255
183 215 255
183 215 255
183 215 255
183 215 255
183 215 255
183 215 255
183 215 255
183 215 255
183 215 255
183 215 255
183 215 255
183 215 255
183 215 255
183 215 255
183 215 255
183 215 255
183 215 255
183 215 255
183 215 255
183 215 255
195 227 255
183 215 255
183 215 255
183 215 255
183 215 255
183 215 255
183 215 255
183 215 255
183 215 255
183 215 255
183 215 255
183 215 255
183 215 255
183 215 255
183 215 255
183 215 255
183 215 255
183 215 255
183 215 255
183 215 255
183 215 255
183 215 255
183 215 255
195 227 255
183 215 255
183 215 255
183 215 255
183 215 255
183 215 255
183 215 255
183 215 255
183 215 255
183 215 255
183 215 255
183 215 255
183 215 255
183 215 255
183 215 255
183 215 255
183 215 255
183 215 255
183 215 255
183 215 255
183 215 255
183 215 255
183 215 255
183 215 255
183 215 255
183 215 255
183 215 255
183 215 255
183 215 255
183 215 255
183 215 255
183 215 255
183 215 255
183 215 255
183 215 255
183 215 255
183 215 255
195 227 255
183 215 255
183 215 255
183 215 255
183 215 255
183 215 255
183 215 255
183 215 255
183 215 255
183 215 255
183 215 255
183 215 255
183 215 255
183 215 255
183 215 255
183 215 255
183 215 255
183 215 255
183 215 255
183 215 255
183 215 255
183 215 255
183 215 255
183 215 255
183 215 255
183 215 255
183 215 255
183 215 255
183 215 255
183 215 255
183 215 255
183 215 255
183 215 255
183 215 255
183 215 255
183 215 255
183 215 255
195 227 255
183 215 255
183 215 255
183 215 255
183 215 255
183 215 255
183 215 255
183 215 255
183 215 255
183 215 255
183 215 255
183 215 255
183 215 255
183 215 255
183 215 255
183 215 255
183 215 255
183 215 255
183 215 255
183 215 255
183 215 255
183 215 255
183 215 255
183 215 255
183 215 255
183 215 255
183 215 255
183 215 255
183 215 255
183 215 255
183 215 255
183 215 255
183 215 255
183 215 255
183 215 255
183 215 255
183 215 255
195 227 255
183 215 255
183 215 255
183 215 255
183 215 255
183 215 255
183 215 255
183 215 255
183 215 255
183 215 255
183 215 255
183 215 255
183 215 255
183 215 255
183 215 255
183 215 255
183 215 255
183 215 255
183 215 255
183 215 255
183 215 255
183 215 255
183 215 255
183 215 255
183 215 255
183 215 255
183 215 255
183 215 255
183 215 255
183 215 255
183 215 255
183 215 255
183 215 255
183 215 255
183 215 255
183 215 255
183 215 255
195 227 255
183 215 255
183 215 255
183 215 255
183 215 255
183 215 255
183 215 255
183 215 255
183 215 255
183 215 255
183 215 255
183 215 255
183 215 255
183 215 255
183 215 255
183 215 255
183 215 255
183 215 255
183 215 255
183 215 255
183 215 255
183 215 255
183 215 255
183 215 255
183 215 255
183 215 255
183 215 255
183 215 255
183 215 255
183 215 255
183 215 255
183 215 255
183 215 255
183 215 255
183 215 255
183 215 255
183 215 255
195 227 255
183 215 255
183 215 255
183 215 255
183 215 255
183 215 255
183 215 255
183 215 255
183 215 255
183 215 255
183 215 255
183 215 255
183 215 255
183 215 255
183 215 255
183 215 255
183 215 255
183 215 255
183 215 255
183 215 255
183 215 255
183 215 255
183 215 255
183 215 255
183 215 255
183 215 255
183 215 255
183 215 255
183 215 255
183 215 255
183 215 255
183 215 255
183 215 255
183 215 255
183 215 255
183 215 255
183 215 255
195 227 255
183 215 255
183 215 255
183 215 255
183 215 255
183 215 255
183 215 255
183 215 255
183 215 255
183 215 255
183 215 255
183 215 255
183 215 255
183 215 255
183 215 255
183 215 255
183 215 255
183 215 255
183 215 255
183 215 255
183 215 255
183 215 255
183 215 255
183 215 255
183 215 255
183 215 255
183 215 255
183 215 255
183 215 255
183 215 255
183 215 255
183 215 255
183 215 255
183 215 255
183 215 255
183 215 255
183 215 255
195 227 255
183 215 255
183 215 255
183 215 255
183 215 255
183 215 255
183 215 255
183 215 255
183 215 255
183 215 255
183 215 255
183 215 255
183 215 255
183 215 255
183 215 255
183 215 255
183 215 255
183 215 255
183 215 255
183 215 255
183 215 255
183 215 255
183 215 255
183 215 255
183 215 255
183 215 255
183 215 255
183 215 255
183 215 255
183 215 255
183 215 255
183 215 255
183 215 255
183 215 255
183 215 255
183 215 255
183 215 255
195 227 255
183 215 255
183 215 255
183 215 255
183 215 255
183 215 255
183 215 255
183 215 255
183 215 255
183 215 255
183 215 255
183 215 255
183 215 255
183 215 255
183 215 255
183 215 255
183 215 255
183 215 255
183 215 255
183 215 255
183 215 255
183 215 255
183 215 255
195 227 255
183 215 255
183 215 255
183 215 255
183 215 255
183 215 255
183 215 255
183 215 255
183 215 255
183 215 255
183 215 255
183 215 255
183 215 255
183 215 255
183 215 255
183 215 255
183 215 255
183 215 255
183 215 255
183 215 255
183 215 255
183 215 255
183 215 255
183 215 255
183 215 255
183 215 255
183 215 255
183 215 255
183 215 255
183 215 255
183 215 255
183 215 255
183 215 255
183 215 255
183 215 255
183 215 255
183 215 255
195 227 255
183 215 255
183 215 255
183 215 255
183 215 255
183 215 255
183 215 255
183 215 255
183 215 255
183 215 255
183 215 255
183 215 255
183 215 255
183 215 255
183 215 255
183 215 255
183 215 255
183 215 255
183 215 255
183 215 255
183 215 255
183 215 255
183 215 255
183 215 255
183 215 255
183 215 255
183 215 255
183 215 255
183 215 255
183 215 255
183 215 255
183 215 255
183 215 255
183 215 255
183 215 255
183 215 255
183 215 255
195 227 255
183 215 255
183 215 255
183 215 255
183 215 255
183 215 255
183 215 255
183 215 255
183 215 255
183 215 255
183 215 255
183 215 255
183 215 255
183 215 255
183 215 255
183 215 255
183 215 255
183 215 255
183 215 255
183 215 255
183 215 255
183 215 255
183 215 255
183 215 255
183 215 255
183 215 255
183 215 255
183 215 255
183 215 255
183 215 255
183 215 255
183 215 255
183 215 255
183 215 255
183 215 255
183 215 255
183 215 255
195 227 255
183 215 255
183 215 255
183 215 255
183 215 255
183 215 255
183 215 255
183 215 255
183 215 255
183 215 255
183 215 255
183 215 255
183 215 255
183 215 255
183 215 255
183 215 255
183 215 255
183 215 255
183 215 255
183 215 255
183 215 255
183 215 255
183 215 255
183 215 255
183 215 255
183 215 255
183 215 255
183 215 255
183 215 255
183 215 255
183 215 255
183 215 255
183 215 255
183 215 255
183 215 255
183 215 255
183 215 255
195 227 255
183 215 255
183 215 255
183 215 255
183 215 255
183 215 255
183 215 255
183 215 255
183 215 255
183 215 255
183 215 255
183 215 255
183 215 255
183 215 255
183 215 255
183 215 255
183 215 255
183 215 255
183 215 255
183 215 255
183 215 255
183 215 255
183 215 255
183 215 255
183 215 255
183 215 255
183 215 255
183 215 255
183 215 255
183 215 255
183 215 255
183 215 255
183 215 255
183 215 255
183 215 255
183 215 255
183 215 255
195 227 255
183 215 255
183 215 255
183 215 255
183 215 255
183 215 255
183 215 255
183 215 255
183 215 255
183 215 255
183 215 255
183 215 255
183 215 255
183 215 255
183 215 255
183 215 255
183 215 255
183 215 255
183 215 255
183 215 255
183 215 255
183 215 255
183 215 255
183 215 255
183 215 255
183 215 255
183 215 255
183 215 255
183 215 255
183 215 255
183 215 255
183 215 255
183 215 255
183 215 255
183 215 255
183 215 255
183 215 255
195 227 255
183 215 255
183 215 255
183 215 255
183 215 255
183 215 255
183 215 255
183 215 255
183 215 255
183 215 255
183 215 255
183 215 255
183 215 255
183 215 255
183 215 255
183 215 255
183 215 255
183 215 255
183 215 255
183 215 255
183 215 255
183 215 255
183 215 255
183 215 255
183 215 255
183 215 255
183 215 255
183 215 255
183 215 255
183 215 255
183 215 255
183 215 255
183 215 255
183 215 255
183 215 255
183 215 255
183 215 255
195 227 255
183 215 255
183 215 255
183 215 255
183 215 255
183 215 255
183 215 255
183 215 255
183 215 255
183 215 255
183 215 255
183 215 255
183 215 255
183 215 255
183 215 255
183 215 255
183 215 255
183 215 255
183 215 255
183 215 255
183 215 255
183 215 255
183 215 255
183 215 255
183 215 255
183 215 255
183 215 255
183 215 255
183 215 255
183 215 255
183 215 255
183 215 255
183 215 255
183 215 255
183 215 255
183 215 255
183 215 255
195 227 255
183 215 255
183 215 255
183 215 255
183 215 255
183 215 255
183 215 255
183 215 255
183 215 255
183 215 255
183 215 255
183 215 255
183 215 255
183 215 255
183 215 255
183 215 255
183 215 255
183 215 255
183 215 255
183 215 255
183 215 255
183 215 255
183 215 255
183 215 255
183 215 255
183 215 255
183 215 255
183 215 255
183 215 255
183 215 255
183 215 255
183 215 255
183 215 255
183 215 255
183 215 255
183 215 255
183 215 255
183 215 255
183 215 255
183 215 255
183 215 255
183 215 255
183 215 255
183 215 255
183 215 255
183 215 255
183 215 255
183 215 255
183 215 255
183 215 255
183 215 255
183 215 255
183 215 255
183 215 255
183 215 255
183 215 255
183 215 255
183 215 255
183 215 255
183 215 255
195 227 255
183 215 255
183 215 255
183 215 255
183 215 255
183 215 255
183 215 255
183 215 255
183 215 255
183 215 255
183 215 255
183 215 255
183 215 255
183 215 255
183 215 255
183 215 255
183 215 255
183 215 255
183 215 255
183 215 255
183 215 255
183 215 255
183 215 255
183 215 255
183 215 255
183 215 255
183 215 255
183 215 255
183 215 255
183 215 255
183 215 255
183 215 255
183 215 255
183 215 255
183 215 255
183 215 255
183 215 255
195 227 255
183 215 255
183 215 255
183 215 255
183 215 255
183 215 255
183 215 255
183 215 255
183 215 255
183 215 255
183 215 255
183 215 255
183 215 255
183 215 255
183 215 255
183 215 255
183 215 255
183 215 255
183 215 255
183 215 255
183 215 255
183 215 255
183 215 255
183 215 255
183 215 255
183 215 255
183 215 255
183 215 255
183 215 255
183 215 255
183 215 255
183 215 255
183 215 255
183 215 255
183 215 255
183 215 255
183 215 255
195 227 255
183 215 255
183 215 255
183 215 255
183 215 255
183 215 255
183 215 255
183 215 255
183 215 255
183 215 255
183 215 255
183 215 255
183 215 255
183 215 255
183 215 255
183 215 255
183 215 255
183 215 255
183 215 255
183 215 255
183 215 255
183 215 255
183 215 255
183 215 255
183 215 255
183 215 255
183 215 255
183 215 255
183 215 255
183 215 255
183 215 255
183 215 255
183 215 255
183 215 255
183 215 255
183 215 255
183 215 255
195 227 255
183 215 255
183 215 255
183 215 255
183 215 255
183 215 255
183 215 255
183 215 255
183 215 255
183 215 255
183 215 255
183 215 255
183 215 255
183 215 255
183 215 255
183 215 255
183 215 255
183 215 255
183 215 255
183 215 255
183 215 255
183 215 255
183 215 255
183 215 255
183 215 255
183 215 255
183 215 255
183 215 255
183 215 255
183 215 255
183 215 255
183 215 255
183 215 255
183 215 255
183 215 255
183 215 255
183 215 255
195 227 255
183 215 255
183 215 255
183 215 255
183 215 255
183 215 255
183 215 255
183 215 255
183 215 255
183 215 255
183 215 255
183 215 255
183 215 255
183 215 255
183 215 255
183 215 255
183 215 255
183 215 255
183 215 255
183 215 255
183 215 255
183 215 255
183 215 255
183 215 255
183 215 255
183 215 255
183 215 255
183 215 255
183 215 255
183 215 255
183 215 255
183 215 255
183 215 255
183 215 255
183 215 255
183 215 255
183 215 255
195 227 255
183 215 255
183 215 255
183 215 255
183 215 255
183 215 255
183 215 255
183 215 255
183 215 255
183 215 255
183 215 255
183 215 255
183 215 255
183 215 255
183 215 255
183 215 255
183 215 255
183 215 255
183 215 255
183 215 255
183 215 255
183 215 255
183 215 255
183 215 255
183 215 255
183 215 255
183 215 255
183 215 255
183 215 255
183 215 255
183 215 255
183 215 255
183 215 255
183 215 255
183 215 255
183 215 255
183 215 255
195 227 255
183 215 255
183 215 255
183 215 255
183 215 255
183 215 255
183 215 255
183 215 255
183 215 255
183 215 255
183 215 255
183 215 255
183 215 255
183 215 255
183 215 255
183 215 255
183 215 255
183 215 255
183 215 255
183 215 255
183 215 255
183 215 255
183 215 255
183 215 255
183 215 255
183 215 255
183 215 255
183 215 255
183 215 255
183 215 255
183 215 255
183 215 255
183 215 255
183 215 255
183 215 255
183 215 255
183 215 255
195 227 255
183 215 255
183 215 255
183 215 255
183 215 255
183 215 255
183 215 255
183 215 255
183 215 255
183 215 255
183 215 255
183 215 255
183 215 255
183 215 255
183 215 255
183 215 255
183 215 255
183 215 255
183 215 255
183 215 255
183 215 255
183 215 255
183 215 255
183 215 255
183 215 255
183 215 255
183 215 255
183 215 255
183 215 255
183 215 255
183 215 255
183 215 255
183 215 255
183 215 255
183 215 255
183 215 255
183 215 255
183 215 255
183 215 255
183 215 255
183 215 255
183 215 255
183 215 255
183 215 255
183 215 255
183 215 255
183 215 255
183 215 255
183 215 255
183 215 255
183 215 255
183 215 255
183 215 255
183 215 255
183 215 255
183 215 255
183 215 255
183 215 255
183 215 255
183 215 255
195 227 255
183 215 255
183 215 255
183 215 255
183 215 255
183 215 255
183 215 255
183 215 255
183 215 255
183 215 255
183 215 255
183 215 255
183 215 255
183 215 255
183 215 255
183 215 255
183 215 255
183 215 255
183 215 255
183 215 255
183 215 255
183 215 255
183 215 255
183 215 255
183 215 255
183 215 255
183 215 255
183 215 255
183 215 255
183 215 255
183 215 255
183 215 255
183 215 255
183 215 255
183 215 255
183 215 255
183 215 255
195 227 255
183 215 255
183 215 255
183 215 255
183 215 255
183 215 255
183 215 255
183 215 255
183 215 255
183 215 255
183 215 255
183 215 255
183 215 255
183 215 255
183 215 255
183 215 255
183 215 255
183 215 255
183 215 255
183 215 255
183 215 255
183 215 255
183 215 255
183 215 255
183 215 255
183 215 255
183 215 255
183 215 255
183 215 255
183 215 255
183 215 255
183 215 255
183 215 255
183 215 255
183 215 255
183 215 255
183 215 255
195 227 255
183 215 255
183 215 255
183 215 255
183 215 255
183 215 255
183 215 255
183 215 255
183 215 255
183 215 255
183 215 255
183 215 255
183 215 255
183 215 255
183 215 255
183 215 255
183 215 255
183 215 255
183 215 255
183 215 255
183 215 255
183 215 255
183 215 255
183 215 255
183 215 255
183 215 255
183 215 255
183 215 255
183 215 255
183 215 255
183 215 255
183 215 255
183 215 255
183 215 255
183 215 255
183 215 255
183 215 255
195 227 255
183 215 255
183 215 255
183 215 255
183 215 255
183 215 255
183 215 255
183 215 255
183 215 255
183 215 255
183 215 255
183 215 255
183 215 255
183 215 255
183 215 255
183 215 255
183 215 255
183 215 255
183 215 255
183 215 255
183 215 255
183 215 255
183 215 255
183 215 255
183 215 255
183 215 255
183 215 255
183 215 255
183 215 255
183 215 255
183 215 255
183 215 255
183 215 255
183 215 255
183 215 255
183 215 255
183 215 255
195 227 255
183 215 255
183 215 255
183 215 255
183 215 255
183 215 255
183 215 255
183 215 255
183 215 255
183 215 255
183 215 255
183 215 255
183 215 255
183 215 255
183 215 255
183 215 255
183 215 255
183 215 255
183 215 255
183 215 255
183 215 255
183 215 255
183 215 255
183 215 255
183 215 255
183 215 255
183 215 255
183 215 255
183 215 255
183 215 255
183 215 255
183 215 255
183 215 255
183 215 255
183 215 255
183 215 255
183 215 255
195 227 255
183 215 255
183 215 255
183 215 255
183 215 255
183 215 255
183 215 255
183 215 255
183 215 255
183 215 255
183 215 255
183 215 255
183 215 255
183 215 255
183 215 255
183 215 255
183 215 255
183 215 255
183 215 255
183 215 255
183 215 255
183 215 255
183 215 255
183 215 255
183 215 255
183 215 255
183 215 255
183 215 255
183 215 255
183 215 255
183 215 255
183 215 255
183 215 255
183 215 255
183 215 255
183 215 255
183 215 255
195 227 255
183 215 255
183 215 255
183 215 255
183 215 255
183 215 255
183 215 255
183 215 255
183 215 255
183 215 255
183 215 255
183 215 255
183 215 255
183 215 255
183 215 255
183 215 255
183 215 255
183 215 255
183 215 255
183 215 255
183 215 255
183 215 255
183 215 255
183 215 255
183 215 255
183 215 255
183 215 255
183 215 255
183 215 255
183 215 255
183 215 255
183 215 255
183 215 255
183 215 255
183 215 255
183 215 255
183 215 255
195 227 255
183 215 255
183 215 255
183 215 255
183 215 255
183 215 255
183 215 255
183 215 255
183 215 255
183 215 255
183 215 255
183 215 255
183 215 255
183 215 255
183 215 255
183 215 255
183 215 255
183 215 255
183 215 255
183 215 255
183 215 255
183 215 255
183 215 255
183 215 255
183 215 255
183 215 255
183 215 255
183 215 255
183 215 255
183 215 255
183 215 255
183 215 255
183 215 255
183 215 255
183 215 255
183 215 255
183 215 255
183 215 255
183 215 255
183 215 255
183 215 255
183 215 255
183 215 255
183 215 255
183 215 255
183 215 255
183 215 255
183 215 255
183 215 255
183 215 255
183 215 255
183 215 255
183 215 255
183 215 255
183 215 255
183 215 255
183 215 255
183 215 255
183 215 255
183 215 255
195 227 255
183 215 255
183 215 255
183 215 255
183 215 255
183 215 255
183 215 255
183 215 255
183 215 255
183 215 255
183 215 255
183 215 255
183 215 255
183 215 255
183 215 255
183 215 255
183 215 255
183 215 255
183 215 255
183 215 255
183 215 255
183 215 255
183 215 255
183 215 255
183 215 255
183 215 255
183 215 255
183 215 255
183 215 255
183 215 255
183 215 255
183 215 255
183 215 255
183 215 255
183 215 255
183 215 255
183 215 255
195 227 255
183 215 255
183 215 255
183 215 255
183 215 255
183 215 255
183 215 255
183 215 255
183 215 255
183 215 255
183 215 255
183 215 255
183 215 255
183 215 255
183 215 255
183 215 255
183 215 255
183 215 255
183 215 255
183 215 255
183 215 255
183 215 255
183 215 255
183 215 255
183 215 255
183 215 255
183 215 255
183 215 255
183 215 255
183 215 255
183 215 255
183 215 255
183 215 255
183 215 255
183 215 255
183 215 255
183 215 255
195 227 255
183 215 255
183 215 255
183 215 255
183 215 255
183 215 255
183 215 255
183 215 255
183 215 255
183 215 255
183 215 255
183 215 255
183 215 255
183 215 255
183 215 255
183 215 255
183 215 255
183 215 255
183 215 255
183 215 255
183 215 255
183 215 255
183 215 255
183 215 255
183 215 255
183 215 255
183 215 255
183 215 255
183 215 255
183 215 255
183 215 255
183 215 255
183 215 255
183 215 255
183 215 255
183 215 255
183 215 255
195 227 255
183 215 255
183 215 255
183 215 255
183 215 255
183 215 255
183 215 255
183 215 255
183 215 255
183 215 255
183 215 255
183 215 255
183 215 255
183 215 255
183 215 255
183 215 255
183 215 255
183 215 255
183 215 255
183 215 255
183 215 255
183 215 255
183 215 255
183 215 255
183 215 255
183 215 255
183 215 255
183 215 255
183 215 255
183 215 255
183 215 255
183 215 255
183 215 255
183 215 255
183 215 255
183 215 255
183 215 255
195 227 255
183 215 255
183 215 255
183 215 255
183 215 255
183 215 255
183 215 255
183 215 255
183 215 255
183 215 255
183 215 255
183 215 255
183 215 255
183 215 255
183 215 255
183 215 255
183 215 255
183 215 255
183 215 255
183 215 255
183 215 255
183 215 255
183 215 255
183 215 255
183 215 255
183 215 255
183 215 255
183 215 255
183 215 255
183 215 255
183 215 255
183 215 255
183 215 255
183 215 255
183 215 255
183 215 255
183 215 255
195 227 255
183 215 255
183 215 255
183 215 255
183 215 255
183 215 255
183 215 255
183 215 255
183 215 255
183 215 255
183 215 255
183 215 255
183 215 255
183 215 255
183 215 255
183 215 255
183 215 255
183 215 255
183 215 255
183 215 255
183 215 255
183 215 255
183 215 255
183 215 255
183 215 255
183 215 255
183 215 255
183 215 255
183 215 255
183 215 255
183 215 255
183 215 255
183 215 255
183 215 255
183 215 255
183 215 255
183 215 255
195 227 255
183 215 255
183 215 255
183 215 255
183 215 255
183 215 255
183 215 255
183 215 255
183 215 255
183 215 255
183 215 255
183 215 255
183 215 255
183 215 255
183 215 255
183 215 255
183 215 255
183 215 255
183 215 255
183 215 255
183 215 255
183 215 255
183 215 255
183 215 255
183 215 255
183 215 255
183 215 255
183 215 255
183 215 255
183 215 255
183 215 255
183 215 255
183 215 255
183 215 255
183 215 255
183 215 255
183 215 255
195 227 255
183 215 255
183 215 255
183 215 255
183 215 255
183 215 255
183 215 255
183 215 255
183 215 255
183 215 255
183 215 255
183 215 255
183 215 255
183 215 255
183 215 255
183 215 255
183 215 255
183 215 255
183 215 255
183 215 255
183 215 255
183 215 255
183 215 255
183 215 255
183 215 255
183 215 255
183 215 255
183 215 255
183 215 255
183 215 255
183 215 255
183 215 255
183 215 255
183 215 255
183 215 255
183 215 255
183 215 255
183 215 255
183 215 255
183 215 255
183 215 255
183 215 255
183 215 255
183 215 255
183 215 255
183 215 255
183 215 255
183 215 255
183 215 255
183 215 255
183 215 255
183 215 255
183 215 255
183 215 255
183 215 255
183 215 255
183 215 255
183 215 255
183 215 255
183 215 255
195 227 255
183 215 255
183 215 255
183 215 255
183 215 255
183 215 255
183 215 255
183 215 255
183 215 255
183 215 255
183 215 255
183 215 255
183 215 255
183 215 255
183 215 255
183 215 255
183 215 255
183 215 255
183 215 255
183 215 255
183 215 255
183 215 255
183 215 255
183 215 255
183 215 255
183 215 255
183 215 255
183 215 255
183 215 255
183 215 255
183 215 255
183 215 255
183 215 255
183 215 255
183 215 255
183 215 255
183 215 255
195 227 255
183 215 255
183 215 255
183 215 255
183 215 255
183 215 255
183 215 255
183 215 255
183 215 255
183 215 255
183 215 255
183 215 255
183 215 255
183 215 255
183 215 255
183 215 255
183 215 255
183 215 255
183 215 255
183 215 255
183 215 255
183 215 255
183 215 255
183 215 255
183 215 255
183 215 255
183 215 255
183 215 255
183 215 255
183 215 255
183 215 255
183 215 255
183 215 255
183 215 255
183 215 255
183 215 255
183 215 255
195 227 255
183 215 255
183 215 255
183 215 255
183 215 255
183 215 255
183 215 255
183 215 255
183 215 255
183 215 255
183 215 255
183 215 255
183 215 255
183 215 255
183 215 255
183 215 255
183 215 255
183 215 255
183 215 255
183 215 255
183 215 255
183 215 255
183 215 255
183 215 255
183 215 255
183 215 255
183 215 255
183 215 255
183 215 255
183 215 255
183 215 255
183 215 255
183 215 255
183 215 255
183 215 255
183 215 255
183 215 255
195 227 255
183 215 255
183 215 255
183 215 255
183 215 255
183 215 255
183 215 255
183 215 255
183 215 255
183 215 255
183 215 255
183 215 255
183 215 255
183 215 255
183 215 255
183 215 255
183 215 255
183 215 255
183 215 255
183 215 255
183 215 255
183 215 255
183 215 255
183 215 255
183 215 255
183 215 255
183 215 255
183 215 255
183 215 255
183 215 255
183 215 255
183 215 255
183 215 255
183 215 255
183 215 255
183 215 255
183 215 255
195 227 255
183 215 255
183 215 255
183 215 255
183 215 255
183 215 255
183 215 255
183 215 255
183 215 255
183 215 255
183 215 255
183 215 255
183 215 255
183 215 255
183 215 255
183 215 255
183 215 255
183 215 255
183 215 255
183 215 255
183 215 255
183 215 255
183 215 255
183 215 255
183 215 255
183 215 255
183 215 255
183 215 255
183 215 255
183 215 255
183 215 255
183 215 255
183 215 255
183 215 255
183 215 255
183 215 255
183 215 255
195 227 255
183 215 255
183 215 255
183 215 255
183 215 255
183 215 255
183 215 255
183 215 255
183 215 255
183 215 255
183 215 255
183 215 255
183 215 255
183 215 255
183 215 255
183 215 255
183 215 255
183 215 255
183 215 255
183 215 255
183 215 255
183 215 255
183 215 255
183 215 255
183 215 255
183 215 255
183 215 255
183 215 255
183 215 255
183 215 255
183 215 255
183 215 255
183 215 255
183 215 255
183 215 255
183 215 255
183 215 255
195 227 255
183 215 255
183 215 255
183 215 255
183 215 255
183 215 255
183 215 255
183 215 255
183 215 255
183 215 255
183 215 255
183 215 255
183 215 255
183 215 255
183 215 255
183 215 255
183 215 255
183 215 255
183 215 255
183 215 255
183 215 255
183 215 255
183 215 255
183 215 255
183 215 255
183 215 255
183 215 255
183 215 255
183 215 255
183 215 255
183 215 255
183 215 255
183 215 255
183 215 255
183 215 255
183 215 255
183 215 255
195 227 255
183 215 255
183 215 255
183 215 255
183 215 255
183 215 255
183 215 255
183 215 255
183 215 255
183 215 255
183 215 255
183 215 255
183 215 255
183 215 255
183 215 255
183 215 255
183 215 255
183 215 255
183 215 255
183 215 255
183 215 255
183 215 255
183 215 255
183 215 255
183 215 255
183 215 255
183 215 255
183 215 255
183 215 255
183 215 255
183 215 255
183 215 255
183 215 255
183 215 255
183 215 255
183 215 255
183 215 255
183 215 255
183 215 255
183 215 255
183 215 255
183 215 255
183 215 255
183 215 255
183 215 255
183 215 255
183 215 255
183 215 255
183 215 255
183 215 255
183 215 255
183 215 255
183 215 255
183 215 255
183 215 255
183 215 255
183 215 255
183 215 255
183 215 255
183 215 255
195 227 255
183 215 255
183 215 255
183 215 255
183 215 255
183 215 255
183 215 255
183 215 255
183 215 255
183 215 255
183 215 255
183 215 255
183 215 255
183 215 255
183 215 255
183 215 255
183 215 255
183 215 255
183 215 255
183 215 255
183 215 255
183 215 255
183 215 255
183 215 255
183 215 255
183 215 255
183 215 255
183 215 255
183 215 255
183 215 255
183 215 255
183 215 255
183 215 255
183 215 255
183 215 255
183 215 255
183 215 255
195 227 255
183 215 255
183 215 255
183 215 255
183 215 255
183 215 255
183 215 255
183 215 255
183 215 255
183 215 255
183 215 255
183 215 255
183 215 255
183 215 255
183 215 255
183 215 255
183 215 255
183 215 255
183 215 255
183 215 255
183 215 255
183 215 255
183 215 255
183 215 255
183 215 255
183 215 255
183 215 255
183 215 255
183 215 255
183 215 255
183 215 255
183 215 255
183 215 255
183 215 255
183 215 255
183 215 255
183 215 255
195 227 255
183 215 255
183 215 255
183 215 255
183 215 255
183 215 255
183 215 255
183 215 255
183 215 255
183 215 255
183 215 255
183 215 255
183 215 255
183 215 255
183 215 255
183 215 255
183 215 255
183 215 255
183 215 255
183 215 255
183 215 255
183 215 255
183 215 255
183 215 255
183 215 255
183 215 255
183 215 255
183 215 255
183 215 255
183 215 255
183 215 255
183 215 255
183 215 255
183 215 255
183 215 255
183 215 255
183 215 255
195 227 255
183 215 255
183 215 255
183 215 255
183 215 255
183 215 255
183 215 255
183 215 255
183 215 255
183 215 255
183 215 255
183 215 255
183 215 255
183 215 255
183 215 255
183 215 255
183 215 255
183 215 255
183 215 255
183 215 255
183 215 255
183 215 255
183 215 255
183 215 255
183 215 255
183 215 255
183 215 255
183 215 255
183 215 255
183 215 255
183 215 255
183 215 255
183 215 255
183 215 255
183 215 255
183 215 255
183 215 255
195 227 255
183 215 255
183 215 255
183 215 255
183 215 255
183 215 255
183 215 255
183 215 255
183 215 255
183 215 255
183 215 255
183 215 255
183 215 255
183 215 255
183 215 255
183 215 255
183 215 255
183 215 255
183 215 255
183 215 255
183 215 255
183 215 255
183 215 255
183 215 255
183 215 255
183 215 255
183 215 255
183 215 255
183 215 255
183 215 255
183 215 255
183 215 255
183 215 255
183 215 255
183 215 255
183 215 255
183 215 255
195 227 255
183 215 255
183 215 255
183 215 255
183 215 255
183 215 255
183 215 255
183 215 255
183 215 255
183 215 255
183 215 255
183 215 255
183 215 255
183 215 255
183 215 255
183 215 255
183 215 255
183 215 255
183 215 255
183 215 255
183 215 255
183 215 255
183 215 255
183 215 255
183 215 255
183 215 255
183 215 255
183 215 255
183 215 255
183 215 255
183 215 255
183 215 255
183 215 255
183 215 255
183 215 255
183 215 255
183 215 255
195 227 255
183 215 255
183 215 255
183 215 255
183 215 255
183 215 255
183 215 255
183 215 255
183 215 255
183 215 255
183 215 255
183 215 255
183 215 255
183 215 255
183 215 255
183 215 255
183 215 255
183 215 255
183 215 255
183 215 255
183 215 255
183 215 255
183 215 255
183 215 255
183 215 255
183 215 255
183 215 255
183 215 255
183 215 255
183 215 255
183 215 255
183 215 255
183 215 255
183 215 255
183 215 255
183 215 255
183 215 255
195 227 255
183 215 255
183 215 255
183 215 255
183 215 255
183 215 255
183 215 255
183 215 255
183 215 255
183 215 255
183 215 255
183 215 255
183 215 255
183 215 255
183 215 255
183 215 255
183 215 255
183 215 255
183 215 255
183 215 255
183 215 255
183 215 255
183 215 255
183 215 255
183 215 255
183 215 255
183 215 255
183 215 255
183 215 255
183 215 255
183 215 255
183 215 255
183 215 255
183 215 255
183 215 255
183 215 255
183 215 255
183 215 255
183 215 255
183 215 255
183 215 255
183 215 255
183 215 255
183 215 255
183 215 255
183 215 255
183 215 255
183 215 255
183 215 255
183 215 255
183 215 255
183 215 255
183 215 255
183 215 255
183 215 255
183 215 255
183 215 255
183 215 255
183 215 255
183 215 255
195 227 255
183 215 255
183 215 255
183 215 255
183 215 255
183 215 255
183 215 255
183 215 255
183 215 255
183 215 255
183 215 255
183 215 255
183 215 255
183 215 255
183 215 255
183 215 255
183 215 255
183 215 255
183 215 255
183 215 255
183 215 255
183 215 255
183 215 255
183 215 255
183 215 255
183 215 255
183 215 255
183 215 255
183 215 255
183 215 255
183 215 255
183 215 255
183 215 255
183 215 255
183 215 255
183 215 255
183 215 255
195 227 255
183 215 255
183 215 255
183 215 255
183 215 255
183 215 255
183 215 255
183 215 255
183 215 255
183 215 255
183 215 255
183 215 255
183 215 255
183 215 255
183 215 255
183 215 255
183 215 255
183 215 255
183 215 255
183 215 255
183 215 255
183 215 255
183 215 255
183 215 255
183 215 255
183 215 255
183 215 255
183 215 255
183 215 255
183 215 255
183 215 255
183 215 255
183 215 255
183 215 255
183 215 255
183 215 255
183 215 255
195 227 255
183 215 255
183 215 255
183 215 255
183 215 255
183 215 255
183 215 255
183 215 255
183 215 255
183 215 255
183 215 255
183 215 255
183 215 255
183 215 255
183 215 255
183 215 255
183 215 255
183 215 255
183 215 255
183 215 255
183 215 255
183 215 255
183 215 255
183 215 255
183 215 255
183 215 255
183 215 255
183 215 255
183 215 255
183 215 255
183 215 255
183 215 255
183 215 255
183 215 255
183 215 255
183 215 255
183 215 255
195 227 255
183 215 255
183 215 255
183 215 255
183 215 255
183 215 255
183 215 255
183 215 255
183 215 255
183 215 255
183 215 255
183 215 255
183 215 255
183 215 255
183 215 255
183 215 255
183 215 255
183 215 255
183 215 255
183 215 255
183 215 255
183 215 255
183 215 255
183 215 255
183 215 255
183 215 255
183 215 255
183 215 255
183 215 255
183 215 255
183 215 255
183 215 255
183 215 255
183 215 255
183 215 255
183 215 255
183 215 255
195 227 255
183 215 255
183 215 255
183 215 255
183 215 255
183 215 255
183 215 255
183 215 255
183 215 255
183 215 255
183 215 255
183 215 255
183 215 255
183 215 255
183 215 255
183 215 255
183 215 255
183 215 255
183 215 255
183 215 255
183 215 255
183 215 255
183 215 255
183 215 255
183 215 255
183 215 255
183 215 255
183 215 255
183 215 255
183 215 255
183 215 255
183 215 255
183 215 255
183 215 255
183 215 255
183 215 255
183 215 255
195 227 255
183 215 255
183 215 255
183 215 255
183 215 255
183 215 255
183 215 255
183 215 255
183 215 255
183 215 255
183 215 255
183 215 255
183 215 255
183 215 255
183 215 255
183 215 255
183 215 255
183 215 255
183 215 255
183 215 255
183 215 255
183 215 255
183 215 255
183 215 255
183 215 255
183 215 255
183 215 255
183 215 255
183 215 255
183 215 255
183 215 255
183 215 255
183 215 255
183 215 255
183 215 255
183 215 255
183 215 255
195 227 255
183 215 255
183 215 255
183 215 255
183 215 255
183 215 255
183 215 255
183 215 255
183 215 255
183 215 255
183 215 255
183 215 255
183 215 255
183 215 255
183 215 255
183 215 255
183 215 255
183 215 255
183 215 255
183 215 255
183 215 255
183 215 255
183 215 255
183 215 255
183 215 255
183 215 255
183 215 255
183 215 255
183 215 255
183 215 255
183 215 255
183 215 255
183 215 255
183 215 255
183 215 255
183 215 255
183 215 255
195 227 255
183 215 255
183 215 255
183 215 255
183 215 255
183 215 255
183 215 255
183 215 255
183 215 255
183 215 255
183 215 255
183 215 255
183 215 255
183 215 255
183 215 255
183 215 255
183 215 255
183 215 255
183 215 255
183 215 255
183 215 255
183 215 255
183 215 255
183 215 255
183 215 255
183 215 255
183 215 255
183 215 255
183 215 255
183 215 255
183 215 255
183 215 255
183 215 255
183 215 255
183 215 255
183 215 255
183 215 255
183 215 255
183 215 255
183 215 255
183 215 255
183 215 255
183 215 255
183 215 255
183 215 255
183 215 255
183 215 255
183 215 255
183 215 255
183 215 255
183 215 255
183 215 255
183 215 255
183 215 255
183 215 255
183 215 255
183 215 255
183 215 255
183 215 255
183 215 255
195 227 255
183 215 255
183 215 255
183 215 255
183 215 255
183 215 255
183 215 255
183 215 255
183 215 255
183 215 255
183 215 255
183 215 255
183 215 255
183 215 255
183 215 255
183 215 255
183 215 255
183 215 255
183 215 255
183 215 255
183 215 255
183 215 255
183 215 255
183 215 255
183 215 255
183 215 255
183 215 255
183 215 255
183 215 255
183 215 255
183 215 255
183 215 255
183 215 255
183 215 255
183 215 255
183 215 255
183 215 255
195 227 255
183 215 255
183 215 255
183 215 255
183 215 255
183 215 255
183 215 255
183 215 255
183 215 255
183 215 255
183 215 255
183 215 255
183 215 255
183 215 255
183 215 255
183 215 255
183 215 255
183 215 255
183 215 255
183 215 255
183 215 255
183 215 255
183 215 255
183 215 255
183 215 255
183 215 255
183 215 255
183 215 255
183 215 255
183 215 255
183 215 255
183 215 255
183 215 255
183 215 255
183 215 255
183 215 255
183 215 255
195 227 255
183 215 255
183 215 255
183 215 255
183 215 255
183 215 255
183 215 255
183 215 255
183 215 255
183 215 255
183 215 255
183 215 255
183 215 255
183 215 255
183 215 255
183 215 255
183 215 255
183 215 255
183 215 255
183 215 255
183 215 255
183 215 255
183 215 255
183 215 255
183 215 255
183 215 255
183 215 255
183 215 255
183 215 255
183 215 255
183 215 255
183 215 255
183 215 255
183 215 255
183 215 255
183 215 255
183 215 255
195 227 255
183 215 255
183 215 255
183 215 255
183 215 255
183 215 255
183 215 255
183 215 255
183 215 255
183 215 255
183 215 255
183 215 255
183 215 255
183 215 255
183 215 255
183 215 255
183 215 255
183 215 255
183 215 255
183 215 255
183 215 255
183 215 255
183 215 255
183 215 255
183 215 255
183 215 255
183 215 255
183 215 255
183 215 255
183 215 255
183 215 255
183 215 255
183 215 255
183 215 255
183 215 255
183 215 255
183 215 255
195 227 255
183 215 255
183 215 255
183 215 255
183 215 255
183 215 255
183 215 255
183 215 255
183 215 255
183 215 255
183 215 255
183 215 255
183 215 255
183 215 255
183 215 255
183 215 255
183 215 255
183 215 255
183 215 255
183 215 255
183 215 255
183 215 255
183 215 255
183 215 255
183 215 255
183 215 255
183 215 255
183 215 255
183 215 255
183 215 255
183 215 255
183 215 255
183 215 255
183 215 255
183 215 255
183 215 255
183 215 255
195 227 255
183 215 255
183 215 255
183 215 255
183 215 255
183 215 255
183 215 255
183 215 255
183 215 255
183 215 255
183 215 255
183 215 255
183 215 255
183 215 255
183 215 255
183 215 255
183 215 255
183 215 255
183 215 255
183 215 255
183 215 255
183 215 255
183 215 255
183 215 255
183 215 255
183 215 255
183 215 255
183 215 255
183 215 255
183 215 255
183 215 255
183 215 255
183 215 255
183 215 255
183 215 255
183 215 255
183 215 255
195 227 255
183 215 255
183 215 255
183 215 255
183 215 255
183 215 255
183 215 255
183 215 255
183 215 255
183 215 255
183 215 255
183 215 255
183 215 255
183 215 255
183 215 255
183 215 255
183 215 255
183 215 255
183 215 255
183 215 255
183 215 255
183 215 255
183 215 255
183 215 255
183 215 255
183 215 255
183 215 255
183 215 255
183 215 255
183 215 255
183 215 255
183 215 255
183 215 255
183 215 255
183 215 255
183 215 255
183 215 255
195 227 255
183 215 255
183 215 255
183 215 255
183 215 255
183 215 255
183 215 255
183 215 255
183 215 255
183 215 255
183 215 255
183 215 255
183 215 255
183 215 255
183 215 255
183 215 255
183 215 255
183 215 255
183 215 255
183 215 255
183 215 255
183 215 255
183 215 255
183 215 255
183 215 255
183 215 255
183 215 255
183 215 255
183 215 255
183 215 255
183 215 255
183 215 255
183 215 255
183 215 255
183 215 255
183 215 255
183 215 255
183 215 255
183 215 255
183 215 255
183 215 255
183 215 255
183 215 255
183 215 255
183 215 255
183 215 255
183 215 255
183 215 255
183 215 255
183 215 255
183 215 255
183 215 255
183 215 255
183 215 255
183 215 255
183 215 255
183 215 255
183 215 255
183 215 255
183 215 255
195 227 255
183 215 255
183 215 255
183 215 255
183 215 255
183 215 255
183 215 255
183 215 255
183 215 255
183 215 255
183 215 255
183 215 255
183 215 255
183 215 255
183 215 255
183 215 255
183 215 255
183 215 255
183 215 255
183 215 255
183 215 255
183 215 255
183 215 255
183 215 255
183 215 255
183 215 255
183 215 255
183 215 255
183 215 255
183 215 255
183 215 255
183 215 255
183 215 255
183 215 255
183 215 255
183 215 255
183 215 255
195 227 255
183 215 255
183 215 255
183 215 255
183 215 255
183 215 255
183 215 255
183 215 255
183 215 255
183 215 255
183 215 255
183 215 255
183 215 255
183 215 255
183 215 255
183 215 255
183 215 255
183 215 255
183 215 255
183 215 255
183 215 255
183 215 255
183 215 255
183 215 255
183 215 255
183 215 255
183 215 255
183 215 255
183 215 255
183 215 255
183 215 255
183 215 255
183 215 255
183 215 255
183 215 255
183 215 255
183 215 255
195 227 255
183 215 255
183 215 255
183 215 255
183 215 255
183 215 255
183 215 255
183 215 255
183 215 255
183 215 255
183 215 255
183 215 255
183 215 255
183 215 255
183 215 255
183 215 255
183 215 255
183 215 255
183 215 255
183 215 255
183 215 255
183 215 255
183 215 255
183 215 255
183 215 255
183 215 255
183 215 255
183 215 255
183 215 255
183 215 255
183 215 255
183 215 255
183 215 255
183 215 255
183 215 255
183 215 255
183 215 255
195 227 255
183 215 255
183 215 255
183 215 255
183 215 255
183 215 255
183 215 255
183 215 255
183 215 255
183 215 255
183 215 255
183 215 255
183 215 255
183 215 255
183 215 255
183 215 255
183 215 255
183 215 255
183 215 255
183 215 255
183 215 255
183 215 255
183 215 255
183 215 255
183 215 255
183 215 255
183 215 255
183 215 255
183 215 255
183 215 255
183 215 255
183 215 255
183 215 255
183 215 255
183 215 255
183 215 255
183 215 255
195 227 255
183 215 255
183 215 255
183 215 255
183 215 255
183 215 255
183 215 255
183 215 255
183 215 255
183 215 255
183 215 255
183 215 255
183 215 255
183 215 255
183 215 255
183 215 255
183 215 255
183 215 255
183 215 255
183 215 255
183 215 255
183 215 255
183 215 255
183 215 255
183 215 255
183 215 255
183 215 255
183 215 255
183 215 255
183 215 255
183 215 255
183 215 255
183 215 255
183 215 255
183 215 255
183 215 255
183 215 255
195 227 255
183 215 255
183 215 255
183 215 255
183 215 255
183 215 255
183 215 255
183 215 255
183 215 255
183 215 255
183 215 255
183 215 255
183 215 255
183 215 255
183 215 255
183 215 255
183 215 255
183 215 255
183 215 255
183 215 255
183 215 255
183 215 255
183 215 255
183 215 255
183 215 255
183 215 255
183 215 255
183 215 255
183 215 255
183 215 255
183 215 255
183 215 255
183 215 255
183 215 255
183 215 255
183 215 255
183 215 255
195 227 255
183 215 255
183 215 255
183 215 255
183 215 255
183 215 255
183 215 255
183 215 255
183 215 255
183 215 255
183 215 255
183 215 255
183 215 255
183 215 255
183 215 255
183 215 255
183 215 255
183 215 255
183 215 255
183 215 255
183 215 255
183 215 255
183 215 255
183 215 255
183 215 255
183 215 255
183 215 255
183 215 255
183 215 255
183 215 255
183 215 255
183 215 255
183 215 255
183 215 255
183 215 255
183 215 255
183 215 255
195 227 255
183 215 255
183 215 255
183 215 255
183 215 255
183 215 255
183 215 255
183 215 255
183 215 255
183 215 255
183 215 255
183 215 255
183 215 255
183 215 255
183 215 255
183 215 255
183 215 255
183 215 255
183 215 255
183 215 255
183 215 255
183 215 255
183 215 255
183 215 255
183 215 255
183 215 255
183 215 255
183 215 255
183 215 255
183 215 255
183 215 255
183 215 255
183 215 255
183 215 255
183 215 255
183 215 255
183 215 255
183 215 255
183 215 255
183 215 255
183 215 255
183 215 255
183 215 255
183 215 255
183 215 255
183 215 255
183 215 255
183 215 255
183 215 255
183 215 255
183 215 255
183 215 255
183 215 255
183 215 255
183 215 255
183 215 255
183 215 255
183 215 255
183 215 255
183 215 255
195 227 255
183 215 255
183 215 255
183 215 255
183 215 255
183 215 255
183 215 255
183 215 255
183 215 255
183 215 255
183 215 255
183 215 255
183 215 255
183 215 255
183 215 255
183 215 255
183 215 255
183 215 255
183 215 255
183 215 255
183 215 255
183 215 255
183 215 255
183 215 255
183 215 255
183 215 255
183 215 255
183 215 255
183 215 255
183 215 255
183 215 255
183 215 255
183 215 255
183 215 255
183 215 255
183 215 255
183 215 255
195 227 255
183 215 255
183 215 255
183 215 255
183 215 255
183 215 255
183 215 255
183 215 255
183 215 255
183 215 255
183 215 255
183 215 255
183 215 255
183 215 255
183 215 255
183 215 255
183 215 255
183 215 255
183 215 255
183 215 255
183 215 255
183 215 255
183 215 255
183 215 255
183 215 255
183 215 255
183 215 255
183 215 255
183 215 255
183 215 255
183 215 255
183 215 255
183 215 255
183 215 255
183 215 255
183 215 255
183 215 255
195 227 255
183 215 255
183 215 255
183 215 255
183 215 255
183 215 255
183 215 255
183 215 255
183 215 255
183 215 255
183 215 255
183 215 255
183 215 255
183 215 255
183 215 255
183 215 255
183 215 255
183 215 255
183 215 255
183 215 255
183 215 255
183 215 255
183 215 255
183 215 255
183 215 255
183 215 255
183 215 255
183 215 255
183 215 255
183 215 255
183 215 255
183 215 255
183 215 255
183 215 255
183 215 255
183 215 255
183 215 255
195 227 255
183 215 255
183 215 255
183 215 255
183 215 255
183 215 255
183 215 255
183 215 255
183 215 255
183 215 255
183 215 255
183 215 255
183 215 255
183 215 255
183 215 255
183 215 255
183 215 255
183 215 255
183 215 255
183 215 255
183 215 255
183 215 255
183 215 255
183 215 255
183 215 255
183 215 255
183 215 255
183 215 255
183 215 255
183 215 255
183 215 255
183 215 255
183 215 255
183 215 255
183 215 255
183 215 255
183 215 255
195 227 255
183 215 255
183 215 255
183 215 255
183 215 255
183 215 255
183 215 255
183 215 255
183 215 255
183 215 255
183 215 255
183 215 255
183 215 255
183 215 255
183 215 255
183 215 255
183 215 255
183 215 255
183 215 255
183 215 255
183 215 255
183 215 255
183 215 255
183 215 255
183 215 255
183 215 255
183 215 255
183 215 255
183 215 255
183 215 255
183 215 255
183 215 255
183 215 255
183 215 255
183 215 255
183 215 255
183 215 255
195 227 255
183 215 255
183 215 255
183 215 255
183 215 255
183 215 255
183 215 255
183 215 255
183 215 255
183 215 255
183 215 255
183 215 255
183 215 255
183 215 255
183 215 255
183 215 255
183 215 255
183 215 255
183 215 255
183 215 255
183 215 255
183 215 255
183 215 255
183 215 255
183 215 255
183 215 255
183 215 255
183 215 255
183 215 255
183 215 255
183 215 255
183 215 255
183 215 255
183 215 255
183 215 255
183 215 255
183 215 255
195 227 255
183 215 255
183 215 255
183 215 255
183 215 255
183 215 255
183 215 255
183 215 255
183 215 255
183 215 255
183 215 255
183 215 255
183 215 255
183 215 255
183 215 255
183 215 255
183 215 255
183 215 255
183 215 255
183 215 255
183 215 255
183 215 255
183 215 255
183 215 255
183 215 255
183 215 255
183 215 255
183 215 255
183 215 255
183 215 255
183 215 255
183 215 255
183 215 255
183 215 255
183 215 255
183 215 255
183 215 255
195 227 255
183 215 255
183 215 255
183 215 255
183 215 255
183 215 255
183 215 255
183 215 255
183 215 255
183 215 255
183 215 255
183 215 255
183 215 255
183 215 255
183 215 255
183 215 255
183 215 255
183 215 255
183 215 255
183 215 255
183 215 255
183 215 255
183 215 255
183 215 255
183 215 255
183 215 255
183 215 255
183 215 255
183 215 255
183 215 255
183 215 255
183 215 255
183 215 255
183 215 255
183 215 255
183 215 255
183 215 255
183 215 255
183 215 255
183 215 255
183 215 255
183 215 255
183 215 255
183 215 255
183 215 255
183 215 255
183 215 255
183 215 255
183 215 255
183 215 255
183 215 255
183 215 255
183 215 255
183 215 255
183 215 255
183 215 255
183 215 255
183 215 255
183 215 255
183 215 255
195 227 255
183 215 255
183 215 255
183 215 255
183 215 255
183 215 255
183 215 255
183 215 255
183 215 255
183 215 255
183 215 255
183 215 255
183 215 255
183 215 255
183 215 255
183 215 255
183 215 255
183 215 255
183 215 255
183 215 255
183 215 255
183 215 255
183 215 255
183 215 255
183 215 255
183 215 255
183 215 255
183 215 255
183 215 255
183 215 255
183 215 255
183 215 255
183 215 255
183 215 255
183 215 255
183 215 255
183 215 255
195 227 255
183 215 255
183 215 255
183 215 255
183 215 255
183 215 255
183 215 255
183 215 255
183 215 255
183 215 255
183 215 255
183 215 255
183 215 255
183 215 255
183 215 255
183 215 255
183 215 255
183 215 255
183 215 255
183 215 255
183 215 255
183 215 255
183 215 255
183 215 255
183 215 255
183 215 255
183 215 255
183 215 255
183 215 255
183 215 255
183 215 255
183 215 255
183 215 255
183 215 255
183 215 255
183 215 255
183 215 255
195 227 255
183 215 255
183 215 255
183 215 255
183 215 255
183 215 255
183 215 255
183 215 255
183 215 255
183 215 255
183 215 255
183 215 255
183 215 255
183 215 255
183 215 255
183 215 255
183 215 255
183 215 255
183 215 255
183 215 255
183 215 255
183 215 255
183 215 255
183 215 255
183 215 255
183 215 255
183 215 255
183 215 255
183 215 255
183 215 255
183 215 255
183 215 255
183 215 255
183 215 255
183 215 255
183 215 255
183 215 255
195 227 255
183 215 255
183 215 255
183 215 255
183 215 255
183 215 255
183 215 255
183 215 255
183 215 255
183 215 255
183 215 255
183 215 255
183 215 255
183 215 255
183 215 255
183 215 255
183 215 255
183 215 255
183 215 255
183 215 255
183 215 255
183 215 255
183 215 255
183 215 255
183 215 255
183 215 255
183 215 255
183 215 255
183 215 255
183 215 255
183 215 255
183 215 255
183 215 255
183 215 255
183 215 255
183 215 255
183 215 255
195 227 255
183 215 255
183 215 255
183 215 255
183 215 255
183 215 255
183 215 255
183 215 255
183 215 255
183 215 255
183 215 255
183 215 255
183 215 255
183 215 255
183 215 255
183 215 255
183 215 255
183 215 255
183 215 255
183 215 255
183 215 255
183 215 255
183 215 255
183 215 255
183 215 255
183 215 255
183 215 255
183 215 255
183 215 255
183 215 255
183 215 255
183 215 255
183 215 255
183 215 255
183 215 255
183 215 255
183 215 255
195 227 255
183 215 255
183 215 255
183 215 255
183 215 255
183 215 255
183 215 255
183 215 255
183 215 255
183 215 255
183 215 255
183 215 255
183 215 255
183 215 255
183 215 255
183 215 255
183 215 255
183 215 255
183 215 255
183 215 255
183 215 255
183 215 255
183 215 255
183 215 255
183 215 255
183 215 255
183 215 255
183 215 255
183 215 255
183 215 255
183 215 255
183 215 255
183 215 255
183 215 255
183 215 255
183 215 255
183 215 255
195 227 255
183 215 255
183 215 255
183 215 255
183 215 255
183 215 255
183 215 255
183 215 255
183 215 255
183 215 255
183 215 255
183 215 255
183 215 255
183 215 255
183 215 255
183 215 255
183 215 255
183 215 255
183 215 255
183 215 255
183 215 255
183 215 255
183 215 255
183 215 255
183 215 255
183 215 255
183 215 255
183 215 255
183 215 255
183 215 255
183 215 255
183 215 255
183 215 255
183 215 255
183 215 255
183 215 255
183 215 255
195 227 255
183 215 255
183 215 255
183 215 255
183 215 255
183 215 255
183 215 255
183 215 255
183 215 255
183 215 255
183 215 255
183 215 255
183 215 255
183 215 255
183 215 255
183 215 255
183 215 255
183 215 255
183 215 255
183 215 255
183 215 255
183 215 255
183 215 255
183 215 255
183 215 255
183 215 255
183 215 255
183 215 255
183 215 255
183 215 255
183 215 255
183 215 255
183 215 255
183 215 255
183 215 255
183 215 255
183 215 255
183 215 255
183 215 255
183 215 255
183 215 255
183 215 255
183 215 255
183 215 255
183 215 255
183 215 255
183 215 255
183 215 255
183 215 255
183 215 255
183 215 255
183 215 255
183 215 255
183 215 255
183 215 255
183 215 255
183 215 255
183 215 255
183 215 255
183 215 255
195 227 255
183 215 255
183 215 255
183 215 255
183 215 255
183 215 255
183 215 255
183 215 255
183 215 255
183 215 255
183 215 255
183 215 255
183 215 255
183 215 255
183 215 255
183 215 255
183 215 255
183 215 255
183 215 255
183 215 255
183 215 255
183 215 255
183 215 255
183 215 255
183 215 255
183 215 255
183 215 255
183 215 255
183 215 255
183 215 255
183 215 255
183 215 255
183 215 255
183 215 255
183 215 255
183 215 255
183 215 255
195 227 255
183 215 255
183 215 255
183 215 255
183 215 255
183 215 255
183 215 255
183 215 255
183 215 255
183 215 255
183 215 255
183 215 255
183 215 255
183 215 255
183 215 255
183 215 255
183 215 255
183 215 255
183 215 255
183 215 255
183 215 255
183 215 255
183 215 255
183 215 255
183 215 255
183 215 255
183 215 255
183 215 255
183 215 255
183 215 255
183 215 255
183 215 255
183 215 255
183 215 255
183 215 255
183 215 255
183 215 255
195 227 255
183 215 255
183 215 255
183 215 255
183 215 255
183 215 255
183 215 255
183 215 255
183 215 255
183 215 255
183 215 255
183 215 255
183 215 255
183 215 255
183 215 255
183 215 255
183 215 255
183 215 255
183 215 255
183 215 255
183 215 255
183 215 255
183 215 255
183 215 255
183 215 255
183 215 255
183 215 255
183 215 255
183 215 255
183 215 255
183 215 255
183 215 255
183 215 255
183 215 255
183 215 255
183 215 255
183 215 255
195 227 255
183 215 255
183 215 255
183 215 255
183 215 255
183 215 255
183 215 255
183 215 255
183 215 255
183 215 255
183 215 255
183 215 255
183 215 255
183 215 255
183 215 255
183 215 255
183 215 255
183 215 255
183 215 255
183 215 255
183 215 255
183 215 255
183 215 255
183 215 255
183 215 255
183 215 255
183 215 255
183 215 255
183 215 255
183 215 255
183 215 255
183 215 255
183 215 255
183 215 255
183 215 255
183 215 255
183 215 255
195 227 255
183 215 255
183 215 255
183 215 255
183 215 255
183 215 255
183 215 255
183 215 255
183 215 255
183 215 255
183 215 255
183 215 255
183 215 255
183 215 255
183 215 255
183 215 255
183 215 255
183 215 255
183 215 255
183 215 255
183 215 255
183 215 255
183 215 255
183 215 255
183 215 255
183 215 255
183 215 255
183 215 255
183 215 255
183 215 255
183 215 255
183 215 255
183 215 255
183 215 255
183 215 255
183 215 255
183 215 255
195 227 255
183 215 255
183 215 255
183 215 255
183 215 255
183 215 255
183 215 255
183 215 255
183 215 255
183 215 255
183 215 255
183 215 255
183 215 255
183 215 255
183 215 255
183 215 255
183 215 255
183 215 255
183 215 255
183 215 255
183 215 255
183 215 255
183 215 255
183 215 255
183 215 255
183 215 255
183 215 255
183 215 255
183 215 255
183 215 255
183 215 255
183 215 255
183 215 255
183 215 255
183 215 255
183 215 255
183 215 255
195 227 255
183 215 255
183 215 255
183 215 255
183 215 255
183 215 255
183 215 255
183 215 255
183 215 255
183 215 255
183 215 255
183 215 255
183 215 255
183 215 255
183 215 255
183 215 255
183 215 255
183 215 255
183 215 255
183 215 255
183 215 255
183 215 255
183 215 255
183 215 255
183 215 255
183 215 255
183 215 255
183 215 255
183 215 255
183 215 255
183 215 255
183 215 255
183 215 255
183 215 255
183 215 255
183 215 255
183 215 255
195 227 255
183 215 255
183 215 255
183 215 255
183 215 255
183 215 255
183 215 255
183 215 255
183 215 255
183 215 255
183 215 255
183 215 255
183 215 255
183 215 255
183 215 255
183 215 255
183 215 255
183 215 255
183 215 255
183 215 255
183 215 255
183 215 255
183 215 255
183 215 255
183 215 255
183 215 255
183 215 255
183 215 255
183 215 255
183 215 255
183 215 255
183 215 255
183 215 255
183 215 255
183 215 255
183 215 255
183 215 255
183 215 255
183 215 255
183 215 255
183 215 255
183 215 255
183 215 255
183 215 255
183 215 255
183 215 255
183 215 255
183 215 255
183 215 255
183 215 255
183 215 255
183 215 255
183 215 255
183 215 255
183 215 255
183 215 255
183 215 255
183 215 255
183 215 255
183 215 255
195 227 255
183 215 255
183 215 255
183 215 255
183 215 255
183 215 255
183 215 255
183 215 255
183 215 255
183 215 255
183 215 255
183 215 255
183 215 255
183 215 255
183 215 255
183 215 255
183 215 255
183 215 255
183 215 255
183 215 255
183 215 255
183 215 255
183 215 255
183 215 255
183 215 255
183 215 255
183 215 255
183 215 255
183 215 255
183 215 255
183 215 255
183 215 255
183 215 255
183 215 255
183 215 255
183 215 255
183 215 255
195 227 255
183 215 255
183 215 255
183 215 255
183 215 255
183 215 255
183 215 255
183 215 255
183 215 255
183 215 255
183 215 255
183 215 255
183 215 255
183 215 255
183 215 255
183 215 255
183 215 255
183 215 255
183 215 255
183 215 255
183 215 255
183 215 255
183 215 255
183 215 255
183 215 255
183 215 255
183 215 255
183 215 255
183 215 255
183 215 255
183 215 255
183 215 255
183 215 255
183 215 255
183 215 255
183 215 255
183 215 255
195 227 255
183 215 255
183 215 255
183 215 255
183 215 255
183 215 255
183 215 255
183 215 255
183 215 255
183 215 255
183 215 255
183 215 255
183 215 255
183 215 255
183 215 255
183 215 255
183 215 255
183 215 255
183 215 255
183 215 255
183 215 255
183 215 255
183 215 255
183 215 255
183 215 255
183 215 255
183 215 255
183 215 255
183 215 255
183 215 255
183 215 255
183 215 255
183 215 255
183 215 255
183 215 255
183 215 255
183 215 255
195 227 255
183 215 255
183 215 255
183 215 255
183 215 255
183 215 255
183 215 255
183 215 255
183 215 255
183 215 255
183 215 255
183 215 255
183 215 255
183 215 255
183 215 255
183 215 255
183 215 255
183 215 255
183 215 255
183 215 255
183 215 255
183 215 255
183 215 255
183 215 255
183 215 255
183 215 255
183 215 255
183 215 255
183 215 255
183 215 255
183 215 255
183 215 255
183 215 255
183 215 255
183 215 255
183 215 255
183 215 255
195 227 255
183 215 255
183 215 255
183 215 255
183 215 255
183 215 255
183 215 255
183 215 255
183 215 255
183 215 255
183 215 255
183 215 255
183 215 255
183 215 255
183 215 255
183 215 255
183 215 255
183 215 255
183 215 255
183 215 255
183 215 255
183 215 255
183 215 255
183 215 255
183 215 255
183 215 255
183 215 255
183 215 255
183 215 255
183 215 255
183 215 255
183 215 255
183 215 255
183 215 255
183 215 255
183 215 255
183 215 255
195 227 255
183 215 255
183 215 255
183 215 255
183 215 255
183 215 255
183 215 255
183 215 255
183 215 255
183 215 255
183 215 255
183 215 255
183 215 255
183 215 255
183 215 255
183 215 255
183 215 255
183 215 255
183 215 255
183 215 255
183 215 255
183 215 255
183 215 255
183 215 255
183 215 255
183 215 255
183 215 255
183 215 255
183 215 255
183 215 255
183 215 255
183 215 255
183 215 255
183 215 255
183 215 255
183 215 255
183 215 255
195 227 255
183 215 255
183 215 255
183 215 255
183 215 255
183 215 255
183 215 255
183 215 255
183 215 255
183 215 255
183 215 255
183 215 255
183 215 255
183 215 255
183 215 255
183 215 255
183 215 255
183 215 255
183 215 255
183 215 255
183 215 255
183 215 255
183 215 255
183 215 255
183 215 255
183 215 255
183 215 255
183 215 255
183 215 255
183 215 255
183 215 255
183 215 255
183 215 255
183 215 255
183 215 255
183 215 255
183 215 255
195 227 255
183 215 255
183 215 255
183 215 255
183 215 255
183 215 255
183 215 255
183 215 255
183 215 255
183 215 255
183 215 255
183 215 255
183 215 255
183 215 255
183 215 255
183 215 255
183 215 255
183 215 255
183 215 255
183 215 255
183 215 255
183 215 255
183 215 255
183 215 255
183 215 255
183 215 255
183 215 255
183 215 255
183 215 255
183 215 255
183 215 255
183 215 255
183 215 255
183 215 255
183 215 255
183 215 255
183 215 255
183 215 255
183 215 255
183 215 255
183 215 255
183 215 255
183 215 255
183 215 255
183 215 255
183 215 255
183 215 255
183 215 255
183 215 255
183 215 255
183 215 255
183 215 255
183 215 255
183 215 255
183 215 255
183 215 255
183 215 255
183 215 255
183 215 255
183 215 255
195 227 255
183 215 255
183 215 255
183 215 255
183 215 255
183 215 255
183 215 255
183 215 255
183 215 255
183 215 255
183 215 255
183 215 255
183 215 255
183 215 255
183 215 255
183 215 255
183 215 255
183 215 255
183 215 255
183 215 255
183 215 255
183 215 255
183 215 255
183 215 255
183 215 255
183 215 255
183 215 255
183 215 255
183 215 255
183 215 255
183 215 255
183 215 255
183 215 255
183 215 255
183 215 255
183 215 255
183 215 255
195 227 255
183 215 255
183 215 255
183 215 255
183 215 255
183 215 255
183 215 255
183 215 255
183 215 255
183 215 255
183 215 255
183 215 255
183 215 255
183 215 255
183 215 255
183 215 255
183 215 255
183 215 255
183 215 255
183 215 255
183 215 255
183 215 255
183 215 255
183 215 255
183 215 255
183 215 255
183 215 255
183 215 255
183 215 255
183 215 255
183 215 255
183 215 255
183 215 255
183 215 255
183 215 255
183 215 255
183 215 255
195 227 255
183 215 255
183 215 255
183 215 255
183 215 255
183 215 255
183 215 255
183 215 255
183 215 255
183 215 255
183 215 255
183 215 255
183 215 255
183 215 255
183 215 255
183 215 255
183 215 255
183 215 255
183 215 255
183 215 255
183 215 255
183 215 255
183 215 255
183 215 255
183 215 255
183 215 255
183 215 255
183 215 255
183 215 255
183 215 255
183 215 255
183 215 255
183 215 255
183 215 255
183 215 255
183 215 255
183 215 255
195 227 255
183 215 255
183 215 255
183 215 255
183 215 255
183 215 255
183 215 255
183 215 255
183 215 255
183 215 255
183 215 255
183 215 255
183 215 255
183 215 255
183 215 255
183 215 255
183 215 255
183 215 255
183 215 255
183 215 255
183 215 255
183 215 255
183 215 255
183 215 255
183 215 255
183 215 255
183 215 255
183 215 255
183 215 255
183 215 255
183 215 255
183 215 255
183 215 255
183 215 255
183 215 255
183 215 255
183 215 255
195 227 255
183 215 255
183 215 255
183 215 255
183 215 255
183 215 255
183 215 255
183 215 255
183 215 255
183 215 255
183 215 255
183 215 255
183 215 255
183 215 255
183 215 255
183 215 255
183 215 255
183 215 255
183 215 255
183 215 255
183 215 255
183 215 255
183 215 255
183 215 255
183 215 255
183 215 255
183 215 255
183 215 255
183 215 255
183 215 255
183 215 255
183 215 255
183 215 255
183 215 255
183 215 255
183 215 255
183 215 255
195 227 255
183 215 255
183 215 255
183 215 255
183 215 255
183 215 255
183 215 255
183 215 255
183 215 255
183 215 255
183 215 255
183 215 255
183 215 255
183 215 255
183 215 255
183 215 255
183 215 255
183 215 255
183 215 255
183 215 255
183 215 255
183 215 255
183 215 255
183 215 255
183 215 255
183 215 255
183 215 255
183 215 255
183 215 255
183 215 255
183 215 255
183 215 255
183 215 255
183 215 255
183 215 255
183 215 255
183 215 255
195 227 255
183 215 255
183 215 255
183 215 255
183 215 255
183 215 255
183 215 255
183 215 255
183 215 255
183 215 255
183 215 255
183 215 255
183 215 255
183 215 255
183 215 255
183 215 255
183 215 255
183 215 255
183 215 255
183 215 255
183 215 255
183 215 255
183 215 255
183 215 255
183 215 255
183 215 255
183 215 255
183 215 255
183 215 255
183 215 255
183 215 255
183 215 255
183 215 255
183 215 255
183 215 255
183 215 255
183 215 255
195 227 255
183 215 255
183 215 255
183 215 255
183 215 255
183 215 255
183 215 255
183 215 255
183 215 255
183 215 255
183 215 255
183 215 255
183 215 255
183 215 255
183 215 255
183 215 255
183 215 255
183 215 255
183 215 255
183 215 255
183 215 255
183 215 255
183 215 255
183 215 255
183 215 255
183 215 255
183 215 255
183 215 255
183 215 255
183 215 255
183 215 255
183 215 255
183 215 255
183 215 255
183 215 255
183 215 255
183 215 255
183 215 255
183 215 255
183 215 255
183 215 255
183 215 255
183 215 255
183 215 255
183 215 255
183 215 255
183 215 255
183 215 255
183 215 255
183 215 255
183 215 255
183 215 255
183 215 255
183 215 255
183 215 255
183 215 255
183 215 255
183 215 255
183 215 255
183 215 255
195 227 255
183 215 255
183 215 255
183 215 255
183 215 255
183 215 255
183 215 255
183 215 255
183 215 255
183 215 255
183 215 255
183 215 255
183 215 255
183 215 255
183 215 255
183 215 255
183 215 255
183 215 255
183 215 255
183 215 255
183 215 255
183 215 255
183 215 255
183 215 255
183 215 255
183 215 255
183 215 255
183 215 255
183 215 255
183 215 255
183 215 255
183 215 255
183 215 255
183 215 255
183 215 255
183 215 255
183 215 255
195 227 255
183 215 255
183 215 255
183 215 255
183 215 255
183 215 255
183 215 255
183 215 255
183 215 255
183 215 255
183 215 255
183 215 255
183 215 255
183 215 255
183 215 255
183 215 255
183 215 255
183 215 255
183 215 255
183 215 255
183 215 255
183 215 255
183 215 255
183 215 255
183 215 255
183 215 255
183 215 255
183 215 255
183 215 255
183 215 255
183 215 255
183 215 255
183 215 255
183 215 255
183 215 255
183 215 255
183 215 255
195 227 255
183 215 255
183 215 255
183 215 255
183 215 255
183 215 255
183 215 255
183 215 255
183 215 255
183 215 255
183 215 255
183 215 255
183 215 255
183 215 255
183 215 255
183 215 255
183 215 255
183 215 255
183 215 255
183 215 255
183 215 255
183 215 255
183 215 255
183 215 255
183 215 255
183 215 255
183 215 255
183 215 255
183 215 255
183 215 255
183 215 255
183 215 255
183 215 255
183 215 255
183 215 255
183 215 255
183 215 255
195 227 255
183 215 255
183 215 255
183 215 255
183 215 255
183 215 255
183 215 255
183 215 255
183 215 255
183 215 255
183 215 255
183 215 255
183 215 255
183 215 255
183 215 255
183 215 255
183 215 255
183 215 255
183 215 255
183 215 255
183 215 255
183 215 255
183 215 255
183 215 255
183 215 255
183 215 255
183 215 255
183 215 255
183 215 255
183 215 255
183 215 255
183 215 255
183 215 255
183 215 255
183 215 255
183 215 255
183 215 255
195 227 255
183 215 255
183 215 255
183 215 255
183 215 255
183 215 255
183 215 255
183 215 255
183 215 255
183 215 255
183 215 255
183 215 255
183 215 255
183 215 255
183 215 255
183 215 255
183 215 255
183 215 255
183 215 255
183 215 255
183 215 255
183 215 255
183 215 255
183 215 255
183 215 255
183 215 255
183 215 255
183 215 255
183 215 255
183 215 255
183 215 255
183 215 255
183 215 255
183 215 255
183 215 255
183 215 255
183 215 255
195 227 255
183 215 255
183 215 255
183 215 255
183 215 255
183 215 255
183 215 255
183 215 255
183 215 255
183 215 255
183 215 255
183 215 255
183 215 255
183 215 255
183 215 255
183 215 255
183 215 255
183 215 255
183 215 255
183 215 255
183 215 255
183 215 255
183 215 255
183 215 255
183 215 255
183 215 255
183 215 255
183 215 255
183 215 255
183 215 255
183 215 255
183 215 255
183 215 255
183 215 255
183 215 255
183 215 255
183 215 255
195 227 255
183 215 255
183 215 255
183 215 255
183 215 255
183 215 255
183 215 255
183 215 255
183 215 255
183 215 255
183 215 255
183 215 255
183 215 255
183 215 255
183 215 255
183 215 255
183 215 255
183 215 255
183 215 255
183 215 255
183 215 255
183 215 255
183 215 255
183 215 255
183 215 255
183 215 255
183 215 255
183 215 255
183 215 255
183 215 255
183 215 255
183 215 255
183 215 255
183 215 255
183 215 255
183 215 255
183 215 255
195 227 255
183 215 255
183 215 255
183 215 255
183 215 255
183 215 255
183 215 255
183 215 255
183 215 255
183 215 255
183 215 255
183 215 255
183 215 255
183 215 255
183 215 255
183 215 255
183 215 255
183 215 255
183 215 255
183 215 255
183 215 255
183 215 255
183 215 255
183 215 255
183 215 255
183 215 255
183 215 255
183 215 255
183 215 255
183 215 255
183 215 255
183 215 255
183 215 255
183 215 255
183 215 255
183 215 255
183 215 255
195 227 255
183 215 255
183 215 255
183 215 255
183 215 255
183 215 255
183 215 255
183 215 255
183 215 255
183 215 255
183 215 255
183 215 255
183 215 255
183 215 255
183 215 255
183 215 255
183 215 255
183 215 255
183 215 255
183 215 255
183 215 255
183 215 255
183 215 255
195 227 255
183 215 255
183 215 255
183 215 255
183 215 255
183 215 255
183 215 255
183 215 255
183 215 255
183 215 255
183 215 255
183 215 255
183 215 255
183 215 255
183 215 255
183 215 255
183 215 255
183 215 255
183 215 255
183 215 255
183 215 255
183 215 255
183 215 255
183 215 255
183 215 255
183 215 255
183 215 255
183 215 255
183 215 255
183 215 255
183 215 255
183 215 255
183 215 255
183 215 255
183 215 255
183 215 255
183 215 255
195 227 255
183 215 255
183 215 255
183 215 255
183 215 255
183 215 255
183 215 255
183 215 255
183 215 255
183 215 255
183 215 255
183 215 255
183 215 255
183 215 255
183 215 255
183 215 255
183 215 255
183 215 255
183 215 255
183 215 255
183 215 255
183 215 255
183 215 255
183 215 255
183 215 255
183 215 255
183 215 255
183 215 255
183 215 255
183 215 255
183 215 255
183 215 255
183 215 255
183 215 255
183 215 255
183 215 255
183 215 255
195 227 255
183 215 255
183 215 255
183 215 255
183 215 255
183 215 255
183 215 255
183 215 255
183 215 255
183 215 255
183 215 255
183 215 255
183 215 255
183 215 255
183 215 255
183 215 255
183 215 255
183 215 255
183 215 255
183 215 255
183 215 255
183 215 255
183 215 255
183 215 255
183 215 255
183 215 255
183 215 255
183 215 255
183 215 255
183 215 255
183 215 255
183 215 255
183 215 255
183 215 255
183 215 255
183 215 255
183 215 255
195 227 255
183 215 255
183 215 255
183 215 255
183 215 255
183 215 255
183 215 255
183 215 255
183 215 255
183 215 255
183 215 255
183 215 255
183 215 255
183 215 255
183 215 255
183 215 255
183 215 255
183 215 255
183 215 255
183 215 255
183 215 255
183 215 255
183 215 255
183 215 255
183 215 255
183 215 255
183 215 255
183 215 255
183 215 255
183 215 255
183 215 255
183 215 255
183 215 255
183 215 255
183 215 255
183 215 255
183 215 255
195 227 255
183 215 255
183 215 255
183 215 255
183 215 255
183 215 255
183 215 255
183 215 255
183 215 255
183 215 255
183 215 255
183 215 255
183 215 255
183 215 255
183 215 255
183 215 255
183 215 255
183 215 255
183 215 255
183 215 255
183 215 255
183 215 255
183 215 255
183 215 255
183 215 255
183 215 255
183 215 255
183 215 255
183 215 255
183 215 255
183 215 255
183 215 255
183 215 255
183 215 255
183 215 255
183 215 255
183 215 255
195 227 255
183 215 255
183 215 255
183 215 255
183 215 255
183 215 255
183 215 255
183 215 255
183 215 255
183 215 255
183 215 255
183 215 255
183 215 255
183 215 255
183 215 255
183 215 255
183 215 255
183 215 255
183 215 255
183 215 255
183 215 255
183 215 255
183 215 255
183 215 255
183 215 255
183 215 255
183 215 255
183 215 255
183 215 255
183 215 255
183 215 255
183 215 255
183 215 255
183 215 255
183 215 255
183 215 255
183 215 255
195 227 255
183 215 255
183 215 255
183 215 255
183 215 255
183 215 255
183 215 255
183 215 255
183 215 255
183 215 255
183 215 255
183 215 255
183 215 255
183 215 255
183 215 255
183 215 255
183 215 255
183 215 255
183 215 255
183 215 255
183 215 255
183 215 255
183 215 255
183 215 255
183 215 255
183 215 255
183 215 255
183 215 255
183 215 255
183 215 255
183 215 255
183 215 255
183 215 255
183 215 255
183 215 255
183 215 255
183 215 255
195 227 255
183 215 255
183 215 255
183 215 255
183 215 255
183 215 255
183 215 255
183 215 255
183 215 255
183 215 255
183 215 255
183 215 255
183 215 255
183 215 255
183 215 255
183 215 255
183 215 255
183 215 255
183 215 255
183 215 255
183 215 255
183 215 255
183 215 255
183 215 255
183 215 255
183 215 255
183 215 255
183 215 255
183 215 255
183 215 255
183 215 255
183 215 255
183 215 255
183 215 255
183 215 255
183 215 255
183 215 255
195 227 255
183 215 255
183 215 255
183 215 255
183 215 255
183 215 255
183 215 255
183 215 255
183 215 255
183 215 255
183 215 255
183 215 255
183 215 255
183 215 255
183 215 255
183 215 255
183 215 255
183 215 255
183 215 255
183 215 255
183 215 255
183 215 255
183 215 255
195 227 255
183 215 255
183 215 255
183 215 255
183 215 255
183 215 255
183 215 255
183 215 255
183 215 255
183 215 255
183 215 255
183 215 255
183 215 255
183 215 255
183 215 255
183 215 255
183 215 255
183 215 255
183 215 255
183 215 255
183 215 255
183 215 255
183 215 255
183 215 255
183 215 255
183 215 255
183 215 255
183 215 255
183 215 255
183 215 255
183 215 255
183 215 255
183 215 255
183 215 255
183 215 255
183 215 255
183 215 255
195 227 255
183 215 255
183 215 255
183 215 255
183 215 255
183 215 255
183 215 255
183 215 255
183 215 255
183 215 255
183 215 255
183 215 255
183 215 255
183 215 255
183 215 255
183 215 255
183 215 255
183 215 255
183 215 255
183 215 255
183 215 255
183 215 255
183 215 255
183 215 255
183 215 255
183 215 255
183 215 255
183 215 255
183 215 255
183 215 255
183 215 255
183 215 255
183 215 255
183 215 255
183 215 255
183 215 255
183 215 255
195 227 255
183 215 255
183 215 255
183 215 255
183 215 255
183 215 255
183 215 255
183 215 255
183 215 255
183 215 255
183 215 255
183 215 255
183 215 255
183 215 255
183 215 255
183 215 255
183 215 255
183 215 255
183 215 255
183 215 255
183 215 255
183 215 255
183 215 255
183 215 255
183 215 255
183 215 255
183 215 255
183 215 255
183 215 255
183 215 255
183 215 255
183 215 255
183 215 255
183 215 255
183 215 255
183 215 255
183 215 255
195 227 255
183 215 255
183 215 255
183 215 255
183 215 255
183 215 255
183 215 255
183 215 255
183 215 255
183 215 255
183 215 255
183 215 255
183 215 255
183 215 255
183 215 255
183 215 255
183 215 255
183 215 255
183 215 255
183 215 255
183 215 255
183 215 255
183 215 255
183 215 255
183 215 255
183 215 255
183 215 255
183 215 255
183 215 255
183 215 255
183 215 255
183 215 255
183 215 255
183 215 255
183 215 255
183 215 255
183 215 255
195 227 255
183 215 255
183 215 255
183 215 255
183 215 255
183 215 255
183 215 255
183 215 255
183 215 255
183 215 255
183 215 255
183 215 255
183 215 255
183 215 255
183 215 255
183 215 255
183 215 255
183 215 255
183 215 255
183 215 255
183 215 255
183 215 255
183 215 255
183 215 255
183 215 255
183 215 255
183 215 255
183 215 255
183 215 255
183 215 255
183 215 255
183 215 255
183 215 255
183 215 255
183 215 255
183 215 255
183 215 255
195 227 255
183 215 255
183 215 255
183 215 255
183 215 255
183 215 255
183 215 255
183 215 255
183 215 255
183 215 255
183 215 255
183 215 255
183 215 255
183 215 255
183 215 255
183 215 255
183 215 255
183 215 255
183 215 255
183 215 255
183 215 255
183 215 255
183 215 255
183 215 255
183 215 255
183 215 255
183 215 255
183 215 255
183 215 255
183 215 255
183 215 255
183 215 255
183 215 255
183 215 255
183 215 255
183 215 255
183 215 255
195 227 255
183 215 255
183 215 255
183 215 255
183 215 255
183 215 255
183 215 255
183 215 255
183 215 255
183 215 255
183 215 255
183 215 255
183 215 255
183 215 255
183 215 255
183 215 255
183 215 255
183 215 255
183 215 255
183 215 255
183 215 255
183 215 255
183 215 255
183 215 255
183 215 255
183 215 255
183 215 255
183 215 255
183 215 255
183 215 255
183 215 255
183 215 255
183 215 255
183 215 255
183 215 255
183 215 255
183 215 255
195 227 255
183 215 255
183 215 255
183 215 255
183 215 255
183 215 255
183 215 255
183 215 255
183 215 255
183 215 255
183 215 255
183 215 255
183 215 255
183 215 255
183 215 255
183 215 255
183 215 255
183 215 255
183 215 255
183 215 255
183 215 255
183 215 255
183 215 255
183 215 255
183 215 255
183 215 255
183 215 255
183 215 255
183 215 255
183 215 255
183 215 255
183 215 255
183 215 255
183 215 255
183 215 255
183 215 255
183 215 255
195 227 255
183 215 255
183 215 255
183 215 255
183 215 255
183 215 255
183 215 255
183 215 255
183 215 255
183 215 255
183 215 255
183 215 255
183 215 255
183 215 255
183 215 255
183 215 255
183 215 255
183 215 255
183 215 255
183 215 255
183 215 255
183 215 255
183 215 255
195 227 255
183 215 255
183 215 255
183 215 255
183 215 255
183 215 255
183 215 255
183 215 255
183 215 255
183 215 255
183 215 255
183 215 255
183 215 255
183 215 255
183 215 255
183 215 255
183 215 255
183 215 255
183 215 255
183 215 255
183 215 255
183 215 255
183 215 255
183 215 255
183 215 255
183 215 255
183 215 255
183 215 255
183 215 255
183 215 255
183 215 255
183 215 255
183 215 255
183 215 255
183 215 255
183 215 255
183 215 255
195 227 255
183 215 255
183 215 255
183 215 255
183 215 255
183 215 255
183 215 255
183 215 255
183 215 255
183 215 255
183 215 255
183 215 255
183 215 255
183 215 255
183 215 255
183 215 255
183 215 255
183 215 255
183 215 255
183 215 255
183 215 255
183 215 255
183 215 255
183 215 255
183 215 255
183 215 255
183 215 255
183 215 255
183 215 255
183 215 255
183 215 255
183 215 255
183 215 255
183 215 255
183 215 255
183 215 255
183 215 255
195 227 255
183 215 255
183 215 255
183 215 255
183 215 255
183 215 255
183 215 255
183 215 255
183 215 255
183 215 255
183 215 255
183 215 255
183 215 255
183 215 255
183 215 255
183 215 255
183 215 255
183 215 255
183 215 255
183 215 255
183 215 255
183 215 255
183 215 255
183 215 255
183 215 255
183 215 255
183 215 255
183 215 255
183 215 255
183 215 255
183 215 255
183 215 255
183 215 255
183 215 255
183 215 255
183 215 255
183 215 255
195 227 255
183 215 255
183 215 255
183 215 255
183 215 255
183 215 255
183 215 255
183 215 255
183 215 255
183 215 255
183 215 255
183 215 255
183 215 255
183 215 255
183 215 255
183 215 255
183 215 255
183 215 255
183 215 255
183 215 255
183 215 255
183 215 255
183 215 255
183 215 255
183 215 255
183 215 255
183 215 255
183 215 255
183 215 255
183 215 255
183 215 255
183 215 255
183 215 255
183 215 255
183 215 255
183 215 255
183 215 255
195 227 255
183 215 255
183 215 255
183 215 255
183 215 255
183 215 255
183 215 255
183 215 255
183 215 255
183 215 255
183 215 255
183 215 255
183 215 255
183 215 255
183 215 255
183 215 255
183 215 255
183 215 255
183 215 255
183 215 255
183 215 255
183 215 255
183 215 255
183 215 255
183 215 255
183 215 255
183 215 255
183 215 255
183 215 255
183 215 255
183 215 255
183 215 255
183 215 255
183 215 255
183 215 255
183 215 255
183 215 255
195 227 255
183 215 255
183 215 255
183 215 255
183 215 255
183 215 255
183 215 255
183 215 255
183 215 255
183 215 255
183 215 255
183 215 255
183 215 255
183 215 255
183 215 255
183 215 255
183 215 255
183 215 255
183 215 255
183 215 255
183 215 255
183 215 255
183 215 255
183 215 255
183 215 255
183 215 255
183 215 255
183 215 255
183 215 255
183 215 255
183 215 255
183 215 255
183 215 255
183 215 255
183 215 255
183 215 255
183 215 255
195 227 255
183 215 255
183 215 255
183 215 255
183 215 255
183 215 255
183 215 255
183 215 255
183 215 255
183 215 255
183 215 255
183 215 255
183 215 255
183 215 255
183 215 255
183 215 255
183 215 255
183 215 255
183 215 255
183 215 255
183 215 255
183 215 255
183 215 255
183 215 255
183 215 255
183 215 255
183 215 255
183 215 255
183 215 255
183 215 255
183 215 255
183 215 255
183 215 255
183 215 255
183 215 255
183 215 255
183 215 255
195 227 255
183 215 255
183 215 255
183 215 255
183 215 255
183 215 255
183 215 255
183 215 255
183 215 255
183 215 255
183 215 255
183 215 255
183 215 255
183 215 255
183 215 255
183 215 255
183 215 255
183 215 255
183 215 255
183 215 255
183 215 255
183 215 255
183 215 255
183 215 255
183 215 255
183 215 255
183 215 255
183 215 255
183 215 255
183 215 255
183 215 255
183 215 255
183 215 255
183 215 255
183 215 255
183 215 255
183 215 255
195 227 255
183 215 255
183 215 255
183 215 255
183 215 255
183 215 255
183 215 255
183 215 255
183 215 255
183 215 255
183 215 255
183 215 255
183 215 255
183 215 255
183 215 255
183 215 255
183 215 255
183 215 255
183 215 255
183 215 255
183 215 255
183 215 255
183 215 255
195 227 255
183 215 255
183 215 255
183 215 255
183 215 255
183 215 255
183 215 255
183 215 255
183 215 255
183 215 255
183 215 255
183 215 255
183 215 255
183 215 255
183 215 255
183 215 255
183 215 255
183 215 255
183 215 255
183 215 255
183 215 255
183 215 255
183 215 255
183 215 255
183 215 255
183 215 255
183 215 255
183 215 255
183 215 255
183 215 255
183 215 255
183 215 255
183 215 255
183 215 255
183 215 255
183 215 255
183 215 255
195 227 255
183 215 255
183 215 255
183 215 255
183 215 255
183 215 255
183 215 255
183 215 255
183 215 255
183 215 255
183 215 255
183 215 255
183 215 255
183 215 255
183 215 255
183 215 255
183 215 255
183 215 255
183 215 255
183 215 255
183 215 255
183 215 255
183 215 255
183 215 255
183 215 255
183 215 255
183 215 255
183 215 255
183 215 255
183 215 255
183 215 255
183 215 255
183 215 255
183 215 255
183 215 255
183 215 255
183 215 255
195 227 255
183 215 255
183 215 255
183 215 255
183 215 255
183 215 255
183 215 255
183 215 255
183 215 255
183 215 255
183 215 255
183 215 255
183 215 255
183 215 255
183 215 255
183 215 255
183 215 255
183 215 255
183 215 255
183 215 255
183 215 255
183 215 255
183 215 255
183 215 255
183 215 255
183 215 255
183 215 255
183 215 255
183 215 255
183 215 255
183 215 255
183 215 255
183 215 255
183 215 255
183 215 255
183 215 255
183 215 255
195 227 255
183 215 255
183 215 255
183 215 255
183 215 255
183 215 255
183 215 255
183 215 255
183 215 255
183 215 255
183 215 255
183 215 255
183 215 255
183 215 255
183 215 255
183 215 255
183 215 255
183 215 255
183 215 255
183 215 255
183 215 255
183 215 255
183 215 255
183 215 255
183 215 255
183 215 255
183 215 255
183 215 255
183 215 255
183 215 255
183 215 255
183 215 255
183 215 255
183 215 255
183 215 255
183 215 255
183 215 255
195 227 255
183 215 255
183 215 255
183 215 255
183 215 255
183 215 255
183 215 255
183 215 255
183 215 255
183 215 255
183 215 255
183 215 255
183 215 255
183 215 255
183 215 255
183 215 255
183 215 255
183 215 255
183 215 255
183 215 255
183 215 255
183 215 255
183 215 255
183 215 255
183 215 255
183 215 255
183 215 255
183 215 255
183 215 255
183 215 255
183 215 255
183 215 255
183 215 255
183 215 255
183 215 255
183 215 255
183 215 255
195 227 255
183 215 255
183 215 255
183 215 255
183 215 255
183 215 255
183 215 255
183 215 255
183 215 255
183 215 255
183 215 255
183 215 255
183 215 255
183 215 255
183 215 255
183 215 255
183 215 255
183 215 255
183 215 255
183 215 255
183 215 255
183 215 255
183 215 255
183 215 255
183 215 255
183 215 255
183 215 255
183 215 255
183 215 255
183 215 255
183 215 255
183 215 255
183 215 255
183 215 255
183 215 255
183 215 255
183 215 255
195 227 255
183 215 255
183 215 255
183 215 255
183 215 255
183 215 255
183 215 255
183 215 255
183 215 255
183 215 255
183 215 255
183 215 255
183 215 255
183 215 255
183 215 255
183 215 255
183 215 255
183 215 255
183 215 255
183 215 255
183 215 255
183 215 255
183 215 255
183 215 255
183 215 255
183 215 255
183 215 255
183 215 255
183 215 255
183 215 255
183 215 255
183 215 255
183 215 255
183 215 255
183 215 255
183 215 255
183 215 255
195 227 255
183 215 255
183 215 255
183 215 255
183 215 255
183 215 255
183 215 255
183 215 255
183 215 255
183 215 255
183 215 255
183 215 255
183 215 255
183 215 255
183 215 255
183 215 255
183 215 255
183 215 255
183 215 255
183 215 255
183 215 255
183 215 255
183 215 255
183 215 255
183 215 255
183 215 255
183 215 255
183 215 255
183 215 255
183 215 255
183 215 255
183 215 255
183 215 255
183 215 255
183 215 255
183 215 255
183 215 255
195 227 255
183 215 255
183 215 255
183 215 255
183 215 255
183 215 255
183 215 255
183 215 255
183 215 255
183 215 255
183 215 255
183 215 255
183 215 255
183 215 255
183 215 255
183 215 255
183 215 255
183 215 255
183 215 255
183 215 255
183 215 255
183 215 255
183 215 255
195 227 255
183 215 255
183 215 255
183 215 255
183 215 255
183 215 255
183 215 255
183 215 255
183 215 255
183 215 255
183 215 255
183 215 255
183 215 255
183 215 255
183 215 255
183 215 255
183 215 255
183 215 255
183 215 255
183 215 255
183 215 255
183 215 255
183 215 255
183 215 255
183 215 255
183 215 255
183 215 255
183 215 255
183 215 255
183 215 255
183 215 255
183 215 255
183 215 255
183 215 255
183 215 255
183 215 255
183 215 255
195 227 255
183 215 255
183 215 255
183 215 255
183 215 255
183 215 255
183 215 255
183 215 255
183 215 255
183 215 255
183 215 255
183 215 255
183 215 255
183 215 255
183 215 255
183 215 255
183 215 255
183 215 255
183 215 255
183 215 255
183 215 255
183 215 255
183 215 255
183 215 255
183 215 255
183 215 255
183 215 255
183 215 255
183 215 255
183 215 255
183 215 255
183 215 255
183 215 255
183 215 255
183 215 255
183 215 255
183 215 255
195 227 255
183 215 255
183 215 255
183 215 255
183 215 255
183 215 255
183 215 255
183 215 255
183 215 255
183 215 255
183 215 255
183 215 255
183 215 255
183 215 255
183 215 255
183 215 255
183 215 255
183 215 255
183 215 255
183 215 255
183 215 255
183 215 255
183 215 255
183 215 255
183 215 255
183 215 255
183 215 255
183 215 255
183 215 255
183 215 255
183 215 255
183 215 255
183 215 255
183 215 255
183 215 255
183 215 255
183 215 255
195 227 255
183 215 255
183 215 255
183 215 255
183 215 255
183 215 255
183 215 255
183 215 255
183 215 255
183 215 255
183 215 255
183 215 255
183 215 255
183 215 255
183 215 255
183 215 255
183 215 255
183 215 255
183 215 255
183 215 255
183 215 255
183 215 255
183 215 255
183 215 255
183 215 255
183 215 255
183 215 255
183 215 255
183 215 255
183 215 255
183 215 255
183 215 255
183 215 255
183 215 255
183 215 255
183 215 255
183 215 255
195 227 255
183 215 255
183 215 255
183 215 255
183 215 255
183 215 255
183 215 255
183 215 255
183 215 255
183 215 255
183 215 255
183 215 255
183 215 255
183 215 255
183 215 255
183 215 255
183 215 255
183 215 255
183 215 255
183 215 255
183 215 255
183 215 255
183 215 255
183 215 255
183 215 255
183 215 255
183 215 255
183 215 255
183 215 255
183 215 255
183 215 255
183 215 255
183 215 255
183 215 255
183 215 255
183 215 255
183 215 255
195 227 255
183 215 255
183 215 255
183 215 255
183 215 255
183 215 255
183 215 255
183 215 255
183 215 255
183 215 255
183 215 255
183 215 255
183 215 255
183 215 255
183 215 255
183 215 255
183 215 255
183 215 255
183 215 255
183 215 255
183 215 255
183 215 255
183 215 255
183 215 255
183 215 255
183 215 255
183 215 255
183 215 255
183 215 255
183 215 255
183 215 255
183 215 255
183 215 255
183 215 255
183 215 255
183 215 255
183 215 255
195 227 255
183 215 255
183 215 255
183 215 255
183 215 255
183 215 255
183 215 255
183 215 255
183 215 255
183 215 255
183 215 255
183 215 255
183 215 255
183 215 255
183 215 255
183 215 255
183 215 255
183 215 255
183 215 255
183 215 255
183 215 255
183 215 255
183 215 255
183 215 255
183 215 255
183 215 255
183 215 255
183 215 255
183 215 255
183 215 255
183 215 255
183 215 255
183 215 255
183 215 255
183 215 255
183 215 255
183 215 255
195 227 255
183 215 255
183 215 255
183 215 255
183 215 255
183 215 255
183 215 255
183 215 255
183 215 255
183 215 255
183 215 255
183 215 255
183 215 255
183 215 255
183 215 255
183 215 255
183 215 255
183 215 255
183 215 255
183 215 255
183 215 255
183 215 255
183 215 255
183 215 255
183 215 255
183 215 255
183 215 255
183 215 255
183 215 255
183 215 255
183 215 255
183 215 255
183 215 255
183 215 255
183 215 255
183 215 255
183 215 255
195 227 255
183 215 255
183 215 255
183 215 255
183 215 255
183 215 255
183 215 255
183 215 255
183 215 255
183 215 255
183 215 255
183 215 255
183 215 255
183 215 255
183 215 255
183 215 255
183 215 255
183 215 255
183 215 255
183 215 255
183 215 255
183 215 255
183 215 255
195 227 255
183 215 255
183 215 255
183 215 255
183 215 255
183 215 255
183 215 255
183 215 255
183 215 255
183 215 255
183 215 255
183 215 255
183 215 255
183 215 255
183 215 255
183 215 255
183 215 255
183 215 255
183 215 255
183 215 255
183 215 255
183 215 255
183 215 255
183 215 255
183 215 255
183 215 255
183 215 255
183 215 255
183 215 255
183 215 255
183 215 255
183 215 255
183 215 255
183 215 255
183 215 255
183 215 255
183 215 255
195 227 255
183 215 255
183 215 255
183 215 255
183 215 255
183 215 255
183 215 255
183 215 255
183 215 255
183 215 255
183 215 255
183 215 255
183 215 255
183 215 255
183 215 255
183 215 255
183 215 255
183 215 255
183 215 255
183 215 255
183 215 255
183 215 255
183 215 255
183 215 255
183 215 255
183 215 255
183 215 255
183 215 255
183 215 255
183 215 255
183 215 255
183 215 255
183 215 255
183 215 255
183 215 255
183 215 255
183 215 255
195 227 255
183 215 255
183 215 255
183 215 255
183 215 255
183 215 255
183 215 255
183 215 255
183 215 255
183 215 255
183 215 255
183 215 255
183 215 255
183 215 255
183 215 255
183 215 255
183 215 255
183 215 255
183 215 255
183 215 255
183 215 255
183 215 255
183 215 255
183 215 255
183 215 255
183 215 255
183 215 255
183 215 255
183 215 255
183 215 255
183 215 255
183 215 255
183 215 255
183 215 255
183 215 255
183 215 255
183 215 255
195 227 255
183 215 255
183 215 255
183 215 255
183 215 255
183 215 255
183 215 255
183 215 255
183 215 255
183 215 255
183 215 255
183 215 255
183 215 255
183 215 255
183 215 255
183 215 255
183 215 255
183 215 255
183 215 255
183 215 255
183 215 255
183 215 255
183 215 255
183 215 255
183 215 255
183 215 255
183 215 255
183 215 255
183 215 255
183 215 255
183 215 255
183 215 255
183 215 255
183 215 255
183 215 255
183 215 255
183 215 255
195 227 255
183 215 255
183 215 255
183 215 255
183 215 255
183 215 255
183 215 255
183 215 255
183 215 255
183 215 255
183 215 255
183 215 255
183 215 255
183 215 255
183 215 255
183 215 255
183 215 255
183 215 255
183 215 255
183 215 255
183 215 255
183 215 255
183 215 255
183 215 255
183 215 255
183 215 255
183 215 255
183 215 255
183 215 255
183 215 255
183 215 255
183 215 255
183 215 255
183 215 255
183 215 255
183 215 255
183 215 255
195 227 255
183 215 255
183 215 255
183 215 255
183 215 255
183 215 255
183 215 255
183 215 255
183 215 255
183 215 255
183 215 255
183 215 255
183 215 255
183 215 255
183 215 255
183 215 255
183 215 255
183 215 255
183 215 255
183 215 255
183 215 255
183 215 255
183 215 255
183 215 255
183 215 255
183 215 255
183 215 255
183 215 255
183 215 255
183 215 255
183 215 255
183 215 255
183 215 255
183 215 255
183 215 255
183 215 255
183 215 255
195 227 255
183 215 255
183 215 255
183 215 255
183 215 255
183 215 255
183 215 255
183 215 255
183 215 255
183 215 255
183 215 255
183 215 255
183 215 255
183 215 255
183 215 255
183 215 255
183 215 255
183 215 255
183 215 255
183 215 255
183 215 255
183 215 255
183 215 255
183 215 255
183 215 255
183 215 255
183 215 255
183 215 255
183 215 255
183 215 255
183 215 255
183 215 255
183 215 255
183 215 255
183 215 255
183 215 255
183 215 255
195 227 255
183 215 255
183 215 255
183 215 255
183 215 255
183 215 255
183 215 255
183 215 255
183 215 255
183 215 255
183 215 255
183 215 255
183 215 255
183 215 255
183 215 255
183 215 255
183 215 255
183 215 255
183 215 255
183 215 255
183 215 255
183 215 255
183 215 255
183 215 255
183 215 255
183 215 255
183 215 255
183 215 255
183 215 255
183 215 255
183 215 255
183 215 255
183 215 255
183 215 255
183 215 255
183 215 255
183 215 255
195 227 255
183 215 255
183 215 255
183 215 255
183 215 255
183 215 255
183 215 255
183 215 255
183 215 255
183 215 255
183 215 255
183 215 255
183 215 255
183 215 255
183 215 255
183 215 255
183 215 255
183 215 255
183 215 255
183 215 255
183 215 255
183 215 255
183 215 255
195 227 255
183 215 255
183 215 255
183 215 255
183 215 255
183 215 255
183 215 255
183 215 255
183 215 255
183 215 255
183 215 255
183 215 255
183 215 255
183 215 255
183 215 255
183 215 255
183 215 255
183 215 255
183 215 255
183 215 255
183 215 255
183 215 255
183 215 255
183 215 255
183 215 255
183 215 255
183 215 255
183 215 255
183 215 255
183 215 255
183 215 255
183 215 255
183 215 255
183 215 255
183 215 255
183 215 255
183 215 255
195 227 255
183 215 255
183 215 255
183 215 255
183 215 255
183 215 255
183 215 255
183 215 255
183 215 255
183 215 255
183 215 255
183 215 255
183 215 255
183 215 255
183 215 255
183 215 255
183 215 255
183 215 255
183 215 255
183 215 255
183 215 255
183 215 255
183 215 255
183 215 255
183 215 255
183 215 255
183 215 255
183 215 255
183 215 255
183 215 255
183 215 255
183 215 255
183 215 255
183 215 255
183 215 255
183 215 255
183 215 255
195 227 255
183 215 255
183 215 255
183 215 255
183 215 255
183 215 255
183 215 255
183 215 255
183 215 255
183 215 255
183 215 255
183 215 255
183 215 255
183 215 255
183 215 255
183 215 255
183 215 255
183 215 255
183 215 255
183 215 255
183 215 255
183 215 255
183 215 255
183 215 255
183 215 255
183 215 255
183 215 255
183 215 255
183 215 255
183 215 255
183 215 255
183 215 255
183 215 255
183 215 255
183 215 255
183 215 255
183 215 255
195 227 255
183 215 255
183 215 255
183 215 255
183 215 255
183 215 255
183 215 255
183 215 255
183 215 255
183 215 255
183 215 255
183 215 255
183 215 255
183 215 255
183 215 255
183 215 255
183 215 255
183 215 255
183 215 255
183 215 255
183 215 255
183 215 255
183 215 255
183 215 255
183 215 255
183 215 255
183 215 255
183 215 255
183 215 255
183 215 255
183 215 255
183 215 255
183 215 255
183 215 255
183 215 255
183 215 255
183 215 255
195 227 255
183 215 255
183 215 255
183 215 255
183 215 255
183 215 255
183 215 255
183 215 255
183 215 255
183 215 255
183 215 255
183 215 255
183 215 255
183 215 255
183 215 255
183 215 255
183 215 255
183 215 255
183 215 255
183 215 255
183 215 255
183 215 255
183 215 255
183 215 255
183 215 255
183 215 255
183 215 255
183 215 255
183 215 255
183 215 255
183 215 255
183 215 255
183 215 255
183 215 255
183 215 255
183 215 255
183 215 255
195 227 255
183 215 255
183 215 255
183 215 255
183 215 255
183 215 255
183 215 255
183 215 255
183 215 255
183 215 255
183 215 255
183 215 255
183 215 255
183 215 255
183 215 255
183 215 255
183 215 255
183 215 255
183 215 255
183 215 255
183 215 255
183 215 255
183 215 255
183 215 255
183 215 255
183 215 255
183 215 255
183 215 255
183 215 255
183 215 255
183 215 255
183 215 255
183 215 255
183 215 255
183 215 255
183 215 255
183 215 255
195 227 255
183 215 255
183 215 255
183 215 255
183 215 255
183 215 255
183 215 255
183 215 255
183 215 255
183 215 255
183 215 255
183 215 255
183 215 255
183 215 255
183 215 255
183 215 255
183 215 255
183 215 255
183 215 255
183 215 255
183 215 255
183 215 255
183 215 255
183 215 255
183 215 255
183 215 255
183 215 255
183 215 255
183 215 255
183 215 255
183 215 255
183 215 255
183 215 255
183 215 255
183 215 255
183 215 255
183 215 255
195 227 255
183 215 255
183 215 255
183 215 255
183 215 255
183 215 255
183 215 255
183 215 255
183 215 255
183 215 255
183 215 255
183 215 255
183 215 255
183 215 255
183 215 255
183 215 255
183 215 255
183 215 255
183 215 255
183 215 255
183 215 255
183 215 255
183 215 255
183 215 255
183 215 255
183 215 255
183 215 255
183 215 255
183 215 255
183 215 255
183 215 255
183 215 255
183 215 255
183 215 255
183 215 255
183 215 255
183 215 255
195 227 255
183 215 255
183 215 255
183 215 255
183 215 255
183 215 255
183 215 255
183 215 255
183 215 255
183 215 255
183 215 255
183 215 255
183 215 255
183 215 255
183 215 255
183 215 255
183 215 255
183 215 255
183 215 255
183 215 255
183 215 255
183 215 255
183 215 255
195 227 255
183 215 255
183 215 255
183 215 255
183 215 255
183 215 255
183 215 255
183 215 255
183 215 255
183 215 255
183 215 255
183 215 255
183 215 255
183 215 255
183 215 255
183 215 255
183 215 255
183 215 255
183 215 255
183 215 255
183 215 255
183 215 255
183 215 255
183 215 255
183 215 255
183 215 255
183 215 255
183 215 255
183 215 255
183 215 255
183 215 255
183 215 255
183 215 255
183 215 255
183 215 255
183 215 255
183 215 255
195 227 255
183 215 255
183 215 255
183 215 255
183 215 255
183 215 255
183 215 255
183 215 255
183 215 255
183 215 255
183 215 255
183 215 255
183 215 255
183 215 255
183 215 255
183 215 255
183 215 255
183 215 255
183 215 255
183 215 255
183 215 255
183 215 255
183 215 255
183 215 255
183 215 255
183 215 255
183 215 255
183 215 255
183 215 255
183 215 255
183 215 255
183 215 255
183 215 255
183 215 255
183 215 255
183 215 255
183 215 255
195 227 255
183 215 255
183 215 255
183 215 255
183 215 255
183 215 255
183 215 255
183 215 255
183 215 255
183 215 255
183 215 255
183 215 255
183 215 255
183 215 255
183 215 255
183 215 255
183 215 255
183 215 255
183 215 255
183 215 255
183 215 255
183 215 255
183 215 255
183 215 255
183 215 255
183 215 255
183 215 255
183 215 255
183 215 255
183 215 255
183 215 255
183 215 255
183 215 255
183 215 255
183 215 255
183 215 255
183 215 255
195 227 255
183 215 255
183 215 255
183 215 255
183 215 255
183 215 255
183 215 255
183 215 255
183 215 255
183 215 255
183 215 255
183 215 255
183 215 255
183 215 255
183 215 255
183 215 255
183 215 255
183 215 255
183 215 255
183 215 255
183 215 255
183 215 255
183 215 255
183 215 255
183 215 255
183 215 255
183 215 255
183 215 255
183 215 255
183 215 255
183 215 255
183 215 255
183 215 255
183 215 255
183 215 255
183 215 255
183 215 255
195 227 255
183 215 255
183 215 255
183 215 255
183 215 255
183 215 255
183 215 255
183 215 255
183 215 255
183 215 255
183 215 255
183 215 255
183 215 255
183 215 255
183 215 255
183 215 255
183 215 255
183 215 255
183 215 255
183 215 255
183 215 255
183 215 255
183 215 255
183 215 255
183 215 255
183 215 255
183 215 255
183 215 255
183 215 255
183 215 255
183 215 255
183 215 255
183 215 255
183 215 255
183 215 255
183 215 255
183 215 255
195 227 255
183 215 255
183 215 255
183 215 255
183 215 255
183 215 255
183 215 255
183 215 255
183 215 255
183 215 255
183 215 255
183 215 255
183 215 255
183 215 255
183 215 255
183 215 255
183 215 255
183 215 255
183 215 255
183 215 255
183 215 255
183 215 255
183 215 255
183 215 255
183 215 255
183 215 255
183 215 255
183 215 255
183 215 255
183 215 255
183 215 255
183 215 255
183 215 255
183 215 255
183 215 255
183 215 255
183 215 255
195 227 255
183 215 255
183 215 255
183 215 255
183 215 255
183 215 255
183 215 255
183 215 255
183 215 255
183 215 255
183 215 255
183 215 255
183 215 255
183 215 255
183 215 255
183 215 255
183 215 255
183 215 255
183 215 255
183 215 255
183 215 255
183 215 255
183 215 255
183 215 255
183 215 255
183 215 255
183 215 255
183 215 255
183 215 255
183 215 255
183 215 255
183 215 255
183 215 255
183 215 255
183 215 255
183 215 255
183 215 255
195 227 255
183 215 255
183 215 255
183 215 255
183 215 255
183 215 255
183 215 255
183 215 255
183 215 255
183 215 255
183 215 255
183 215 255
183 215 255
183 215 255
183 215 255
183 215 255
183 215 255
183 215 255
183 215 255
183 215 255
183 215 255
183 215 255
183 215 255
183 215 255
183 215 255
183 215 255
183 215 255
183 215 255
183 215 255
183 215 255
183 215 255
183 215 255
183 215 255
183 215 255
183 215 255
183 215 255
183 215 255
195 227 255
183 215 255
183 215 255
183 215 255
183 215 255
183 215 255
183 215 255
183 215 255
183 215 255
183 215 255
183 215 255
183 215 255
183 215 255
183 215 255
183 215 255
183 215 255
183 215 255
183 215 255
183 215 255
183 215 255
183 215 255
183 215 255
183 215 255
195 227 255
183 215 255
183 215 255
183 215 255
183 215 255
183 215 255
183 215 255
183 215 255
183 215 255
183 215 255
183 215 255
183 215 255
183 215 255
183 215 255
183 215 255
183 215 255
183 215 255
183 215 255
183 215 255
183 215 255
183 215 255
183 215 255
183 215 255
183 215 255
183 215 255
183 215 255
183 215 255
183 215 255
183 215 255
183 215 255
183 215 255
183 215 255
183 215 255
183 215 255
183 215 255
183 215 255
183 215 255
195 227 255
183 215 255
183 215 255
183 215 255
183 215 255
183 215 255
183 215 255
183 215 255
183 215 255
183 215 255
183 215 255
183 215 255
183 215 255
183 215 255
183 215 255
183 215 255
183 215 255
183 215 255
183 215 255
183 215 255
183 215 255
183 215 255
183 215 255
183 215 255
183 215 255
183 215 255
183 215 255
183 215 255
183 215 255
183 215 255
183 215 255
183 215 255
183 215 255
183 215 255
183 215 255
183 215 255
183 215 255
195 227 255
183 215 255
183 215 255
183 215 255
183 215 255
183 215 255
183 215 255
183 215 255
183 215 255
183 215 255
183 215 255
183 215 255
183 215 255
183 215 255
183 215 255
183 215 255
183 215 255
183 215 255
183 215 255
183 215 255
183 215 255
183 215 255
183 215 255
183 215 255
183 215 255
183 215 255
183 215 255
183 215 255
183 215 255
183 215 255
183 215 255
183 215 255
183 215 255
183 215 255
183 215 255
183 215 255
183 215 255
195 227 255
183 215 255
183 215 255
183 215 255
183 215 255
183 215 255
183 215 255
183 215 255
183 215 255
183 215 255
183 215 255
183 215 255
183 215 255
183 215 255
183 215 255
183 215 255
183 215 255
183 215 255
183 215 255
183 215 255
183 215 255
183 215 255
183 215 255
183 215 255
183 215 255
183 215 255
183 215 255
183 215 255
183 215 255
183 215 255
183 215 255
183 215 255
183 215 255
183 215 255
183 215 255
183 215 255
183 215 255
195 227 255
183 215 255
183 215 255
183 215 255
183 215 255
183 215 255
183 215 255
183 215 255
183 215 255
183 215 255
183 215 255
183 215 255
183 215 255
183 215 255
183 215 255
183 215 255
183 215 255
183 215 255
183 215 255
183 215 255
183 215 255
183 215 255
183 215 255
183 215 255
183 215 255
183 215 255
183 215 255
183 215 255
183 215 255
183 215 255
183 215 255
183 215 255
183 215 255
183 215 255
183 215 255
183 215 255
183 215 255
195 227 255
183 215 255
183 215 255
183 215 255
183 215 255
183 215 255
183 215 255
183 215 255
183 215 255
183 215 255
183 215 255
183 215 255
183 215 255
183 215 255
183 215 255
183 215 255
183 215 255
183 215 255
183 215 255
183 215 255
183 215 255
183 215 255
183 215 255
183 215 255
183 215 255
183 215 255
183 215 255
183 215 255
183 215 255
183 215 255
183 215 255
183 215 255
183 215 255
183 215 255
183 215 255
183 215 255
183 215 255
195 227 255
183 215 255
183 215 255
183 215 255
183 215 255
183 215 255
183 215 255
183 215 255
183 215 255
183 215 255
183 215 255
183 215 255
183 215 255
183 215 255
183 215 255
183 215 255
183 215 255
183 215 255
183 215 255
183 215 255
183 215 255
183 215 255
183 215 255
183 215 255
183 215 255
183 215 255
183 215 255
183 215 255
183 215 255
183 215 255
183 215 255
183 215 255
183 215 255
183 215 255
183 215 255
183 215 255
183 215 255
195 227 255
183 215 255
183 215 255
183 215 255
183 215 255
183 215 255
183 215 255
183 215 255
183 215 255
183 215 255
183 215 255
183 215 255
183 215 255
183 215 255
183 215 255
183 215 255
183 215 255
183 215 255
183 215 255
183 215 255
183 215 255
183 215 255
183 215 255
183 215 255
183 215 255
183 215 255
183 215 255
183 215 255
183 215 255
183 215 255
183 215 255
183 215 255
183 215 255
183 215 255
183 215 255
183 215 255
183 215 255
195 227 255
183 215 255
183 215 255
183 215 255
183 215 255
183 215 255
183 215 255
183 215 255
183 215 255
183 215 255
183 215 255
183 215 255
183 215 255
183 215 255
183 215 255
183 215 255
183 215 255
183 215 255
183 215 255
183 215 255
183 215 255
183 215 255
183 215 255
195 227 255
183 215 255
183 215 255
183 215 255
183 215 255
183 215 255
183 215 255
183 215 255
183 215 255
183 215 255
183 215 255
183 215 255
183 215 255
183 215 255
183 215 255
183 215 255
183 215 255
183 215 255
183 215 255
183 215 255
183 215 255
183 215 255
183 215 255
183 215 255
183 215 255
183 215 255
183 215 255
183 215 255
183 215 255
183 215 255
183 215 255
183 215 255
183 215 255
183 215 255
183 215 255
183 215 255
183 215 255
195 227 255
183 215 255
183 215 255
183 215 255
183 215 255
183 215 255
183 215 255
183 215 255
183 215 255
183 215 255
183 215 255
183 215 255
183 215 255
183 215 255
183 215 255
183 215 255
183 215 255
183 215 255
183 215 255
183 215 255
183 215 255
183 215 255
183 215 255
183 215 255
183 215 255
183 215 255
183 215 255
183 215 255
183 215 255
183 215 255
183 215 255
183 215 255
183 215 255
183 215 255
183 215 255
183 215 255
183 215 255
195 227 255
183 215 255
183 215 255
183 215 255
183 215 255
183 215 255
183 215 255
183 215 255
183 215 255
183 215 255
183 215 255
183 215 255
183 215 255
183 215 255
183 215 255
183 215 255
183 215 255
183 215 255
183 215 255
183 215 255
183 215 255
183 215 255
183 215 255
183 215 255
183 215 255
183 215 255
183 215 255
183 215 255
183 215 255
183 215 255
183 215 255
183 215 255
183 215 255
183 215 255
183 215 255
183 215 255
183 215 255
195 227 255
183 215 255
183 215 255
183 215 255
183 215 255
183 215 255
183 215 255
183 215 255
183 215 255
183 215 255
183 215 255
183 215 255
183 215 255
183 215 255
183 215 255
183 215 255
183 215 255
183 215 255
183 215 255
183 215 255
183 215 255
183 215 255
183 215 255
183 215 255
183 215 255
183 215 255
183 215 255
183 215 255
183 215 255
183 215 255
183 215 255
183 215 255
183 215 255
183 215 255
183 215 255
183 215 255
183 215 255
195 227 255
183 215 255
183 215 255
183 215 255
183 215 255
183 215 255
183 215 255
183 215 255
183 215 255
183 215 255
183 215 255
183 215 255
183 215 255
183 215 255
183 215 255
183 215 255
183 215 255
183 215 255
183 215 255
183 215 255
183 215 255
183 215 255
183 215 255
183 215 255
183 215 255
183 215 255
183 215 255
183 215 255
183 215 255
183 215 255
183 215 255
183 215 255
183 215 255
183 215 255
183 215 255
183 215 255
183 215 255
195 227 255
183 215 255
183 215 255
183 215 255
183 215 255
183 215 255
183 215 255
183 215 255
183 215 255
183 215 255
183 215 255
183 215 255
183 215 255
183 215 255
183 215 255
183 215 255
183 215 255
183 215 255
183 215 255
183 215 255
183 215 255
183 215 255
183 215 255
183 215 255
183 215 255
183 215 255
183 215 255
183 215 255
183 215 255
183 215 255
183 215 255
183 215 255
183 215 255
183 215 255
183 215 255
183 215 255
183 215 255
195 227 255
183 215 255
183 215 255
183 215 255
183 215 255
183 215 255
183 215 255
183 215 255
183 215 255
183 215 255
183 215 255
183 215 255
183 215 255
183 215 255
183 215 255
183 215 255
183 215 255
183 215 255
183 215 255
183 215 255
183 215 255
183 215 255
183 215 255
183 215 255
183 215 255
183 215 255
183 215 255
183 215 255
183 215 255
183 215 255
183 215 255
183 215 255
183 215 255
183 215 255
183 215 255
183 215 255
183 215 255
195 227 255
183 215 255
183 215 255
183 215 255
183 215 255
183 215 255
183 215 255
183 215 255
183 215 255
183 215 255
183 215 255
183 215 255
183 215 255
183 215 255
183 215 255
183 215 255
183 215 255
183 215 255
183 215 255
183 215 255
183 215 255
183 215 255
183 215 255
183 215 255
183 215 255
183 215 255
183 215 255
183 215 255
183 215 255
183 215 255
183 215 255
183 215 255
183 215 255
183 215 255
183 215 255
183 215 255
183 215 255
195 227 255
183 215 255
183 215 255
183 215 255
183 215 255
183 215 255
183 215 255
183 215 255
183 215 255
183 215 255
183 215 255
183 215 255
183 215 255
183 215 255
183 215 255
183 215 255
183 215 255
183 215 255
183 215 255
183 215 255
183 215 255
183 215 255
183 215 255
195 227 255
183 215 255
183 215 255
183 215 255
183 215 255
183 215 255
183 215 255
183 215 255
183 215 255
183 215 255
183 215 255
183 215 255
183 215 255
183 215 255
183 215 255
183 215 255
183 215 255
183 215 255
183 215 255
183 215 255
183 215 255
183 215 255
183 215 255
183 215 255
183 215 255
183 215 255
183 215 255
183 215 255
183 215 255
183 215 255
183 215 255
183 215 255
183 215 255
183 215 255
183 215 255
183 215 255
183 215 255
195 227 255
183 215 255
183 215 255
183 215 255
183 215 255
183 215 255
183 215 255
183 215 255
183 215 255
183 215 255
183 215 255
183 215 255
183 215 255
183 215 255
183 215 255
183 215 255
183 215 255
183 215 255
183 215 255
183 215 255
183 215 255
183 215 255
183 215 255
183 215 255
183 215 255
183 215 255
183 215 255
183 215 255
183 215 255
183 215 255
183 215 255
183 215 255
183 215 255
183 215 255
183 215 255
183 215 255
183 215 255
195 227 255
183 215 255
183 215 255
183 215 255
183 215 255
183 215 255
183 215 255
183 215 255
183 215 255
183 215 255
183 215 255
183 215 255
183 215 255
183 215 255
183 215 255
183 215 255
183 215 255
183 215 255
183 215 255
183 215 255
183 215 255
183 215 255
183 215 255
183 215 255
183 215 255
183 215 255
183 215 255
183 215 255
183 215 255
183 215 255
183 215 255
183 215 255
183 215 255
183 215 255
183 215 255
183 215 255
183 215 255
195 227 255
183 215 255
183 215 255
183 215 255
183 215 255
183 215 255
183 215 255
183 215 255
183 215 255
183 215 255
183 215 255
183 215 255
183 215 255
183 215 255
183 215 255
183 215 255
183 215 255
183 215 255
183 215 255
183 215 255
183 215 255
183 215 255
183 215 255
183 215 255
183 215 255
183 215 255
183 215 255
183 215 255
183 215 255
183 215 255
183 215 255
183 215 255
183 215 255
183 215 255
183 215 255
183 215 255
183 215 255
195 227 255
183 215 255
183 215 255
183 215 255
183 215 255
183 215 255
183 215 255
183 215 255
183 215 255
183 215 255
183 215 255
183 215 255
183 215 255
183 215 255
183 215 255
183 215 255
183 215 255
183 215 255
183 215 255
183 215 255
183 215 255
183 215 255
183 215 255
183 215 255
183 215 255
183 215 255
183 215 255
183 215 255
183 215 255
183 215 255
183 215 255
183 215 255
183 215 255
183 215 255
183 215 255
183 215 255
183 215 255
195 227 255
183 215 255
183 215 255
183 215 255
183 215 255
183 215 255
183 215 255
183 215 255
183 215 255
183 215 255
183 215 255
183 215 255
183 215 255
183 215 255
183 215 255
183 215 255
183 215 255
183 215 255
183 215 255
183 215 255
183 215 255
183 215 255
183 215 255
183 215 255
183 215 255
183 215 255
183 215 255
183 215 255
183 215 255
183 215 255
183 215 255
183 215 255
183 215 255
183 215 255
183 215 255
183 215 255
183 215 255
195 227 255
183 215 255
183 215 255
183 215 255
183 215 255
183 215 255
183 215 255
183 215 255
183 215 255
183 215 255
183 215 255
183 215 255
183 215 255
183 215 255
183 215 255
183 215 255
183 215 255
183 215 255
183 215 255
183 215 255
183 215 255
183 215 255
183 215 255
183 215 255
183 215 255
183 215 255
183 215 255
183 215 255
183 215 255
183 215 255
183 215 255
183 215 255
183 215 255
183 215 255
183 215 255
183 215 255
183 215 255
195 227 255
183 215 255
183 215 255
183 215 255
183 215 255
183 215 255
183 215 255
183 215 255
183 215 255
183 215 255
183 215 255
183 215 255
183 215 255
183 215 255
183 215 255
183 215 255
183 215 255
183 215 255
183 215 255
183 215 255
183 215 255
183 215 255
183 215 255
183 215 255
183 215 255
183 215 255
183 215 255
183 215 255
183 215 255
183 215 255
183 215 255
183 215 255
183 215 255
183 215 255
183 215 255
183 215 255
183 215 255
195 227 255
183 215 255
183 215 255
183 215 255
183 215 255
183 215 255
183 215 255
183 215 255
183 215 255
183 215 255
183 215 255
183 215 255
183 215 255
183 215 255
183 215 255
183 215 255
183 215 255
183 215 255
183 215 255
183 215 255
183 215 255
183 215 255
183 215 255
195 227 255
183 215 255
183 215 255
183 215 255
183 215 255
183 215 255
183 215 255
183 215 255
183 215 255
183 215 255
183 215 255
183 215 255
183 215 255
183 215 255
183 215 255
183 215 255
183 215 255
183 215 255
183 215 255
183 215 255
183 215 255
183 215 255
183 215 255
183 215 255
183 215 255
183 215 255
183 215 255
183 215 255
183 215 255
183 215 255
183 215 255
183 215 255
183 215 255
183 215 255
183 215 255
183 215 255
183 215 255
195 227 255
183 215 255
183 215 255
183 215 255
183 215 255
183 215 255
183 215 255
183 215 255
183 215 255
183 215 255
183 215 255
183 215 255
183 215 255
183 215 255
183 215 255
183 215 255
183 215 255
183 215 255
183 215 255
183 215 255
183 215 255
183 215 255
183 215 255
183 215 255
183 215 255
183 215 255
183 215 255
183 215 255
183 215 255
183 215 255
183 215 255
183 215 255
183 215 255
183 215 255
183 215 255
183 215 255
183 215 255
195 227 255
183 215 255
183 215 255
183 215 255
183 215 255
183 215 255
183 215 255
183 215 255
183 215 255
183 215 255
183 215 255
183 215 255
183 215 255
183 215 255
183 215 255
183 215 255
183 215 255
183 215 255
183 215 255
183 215 255
183 215 255
183 215 255
183 215 255
183 215 255
183 215 255
183 215 255
183 215 255
183 215 255
183 215 255
183 215 255
183 215 255
183 215 255
183 215 255
183 215 255
183 215 255
183 215 255
183 215 255
195 227 255
183 215 255
183 215 255
183 215 255
183 215 255
183 215 255
183 215 255
183 215 255
183 215 255
183 215 255
183 215 255
183 215 255
183 215 255
183 215 255
183 215 255
183 215 255
183 215 255
183 215 255
183 215 255
183 215 255
183 215 255
183 215 255
183 215 255
183 215 255
183 215 255
183 215 255
183 215 255
183 215 255
183 215 255
183 215 255
183 215 255
183 215 255
183 215 255
183 215 255
183 215 255
183 215 255
183 215 255
195 227 255
183 215 255
183 215 255
183 215 255
183 215 255
183 215 255
183 215 255
183 215 255
183 215 255
183 215 255
183 215 255
183 215 255
183 215 255
183 215 255
183 215 255
183 215 255
183 215 255
183 215 255
183 215 255
183 215 255
183 215 255
183 215 255
183 215 255
183 215 255
183 215 255
183 215 255
183 215 255
183 215 255
183 215 255
183 215 255
183 215 255
183 215 255
183 215 255
183 215 255
183 215 255
183 215 255
183 215 255
195 227 255
183 215 255
183 215 255
183 215 255
183 215 255
183 215 255
183 215 255
183 215 255
183 215 255
183 215 255
183 215 255
183 215 255
183 215 255
183 215 255
183 215 255
183 215 255
183 215 255
183 215 255
183 215 255
183 215 255
183 215 255
183 215 255
183 215 255
183 215 255
183 215 255
183 215 255
183 215 255
183 215 255
183 215 255
183 215 255
183 215 255
183 215 255
183 215 255
183 215 255
183 215 255
183 215 255
183 215 255
195 227 255
183 215 255
183 215 255
183 215 255
183 215 255
183 215 255
183 215 255
183 215 255
183 215 255
183 215 255
183 215 255
183 215 255
183 215 255
183 215 255
183 215 255
183 215 255
183 215 255
183 215 255
183 215 255
183 215 255
183 215 255
183 215 255
183 215 255
183 215 255
183 215 255
183 215 255
183 215 255
183 215 255
183 215 255
183 215 255
183 215 255
183 215 255
183 215 255
183 215 255
183 215 255
183 215 255
183 215 255
195 227 255
183 215 255
183 215 255
183 215 255
183 215 255
183 215 255
183 215 255
183 215 255
183 215 255
183 215 255
183 215 255
183 215 255
183 215 255
183 215 255
183 215 255
183 215 255
183 215 255
183 215 255
183 215 255
183 215 255
183 215 255
183 215 255
183 215 255
183 215 255
183 215 255
183 215 255
183 215 255
183 215 255
183 215 255
183 215 255
183 215 255
183 215 255
183 215 255
183 215 255
183 215 255
183 215 255
183 215 255
195 227 255
183 215 255
183 215 255
183 215 255
183 215 255
183 215 255
183 215 255
183 215 255
183 215 255
183 215 255
183 215 255
183 215 255
183 215 255
183 215 255
183 215 255
183 215 255
183 215 255
183 215 255
183 215 255
183 215 255
183 215 255
183 215 255
183 215 255
195 227 255
183 215 255
183 215 255
183 215 255
183 215 255
183 215 255
183 215 255
183 215 255
183 215 255
183 215 255
183 215 255
183 215 255
183 215 255
183 215 255
183 215 255
183 215 255
183 215 255
183 215 255
183 215 255
183 215 255
183 215 255
183 215 255
183 215 255
183 215 255
183 215 255
183 215 255
183 215 255
183 215 255
183 215 255
183 215 255
183 215 255
183 215 255
183 215 255
183 215 255
183 215 255
183 215 255
183 215 255
195 227 255
183 215 255
183 215 255
183 215 255
183 215 255
183 215 255
183 215 255
183 215 255
183 215 255
183 215 255
183 215 255
183 215 255
183 215 255
183 215 255
183 215 255
183 215 255
183 215 255
183 215 255
183 215 255
183 215 255
183 215 255
183 215 255
183 215 255
183 215 255
183 215 255
183 215 255
183 215 255
183 215 255
183 215 255
183 215 255
183 215 255
183 215 255
183 215 255
183 215 255
183 215 255
183 215 255
183 215 255
195 227 255
183 215 255
183 215 255
183 215 255
183 215 255
183 215 255
183 215 255
183 215 255
183 215 255
183 215 255
183 215 255
183 215 255
183 215 255
183 215 255
183 215 255
183 215 255
183 215 255
183 215 255
183 215 255
183 215 255
183 215 255
183 215 255
183 215 255
183 215 255
183 215 255
183 215 255
183 215 255
183 215 255
183 215 255
183 215 255
183 215 255
183 215 255
183 215 255
183 215 255
183 215 255
183 215 255
183 215 255
195 227 255
183 215 255
183 215 255
183 215 255
183 215 255
183 215 255
183 215 255
183 215 255
183 215 255
183 215 255
183 215 255
183 215 255
183 215 255
183 215 255
183 215 255
183 215 255
183 215 255
183 215 255
183 215 255
183 215 255
183 215 255
183 215 255
183 215 255
183 215 255
183 215 255
183 215 255
183 215 255
183 215 255
183 215 255
183 215 255
183 215 255
183 215 255
183 215 255
183 215 255
183 215 255
183 215 255
183 215 255
195 227 255
183 215 255
183 215 255
183 215 255
183 215 255
183 215 255
183 215 255
183 215 255
183 215 255
183 215 255
183 215 255
183 215 255
183 215 255
183 215 255
183 215 255
183 215 255
183 215 255
183 215 255
183 215 255
183 215 255
183 215 255
183 215 255
183 215 255
183 215 255
183 215 255
183 215 255
183 215 255
183 215 255
183 215 255
183 215 255
183 215 255
183 215 255
183 215 255
183 215 255
183 215 255
183 215 255
183 215 255
195 227 255
183 215 255
183 215 255
183 215 255
183 215 255
183 215 255
183 215 255
183 215 255
183 215 255
183 215 255
183 215 255
183 215 255
183 215 255
183 215 255
183 215 255
183 215 255
183 215 255
183 215 255
183 215 255
183 215 255
183 215 255
183 215 255
183 215 255
183 215 255
183 215 255
183 215 255
183 215 255
183 215 255
183 215 255
183 215 255
183 215 255
183 215 255
183 215 255
183 215 255
183 215 255
183 215 255
183 215 255
195 227 255
183 215 255
183 215 255
183 215 255
183 215 255
183 215 255
183 215 255
183 215 255
183 215 255
183 215 255
183 215 255
183 215 255
183 215 255
183 215 255
183 215 255
183 215 255
183 215 255
183 215 255
183 215 255
183 215 255
183 215 255
183 215 255
183 215 255
183 215 255
183 215 255
183 215 255
183 215 255
183 215 255
183 215 255
183 215 255
183 215 255
183 215 255
183 215 255
183 215 255
183 215 255
183 215 255
183 215 255
195 227 255
183 215 255
183 215 255
183 215 255
183 215 255
183 215 255
183 215 255
183 215 255
183 215 255
183 215 255
183 215 255
183 215 255
183 215 255
183 215 255
183 215 255
183 215 255
183 215 255
183 215 255
183 215 255
183 215 255
183 215 255
183 215 255
183 215 255
183 215 255
183 215 255
183 215 255
183 215 255
183 215 255
183 215 255
183 215 255
183 215 255
183 215 255
183 215 255
183 215 255
183 215 255
183 215 255
183 215 255
195 227 255
183 215 255
183 215 255
183 215 255
183 215 255
183 215 255
183 215 255
183 215 255
183 215 255
183 215 255
183 215 255
183 215 255
183 215 255
183 215 255
183 215 255
183 215 255
183 215 255
183 215 255
183 215 255
183 215 255
183 215 255
183 215 255
183 215 255
195 227 255
183 215 255
183 215 255
183 215 255
183 215 255
183 215 255
183 215 255
183 215 255
183 215 255
183 215 255
183 215 255
183 215 255
183 215 255
183 215 255
183 215 255
183 215 255
183 215 255
183 215 255
183 215 255
183 215 255
183 215 255
183 215 255
183 215 255
183 215 255
183 215 255
183 215 255
183 215 255
183 215 255
183 215 255
183 215 255
183 215 255
183 215 255
183 215 255
183 215 255
183 215 255
183 215 255
183 215 255
195 227 255
183 215 255
183 215 255
183 215 255
183 215 255
183 215 255
183 215 255
183 215 255
183 215 255
183 215 255
183 215 255
183 215 255
183 215 255
183 215 255
183 215 255
183 215 255
183 215 255
183 215 255
183 215 255
183 215 255
183 215 255
183 215 255
183 215 255
183 215 255
183 215 255
183 215 255
183 215 255
183 215 255
183 215 255
183 215 255
183 215 255
183 215 255
183 215 255
183 215 255
183 215 255
183 215 255
183 215 255
195 227 255
183 215 255
183 215 255
183 215 255
183 215 255
183 215 255
183 215 255
183 215 255
183 215 255
183 215 255
183 215 255
183 215 255
183 215 255
183 215 255
183 215 255
183 215 255
183 215 255
183 215 255
183 215 255
183 215 255
183 215 255
183 215 255
183 215 255
183 215 255
183 215 255
183 215 255
183 215 255
183 215 255
183 215 255
183 215 255
183 215 255
183 215 255
183 215 255
183 215 255
183 215 255
183 215 255
183 215 255
195 227 255
183 215 255
183 215 255
183 215 255
183 215 255
183 215 255
183 215 255
183 215 255
183 215 255
183 215 255
183 215 255
183 215 255
183 215 255
183 215 255
183 215 255
183 215 255
183 215 255
183 215 255
183 215 255
183 215 255
183 215 255
183 215 255
183 215 255
183 215 255
183 215 255
183 215 255
183 215 255
183 215 255
183 215 255
183 215 255
183 215 255
183 215 255
183 215 255
183 215 255
183 215 255
183 215 255
183 215 255
195 227 255
183 215 255
183 215 255
183 215 255
183 215 255
183 215 255
183 215 255
183 215 255
183 215 255
183 215 255
183 215 255
183 215 255
183 215 255
183 215 255
183 215 255
183 215 255
183 215 255
183 215 255
183 215 255
183 215 255
183 215 255
183 215 255
183 215 255
183 215 255
183 215 255
183 215 255
183 215 255
183 215 255
183 215 255
183 215 255
183 215 255
183 215 255
183 215 255
183 215 255
183 215 255
183 215 255
183 215 255
195 227 255
183 215 255
183 215 255
183 215 255
183 215 255
183 215 255
183 215 255
183 215 255
183 215 255
183 215 255
183 215 255
183 215 255
183 215 255
183 215 255
183 215 255
183 215 255
183 215 255
183 215 255
183 215 255
183 215 255
183 215 255
183 215 255
183 215 255
183 215 255
183 215 255
183 215 255
183 215 255
183 215 255
183 215 255
183 215 255
183 215 255
183 215 255
183 215 255
183 215 255
183 215 255
183 215 255
183 215 255
195 227 255
183 215 255
183 215 255
183 215 255
183 215 255
183 215 255
183 215 255
183 215 255
183 215 255
183 215 255
183 215 255
183 215 255
183 215 255
183 215 255
183 215 255
183 215 255
183 215 255
183 215 255
183 215 255
183 215 255
183 215 255
183 215 255
183 215 255
183 215 255
183 215 255
183 215 255
183 215 255
183 215 255
183 215 255
183 215 255
183 215 255
183 215 255
183 215 255
183 215 255
183 215 255
183 215 255
183 215 255
195 227 255
183 215 255
183 215 255
183 215 255
183 215 255
183 215 255
183 215 255
183 215 255
183 215 255
183 215 255
183 215 255
183 215 255
183 215 255
183 215 255
183 215 255
183 215 255
183 215 255
183 215 255
183 215 255
183 215 255
183 215 255
183 215 255
183 215 255
183 215 255
183 215 255
183 215 255
183 215 255
183 215 255
183 215 255
183 215 255
183 215 255
183 215 255
183 215 255
183 215 255
183 215 255
183 215 255
183 215 255
195 227 255
183 215 255
183 215 255
183 215 255
183 215 255
183 215 255
183 215 255
183 215 255
183 215 255
183 215 255
183 215 255
183 215 255
183 215 255
183 215 255
183 215 255
183 215 255
183 215 255
183 215 255
183 215 255
183 215 255
183 215 255
183 215 255
183 215 255
195 227 255
183 215 255
183 215 255
183 215 255
183 215 255
183 215 255
183 215 255
183 215 255
183 215 255
183 215 255
183 215 255
183 215 255
183 215 255
183 215 255
183 215 255
183 215 255
183 215 255
183 215 255
183 215 255
183 215 255
183 215 255
183 215 255
183 215 255
183 215 255
183 215 255
183 215 255
183 215 255
183 215 255
183 215 255
183 215 255
183 215 255
183 215 255
183 215 255
183 215 255
183 215 255
183 215 255
183 215 255
195 227 255
183 215 255
183 215 255
183 215 255
183 215 255
183 215 255
183 215 255
183 215 255
183 215 255
183 215 255
183 215 255
183 215 255
183 215 255
183 215 255
183 215 255
183 215 255
183 215 255
183 215 255
183 215 255
183 215 255
183 215 255
183 215 255
183 215 255
183 215 255
183 215 255
183 215 255
183 215 255
183 215 255
183 215 255
183 215 255
183 215 255
183 215 255
183 215 255
183 215 255
183 215 255
183 215 255
183 215 255
195 227 255
183 215 255
183 215 255
183 215 255
183 215 255
183 215 255
183 215 255
183 215 255
183 215 255
183 215 255
183 215 255
183 215 255
183 215 255
183 215 255
183 215 255
183 215 255
183 215 255
183 215 255
183 215 255
183 215 255
183 215 255
183 215 255
183 215 255
183 215 255
183 215 255
183 215 255
183 215 255
183 215 255
183 215 255
183 215 255
183 215 255
183 215 255
183 215 255
183 215 255
183 215 255
183 215 255
183 215 255
195 227 255
183 215 255
183 215 255
183 215 255
183 215 255
183 215 255
183 215 255
183 215 255
183 215 255
183 215 255
183 215 255
183 215 255
183 215 255
183 215 255
183 215 255
183 215 255
183 215 255
183 215 255
183 215 255
183 215 255
183 215 255
183 215 255
183 215 255
183 215 255
183 215 255
183 215 255
183 215 255
183 215 255
183 215 255
183 215 255
183 215 255
183 215 255
183 215 255
183 215 255
183 215 255
183 215 255
183 215 255
195 227 255
183 215 255
183 215 255
183 215 255
183 215 255
183 215 255
183 215 255
183 215 255
183 215 255
183 215 255
183 215 255
183 215 255
183 215 255
183 215 255
183 215 255
183 215 255
183 215 255
183 215 255
183 215 255
183 215 255
183 215 255
183 215 255
183 215 255
183 215 255
183 215 255
183 215 255
183 215 255
183 215 255
183 215 255
183 215 255
183 215 255
183 215 255
183 215 255
183 215 255
183 215 255
183 215 255
183 215 255
195 227 255
183 215 255
183 215 255
183 215 255
183 215 255
183 215 255
183 215 255
183 215 255
183 215 255
183 215 255
183 215 255
183 215 255
183 215 255
183 215 255
183 215 255
183 215 255
183 215 255
183 215 255
183 215 255
183 215 255
183 215 255
183 215 255
183 215 255
183 215 255
183 215 255
183 215 255
183 215 255
183 215 255
183 215 255
183 215 255
183 215 255
183 215 255
183 215 255
183 215 255
183 215 255
183 215 255
183 215 255
195 227 255
183 215 255
183 215 255
183 215 255
183 215 255
183 215 255
183 215 255
183 215 255
183 215 255
183 215 255
183 215 255
183 215 255
183 215 255
183 215 255
183 215 255
183 215 255
183 215 255
183 215 255
183 215 255
183 215 255
183 215 255
183 215 255
183 215 255
183 215 255
183 215 255
183 215 255
183 215 255
183 215 255
183 215 255
183 215 255
183 215 255
183 215 255
183 215 255
183 215 255
183 215 255
183 215 255
183 215 255
195 227 255
183 215 255
183 215 255
183 215 255
183 215 255
183 215 255
183 215 255
183 215 255
183 215 255
183 215 255
183 215 255
183 215 255
183 215 255
183 215 255
183 215 255
183 215 255
183 215 255
183 215 255
183 215 255
183 215 255
183 215 255
183 215 255
183 215 255
183 215 255
183 215 255
183 215 255
183 215 255
183 215 255
183 215 255
183 215 255
183 215 255
183 215 255
183 215 255
183 215 255
183 215 255
183 215 255
183 215 255
195 227 255
183 215 255
183 215 255
183 215 255
183 215 255
183 215 255
183 215 255
183 215 255
183 215 255
183 215 255
183 215 255
183 215 255
183 215 255
183 215 255
183 215 255
183 215 255
183 215 255
183 215 255
183 215 255
183 215 255
183 215 255
183 215 255
183 215 255
195 227 255
183 215 255
183 215 255
183 215 255
183 215 255
183 215 255
183 215 255
183 215 255
183 215 255
183 215 255
183 215 255
183 215 255
183 215 255
183 215 255
183 215 255
183 215 255
183 215 255
183 215 255
183 215 255
183 215 255
183 215 255
183 215 255
183 215 255
183 215 255
183 215 255
183 215 255
183 215 255
183 215 255
183 215 255
183 215 255
183 215 255
183 215 255
183 215 255
183 215 255
183 215 255
183 215 255
183 215 255
195 227 255
183 215 255
183 215 255
183 215 255
183 215 255
183 215 255
183 215 255
183 215 255
183 215 255
183 215 255
183 215 255
183 215 255
183 215 255
183 215 255
183 215 255
183 215 255
183 215 255
183 215 255
183 215 255
183 215 255
183 215 255
183 215 255
183 215 255
183 215 255
183 215 255
183 215 255
183 215 255
183 215 255
183 215 255
183 215 255
183 215 255
183 215 255
183 215 255
183 215 255
183 215 255
183 215 255
183 215 255
195 227 255
183 215 255
183 215 255
183 215 255
183 215 255
183 215 255
183 215 255
183 215 255
183 215 255
183 215 255
183 215 255
183 215 255
183 215 255
183 215 255
183 215 255
183 215 255
183 215 255
183 215 255
183 215 255
183 215 255
183 215 255
183 215 255
183 215 255
183 215 255
183 215 255
183 215 255
183 215 255
183 215 255
183 215 255
183 215 255
183 215 255
183 215 255
183 215 255
183 215 255
183 215 255
183 215 255
183 215 255
195 227 255
183 215 255
183 215 255
183 215 255
183 215 255
183 215 255
183 215 255
183 215 255
183 215 255
183 215 255
183 215 255
183 215 255
183 215 255
183 215 255
183 215 255
183 215 255
183 215 255
183 215 255
183 215 255
183 215 255
183 215 255
183 215 255
183 215 255
183 215 255
183 215 255
183 215 255
183 215 255
183 215 255
183 215 255
183 215 255
183 215 255
183 215 255
183 215 255
183 215 255
183 215 255
183 215 255
183 215 255
195 227 255
183 215 255
183 215 255
183 215 255
183 215 255
183 215 255
183 215 255
183 215 255
183 215 255
183 215 255
183 215 255
183 215 255
183 215 255
183 215 255
183 215 255
183 215 255
183 215 255
183 215 255
183 215 255
183 215 255
183 215 255
183 215 255
183 215 255
183 215 255
183 215 255
183 215 255
183 215 255
183 215 255
183 215 255
183 215 255
183 215 255
183 215 255
183 215 255
183 215 255
183 215 255
183 215 255
183 215 255
195 227 255
183 215 255
183 215 255
183 215 255
183 215 255
183 215 255
183 215 255
183 215 255
183 215 255
183 215 255
183 215 255
183 215 255
183 215 255
183 215 255
183 215 255
183 215 255
183 215 255
183 215 255
183 215 255
183 215 255
183 215 255
183 215 255
183 215 255
183 215 255
183 215 255
183 215 255
183 215 255
183 215 255
183 215 255
183 215 255
183 215 255
183 215 255
183 215 255
183 215 255
183 215 255
183 215 255
183 215 255
195 227 255
183 215 255
183 215 255
183 215 255
183 215 255
183 215 255
183 215 255
183 215 255
183 215 255
183 215 255
183 215 255
183 215 255
183 215 255
183 215 255
183 215 255
183 215 255
183 215 255
183 215 255
183 215 255
183 215 255
183 215 255
183 215 255
183 215 255
183 215 255
183 215 255
183 215 255
183 215 255
183 215 255
183 215 255
183 215 255
183 215 255
183 215 255
183 215 255
183 215 255
183 215 255
183 215 255
183 215 255
195 227 255
183 215 255
183 215 255
183 215 255
183 215 255
183 215 255
183 215 255
183 215 255
183 215 255
183 215 255
183 215 255
183 215 255
183 215 255
183 215 255
183 215 255
183 215 255
183 215 255
183 215 255
183 215 255
183 215 255
183 215 255
183 215 255
183 215 255
183 215 255
183 215 255
183 215 255
183 215 255
183 215 255
183 215 255
183 215 255
183 215 255
183 215 255
183 215 255
183 215 255
183 215 255
183 215 255
183 215 255
195 227 255
183 215 255
183 215 255
183 215 255
183 215 255
183 215 255
183 215 255
183 215 255
183 215 255
183 215 255
183 215 255
183 215 255
183 215 255
183 215 255
183 215 255
183 215 255
183 215 255
183 215 255
183 215 255
183 215 255
183 215 255
183 215 255
183 215 255
195 227 255
183 215 255
183 215 255
183 215 255
183 215 255
183 215 255
183 215 255
183 215 255
183 215 255
183 215 255
183 215 255
183 215 255
183 215 255
183 215 255
183 215 255
183 215 255
183 215 255
183 215 255
183 215 255
183 215 255
183 215 255
183 215 255
183 215 255
183 215 255
183 215 255
183 215 255
183 215 255
183 215 255
183 215 255
183 215 255
183 215 255
183 215 255
183 215 255
183 215 255
183 215 255
183 215 255
183 215 255
195 227 255
183 215 255
183 215 255
183 215 255
183 215 255
183 215 255
183 215 255
183 215 255
183 215 255
183 215 255
183 215 255
183 215 255
183 215 255
183 215 255
183 215 255
183 215 255
183 215 255
183 215 255
183 215 255
183 215 255
183 215 255
183 215 255
183 215 255
183 215 255
183 215 255
183 215 255
183 215 255
183 215 255
183 215 255
183 215 255
183 215 255
183 215 255
183 215 255
183 215 255
183 215 255
183 215 255
183 215 255
195 227 255
183 215 255
183 215 255
183 215 255
183 215 255
183 215 255
183 215 255
183 215 255
183 215 255
183 215 255
183 215 255
183 215 255
183 215 255
183 215 255
183 215 255
183 215 255
183 215 255
183 215 255
183 215 255
183 215 255
183 215 255
183 215 255
183 215 255
183 215 255
183 215 255
183 215 255
183 215 255
183 215 255
183 215 255
183 215 255
183 215 255
183 215 255
183 215 255
183 215 255
183 215 255
183 215 255
183 215 255
195 227 255
183 215 255
183 215 255
183 215 255
183 215 255
183 215 255
183 215 255
183 215 255
183 215 255
183 215 255
183 215 255
183 215 255
183 215 255
183 215 255
183 215 255
183 215 255
183 215 255
183 215 255
183 215 255
183 215 255
183 215 255
183 215 255
183 215 255
183 215 255
183 215 255
183 215 255
183 215 255
183 215 255
183 215 255
183 215 255
183 215 255
183 215 255
183 215 255
183 215 255
183 215 255
183 215 255
183 215 255
195 227 255
183 215 255
183 215 255
183 215 255
183 215 255
183 215 255
183 215 255
183 215 255
183 215 255
183 215 255
183 215 255
183 215 255
183 215 255
183 215 255
183 215 255
183 215 255
183 215 255
183 215 255
183 215 255
183 215 255
183 215 255
183 215 255
183 215 255
183 215 255
183 215 255
183 215 255
183 215 255
183 215 255
183 215 255
183 215 255
183 215 255
183 215 255
183 215 255
183 215 255
183 215 255
183 215 255
183 215 255
195 227 255
183 215 255
183 215 255
183 215 255
183 215 255
183 215 255
183 215 255
183 215 255
183 215 255
183 215 255
183 215 255
183 215 255
183 215 255
183 215 255
183 215 255
183 215 255
183 215 255
183 215 255
183 215 255
183 215 255
183 215 255
183 215 255
183 215 255
183 215 255
183 215 255
183 215 255
183 215 255
183 215 255
183 215 255
183 215 255
183 215 255
183 215 255
183 215 255
183 215 255
183 215 255
183 215 255
183 215 255
195 227 255
183 215 255
183 215 255
183 215 255
183 215 255
183 215 255
183 215 255
183 215 255
183 215 255
183 215 255
183 215 255
183 215 255
183 215 255
183 215 255
183 215 255
183 215 255
183 215 255
183 215 255
183 215 255
183 215 255
183 215 255
183 215 255
183 215 255
183 215 255
183 215 255
183 215 255
183 215 255
183 215 255
183 215 255
183 215 255
183 215 255
183 215 255
183 215 255
183 215 255
183 215 255
183 215 255
183 215 255
195 227 255
183 215 255
183 215 255
183 215 255
183 215 255
183 215 255
183 215 255
183 215 255
183 215 255
183 215 255
183 215 255
183 215 255
183 215 255
183 215 255
183 215 255
183 215 255
183 215 255
183 215 255
183 215 255
183 215 255
183 215 255
183 215 255
183 215 255
183 215 255
183 215 255
183 215 255
183 215 255
183 215 255
183 215 255
183 215 255
183 215 255
183 215 255
183 215 255
183 215 255
183 215 255
183 215 255
183 215 255
195 227 255
183 215 255
183 215 255
183 215 255
183 215 255
183 215 255
183 215 255
183 215 255
183 215 255
183 215 255
183 215 255
183 215 255
183 215 255
183 215 255
183 215 255
183 215 255
183 215 255
183 215 255
183 215 255
183 215 255
183 215 255
183 215 255
183 215 255
195 227 255
183 215 255
183 215 255
183 215 255
183 215 255
183 215 255
183 215 255
183 215 255
183 215 255
183 215 255
183 215 255
183 215 255
183 215 255
183 215 255
183 215 255
183 215 255
183 215 255
183 215 255
183 215 255
183 215 255
183 215 255
183 215 255
183 215 255
183 215 255
183 215 255
183 215 255
183 215 255
183 215 255
183 215 255
183 215 255
183 215 255
183 215 255
183 215 255
183 215 255
183 215 255
183 215 255
183 215 255
195 227 255
183 215 255
183 215 255
183 215 255
183 215 255
183 215 255
183 215 255
183 215 255
183 215 255
183 215 255
183 215 255
183 215 255
183 215 255
183 215 255
183 215 255
183 215 255
183 215 255
183 215 255
183 215 255
183 215 255
183 215 255
183 215 255
183 215 255
183 215 255
183 215 255
183 215 255
183 215 255
183 215 255
183 215 255
183 215 255
183 215 255
183 215 255
183 215 255
183 215 255
183 215 255
183 215 255
183 215 255
195 227 255
183 215 255
183 215 255
183 215 255
183 215 255
183 215 255
183 215 255
183 215 255
183 215 255
183 215 255
183 215 255
183 215 255
183 215 255
183 215 255
183 215 255
183 215 255
183 215 255
183 215 255
183 215 255
183 215 255
183 215 255
183 215 255
183 215 255
183 215 255
183 215 255
183 215 255
183 215 255
183 215 255
183 215 255
183 215 255
183 215 255
183 215 255
183 215 255
183 215 255
183 215 255
183 215 255
183 215 255
195 227 255
183 215 255
183 215 255
183 215 255
183 215 255
183 215 255
183 215 255
183 215 255
183 215 255
183 215 255
183 215 255
183 215 255
183 215 255
183 215 255
183 215 255
183 215 255
183 215 255
183 215 255
183 215 255
183 215 255
183 215 255
183 215 255
183 215 255
183 215 255
183 215 255
183 215 255
183 215 255
183 215 255
183 215 255
183 215 255
183 215 255
183 215 255
183 215 255
183 215 255
183 215 255
183 215 255
183 215 255
195 227 255
183 215 255
183 215 255
183 215 255
183 215 255
183 215 255
183 215 255
183 215 255
183 215 255
183 215 255
183 215 255
183 215 255
183 215 255
183 215 255
183 215 255
183 215 255
183 215 255
183 215 255
183 215 255
183 215 255
183 215 255
183 215 255
183 215 255
183 215 255
183 215 255
183 215 255
183 215 255
183 215 255
183 215 255
183 215 255
183 215 255
183 215 255
183 215 255
183 215 255
183 215 255
183 215 255
183 215 255
195 227 255
183 215 255
183 215 255
183 215 255
183 215 255
183 215 255
183 215 255
183 215 255
183 215 255
183 215 255
183 215 255
183 215 255
183 215 255
183 215 255
183 215 255
183 215 255
183 215 255
183 215 255
183 215 255
183 215 255
183 215 255
183 215 255
183 215 255
183 215 255
183 215 255
183 215 255
183 215 255
183 215 255
183 215 255
183 215 255
183 215 255
183 215 255
183 215 255
183 215 255
183 215 255
183 215 255
183 215 255
195 227 255
183 215 255
183 215 255
183 215 255
183 215 255
183 215 255
183 215 255
183 215 255
183 215 255
183 215 255
183 215 255
183 215 255
183 215 255
183 215 255
183 215 255
183 215 255
183 215 255
183 215 255
183 215 255
183 215 255
183 215 255
183 215 255
183 215 255
183 215 255
183 215 255
183 215 255
183 215 255
183 215 255
183 215 255
183 215 255
183 215 255
183 215 255
183 215 255
183 215 255
183 215 255
183 215 255
183 215 255
195 227 255
183 215 255
183 215 255
183 215 255
183 215 255
183 215 255
183 215 255
183 215 255
183 215 255
183 215 255
183 215 255
183 215 255
183 215 255
183 215 255
183 215 255
183 215 255
183 215 255
183 215 255
183 215 255
183 215 255
183 215 255
183 215 255
183 215 255
183 215 255
183 215 255
183 215 255
183 215 255
183 215 255
183 215 255
183 215 255
183 215 255
183 215 255
183 215 255
183 215 255
183 215 255
183 215 255
183 215 255
195 227 255
183 215 255
183 215 255
183 215 255
183 215 255
183 215 255
183 215 255
183 215 255
183 215 255
183 215 255
183 215 255
183 215 255
183 215 255
183 215 255
183 215 255
183 215 255
183 215 255
183 215 255
183 215 255
183 215 255
183 215 255
183 215 255
183 215 255
195 227 255
183 215 255
183 215 255
183 215 255
183 215 255
183 215 255
183 215 255
183 215 255
183 215 255
183 215 255
183 215 255
183 215 255
183 215 255
183 215 255
183 215 255
183 215 255
183 215 255
183 215 255
183 215 255
183 215 255
183 215 255
183 215 255
183 215 255
183 215 255
183 215 255
183 215 255
183 215 255
183 215 255
183 215 255
183 215 255
183 215 255
183 215 255
183 215 255
183 215 255
183 215 255
183 215 255
183 215 255
195 227 255
183 215 255
183 215 255
183 215 255
183 215 255
183 215 255
183 215 255
183 215 255
183 215 255
183 215 255
183 215 255
183 215 255
183 215 255
183 215 255
183 215 255
183 215 255
183 215 255
183 215 255
183 215 255
183 215 255
183 215 255
183 215 255
183 215 255
183 215 255
183 215 255
183 215 255
183 215 255
183 215 255
183 215 255
183 215 255
183 215 255
183 215 255
183 215 255
183 215 255
183 215 255
183 215 255
183 215 255
195 227 255
183 215 255
183 215 255
183 215 255
183 215 255
183 215 255
183 215 255
183 215 255
183 215 255
183 215 255
183 215 255
183 215 255
183 215 255
183 215 255
183 215 255
183 215 255
183 215 255
183 215 255
183 215 255
183 215 255
183 215 255
183 215 255
183 215 255
183 215 255
183 215 255
183 215 255
183 215 255
183 215 255
183 215 255
183 215 255
183 215 255
183 215 255
183 215 255
183 215 255
183 215 255
183 215 255
183 215 255
195 227 255
183 215 255
183 215 255
183 215 255
183 215 255
183 215 255
183 215 255
183 215 255
183 215 255
183 215 255
183 215 255
183 215 255
183 215 255
183 215 255
183 215 255
183 215 255
183 215 255
183 215 255
183 215 255
183 215 255
183 215 255
183 215 255
183 215 255
183 215 255
183 215 255
183 215 255
183 215 255
183 215 255
183 215 255
183 215 255
183 215 255
183 215 255
183 215 255
183 215 255
183 215 255
183 215 255
183 215 255
195 227 255
183 215 255
183 215 255
183 215 255
183 215 255
183 215 255
183 215 255
183 215 255
183 215 255
183 215 255
183 215 255
183 215 255
183 215 255
183 215 255
183 215 255
183 215 255
183 215 255
183 215 255
183 215 255
183 215 255
183 215 255
183 215 255
183 215 255
183 215 255
183 215 255
183 215 255
183 215 255
183 215 255
183 215 255
183 215 255
183 215 255
183 215 255
183 215 255
183 215 255
183 215 255
183 215 255
183 215 255
195 227 255
183 215 255
183 215 255
183 215 255
183 215 255
183 215 255
183 215 255
183 215 255
183 215 255
183 215 255
183 215 255
183 215 255
183 215 255
183 215 255
183 215 255
183 215 255
183 215 255
183 215 255
183 215 255
183 215 255
183 215 255
183 215 255
183 215 255
183 215 255
183 215 255
183 215 255
183 215 255
183 215 255
183 215 255
183 215 255
183 215 255
183 215 255
183 215 255
183 215 255
183 215 255
183 215 255
183 215 255
195 227 255
183 215 255
183 215 255
183 215 255
183 215 255
183 215 255
183 215 255
183 215 255
183 215 255
183 215 255
183 215 255
183 215 255
183 215 255
183 215 255
183 215 255
183 215 255
183 215 255
183 215 255
183 215 255
183 215 255
183 215 255
183 215 255
183 215 255
183 215 255
183 215 255
183 215 255
183 215 255
183 215 255
183 215 255
183 215 255
183 215 255
183 215 255
183 215 255
183 215 255
183 215 255
183 215 255
183 215 255
195 227 255
183 215 255
183 215 255
183 215 255
183 215 255
183 215 255
183 215 255
183 215 255
183 215 255
183 215 255
183 215 255
183 215 255
183 215 255
183 215 255
183 215 255
183 215 255
183 215 255
183 215 255
183 215 255
183 215 255
183 215 255
183 215 255
183 215 255
183 215 255
183 215 255
183 215 255
183 215 255
183 215 255
183 215 255
183 215 255
183 215 255
183 215 255
183 215 255
183 215 255
183 215 255
183 215 255
183 215 255
195 227 255
183 215 255
183 215 255
183 215 255
183 215 255
183 215 255
183 215 255
183 215 255
183 215 255
183 215 255
183 215 255
183 215 255
183 215 255
183 215 255
183 215 255
183 215 255
183 215 255
183 215 255
183 215 255
183 215 255
183 215 255
183 215 255
183 215 255
195 227 255
183 215 255
183 215 255
183 215 255
183 215 255
183 215 255
183 215 255
183 215 255
183 215 255
183 215 255
183 215 255
183 215 255
183 215 255
183 215 255
183 215 255
183 215 255
183 215 255
183 215 255
183 215 255
183 215 255
183 215 255
183 215 255
183 215 255
183 215 255
183 215 255
183 215 255
183 215 255
183 215 255
183 215 255
183 215 255
183 215 255
183 215 255
183 215 255
183 215 255
183 215 255
183 215 255
183 215 255
195 227 255
183 215 255
183 215 255
183 215 255
183 215 255
183 215 255
183 215 255
183 215 255
183 215 255
183 215 255
183 215 255
183 215 255
183 215 255
183 215 255
183 215 255
183 215 255
183 215 255
183 215 255
183 215 255
183 215 255
183 215 255
183 215 255
183 215 255
183 215 255
183 215 255
183 215 255
183 215 255
183 215 255
183 215 255
183 215 255
183 215 255
183 215 255
183 215 255
183 215 255
183 215 255
183 215 255
183 215 255
195 227 255
183 215 255
183 215 255
183 215 255
183 215 255
183 215 255
183 215 255
183 215 255
183 215 255
183 215 255
183 215 255
183 215 255
183 215 255
183 215 255
183 215 255
183 215 255
183 215 255
183 215 255
183 215 255
183 215 255
183 215 255
183 215 255
183 215 255
183 215 255
183 215 255
183 215 255
183 215 255
183 215 255
183 215 255
183 215 255
183 215 255
183 215 255
183 215 255
183 215 255
183 215 255
183 215 255
183 215 255
195 227 255
183 215 255
183 215 255
183 215 255
183 215 255
183 215 255
183 215 255
183 215 255
183 215 255
183 215 255
183 215 255
183 215 255
183 215 255
183 215 255
183 215 255
183 215 255
183 215 255
183 215 255
183 215 255
183 215 255
183 215 255
183 215 255
183 215 255
183 215 255
183 215 255
183 215 255
183 215 255
183 215 255
183 215 255
183 215 255
183 215 255
183 215 255
183 215 255
183 215 255
183 215 255
183 215 255
183 215 255
195 227 255
183 215 255
183 215 255
183 215 255
183 215 255
183 215 255
183 215 255
183 215 255
183 215 255
183 215 255
183 215 255
183 215 255
183 215 255
183 215 255
183 215 255
183 215 255
183 215 255
183 215 255
183 215 255
183 215 255
183 215 255
183 215 255
183 215 255
183 215 255
183 215 255
183 215 255
183 215 255
183 215 255
183 215 255
183 215 255
183 215 255
183 215 255
183 215 255
183 215 255
183 215 255
183 215 255
183 215 255
195 227 255
183 215 255
183 215 255
183 215 255
183 215 255
183 215 255
183 215 255
183 215 255
183 215 255
183 215 255
183 215 255
183 215 255
183 215 255
183 215 255
183 215 255
183 215 255
183 215 255
183 215 255
183 215 255
183 215 255
183 215 255
183 215 255
183 215 255
183 215 255
183 215 255
183 215 255
183 215 255
183 215 255
183 215 255
183 215 255
183 215 255
183 215 255
183 215 255
183 215 255
183 215 255
183 215 255
183 215 255
195 227 255
183 215 255
183 215 255
183 215 255
183 215 255
183 215 255
183 215 255
183 215 255
183 215 255
183 215 255
183 215 255
183 215 255
183 215 255
183 215 255
183 215 255
183 215 255
183 215 255
183 215 255
183 215 255
183 215 255
183 215 255
183 215 255
183 215 255
183 215 255
183 215 255
183 215 255
183 215 255
183 215 255
183 215 255
183 215 255
183 215 255
183 215 255
183 215 255
183 215 255
183 215 255
183 215 255
183 215 255
195 227 255
183 215 255
183 215 255
183 215 255
183 215 255
183 215 255
183 215 255
183 215 255
183 215 255
183 215 255
183 215 255
183 215 255
183 215 255
183 215 255
183 215 255
183 215 255
183 215 255
183 215 255
183 215 255
183 215 255
183 215 255
183 215 255
183 215 255
183 215 255
183 215 255
183 215 255
183 215 255
183 215 255
183 215 255
183 215 255
183 215 255
183 215 255
183 215 255
183 215 255
183 215 255
183 215 255
183 215 255
195 227 255
183 215 255
183 215 255
183 215 255
183 215 255
183 215 255
183 215 255
183 215 255
183 215 255
183 215 255
183 215 255
183 215 255
183 215 255
183 215 255
183 215 255
183 215 255
183 215 255
183 215 255
183 215 255
183 215 255
183 215 255
183 215 255
183 215 255
195 227 255
183 215 255
183 215 255
183 215 255
183 215 255
183 215 255
183 215 255
183 215 255
183 215 255
183 215 255
183 215 255
183 215 255
183 215 255
183 215 255
183 215 255
183 215 255
183 215 255
183 215 255
183 215 255
183 215 255
183 215 255
183 215 255
183 215 255
183 215 255
183 215 255
183 215 255
183 215 255
183 215 255
183 215 255
183 215 255
183 215 255
183 215 255
183 215 255
183 215 255
183 215 255
183 215 255
183 215 255
195 227 255
183 215 255
183 215 255
183 215 255
183 215 255
183 215 255
183 215 255
183 215 255
183 215 255
183 215 255
183 215 255
183 215 255
183 215 255
183 215 255
183 215 255
183 215 255
183 215 255
183 215 255
183 215 255
183 215 255
183 215 255
183 215 255
183 215 255
183 215 255
183 215 255
183 215 255
183 215 255
183 215 255
183 215 255
183 215 255
183 215 255
183 215 255
183 215 255
183 215 255
183 215 255
183 215 255
183 215 255
195 227 255
183 215 255
183 215 255
183 215 255
183 215 255
183 215 255
183 215 255
183 215 255
183 215 255
183 215 255
183 215 255
183 215 255
183 215 255
183 215 255
183 215 255
183 215 255
183 215 255
183 215 255
183 215 255
183 215 255
183 215 255
183 215 255
183 215 255
183 215 255
183 215 255
183 215 255
183 215 255
183 215 255
183 215 255
183 215 255
183 215 255
183 215 255
183 215 255
183 215 255
183 215 255
183 215 255
183 215 255
195 227 255
183 215 255
183 215 255
183 215 255
183 215 255
183 215 255
183 215 255
183 215 255
183 215 255
183 215 255
183 215 255
183 215 255
183 215 255
183 215 255
183 215 255
183 215 255
183 215 255
183 215 255
183 215 255
183 215 255
183 215 255
183 215 255
183 215 255
183 215 255
183 215 255
183 215 255
183 215 255
183 215 255
183 215 255
183 215 255
183 215 255
183 215 255
183 215 255
183 215 255
183 215 255
183 215 255
183 215 255
195 227 255
183 215 255
183 215 255
183 215 255
183 215 255
183 215 255
183 215 255
183 215 255
183 215 255
183 215 255
183 215 255
183 215 255
183 215 255
183 215 255
183 215 255
183 215 255
183 215 255
183 215 255
183 215 255
183 215 255
183 215 255
183 215 255
183 215 255
183 215 255
183 215 255
183 215 255
183 215 255
183 215 255
183 215 255
183 215 255
183 215 255
183 215 255
183 215 255
183 215 255
183 215 255
183 215 255
183 215 255
195 227 255
183 215 255
183 215 255
183 215 255
183 215 255
183 215 255
183 215 255
183 215 255
183 215 255
183 215 255
183 215 255
183 215 255
183 215 255
183 215 255
183 215 255
183 215 255
183 215 255
183 215 255
183 215 255
183 215 255
183 215 255
183 215 255
183 215 255
183 215 255
183 215 255
183 215 255
183 215 255
183 215 255
183 215 255
183 215 255
183 215 255
183 215 255
183 215 255
183 215 255
183 215 255
183 215 255
183 215 255
195 227 255
183 215 255
183 215 255
183 215 255
183 215 255
183 215 255
183 215 255
183 215 255
183 215 255
183 215 255
183 215 255
183 215 255
183 215 255
183 215 255
183 215 255
183 215 255
183 215 255
183 215 255
183 215 255
183 215 255
183 215 255
183 215 255
183 215 255
183 215 255
183 215 255
183 215 255
183 215 255
183 215 255
183 215 255
183 215 255
183 215 255
183 215 255
183 215 255
183 215 255
183 215 255
183 215 255
183 215 255
195 227 255
183 215 255
183 215 255
183 215 255
183 215 255
183 215 255
183 215 255
183 215 255
183 215 255
183 215 255
183 215 255
183 215 255
183 215 255
183 215 255
183 215 255
183 215 255
183 215 255
183 215 255
183 215 255
183 215 255
183 215 255
183 215 255
183 215 255
183 215 255
183 215 255
183 215 255
183 215 255
183 215 255
183 215 255
183 215 255
183 215 255
183 215 255
183 215 255
183 215 255
183 215 255
183 215 255
183 215 255
195 227 255
183 215 255
183 215 255
183 215 255
183 215 255
183 215 255
183 215 255
183 215 255
183 215 255
183 215 255
183 215 255
183 215 255
183 215 255
183 215 255
183 215 255
183 215 255
183 215 255
183 215 255
183 215 255
183 215 255
183 215 255
183 215 255
183 215 255
195 227 255
183 215 255
183 215 255
183 215 255
183 215 255
183 215 255
183 215 255
183 215 255
183 215 255
183 215 255
183 215 255
183 215 255
183 215 255
183 215 255
183 215 255
183 215 255
183 215 255
183 215 255
183 215 255
183 215 255
183 215 255
183 215 255
183 215 255
183 215 255
183 215 255
183 215 255
183 215 255
183 215 255
183 215 255
183 215 255
183 215 255
183 215 255
183 215 255
183 215 255
183 215 255
183 215 255
183 215 255
195 227 255
183 215 255
183 215 255
183 215 255
183 215 255
183 215 255
183 215 255
183 215 255
183 215 255
183 215 255
183 215 255
183 215 255
183 215 255
183 215 255
183 215 255
183 215 255
183 215 255
183 215 255
183 215 255
183 215 255
183 215 255
183 215 255
183 215 255
183 215 255
183 215 255
183 215 255
183 215 255
183 215 255
183 215 255
183 215 255
183 215 255
183 215 255
183 215 255
183 215 255
183 215 255
183 215 255
183 215 255
195 227 255
183 215 255
183 215 255
183 215 255
183 215 255
183 215 255
183 215 255
183 215 255
183 215 255
183 215 255
183 215 255
183 215 255
183 215 255
183 215 255
183 215 255
183 215 255
183 215 255
183 215 255
183 215 255
183 215 255
183 215 255
183 215 255
183 215 255
183 215 255
183 215 255
183 215 255
183 215 255
183 215 255
183 215 255
183 215 255
183 215 255
183 215 255
183 215 255
183 215 255
183 215 255
183 215 255
183 215 255
195 227 255
183 215 255
183 215 255
183 215 255
183 215 255
183 215 255
183 215 255
183 215 255
183 215 255
183 215 255
183 215 255
183 215 255
183 215 255
183 215 255
183 215 255
183 215 255
183 215 255
183 215 255
183 215 255
183 215 255
183 215 255
183 215 255
183 215 255
183 215 255
183 215 255
183 215 255
183 215 255
183 215 255
183 215 255
183 215 255
183 215 255
183 215 255
183 215 255
183 215 255
183 215 255
183 215 255
183 215 255
195 227 255
183 215 255
183 215 255
183 215 255
183 215 255
183 215 255
183 215 255
183 215 255
183 215 255
183 215 255
183 215 255
183 215 255
183 215 255
183 215 255
183 215 255
183 215 255
183 215 255
183 215 255
183 215 255
183 215 255
183 215 255
183 215 255
183 215 255
183 215 255
183 215 255
183 215 255
183 215 255
183 215 255
183 215 255
183 215 255
183 215 255
183 215 255
183 215 255
183 215 255
183 215 255
183 215 255
183 215 255
195 227 255
183 215 255
183 215 255
183 215 255
183 215 255
183 215 255
183 215 255
183 215 255
183 215 255
183 215 255
183 215 255
183 215 255
183 215 255
183 215 255
183 215 255
183 215 255
183 215 255
183 215 255
183 215 255
183 215 255
183 215 255
183 215 255
183 215 255
183 215 255
183 215 255
183 215 255
183 215 255
183 215 255
183 215 255
183 215 255
183 215 255
183 215 255
183 215 255
183 215 255
183 215 255
183 215 255
183 215 255
195 227 255
183 215 255
183 215 255
183 215 255
183 215 255
183 215 255
183 215 255
183 215 255
183 215 255
183 215 255
183 215 255
183 215 255
183 215 255
183 215 255
183 215 255
183 215 255
183 215 255
183 215 255
183 215 255
183 215 255
183 215 255
183 215 255
183 215 255
183 215 255
183 215 255
183 215 255
183 215 255
183 215 255
183 215 255
183 215 255
183 215 255
183 215 255
183 215 255
183 215 255
183 215 255
183 215 255
183 215 255
195 227 255
183 215 255
183 215 255
183 215 255
183 215 255
183 215 255
183 215 255
183 215 255
183 215 255
183 215 255
183 215 255
183 215 255
183 215 255
183 215 255
183 215 255
183 215 255
183 215 255
183 215 255
183 215 255
183 215 255
183 215 255
183 215 255
183 215 255
183 215 255
183 215 255
183 215 255
183 215 255
183 215 255
183 215 255
183 215 255
183 215 255
183 215 255
183 215 255
183 215 255
183 215 255
183 215 255
183 215 255
195 227 255
183 215 255
183 215 255
183 215 255
183 215 255
183 215 255
183 215 255
183 215 255
183 215 255
183 215 255
183 215 255
183 215 255
183 215 255
183 215 255
183 215 255
183 215 255
183 215 255
183 215 255
183 215 255
183 215 255
183 215 255
183 215 255
183 215 255
195 227 255
183 215 255
183 215 255
183 215 255
183 215 255
183 215 255
183 215 255
183 215 255
183 215 255
183 215 255
183 215 255
183 215 255
183 215 255
183 215 255
183 215 255
183 215 255
183 215 255
183 215 255
183 215 255
183 215 255
183 215 255
183 215 255
183 215 255
183 215 255
183 215 255
183 215 255
183 215 255
183 215 255
183 215 255
183 215 255
183 215 255
183 215 255
183 215 255
183 215 255
183 215 255
183 215 255
183 215 255
195 227 255
183 215 255
183 215 255
183 215 255
183 215 255
183 215 255
183 215 255
183 215 255
183 215 255
183 215 255
183 215 255
183 215 255
183 215 255
183 215 255
183 215 255
183 215 255
183 215 255
183 215 255
183 215 255
183 215 255
183 215 255
183 215 255
183 215 255
183 215 255
183 215 255
183 215 255
183 215 255
183 215 255
183 215 255
183 215 255
183 215 255
183 215 255
183 215 255
183 215 255
183 215 255
183 215 255
183 215 255
195 227 255
183 215 255
183 215 255
183 215 255
183 215 255
183 215 255
183 215 255
183 215 255
183 215 255
183 215 255
183 215 255
183 215 255
183 215 255
183 215 255
183 215 255
183 215 255
183 215 255
183 215 255
183 215 255
183 215 255
183 215 255
183 215 255
183 215 255
183 215 255
183 215 255
183 215 255
183 215 255
183 215 255
183 215 255
183 215 255
183 215 255
183 215 255
183 215 255
183 215 255
183 215 255
183 215 255
183 215 255
195 227 255
183 215 255
183 215 255
183 215 255
183 215 255
183 215 255
183 215 255
183 215 255
183 215 255
183 215 255
183 215 255
183 215 255
183 215 255
183 215 255
183 215 255
183 215 255
183 215 255
183 215 255
183 215 255
183 215 255
183 215 255
183 215 255
183 215 255
183 215 255
183 215 255
183 215 255
183 215 255
183 215 255
183 215 255
183 215 255
183 215 255
183 215 255
183 215 255
183 215 255
183 215 255
183 215 255
183 215 255
195 227 255
183 215 255
183 215 255
183 215 255
183 215 255
183 215 255
183 215 255
183 215 255
183 215 255
183 215 255
183 215 255
183 215 255
183 215 255
183 215 255
183 215 255
183 215 255
183 215 255
183 215 255
183 215 255
183 215 255
183 215 255
183 215 255
183 215 255
183 215 255
183 215 255
183 215 255
183 215 255
183 215 255
183 215 255
183 215 255
183 215 255
183 215 255
183 215 255
183 215 255
183 215 255
183 215 255
183 215 255
195 227 255
183 215 255
183 215 255
183 215 255
183 215 255
183 215 255
183 215 255
183 215 255
183 215 255
183 215 255
183 215 255
183 215 255
183 215 255
183 215 255
183 215 255
183 215 255
183 215 255
183 215 255
183 215 255
183 215 255
183 215 255
183 215 255
183 215 255
183 215 255
183 215 255
183 215 255
183 215 255
183 215 255
183 215 255
183 215 255
183 215 255
183 215 255
183 215 255
183 215 255
183 215 255
183 215 255
183 215 255
195 227 255
183 215 255
183 215 255
183 215 255
183 215 255
183 215 255
183 215 255
183 215 255
183 215 255
183 215 255
183 215 255
183 215 255
183 215 255
183 215 255
183 215 255
183 215 255
183 215 255
183 215 255
183 215 255
183 215 255
183 215 255
183 215 255
183 215 255
183 215 255
183 215 255
183 215 255
183 215 255
183 215 255
183 215 255
183 215 255
183 215 255
183 215 255
183 215 255
183 215 255
183 215 255
183 215 255
183 215 255
195 227 255
183 215 255
183 215 255
183 215 255
183 215 255
183 215 255
183 215 255
183 215 255
183 215 255
183 215 255
183 215 255
183 215 255
183 215 255
183 215 255
183 215 255
183 215 255
183 215 255
183 215 255
183 215 255
183 215 255
183 215 255
183 215 255
183 215 255
183 215 255
183 215 255
183 215 255
183 215 255
183 215 255
183 215 255
183 215 255
183 215 255
183 215 255
183 215 255
183 215 255
183 215 255
183 215 255
183 215 255
195 227 255
183 215 255
183 215 255
183 215 255
183 215 255
183 215 255
183 215 255
183 215 255
183 215 255
183 215 255
183 215 255
183 215 255
183 215 255
183 215 255
183 215 255
183 215 255
183 215 255
183 215 255
183 215 255
183 215 255
183 215 255
183 215 255
183 215 255
183 215 255
183 215 255
183 215 255
183 215 255
183 215 255
183 215 255
183 215 255
183 215 255
183 215 255
183 215 255
183 215 255
183 215 255
183 215 255
183 215 255
183 215 255
183 215 255
183 215 255
183 215 255
183 215 255
183 215 255
183 215 255
183 215 255
183 215 255
183 215 255
183 215 255
183 215 255
183 215 255
183 215 255
183 215 255
183 215 255
183 215 255
183 215 255
183 215 255
183 215 255
183 215 255
183 215 255
183 215 255
195 227 255
183 215 255
183 215 255
183 215 255
183 215 255
183 215 255
183 215 255
183 215 255
183 215 255
183 215 255
183 215 255
183 215 255
183 215 255
183 215 255
183 215 255
183 215 255
183 215 255
183 215 255
183 215 255
183 215 255
183 215 255
183 215 255
183 215 255
183 215 255
183 215 255
183 215 255
183 215 255
183 215 255
183 215 255
183 215 255
183 215 255
183 215 255
183 215 255
183 215 255
183 215 255
183 215 255
183 215 255
195 227 255
183 215 255
183 215 255
183 215 255
183 215 255
183 215 255
183 215 255
183 215 255
183 215 255
183 215 255
183 215 255
183 215 255
183 215 255
183 215 255
183 215 255
183 215 255
183 215 255
183 215 255
183 215 255
183 215 255
183 215 255
183 215 255
183 215 255
183 215 255
183 215 255
183 215 255
183 215 255
183 215 255
183 215 255
183 215 255
183 215 255
183 215 255
183 215 255
183 215 255
183 215 255
183 215 255
183 215 255
195 227 255
183 215 255
183 215 255
183 215 255
183 215 255
183 215 255
183 215 255
183 215 255
183 215 255
183 215 255
183 215 255
183 215 255
183 215 255
183 215 255
183 215 255
183 215 255
183 215 255
183 215 255
183 215 255
183 215 255
183 215 255
183 215 255
183 215 255
183 215 255
183 215 255
183 215 255
183 215 255
183 215 255
183 215 255
183 215 255
183 215 255
183 215 255
183 215 255
183 215 255
183 215 255
183 215 255
183 215 255
195 227 255
183 215 255
183 215 255
183 215 255
183 215 255
183 215 255
183 215 255
183 215 255
183 215 255
183 215 255
183 215 255
183 215 255
183 215 255
183 215 255
183 215 255
183 215 255
183 215 255
183 215 255
183 215 255
183 215 255
183 215 255
183 215 255
183 215 255
183 215 255
183 215 255
183 215 255
183 215 255
183 215 255
183 215 255
183 215 255
183 215 255
183 215 255
183 215 255
183 215 255
183 215 255
183 215 255
183 215 255
195 227 255
183 215 255
183 215 255
183 215 255
183 215 255
183 215 255
183 215 255
183 215 255
183 215 255
183 215 255
183 215 255
183 215 255
183 215 255
183 215 255
183 215 255
183 215 255
183 215 255
183 215 255
183 215 255
183 215 255
183 215 255
183 215 255
183 215 255
183 215 255
183 215 255
183 215 255
183 215 255
183 215 255
183 215 255
183 215 255
183 215 255
183 215 255
183 215 255
183 215 255
183 215 255
183 215 255
183 215 255
195 227 255
183 215 255
183 215 255
183 215 255
183 215 255
183 215 255
183 215 255
183 215 255
183 215 255
183 215 255
183 215 255
183 215 255
183 215 255
183 215 255
183 215 255
183 215 255
183 215 255
183 215 255
183 215 255
183 215 255
183 215 255
183 215 255
183 215 255
183 215 255
183 215 255
183 215 255
183 215 255
183 215 255
183 215 255
183 215 255
183 215 255
183 215 255
183 215 255
183 215 255
183 215 255
183 215 255
183 215 255
195 227 255
183 215 255
183 215 255
183 215 255
183 215 255
183 215 255
183 215 255
183 215 255
183 215 255
183 215 255
183 215 255
183 215 255
183 215 255
183 215 255
183 215 255
183 215 255
183 215 255
183 215 255
183 215 255
183 215 255
183 215 255
183 215 255
183 215 255
183 215 255
183 215 255
183 215 255
183 215 255
183 215 255
183 215 255
183 215 255
183 215 255
183 215 255
183 215 255
183 215 255
183 215 255
183 215 255
183 215 255
195 227 255
183 215 255
183 215 255
183 215 255
183 215 255
183 215 255
183 215 255
183 215 255
183 215 255
183 215 255
183 215 255
183 215 255
183 215 255
183 215 255
183 215 255
183 215 255
183 215 255
183 215 255
183 215 255
183 215 255
183 215 255
183 215 255
183 215 255
183 215 255
183 215 255
183 215 255
183 215 255
183 215 255
183 215 255
183 215 255
183 215 255
183 215 255
183 215 255
183 215 255
183 215 255
183 215 255
183 215 255
183 215 255
183 215 255
183 215 255
183 215 255
183 215 255
183 215 255
183 215 255
183 215 255
183 215 255
183 215 255
183 215 255
183 215 255
183 215 255
183 215 255
183 215 255
183 215 255
183 215 255
183 215 255
183 215 255
183 215 255
183 215 255
183 215 255
183 215 255
195 227 255
183 215 255
183 215 255
183 215 255
183 215 255
183 215 255
183 215 255
183 215 255
183 215 255
183 215 255
183 215 255
183 215 255
183 215 255
183 215 255
183 215 255
183 215 255
183 215 255
183 215 255
183 215 255
183 215 255
183 215 255
183 215 255
183 215 255
183 215 255
183 215 255
183 215 255
183 215 255
183 215 255
183 215 255
183 215 255
183 215 255
183 215 255
183 215 255
183 215 255
183 215 255
183 215 255
183 215 255
195 227 255
183 215 255
183 215 255
183 215 255
183 215 255
183 215 255
183 215 255
183 215 255
183 215 255
183 215 255
183 215 255
183 215 255
183 215 255
183 215 255
183 215 255
183 215 255
183 215 255
183 215 255
183 215 255
183 215 255
183 215 255
183 215 255
183 215 255
183 215 255
183 215 255
183 215 255
183 215 255
183 215 255
183 215 255
183 215 255
183 215 255
183 215 255
183 215 255
183 215 255
183 215 255
183 215 255
183 215 255
195 227 255
183 215 255
183 215 255
183 215 255
183 215 255
183 215 255
183 215 255
183 215 255
183 215 255
183 215 255
183 215 255
183 215 255
183 215 255
183 215 255
183 215 255
183 215 255
183 215 255
183 215 255
183 215 255
183 215 255
183 215 255
183 215 255
183 215 255
183 215 255
183 215 255
183 215 255
183 215 255
183 215 255
183 215 255
183 215 255
183 215 255
183 215 255
183 215 255
183 215 255
183 215 255
183 215 255
183 215 255
195 227 255
183 215 255
183 215 255
183 215 255
183 215 255
183 215 255
183 215 255
183 215 255
183 215 255
183 215 255
183 215 255
183 215 255
183 215 255
183 215 255
183 215 255
183 215 255
183 215 255
183 215 255
183 215 255
183 215 255
183 215 255
183 215 255
183 215 255
183 215 255
183 215 255
183 215 255
183 215 255
183 215 255
183 215 255
183 215 255
183 215 255
183 215 255
183 215 255
183 215 255
183 215 255
183 215 255
183 215 255
195 227 255
183 215 255
183 215 255
183 215 255
183 215 255
183 215 255
183 215 255
183 215 255
183 215 255
183 215 255
183 215 255
183 215 255
183 215 255
183 215 255
183 215 255
183 215 255
183 215 255
183 215 255
183 215 255
183 215 255
183 215 255
183 215 255
183 215 255
183 215 255
183 215 255
183 215 255
183 215 255
183 215 255
183 215 255
183 215 255
183 215 255
183 215 255
183 215 255
183 215 255
183 215 255
183 215 255
183 215 255
195 227 255
183 215 255
183 215 255
183 215 255
183 215 255
183 215 255
183 215 255
183 215 255
183 215 255
183 215 255
183 215 255
183 215 255
183 215 255
183 215 255
183 215 255
183 215 255
183 215 255
183 215 255
183 215 255
183 215 255
183 215 255
183 215 255
183 215 255
183 215 255
183 215 255
183 215 255
183 215 255
183 215 255
183 215 255
183 215 255
183 215 255
183 215 255
183 215 255
183 215 255
183 215 255
183 215 255
183 215 255
195 227 255
183 215 255
183 215 255
183 215 255
183 215 255
183 215 255
183 215 255
183 215 255
183 215 255
183 215 255
183 215 255
183 215 255
183 215 255
183 215 255
183 215 255
183 215 255
183 215 255
183 215 255
183 215 255
183 215 255
183 215 255
183 215 255
183 215 255
183 215 255
183 215 255
183 215 255
183 215 255
183 215 255
183 215 255
183 215 255
183 215 255
183 215 255
183 215 255
183 215 255
183 215 255
183 215 255
183 215 255
195 227 255
183 215 255
183 215 255
183 215 255
183 215 255
183 215 255
183 215 255
183 215 255
183 215 255
183 215 255
183 215 255
183 215 255
183 215 255
183 215 255
183 215 255
183 215 255
183 215 255
183 215 255
183 215 255
183 215 255
183 215 255
183 215 255
183 215 255
183 215 255
183 215 255
183 215 255
183 215 255
183 215 255
183 215 255
183 215 255
183 215 255
183 215 255
183 215 255
183 215 255
183 215 255
183 215 255
183 215 255
183 215 255
183 215 255
183 215 255
183 215 255
183 215 255
183 215 255
183 215 255
183 215 255
183 215 255
183 215 255
183 215 255
183 215 255
183 215 255
183 215 255
183 215 255
183 215 255
183 215 255
183 215 255
183 215 255
183 215 255
183 215 255
183 215 255
183 215 255
195 227 255
183 215 255
183 215 255
183 215 255
183 215 255
183 215 255
183 215 255
183 215 255
183 215 255
183 215 255
183 215 255
183 215 255
183 215 255
183 215 255
183 215 255
183 215 255
183 215 255
183 215 255
183 215 255
183 215 255
183 215 255
183 215 255
183 215 255
183 215 255
183 215 255
183 215 255
183 215 255
183 215 255
183 215 255
183 215 255
183 215 255
183 215 255
183 215 255
183 215 255
183 215 255
183 215 255
183 215 255
195 227 255
183 215 255
183 215 255
183 215 255
183 215 255
183 215 255
183 215 255
183 215 255
183 215 255
183 215 255
183 215 255
183 215 255
183 215 255
183 215 255
183 215 255
183 215 255
183 215 255
183 215 255
183 215 255
183 215 255
183 215 255
183 215 255
183 215 255
183 215 255
183 215 255
183 215 255
183 215 255
183 215 255
183 215 255
183 215 255
183 215 255
183 215 255
183 215 255
183 215 255
183 215 255
183 215 255
183 215 255
195 227 255
183 215 255
183 215 255
183 215 255
183 215 255
183 215 255
183 215 255
183 215 255
183 215 255
183 215 255
183 215 255
183 215 255
183 215 255
183 215 255
183 215 255
183 215 255
183 215 255
183 215 255
183 215 255
183 215 255
183 215 255
183 215 255
183 215 255
183 215 255
183 215 255
183 215 255
183 215 255
183 215 255
183 215 255
183 215 255
183 215 255
183 215 255
183 215 255
183 215 255
183 215 255
183 215 255
183 215 255
195 227 255
183 215 255
183 215 255
183 215 255
183 215 255
183 215 255
183 215 255
183 215 255
183 215 255
183 215 255
183 215 255
183 215 255
183 215 255
183 215 255
183 215 255
183 215 255
183 215 255
183 215 255
183 215 255
183 215 255
183 215 255
183 215 255
183 215 255
183 215 255
183 215 255
183 215 255
183 215 255
183 215 255
183 215 255
183 215 255
183 215 255
183 215 255
183 215 255
183 215 255
183 215 255
183 215 255
183 215 255
195 227 255
183 215 255
183 215 255
183 215 255
183 215 255
183 215 255
183 215 255
183 215 255
183 215 255
183 215 255
183 215 255
183 215 255
183 215 255
183 215 255
183 215 255
183 215 255
183 215 255
183 215 255
183 215 255
183 215 255
183 215 255
183 215 255
183 215 255
183 215 255
183 215 255
183 215 255
183 215 255
183 215 255
183 215 255
183 215 255
183 215 255
183 215 255
183 215 255
183 215 255
183 215 255
183 215 255
183 215 255
195 227 255
183 215 255
183 215 255
183 215 255
183 215 255
183 215 255
183 215 255
183 215 255
183 215 255
183 215 255
183 215 255
183 215 255
183 215 255
183 215 255
183 215 255
183 215 255
183 215 255
183 215 255
183 215 255
183 215 255
183 215 255
183 215 255
183 215 255
183 215 255
183 215 255
183 215 255
183 215 255
183 215 255
183 215 255
183 215 255
183 215 255
183 215 255
183 215 255
183 215 255
183 215 255
183 215 255
183 215 255
195 227 255
183 215 255
183 215 255
183 215 255
183 215 255
183 215 255
183 215 255
183 215 255
183 215 255
183 215 255
183 215 255
183 215 255
183 215 255
183 215 255
183 215 255
183 215 255
183 215 255
183 215 255
183 215 255
183 215 255
183 215 255
183 215 255
183 215 255
183 215 255
183 215 255
183 215 255
183 215 255
183 215 255
183 215 255
183 215 255
183 215 255
183 215 255
183 215 255
183 215 255
183 215 255
183 215 255
183 215 255
195 227 255
183 215 255
183 215 255
183 215 255
183 215 255
183 215 255
183 215 255
183 215 255
183 215 255
183 215 255
183 215 255
183 215 255
183 215 255
183 215 255
183 215 255
183 215 255
183 215 255
183 215 255
183 215 255
183 215 255
183 215 255
183 215 255
183 215 255
183 215 255
183 215 255
183 215 255
183 215 255
183 215 255
183 215 255
183 215 255
183 215 255
183 215 255
183 215 255
183 215 255
183 215 255
183 215 255
183 215 255
183 215 255
183 215 255
183 215 255
183 215 255
183 215 255
183 215 255
183 215 255
183 215 255
183 215 255
183 215 255
183 215 255
183 215 255
183 215 255
183 215 255
183 215 255
183 215 255
183 215 255
183 215 255
183 215 255
183 215 255
183 215 255
183 215 255
183 215 255
195 227 255
183 215 255
183 215 255
183 215 255
183 215 255
183 215 255
183 215 255
183 215 255
183 215 255
183 215 255
183 215 255
183 215 255
183 215 255
183 215 255
183 215 255
183 215 255
183 215 255
183 215 255
183 215 255
183 215 255
183 215 255
183 215 255
183 215 255
183 215 255
183 215 255
183 215 255
183 215 255
183 215 255
183 215 255
183 215 255
183 215 255
183 215 255
183 215 255
183 215 255
183 215 255
183 215 255
183 215 255
195 227 255
183 215 255
183 215 255
183 215 255
183 215 255
183 215 255
183 215 255
183 215 255
183 215 255
183 215 255
183 215 255
183 215 255
183 215 255
183 215 255
183 215 255
183 215 255
183 215 255
183 215 255
183 215 255
183 215 255
183 215 255
183 215 255
183 215 255
183 215 255
183 215 255
183 215 255
183 215 255
183 215 255
183 215 255
183 215 255
183 215 255
183 215 255
183 215 255
183 215 255
183 215 255
183 215 255
183 215 255
195 227 255
183 215 255
183 215 255
183 215 255
183 215 255
183 215 255
183 215 255
183 215 255
183 215 255
183 215 255
183 215 255
183 215 255
183 215 255
183 215 255
183 215 255
183 215 255
183 215 255
183 215 255
183 215 255
183 215 255
183 215 255
183 215 255
183 215 255
183 215 255
183 215 255
183 215 255
183 215 255
183 215 255
183 215 255
183 215 255
183 215 255
183 215 255
183 215 255
183 215 255
183 215 255
183 215 255
183 215 255
195 227 255
183 215 255
183 215 255
183 215 255
183 215 255
183 215 255
183 215 255
183 215 255
183 215 255
183 215 255
183 215 255
183 215 255
183 215 255
183 215 255
183 215 255
183 215 255
183 215 255
183 215 255
183 215 255
183 215 255
183 215 255
183 215 255
183 215 255
183 215 255
183 215 255
183 215 255
183 215 255
183 215 255
183 215 255
183 215 255
183 215 255
183 215 255
183 215 255
183 215 255
183 215 255
183 215 255
183 215 255
195 227 255
183 215 255
183 215 255
183 215 255
183 215 255
183 215 255
183 215 255
183 215 255
183 215 255
183 215 255
183 215 255
183 215 255
183 215 255
183 215 255
183 215 255
183 215 255
183 215 255
183 215 255
183 215 255
183 215 255
183 215 255
183 215 255
183 215 255
183 215 255
183 215 255
183 215 255
183 215 255
183 215 255
183 215 255
183 215 255
183 215 255
183 215 255
183 215 255
183 215 255
183 215 255
183 215 255
183 215 255
195 227 255
183 215 255
183 215 255
183 215 255
183 215 255
183 215 255
183 215 255
183 215 255
183 215 255
183 215 255
183 215 255
183 215 255
183 215 255
183 215 255
183 215 255
183 215 255
183 215 255
183 215 255
183 215 255
183 215 255
183 215 255
183 215 255
183 215 255
183 215 255
183 215 255
183 215 255
183 215 255
183 215 255
183 215 255
183 215 255
183 215 255
183 215 255
183 215 255
183 215 255
183 215 255
183 215 255
183 215 255
195 227 255
183 215 255
183 215 255
183 215 255
183 215 255
183 215 255
183 215 255
183 215 255
183 215 255
183 215 255
183 215 255
183 215 255
183 215 255
183 215 255
183 215 255
183 215 255
183 215 255
183 215 255
183 215 255
183 215 255
183 215 255
183 215 255
183 215 255
183 215 255
183 215 255
183 215 255
183 215 255
183 215 255
183 215 255
183 215 255
183 215 255
183 215 255
183 215 255
183 215 255
183 215 255
183 215 255
183 215 255
195 227 255
183 215 255
183 215 255
183 215 255
183 215 255
183 215 255
183 215 255
183 215 255
183 215 255
183 215 255
183 215 255
183 215 255
183 215 255
183 215 255
183 215 255
183 215 255
183 215 255
183 215 255
183 215 255
183 215 255
183 215 255
183 215 255
183 215 255
183 215 255
183 215 255
183 215 255
183 215 255
183 215 255
183 215 255
183 215 255
183 215 255
183 215 255
183 215 255
183 215 255
183 215 255
183 215 255
183 215 255
183 215 255
183 215 255
183 215 255
183 215 255
183 215 255
183 215 255
183 215 255
183 215 255
183 215 255
183 215 255
183 215 255
183 215 255
183 215 255
183 215 255
183 215 255
183 215 255
183 215 255
183 215 255
183 215 255
183 215 255
183 215 255
183 215 255
183 215 255
195 227 255
183 215 255
183 215 255
183 215 255
183 215 255
183 215 255
183 215 255
183 215 255
183 215 255
183 215 255
183 215 255
183 215 255
183 215 255
183 215 255
183 215 255
183 215 255
183 215 255
183 215 255
183 215 255
183 215 255
183 215 255
183 215 255
183 215 255
183 215 255
183 215 255
183 215 255
183 215 255
183 215 255
183 215 255
183 215 255
183 215 255
183 215 255
183 215 255
183 215 255
183 215 255
183 215 255
183 215 255
195 227 255
183 215 255
183 215 255
183 215 255
183 215 255
183 215 255
183 215 255
183 215 255
183 215 255
183 215 255
183 215 255
183 215 255
183 215 255
183 215 255
183 215 255
183 215 255
183 215 255
183 215 255
183 215 255
183 215 255
183 215 255
183 215 255
183 215 255
183 215 255
183 215 255
183 215 255
183 215 255
183 215 255
183 215 255
183 215 255
183 215 255
183 215 255
183 215 255
183 215 255
183 215 255
183 215 255
183 215 255
195 227 255
183 215 255
183 215 255
183 215 255
183 215 255
183 215 255
183 215 255
183 215 255
183 215 255
183 215 255
183 215 255
183 215 255
183 215 255
183 215 255
183 215 255
183 215 255
183 215 255
183 215 255
183 215 255
183 215 255
183 215 255
183 215 255
183 215 255
183 215 255
183 215 255
183 215 255
183 215 255
183 215 255
183 215 255
183 215 255
183 215 255
183 215 255
183 215 255
183 215 255
183 215 255
183 215 255
183 215 255
195 227 255
183 215 255
183 215 255
183 215 255
183 215 255
183 215 255
183 215 255
183 215 255
183 215 255
183 215 255
183 215 255
183 215 255
183 215 255
183 215 255
183 215 255
183 215 255
183 215 255
183 215 255
183 215 255
183 215 255
183 215 255
183 215 255
183 215 255
183 215 255
183 215 255
183 215 255
183 215 255
183 215 255
183 215 255
183 215 255
183 215 255
183 215 255
183 215 255
183 215 255
183 215 255
183 215 255
183 215 255
195 227 255
183 215 255
183 215 255
183 215 255
183 215 255
183 215 255
183 215 255
183 215 255
183 215 255
183 215 255
183 215 255
183 215 255
183 215 255
183 215 255
183 215 255
183 215 255
183 215 255
183 215 255
183 215 255
183 215 255
183 215 255
183 215 255
183 215 255
183 215 255
183 215 255
183 215 255
183 215 255
183 215 255
183 215 255
183 215 255
183 215 255
183 215 255
183 215 255
183 215 255
183 215 255
183 215 255
183 215 255
195 227 255
183 215 255
183 215 255
183 215 255
183 215 255
183 215 255
183 215 255
183 215 255
183 215 255
183 215 255
183 215 255
183 215 255
183 215 255
183 215 255
183 215 255
183 215 255
183 215 255
183 215 255
183 215 255
183 215 255
183 215 255
183 215 255
183 215 255
183 215 255
183 215 255
183 215 255
183 215 255
183 215 255
183 215 255
183 215 255
183 215 255
183 215 255
183 215 255
183 215 255
183 215 255
183 215 255
183 215 255
195 227 255
183 215 255
183 215 255
183 215 255
183 215 255
183 215 255
183 215 255
183 215 255
183 215 255
183 215 255
183 215 255
183 215 255
183 215 255
183 215 255
183 215 255
183 215 255
183 215 255
183 215 255
183 215 255
183 215 255
183 215 255
183 215 255
183 215 255
183 215 255
183 215 255
183 215 255
183 215 255
183 215 255
183 215 255
183 215 255
183 215 255
183 215 255
183 215 255
183 215 255
183 215 255
183 215 255
183 215 255
195 227 255
183 215 255
183 215 255
183 215 255
183 215 255
183 215 255
183 215 255
183 215 255
183 215 255
183 215 255
183 215 255
183 215 255
183 215 255
183 215 255
183 215 255
183 215 255
183 215 255
183 215 255
183 215 255
183 215 255
183 215 255
183 215 255
183 215 255
183 215 255
183 215 255
183 215 255
183 215 255
183 215 255
183 215 255
183 215 255
183 215 255
183 215 255
183 215 255
183 215 255
183 215 255
183 215 255
183 215 255
183 215 255
183 215 255
183 215 255
183 215 255
183 215 255
183 215 255
183 215 255
183 215 255
183 215 255
183 215 255
183 215 255
183 215 255
183 215 255
183 215 255
183 215 255
183 215 255
183 215 255
183 215 255
183 215 255
183 215 255
183 215 255
183 215 255
183 215 255
195 227 255
183 215 255
183 215 255
183 215 255
183 215 255
183 215 255
183 215 255
183 215 255
183 215 255
183 215 255
183 215 255
183 215 255
183 215 255
183 215 255
183 215 255
183 215 255
183 215 255
183 215 255
183 215 255
183 215 255
183 215 255
183 215 255
183 215 255
183 215 255
183 215 255
183 215 255
183 215 255
183 215 255
183 215 255
183 215 255
183 215 255
183 215 255
183 215 255
183 215 255
183 215 255
183 215 255
183 215 255
195 227 255
183 215 255
183 215 255
183 215 255
183 215 255
183 215 255
183 215 255
183 215 255
183 215 255
183 215 255
183 215 255
183 215 255
183 215 255
183 215 255
183 215 255
183 215 255
183 215 255
183 215 255
183 215 255
183 215 255
183 215 255
183 215 255
183 215 255
183 215 255
183 215 255
183 215 255
183 215 255
183 215 255
183 215 255
183 215 255
183 215 255
183 215 255
183 215 255
183 215 255
183 215 255
183 215 255
183 215 255
195 227 255
183 215 255
183 215 255
183 215 255
183 215 255
183 215 255
183 215 255
183 215 255
183 215 255
183 215 255
183 215 255
183 215 255
183 215 255
183 215 255
183 215 255
183 215 255
183 215 255
183 215 255
183 215 255
183 215 255
183 215 255
183 215 255
183 215 255
183 215 255
183 215 255
183 215 255
183 215 255
183 215 255
183 215 255
183 215 255
183 215 255
183 215 255
183 215 255
183 215 255
183 215 255
183 215 255
183 215 255
195 227 255
183 215 255
183 215 255
183 215 255
183 215 255
183 215 255
183 215 255
183 215 255
183 215 255
183 215 255
183 215 255
183 215 255
183 215 255
183 215 255
183 215 255
183 215 255
183 215 255
183 215 255
183 215 255
183 215 255
183 215 255
183 215 255
183 215 255
183 215 255
183 215 255
183 215 255
183 215 255
183 215 255
183 215 255
183 215 255
183 215 255
183 215 255
183 215 255
183 215 255
183 215 255
183 215 255
183 215 255
195 227 255
183 215 255
183 215 255
183 215 255
183 215 255
183 215 255
183 215 255
183 215 255
183 215 255
183 215 255
183 215 255
183 215 255
183 215 255
183 215 255
183 215 255
183 215 255
183 215 255
183 215 255
183 215 255
183 215 255
183 215 255
183 215 255
183 215 255
183 215 255
183 215 255
183 215 255
183 215 255
183 215 255
183 215 255
183 215 255
183 215 255
183 215 255
183 215 255
183 215 255
183 215 255
183 215 255
183 215 255
195 227 255
183 215 255
183 215 255
183 215 255
183 215 255
183 215 255
183 215 255
183 215 255
183 215 255
183 215 255
183 215 255
183 215 255
183 215 255
183 215 255
183 215 255
183 215 255
183 215 255
183 215 255
183 215 255
183 215 255
183 215 255
183 215 255
183 215 255
183 215 255
183 215 255
183 215 255
183 215 255
183 215 255
183 215 255
183 215 255
183 215 255
183 215 255
183 215 255
183 215 255
183 215 255
183 215 255
183 215 255
195 227 255
183 215 255
183 215 255
183 215 255
183 215 255
183 215 255
183 215 255
183 215 255
183 215 255
183 215 255
183 215 255
183 215 255
183 215 255
183 215 255
183 215 255
183 215 255
183 215 255
183 215 255
183 215 255
183 215 255
183 215 255
183 215 255
183 215 255
183 215 255
183 215 255
183 215 255
183 215 255
183 215 255
183 215 255
183 215 255
183 215 255
183 215 255
183 215 255
183 215 255
183 215 255
183 215 255
183 215 255
195 227 255
183 215 255
183 215 255
183 215 255
183 215 255
183 215 255
183 215 255
183 215 255
183 215 255
183 215 255
183 215 255
183 215 255
183 215 255
183 215 255
183 215 255
183 215 255
183 215 255
183 215 255
183 215 255
183 215 255
183 215 255
183 215 255
183 215 255
183 215 255
183 215 255
183 215 255
183 215 255
183 215 255
183 215 255
183 215 255
183 215 255
183 215 255
183 215 255
183 215 255
183 215 255
183 215 255
183 215 255
183 215 255
183 215 255
183 215 255
183 215 255
183 215 255
183 215 255
183 215 255
183 215 255
183 215 255
183 215 255
183 215 255
183 215 255
183 215 255
183 215 255
183 215 255
183 215 255
183 215 255
183 215 255
183 215 255
183 215 255
183 215 255
183 215 255
183 215 255
195 227 255
183 215 255
183 215 255
183 215 255
183 215 255
183 215 255
183 215 255
183 215 255
183 215 255
183 215 255
183 215 255
183 215 255
183 215 255
183 215 255
183 215 255
183 215 255
183 215 255
183 215 255
183 215 255
183 215 255
183 215 255
183 215 255
183 215 255
183 215 255
183 215 255
183 215 255
183 215 255
183 215 255
183 215 255
183 215 255
183 215 255
183 215 255
183 215 255
183 215 255
183 215 255
183 215 255
183 215 255
195 227 255
183 215 255
183 215 255
183 215 255
183 215 255
183 215 255
183 215 255
183 215 255
183 215 255
183 215 255
183 215 255
183 215 255
183 215 255
183 215 255
183 215 255
183 215 255
183 215 255
183 215 255
183 215 255
183 215 255
183 215 255
183 215 255
183 215 255
183 215 255
183 215 255
183 215 255
183 215 255
183 215 255
183 215 255
183 215 255
183 215 255
183 215 255
183 215 255
183 215 255
183 215 255
183 215 255
183 215 255
195 227 255
183 215 255
183 215 255
183 215 255
183 215 255
183 215 255
183 215 255
183 215 255
183 215 255
183 215 255
183 215 255
183 215 255
183 215 255
183 215 255
183 215 255
183 215 255
183 215 255
183 215 255
183 215 255
183 215 255
183 215 255
183 215 255
183 215 255
183 215 255
183 215 255
183 215 255
183 215 255
183 215 255
183 215 255
183 215 255
183 215 255
183 215 255
183 215 255
183 215 255
183 215 255
183 215 255
183 215 255
195 227 255
183 215 255
183 215 255
183 215 255
183 215 255
183 215 255
183 215 255
183 215 255
183 215 255
183 215 255
183 215 255
183 215 255
183 215 255
183 215 255
183 215 255
183 215 255
183 215 255
183 215 255
183 215 255
183 215 255
183 215 255
183 215 255
183 215 255
183 215 255
183 215 255
183 215 255
183 215 255
183 215 255
183 215 255
183 215 255
183 215 255
183 215 255
183 215 255
183 215 255
183 215 255
183 215 255
183 215 255
195 227 255
183 215 255
183 215 255
183 215 255
183 215 255
183 215 255
183 215 255
183 215 255
183 215 255
183 215 255
183 215 255
183 215 255
183 215 255
183 215 255
183 215 255
183 215 255
183 215 255
183 215 255
183 215 255
183 215 255
183 215 255
183 215 255
183 215 255
183 215 255
183 215 255
183 215 255
183 215 255
183 215 255
183 215 255
183 215 255
183 215 255
183 215 255
183 215 255
183 215 255
183 215 255
183 215 255
183 215 255
195 227 255
183 215 255
183 215 255
183 215 255
183 215 255
183 215 255
183 215 255
183 215 255
183 215 255
183 215 255
183 215 255
183 215 255
183 215 255
183 215 255
183 215 255
183 215 255
183 215 255
183 215 255
183 215 255
183 215 255
183 215 255
183 215 255
183 215 255
183 215 255
183 215 255
183 215 255
183 215 255
183 215 255
183 215 255
183 215 255
183 215 255
183 215 255
183 215 255
183 215 255
183 215 255
183 215 255
183 215 255
195 227 255
183 215 255
183 215 255
183 215 255
183 215 255
183 215 255
183 215 255
183 215 255
183 215 255
183 215 255
183 215 255
183 215 255
183 215 255
183 215 255
183 215 255
183 215 255
183 215 255
183 215 255
183 215 255
183 215 255
183 215 255
183 215 255
183 215 255
183 215 255
183 215 255
183 215 255
183 215 255
183 215 255
183 215 255
183 215 255
183 215 255
183 215 255
183 215 255
183 215 255
183 215 255
183 215 255
183 215 255
195 227 255
183 215 255
183 215 255
183 215 255
183 215 255
183 215 255
183 215 255
183 215 255
183 215 255
183 215 255
183 215 255
183 215 255
183 215 255
183 215 255
183 215 255
183 215 255
183 215 255
183 215 255
183 215 255
183 215 255
183 215 255
183 215 255
183 215 255
183 215 255
183 215 255
183 215 255
183 215 255
183 215 255
183 215 255
183 215 255
183 215 255
183 215 255
183 215 255
183 215 255
183 215 255
183 215 255
183 215 255
183 215 255
183 215 255
183 215 255
183 215 255
183 215 255
183 215 255
183 215 255
183 215 255
183 215 255
183 215 255
183 215 255
183 215 255
183 215 255
183 215 255
183 215 255
183 215 255
183 215 255
183 215 255
183 215 255
183 215 255
183 215 255
183 215 255
183 215 255
195 227 255
183 215 255
183 215 255
183 215 255
183 215 255
183 215 255
183 215 255
183 215 255
183 215 255
183 215 255
183 215 255
183 215 255
183 215 255
183 215 255
183 215 255
183 215 255
183 215 255
183 215 255
183 215 255
183 215 255
183 215 255
183 215 255
183 215 255
183 215 255
183 215 255
183 215 255
183 215 255
183 215 255
183 215 255
183 215 255
183 215 255
183 215 255
183 215 255
183 215 255
183 215 255
183 215 255
183 215 255
195 227 255
183 215 255
183 215 255
183 215 255
183 215 255
183 215 255
183 215 255
183 215 255
183 215 255
183 215 255
183 215 255
183 215 255
183 215 255
183 215 255
183 215 255
183 215 255
183 215 255
183 215 255
183 215 255
183 215 255
183 215 255
183 215 255
183 215 255
183 215 255
183 215 255
183 215 255
183 215 255
183 215 255
183 215 255
183 215 255
183 215 255
183 215 255
183 215 255
183 215 255
183 215 255
183 215 255
183 215 255
195 227 255
183 215 255
183 215 255
183 215 255
183 215 255
183 215 255
183 215 255
183 215 255
183 215 255
183 215 255
183 215 255
183 215 255
183 215 255
183 215 255
183 215 255
183 215 255
183 215 255
183 215 255
183 215 255
183 215 255
183 215 255
183 215 255
183 215 255
183 215 255
183 215 255
183 215 255
183 215 255
183 215 255
183 215 255
183 215 255
183 215 255
183 215 255
183 215 255
183 215 255
183 215 255
183 215 255
183 215 255
195 227 255
183 215 255
183 215 255
183 215 255
183 215 255
183 215 255
183 215 255
183 215 255
183 215 255
183 215 255
183 215 255
183 215 255
183 215 255
183 215 255
183 215 255
183 215 255
183 215 255
183 215 255
183 215 255
183 215 255
183 215 255
183 215 255
183 215 255
183 215 255
183 215 255
183 215 255
183 215 255
183 215 255
183 215 255
183 215 255
183 215 255
183 215 255
183 215 255
183 215 255
183 215 255
183 215 255
183 215 255
195 227 255
183 215 255
183 215 255
183 215 255
183 215 255
183 215 255
183 215 255
183 215 255
183 215 255
183 215 255
183 215 255
183 215 255
183 215 255
183 215 255
183 215 255
183 215 255
183 215 255
183 215 255
183 215 255
183 215 255
183 215 255
183 215 255
183 215 255
183 215 255
183 215 255
183 215 255
183 215 255
183 215 255
183 215 255
183 215 255
183 215 255
183 215 255
183 215 255
183 215 255
183 215 255
183 215 255
183 215 255
195 227 255
183 215 255
183 215 255
183 215 255
183 215 255
183 215 255
183 215 255
183 215 255
183 215 255
183 215 255
183 215 255
183 215 255
183 215 255
183 215 255
183 215 255
183 215 255
183 215 255
183 215 255
183 215 255
183 215 255
183 215 255
183 215 255
183 215 255
183 215 255
183 215 255
183 215 255
183 215 255
183 215 255
183 215 255
183 215 255
183 215 255
183 215 255
183 215 255
183 215 255
183 215 255
183 215 255
183 215 255
195 227 255
183 215 255
183 215 255
183 215 255
183 215 255
183 215 255
183 215 255
183 215 255
183 215 255
183 215 255
183 215 255
183 215 255
183 215 255
183 215 255
183 215 255
183 215 255
183 215 255
183 215 255
183 215 255
183 215 255
183 215 255
183 215 255
183 215 255
183 215 255
183 215 255
183 215 255
183 215 255
183 215 255
183 215 255
183 215 255
183 215 255
183 215 255
183 215 255
183 215 255
183 215 255
183 215 255
183 215 255
195 227 255
183 215 255
183 215 255
183 215 255
183 215 255
183 215 255
183 215 255
183 215 255
183 215 255
183 215 255
183 215 255
183 215 255
183 215 255
183 215 255
183 215 255
183 215 255
183 215 255
183 215 255
183 215 255
183 215 255
183 215 255
183 215 255
183 215 255
183 215 255
183 215 255
183 215 255
183 215 255
183 215 255
183 215 255
183 215 255
183 215 255
183 215 255
183 215 255
183 215 255
183 215 255
183 215 255
183 215 255
183 215 255
183 215 255
183 215 255
183 215 255
183 215 255
183 215 255
183 215 255
183 215 255
183 215 255
183 215 255
183 215 255
183 215 255
183 215 255
183 215 255
183 215 255
183 215 255
183 215 255
183 215 255
183 215 255
183 215 255
183 215 255
183 215 255
183 215 255
195 227 255
183 215 255
183 215 255
183 215 255
183 215 255
183 215 255
183 215 255
183 215 255
183 215 255
183 215 255
183 215 255
183 215 255
183 215 255
183 215 255
183 215 255
183 215 255
183 215 255
183 215 255
183 215 255
183 215 255
183 215 255
183 215 255
183 215 255
183 215 255
183 215 255
183 215 255
183 215 255
183 215 255
183 215 255
183 215 255
183 215 255
183 215 255
183 215 255
183 215 255
183 215 255
183 215 255
183 215 255
195 227 255
183 215 255
183 215 255
183 215 255
183 215 255
183 215 255
183 215 255
183 215 255
183 215 255
183 215 255
183 215 255
183 215 255
183 215 255
183 215 255
183 215 255
183 215 255
183 215 255
183 215 255
183 215 255
183 215 255
183 215 255
183 215 255
183 215 255
183 215 255
183 215 255
183 215 255
183 215 255
183 215 255
183 215 255
183 215 255
183 215 255
183 215 255
183 215 255
183 215 255
183 215 255
183 215 255
183 215 255
195 227 255
183 215 255
183 215 255
183 215 255
183 215 255
183 215 255
183 215 255
183 215 255
183 215 255
183 215 255
183 215 255
183 215 255
183 215 255
183 215 255
183 215 255
183 215 255
183 215 255
183 215 255
183 215 255
183 215 255
183 215 255
183 215 255
183 215 255
183 215 255
183 215 255
183 215 255
183 215 255
183 215 255
183 215 255
183 215 255
183 215 255
183 215 255
183 215 255
183 215 255
183 215 255
183 215 255
183 215 255
195 227 255
183 215 255
183 215 255
183 215 255
183 215 255
183 215 255
183 215 255
183 215 255
183 215 255
183 215 255
183 215 255
183 215 255
183 215 255
183 215 255
183 215 255
183 215 255
183 215 255
183 215 255
183 215 255
183 215 255
183 215 255
183 215 255
183 215 255
183 215 255
183 215 255
183 215 255
183 215 255
183 215 255
183 215 255
183 215 255
183 215 255
183 215 255
183 215 255
183 215 255
183 215 255
183 215 255
183 215 255
195 227 255
183 215 255
183 215 255
183 215 255
183 215 255
183 215 255
183 215 255
183 215 255
183 215 255
183 215 255
183 215 255
183 215 255
183 215 255
183 215 255
183 215 255
183 215 255
183 215 255
183 215 255
183 215 255
183 215 255
183 215 255
183 215 255
183 215 255
183 215 255
183 215 255
183 215 255
183 215 255
183 215 255
183 215 255
183 215 255
183 215 255
183 215 255
183 215 255
183 215 255
183 215 255
183 215 255
183 215 255
195 227 255
183 215 255
183 215 255
183 215 255
183 215 255
183 215 255
183 215 255
183 215 255
183 215 255
183 215 255
183 215 255
183 215 255
183 215 255
183 215 255
183 215 255
183 215 255
183 215 255
183 215 255
183 215 255
183 215 255
183 215 255
183 215 255
183 215 255
183 215 255
183 215 255
183 215 255
183 215 255
183 215 255
183 215 255
183 215 255
183 215 255
183 215 255
183 215 255
183 215 255
183 215 255
183 215 255
183 215 255
195 227 255
183 215 255
183 215 255
183 215 255
183 215 255
183 215 255
183 215 255
183 215 255
183 215 255
183 215 255
183 215 255
183 215 255
183 215 255
183 215 255
183 215 255
183 215 255
183 215 255
183 215 255
183 215 255
183 215 255
183 215 255
183 215 255
183 215 255
183 215 255
183 215 255
183 215 255
183 215 255
183 215 255
183 215 255
183 215 255
183 215 255
183 215 255
183 215 255
183 215 255
183 215 255
183 215 255
183 215 255
195 227 255
183 215 255
183 215 255
183 215 255
183 215 255
183 215 255
183 215 255
183 215 255
183 215 255
183 215 255
183 215 255
183 215 255
183 215 255
183 215 255
183 215 255
183 215 255
183 215 255
183 215 255
183 215 255
183 215 255
183 215 255
183 215 255
183 215 255
183 215 255
183 215 255
183 215 255
183 215 255
183 215 255
183 215 255
183 215 255
183 215 255
183 215 255
183 215 255
183 215 255
183 215 255
183 215 255
183 215 255
183 215 255
183 215 255
183 215 255
183 215 255
183 215 255
183 215 255
183 215 255
183 215 255
183 215 255
183 215 255
183 215 255
183 215 255
183 215 255
183 215 255
183 215 255
183 215 255
183 215 255
183 215 255
183 215 255
183 215 255
183 215 255
183 215 255
183 215 255
195 227 255
183 215 255
183 215 255
183 215 255
183 215 255
183 215 255
183 215 255
183 215 255
183 215 255
183 215 255
183 215 255
183 215 255
183 215 255
183 215 255
183 215 255
183 215 255
183 215 255
183 215 255
183 215 255
183 215 255
183 215 255
183 215 255
183 215 255
183 215 255
183 215 255
183 215 255
183 215 255
183 215 255
183 215 255
183 215 255
183 215 255
183 215 255
183 215 255
183 215 255
183 215 255
183 215 255
183 215 255
195 227 255
183 215 255
183 215 255
183 215 255
183 215 255
183 215 255
183 215 255
183 215 255
183 215 255
183 215 255
183 215 255
183 215 255
183 215 255
183 215 255
183 215 255
183 215 255
183 215 255
183 215 255
183 215 255
183 215 255
183 215 255
183 215 255
183 215 255
183 215 255
183 215 255
183 215 255
183 215 255
183 215 255
183 215 255
183 215 255
183 215 255
183 215 255
183 215 255
183 215 255
183 215 255
183 215 255
183 215 255
195 227 255
183 215 255
183 215 255
183 215 255
183 215 255
183 215 255
183 215 255
183 215 255
183 215 255
183 215 255
183 215 255
183 215 255
183 215 255
183 215 255
183 215 255
183 215 255
183 215 255
183 215 255
183 215 255
183 215 255
183 215 255
183 215 255
183 215 255
183 215 255
183 215 255
183 215 255
183 215 255
183 215 255
183 215 255
183 215 255
183 215 255
183 215 255
183 215 255
183 215 255
183 215 255
183 215 255
183 215 255
195 227 255
183 215 255
183 215 255
183 215 255
183 215 255
183 215 255
183 215 255
183 215 255
183 215 255
183 215 255
183 215 255
183 215 255
183 215 255
183 215 255
183 215 255
183 215 255
183 215 255
183 215 255
183 215 255
183 215 255
183 215 255
183 215 255
183 215 255
183 215 255
183 215 255
183 215 255
183 215 255
183 215 255
183 215 255
183 215 255
183 215 255
183 215 255
183 215 255
183 215 255
183 215 255
183 215 255
183 215 255
195 227 255
183 215 255
183 215 255
183 215 255
183 215 255
183 215 255
183 215 255
183 215 255
183 215 255
183 215 255
183 215 255
183 215 255
183 215 255
183 215 255
183 215 255
183 215 255
183 215 255
183 215 255
183 215 255
183 215 255
183 215 255
183 215 255
183 215 255
183 215 255
183 215 255
183 215 255
183 215 255
183 215 255
183 215 255
183 215 255
183 215 255
183 215 255
183 215 255
183 215 255
183 215 255
183 215 255
183 215 255
195 227 255
183 215 255
183 215 255
183 215 255
183 215 255
183 215 255
183 215 255
183 215 255
183 215 255
183 215 255
183 215 255
183 215 255
183 215 255
183 215 255
183 215 255
183 215 255
183 215 255
183 215 255
183 215 255
183 215 255
183 215 255
183 215 255
183 215 255
183 215 255
183 215 255
183 215 255
183 215 255
183 215 255
183 215 255
183 215 255
183 215 255
183 215 255
183 215 255
183 215 255
183 215 255
183 215 255
183 215 255
195 227 255
183 215 255
183 215 255
183 215 255
183 215 255
183 215 255
183 215 255
183 215 255
183 215 255
183 215 255
183 215 255
183 215 255
183 215 255
183 215 255
183 215 255
183 215 255
183 215 255
183 215 255
183 215 255
183 215 255
183 215 255
183 215 255
183 215 255
183 215 255
183 215 255
183 215 255
183 215 255
183 215 255
183 215 255
183 215 255
183 215 255
183 215 255
183 215 255
183 215 255
183 215 255
183 215 255
183 215 255
195 227 255
183 215 255
183 215 255
183 215 255
183 215 255
183 215 255
183 215 255
183 215 255
183 215 255
183 215 255
183 215 255
183 215 255
183 215 255
183 215 255
183 215 255
183 215 255
183 215 255
183 215 255
183 215 255
183 215 255
183 215 255
183 215 255
183 215 255
183 215 255
183 215 255
183 215 255
183 215 255
183 215 255
183 215 255
183 215 255
183 215 255
183 215 255
183 215 255
183 215 255
183 215 255
183 215 255
183 215 255
183 215 255
183 215 255
183 215 255
183 215 255
183 215 255
183 215 255
183 215 255
183 215 255
183 215 255
183 215 255
183 215 255
183 215 255
183 215 255
183 215 255
183 215 255
183 215 255
183 215 255
183 215 255
183 215 255
183 215 255
183 215 255
183 215 255
183 215 255
195 227 255
183 215 255
183 215 255
183 215 255
183 215 255
183 215 255
183 215 255
183 215 255
183 215 255
183 215 255
183 215 255
183 215 255
183 215 255
183 215 255
183 215 255
183 215 255
183 215 255
183 215 255
183 215 255
183 215 255
183 215 255
183 215 255
183 215 255
183 215 255
183 215 255
183 215 255
183 215 255
183 215 255
183 215 255
183 215 255
183 215 255
183 215 255
183 215 255
183 215 255
183 215 255
183 215 255
183 215 255
195 227 255
183 215 255
183 215 255
183 215 255
183 215 255
183 215 255
183 215 255
183 215 255
183 215 255
183 215 255
183 215 255
183 215 255
183 215 255
183 215 255
183 215 255
183 215 255
183 215 255
183 215 255
183 215 255
183 215 255
183 215 255
183 215 255
183 215 255
183 215 255
183 215 255
183 215 255
183 215 255
183 215 255
183 215 255
183 215 255
183 215 255
183 215 255
183 215 255
183 215 255
183 215 255
183 215 255
183 215 255
195 227 255
183 215 255
183 215 255
183 215 255
183 215 255
183 215 255
183 215 255
183 215 255
183 215 255
183 215 255
183 215 255
183 215 255
183 215 255
183 215 255
183 215 255
183 215 255
183 215 255
183 215 255
183 215 255
183 215 255
183 215 255
183 215 255
183 215 255
183 215 255
183 215 255
183 215 255
183 215 255
183 215 255
183 215 255
183 215 255
183 215 255
183 215 255
183 215 255
183 215 255
183 215 255
183 215 255
183 215 255
195 227 255
183 215 255
183 215 255
183 215 255
183 215 255
183 215 255
183 215 255
183 215 255
183 215 255
183 215 255
183 215 255
183 215 255
183 215 255
183 215 255
183 215 255
183 215 255
183 215 255
183 215 255
183 215 255
183 215 255
183 215 255
183 215 255
183 215 255
183 215 255
183 215 255
183 215 255
183 215 255
183 215 255
183 215 255
183 215 255
183 215 255
183 215 255
183 215 255
183 215 255
183 215 255
183 215 255
183 215 255
195 227 255
183 215 255
183 215 255
183 215 255
183 215 255
183 215 255
183 215 255
183 215 255
183 215 255
183 215 255
183 215 255
183 215 255
183 215 255
183 215 255
183 215 255
183 215 255
183 215 255
183 215 255
183 215 255
183 215 255
183 215 255
183 215 255
183 215 255
183 215 255
183 215 255
183 215 255
183 215 255
183 215 255
183 215 255
183 215 255
183 215 255
183 215 255
183 215 255
183 215 255
183 215 255
183 215 255
183 215 255
195 227 255
183 215 255
183 215 255
183 215 255
183 215 255
183 215 255
183 215 255
183 215 255
183 215 255
183 215 255
183 215 255
183 215 255
183 215 255
183 215 255
183 215 255
183 215 255
183 215 255
183 215 255
183 215 255
183 215 255
183 215 255
183 215 255
183 215 255
183 215 255
183 215 255
183 215 255
183 215 255
183 215 255
183 215 255
183 215 255
183 215 255
183 215 255
183 215 255
183 215 255
183 215 255
183 215 255
183 215 255
195 227 255
183 215 255
183 215 255
183 215 255
183 215 255
183 215 255
183 215 255
183 215 255
183 215 255
183 215 255
183 215 255
183 215 255
183 215 255
183 215 255
183 215 255
183 215 255
183 215 255
183 215 255
183 215 255
183 215 255
183 215 255
183 215 255
183 215 255
183 215 255
183 215 255
183 215 255
183 215 255
183 215 255
183 215 255
183 215 255
183 215 255
183 215 255
183 215 255
183 215 255
183 215 255
183 215 255
183 215 255
195 227 255
183 215 255
183 215 255
183 215 255
183 215 255
183 215 255
183 215 255
183 215 255
183 215 255
183 215 255
183 215 255
183 215 255
183 215 255
183 215 255
183 215 255
183 215 255
183 215 255
183 215 255
183 215 255
183 215 255
183 215 255
183 215 255
183 215 255
183 215 255
183 215 255
183 215 255
183 215 255
183 215 255
183 215 255
183 215 255
183 215 255
183 215 255
183 215 255
183 215 255
183 215 255
183 215 255
183 215 255
183 215 255
183 215 255
183 215 255
183 215 255
183 215 255
183 215 255
183 215 255
183 215 255
183 215 255
183 215 255
183 215 255
183 215 255
183 215 255
183 215 255
183 215 255
183 215 255
183 215 255
183 215 255
183 215 255
183 215 255
183 215 255
183 215 255
183 215 255
195 227 255
183 215 255
183 215 255
183 215 255
183 215 255
183 215 255
183 215 255
183 215 255
183 215 255
183 215 255
183 215 255
183 215 255
183 215 255
183 215 255
183 215 255
183 215 255
183 215 255
183 215 255
183 215 255
183 215 255
183 215 255
183 215 255
183 215 255
183 215 255
183 215 255
183 215 255
183 215 255
183 215 255
183 215 255
183 215 255
183 215 255
183 215 255
183 215 255
183 215 255
183 215 255
183 215 255
183 215 255
195 227 255
183 215 255
183 215 255
183 215 255
183 215 255
183 215 255
183 215 255
183 215 255
183 215 255
183 215 255
183 215 255
183 215 255
183 215 255
183 215 255
183 215 255
183 215 255
183 215 255
183 215 255
183 215 255
183 215 255
183 215 255
183 215 255
183 215 255
183 215 255
183 215 255
183 215 255
183 215 255
183 215 255
183 215 255
183 215 255
183 215 255
183 215 255
183 215 255
183 215 255
183 215 255
183 215 255
183 215 255
195 227 255
183 215 255
183 215 255
183 215 255
183 215 255
183 215 255
183 215 255
183 215 255
183 215 255
183 215 255
183 215 255
183 215 255
183 215 255
183 215 255
183 215 255
183 215 255
183 215 255
183 215 255
183 215 255
183 215 255
183 215 255
183 215 255
183 215 255
183 215 255
183 215 255
183 215 255
183 215 255
183 215 255
183 215 255
183 215 255
183 215 255
183 215 255
183 215 255
183 215 255
183 215 255
183 215 255
183 215 255
195 227 255
183 215 255
183 215 255
183 215 255
183 215 255
183 215 255
183 215 255
183 215 255
183 215 255
183 215 255
183 215 255
183 215 255
183 215 255
183 215 255
183 215 255
183 215 255
183 215 255
183 215 255
183 215 255
183 215 255
183 215 255
183 215 255
183 215 255
183 215 255
183 215 255
183 215 255
183 215 255
183 215 255
183 215 255
183 215 255
183 215 255
183 215 255
183 215 255
183 215 255
183 215 255
183 215 255
183 215 255
195 227 255
183 215 255
183 215 255
183 215 255
183 215 255
183 215 255
183 215 255
183 215 255
183 215 255
183 215 255
183 215 255
183 215 255
183 215 255
183 215 255
183 215 255
183 215 255
183 215 255
183 215 255
183 215 255
183 215 255
183 215 255
183 215 255
183 215 255
183 215 255
183 215 255
183 215 255
183 215 255
183 215 255
183 215 255
183 215 255
183 215 255
183 215 255
183 215 255
183 215 255
183 215 255
183 215 255
183 215 255
195 227 255
183 215 255
183 215 255
183 215 255
183 215 255
183 215 255
183 215 255
183 215 255
183 215 255
183 215 255
183 215 255
183 215 255
183 215 255
183 215 255
183 215 255
183 215 255
183 215 255
183 215 255
183 215 255
183 215 255
183 215 255
183 215 255
183 215 255
183 215 255
183 215 255
183 215 255
183 215 255
183 215 255
183 215 255
183 215 255
183 215 255
183 215 255
183 215 255
183 215 255
183 215 255
183 215 255
183 215 255
195 227 255
183 215 255
183 215 255
183 215 255
183 215 255
183 215 255
183 215 255
183 215 255
183 215 255
183 215 255
183 215 255
183 215 255
183 215 255
183 215 255
183 215 255
183 215 255
183 215 255
183 215 255
183 215 255
183 215 255
183 215 255
183 215 255
183 215 255
183 215 255
183 215 255
183 215 255
183 215 255
183 215 255
183 215 255
183 215 255
183 215 255
183 215 255
183 215 255
183 215 255
183 215 255
183 215 255
183 215 255
195 227 255
183 215 255
183 215 255
183 215 255
183 215 255
183 215 255
183 215 255
183 215 255
183 215 255
183 215 255
183 215 255
183 215 255
183 215 255
183 215 255
183 215 255
183 215 255
183 215 255
183 215 255
183 215 255
183 215 255
183 215 255
183 215 255
183 215 255
183 215 255
183 215 255
183 215 255
183 215 255
183 215 255
183 215 255
183 215 255
183 215 255
183 215 255
183 215 255
183 215 255
183 215 255
183 215 255
183 215 255
183 215 255
183 215 255
183 215 255
183 215 255
183 215 255
183 215 255
183 215 255
183 215 255
183 215 255
183 215 255
183 215 255
183 215 255
183 215 255
183 215 255
183 215 255
183 215 255
183 215 255
183 215 255
183 215 255
183 215 255
183 215 255
183 215 255
183 215 255
195 227 255
183 215 255
183 215 255
183 215 255
183 215 255
183 215 255
183 215 255
183 215 255
183 215 255
183 215 255
183 215 255
183 215 255
183 215 255
183 215 255
183 215 255
183 215 255
183 215 255
183 215 255
183 215 255
183 215 255
183 215 255
183 215 255
183 215 255
183 215 255
183 215 255
183 215 255
183 215 255
183 215 255
183 215 255
183 215 255
183 215 255
183 215 255
183 215 255
183 215 255
183 215 255
183 215 255
183 215 255
195 227 255
183 215 255
183 215 255
183 215 255
183 215 255
183 215 255
183 215 255
183 215 255
183 215 255
183 215 255
183 215 255
183 215 255
183 215 255
183 215 255
183 215 255
183 215 255
183 215 255
183 215 255
183 215 255
183 215 255
183 215 255
183 215 255
183 215 255
183 215 255
183 215 255
183 215 255
183 215 255
183 215 255
183 215 255
183 215 255
183 215 255
183 215 255
183 215 255
183 215 255
183 215 255
183 215 255
183 215 255
195 227 255
183 215 255
183 215 255
183 215 255
183 215 255
183 215 255
183 215 255
183 215 255
183 215 255
183 215 255
183 215 255
183 215 255
183 215 255
183 215 255
183 215 255
183 215 255
183 215 255
183 215 255
183 215 255
183 215 255
183 215 255
183 215 255
183 215 255
183 215 255
183 215 255
183 215 255
183 215 255
183 215 255
183 215 255
183 215 255
183 215 255
183 215 255
183 215 255
183 215 255
183 215 255
183 215 255
183 215 255
195 227 255
183 215 255
183 215 255
183 215 255
183 215 255
183 215 255
183 215 255
183 215 255
183 215 255
183 215 255
183 215 255
183 215 255
183 215 255
183 215 255
183 215 255
183 215 255
183 215 255
183 215 255
183 215 255
183 215 255
183 215 255
183 215 255
183 215 255
183 215 255
183 215 255
183 215 255
183 215 255
183 215 255
183 215 255
183 215 255
183 215 255
183 215 255
183 215 255
183 215 255
183 215 255
183 215 255
183 215 255
195 227 255
183 215 255
183 215 255
183 215 255
183 215 255
183 215 255
183 215 255
183 215 255
183 215 255
183 215 255
183 215 255
183 215 255
183 215 255
183 215 255
183 215 255
183 215 255
183 215 255
183 215 255
183 215 255
183 215 255
183 215 255
183 215 255
183 215 255
183 215 255
183 215 255
183 215 255
183 215 255
183 215 255
183 215 255
183 215 255
183 215 255
183 215 255
183 215 255
183 215 255
183 215 255
183 215 255
183 215 255
195 227 255
183 215 255
183 215 255
183 215 255
183 215 255
183 215 255
183 215 255
183 215 255
183 215 255
183 215 255
183 215 255
183 215 255
183 215 255
183 215 255
183 215 255
183 215 255
183 215 255
183 215 255
183 215 255
183 215 255
183 215 255
183 215 255
183 215 255
183 215 255
183 215 255
183 215 255
183 215 255
183 215 255
183 215 255
183 215 255
183 215 255
183 215 255
183 215 255
183 215 255
183 215 255
183 215 255
183 215 255
195 227 255
183 215 255
183 215 255
183 215 255
183 215 255
183 215 255
183 215 255
183 215 255
183 215 255
183 215 255
183 215 255
183 215 255
183 215 255
183 215 255
183 215 255
183 215 255
183 215 255
183 215 255
183 215 255
183 215 255
183 215 255
183 215 255
183 215 255
183 215 255
183 215 255
183 215 255
183 215 255
183 215 255
183 215 255
183 215 255
183 215 255
183 215 255
183 215 255
183 215 255
183 215 255
183 215 255
183 215 255
195 227 255
183 215 255
183 215 255
183 215 255
183 215 255
183 215 255
183 215 255
183 215 255
183 215 255
183 215 255
183 215 255
183 215 255
183 215 255
183 215 255
183 215 255
183 215 255
183 215 255
183 215 255
183 215 255
183 215 255
183 215 255
183 215 255
183 215 255
183 215 255
183 215 255
183 215 255
183 215 255
183 215 255
183 215 255
183 215 255
183 215 255
183 215 255
183 215 255
183 215 255
183 215 255
183 215 255
183 215 255
183 215 255
183 215 255
183 215 255
183 215 255
183 215 255
183 215 255
183 215 255
183 215 255
183 215 255
183 215 255
183 215 255
183 215 255
183 215 255
183 215 255
183 215 255
183 215 255
183 215 255
183 215 255
183 215 255
183 215 255
183 215 255
183 215 255
183 215 255
195 227 255
183 215 255
183 215 255
183 215 255
183 215 255
183 215 255
183 215 255
183 215 255
183 215 255
183 215 255
183 215 255
183 215 255
183 215 255
183 215 255
183 215 255
183 215 255
183 215 255
183 215 255
183 215 255
183 215 255
183 215 255
183 215 255
183 215 255
183 215 255
183 215 255
183 215 255
183 215 255
183 215 255
183 215 255
183 215 255
183 215 255
183 215 255
183 215 255
183 215 255
183 215 255
183 215 255
183 215 255
195 227 255
183 215 255
183 215 255
183 215 255
183 215 255
183 215 255
183 215 255
183 215 255
183 215 255
183 215 255
183 215 255
183 215 255
183 215 255
183 215 255
183 215 255
183 215 255
183 215 255
183 215 255
183 215 255
183 215 255
183 215 255
183 215 255
183 215 255
183 215 255
183 215 255
183 215 255
183 215 255
183 215 255
183 215 255
183 215 255
183 215 255
183 215 255
183 215 255
183 215 255
183 215 255
183 215 255
183 215 255
195 227 255
183 215 255
183 215 255
183 215 255
183 215 255
183 215 255
183 215 255
183 215 255
183 215 255
183 215 255
183 215 255
183 215 255
183 215 255
183 215 255
183 215 255
183 215 255
183 215 255
183 215 255
183 215 255
183 215 255
183 215 255
183 215 255
183 215 255
183 215 255
183 215 255
183 215 255
183 215 255
183 215 255
183 215 255
183 215 255
183 215 255
183 215 255
183 215 255
183 215 255
183 215 255
183 215 255
183 215 255
195 227 255
183 215 255
183 215 255
183 215 255
183 215 255
183 215 255
183 215 255
183 215 255
183 215 255
183 215 255
183 215 255
183 215 255
183 215 255
183 215 255
183 215 255
183 215 255
183 215 255
183 215 255
183 215 255
183 215 255
183 215 255
183 215 255
183 215 255
183 215 255
183 215 255
183 215 255
183 215 255
183 215 255
183 215 255
183 215 255
183 215 255
183 215 255
183 215 255
183 215 255
183 215 255
183 215 255
183 215 255
195 227 255
183 215 255
183 215 255
183 215 255
183 215 255
183 215 255
183 215 255
183 215 255
183 215 255
183 215 255
183 215 255
183 215 255
183 215 255
183 215 255
183 215 255
183 215 255
183 215 255
183 215 255
183 215 255
183 215 255
183 215 255
183 215 255
183 215 255
183 215 255
183 215 255
183 215 255
183 215 255
183 215 255
183 215 255
183 215 255
183 215 255
183 215 255
183 215 255
183 215 255
183 215 255
183 215 255
183 215 255
195 227 255
183 215 255
183 215 255
183 215 255
183 215 255
183 215 255
183 215 255
183 215 255
183 215 255
183 215 255
183 215 255
183 215 255
183 215 255
183 215 255
183 215 255
183 215 255
183 215 255
183 215 255
183 215 255
183 215 255
183 215 255
183 215 255
183 215 255
183 215 255
183 215 255
183 215 255
183 215 255
183 215 255
183 215 255
183 215 255
183 215 255
183 215 255
183 215 255
183 215 255
183 215 255
183 215 255
183 215 255
195 227 255
183 215 255
183 215 255
183 215 255
183 215 255
183 215 255
183 215 255
183 215 255
183 215 255
183 215 255
183 215 255
183 215 255
183 215 255
183 215 255
183 215 255
183 215 255
183 215 255
183 215 255
183 215 255
183 215 255
183 215 255
183 215 255
183 215 255
183 215 255
183 215 255
183 215 255
183 215 255
183 215 255
183 215 255
183 215 255
183 215 255
183 215 255
183 215 255
183 215 255
183 215 255
183 215 255
183 215 255
195 227 255
183 215 255
183 215 255
183 215 255
183 215 255
183 215 255
183 215 255
183 215 255
183 215 255
183 215 255
183 215 255
183 215 255
183 215 255
183 215 255
183 215 255
183 215 255
183 215 255
183 215 255
183 215 255
183 215 255
183 215 255
183 215 255
183 215 255
183 215 255
183 215 255
183 215 255
183 215 255
183 215 255
183 215 255
183 215 255
183 215 255
183 215 255
183 215 255
183 215 255
183 215 255
183 215 255
183 215 255
195 227 255
183 215 255
183 215 255
183 215 255
183 215 255
183 215 255
183 215 255
183 215 255
183 215 255
183 215 255
183 215 255
183 215 255
183 215 255
183 215 255
183 215 255
183 215 255
183 215 255
183 215 255
183 215 255
183 215 255
183 215 255
183 215 255
183 215 255
195 227 255
183 215 255
183 215 255
183 215 255
183 215 255
183 215 255
183 215 255
183 215 255
183 215 255
183 215 255
183 215 255
183 215 255
183 215 255
183 215 255
183 215 255
183 215 255
183 215 255
183 215 255
183 215 255
183 215 255
183 215 255
183 215 255
183 215 255
183 215 255
183 215 255
183 215 255
183 215 255
183 215 255
183 215 255
183 215 255
183 215 255
183 215 255
183 215 255
183 215 255
183 215 255
183 215 255
183 215 255
195 227 255
183 215 255
183 215 255
183 215 255
183 215 255
183 215 255
183 215 255
183 215 255
183 215 255
183 215 255
183 215 255
183 215 255
183 215 255
183 215 255
183 215 255
183 215 255
183 215 255
183 215 255
183 215 255
183 215 255
183 215 255
183 215 255
183 215 255
183 215 255
183 215 255
183 215 255
183 215 255
183 215 255
183 215 255
183 215 255
183 215 255
183 215 255
183 215 255
183 215 255
183 215 255
183 215 255
183 215 255
195 227 255
183 215 255
183 215 255
183 215 255
183 215 255
183 215 255
183 215 255
183 215 255
183 215 255
183 215 255
183 215 255
183 215 255
183 215 255
183 215 255
183 215 255
183 215 255
183 215 255
183 215 255
183 215 255
183 215 255
183 215 255
183 215 255
183 215 255
183 215 255
183 215 255
183 215 255
183 215 255
183 215 255
183 215 255
183 215 255
183 215 255
183 215 255
183 215 255
183 215 255
183 215 255
183 215 255
183 215 255
195 227 255
183 215 255
183 215 255
183 215 255
183 215 255
183 215 255
183 215 255
183 215 255
183 215 255
183 215 255
183 215 255
183 215 255
183 215 255
183 215 255
183 215 255
183 215 255
183 215 255
183 215 255
183 215 255
183 215 255
183 215 255
183 215 255
183 215 255
183 215 255
183 215 255
183 215 255
183 215 255
183 215 255
183 215 255
183 215 255
183 215 255
183 215 255
183 215 255
183 215 255
183 215 255
183 215 255
183 215 255
195 227 255
183 215 255
183 215 255
183 215 255
183 215 255
183 215 255
183 215 255
183 215 255
183 215 255
183 215 255
183 215 255
183 215 255
183 215 255
183 215 255
183 215 255
183 215 255
183 215 255
183 215 255
183 215 255
183 215 255
183 215 255
183 215 255
183 215 255
183 215 255
183 215 255
183 215 255
183 215 255
183 215 255
183 215 255
183 215 255
183 215 255
183 215 255
183 215 255
183 215 255
183 215 255
183 215 255
183 215 255
195 227 255
183 215 255
183 215 255
183 215 255
183 215 255
183 215 255
183 215 255
183 215 255
183 215 255
183 215 255
183 215 255
183 215 255
183 215 255
183 215 255
183 215 255
183 215 255
183 215 255
183 215 255
183 215 255
183 215 255
183 215 255
183 215 255
183 215 255
183 215 255
183 215 255
183 215 255
183 215 255
183 215 255
183 215 255
183 215 255
183 215 255
183 215 255
183 215 255
183 215 255
183 215 255
183 215 255
183 215 255
195 227 255
183 215 255
183 215 255
183 215 255
183 215 255
183 215 255
183 215 255
183 215 255
183 215 255
183 215 255
183 215 255
183 215 255
183 215 255
183 215 255
183 215 255
183 215 255
183 215 255
183 215 255
183 215 255
183 215 255
183 215 255
183 215 255
183 215 255
183 215 255
183 215 255
183 215 255
183 215 255
183 215 255
183 215 255
183 215 255
183 215 255
183 215 255
183 215 255
183 215 255
183 215 255
183 215 255
183 215 255
195 227 255
183 215 255
183 215 255
183 215 255
183 215 255
183 215 255
183 215 255
183 215 255
183 215 255
183 215 255
183 215 255
183 215 255
183 215 255
183 215 255
183 215 255
183 215 255
183 215 255
183 215 255
183 215 255
183 215 255
183 215 255
183 215 255
183 215 255
183 215 255
183 215 255
183 215 255
183 215 255
183 215 255
183 215 255
183 215 255
183 215 255
183 215 255
183 215 255
183 215 255
183 215 255
183 215 255
183 215 255
195 227 255
183 215 255
183 215 255
183 215 255
183 215 255
183 215 255
183 215 255
183 215 255
183 215 255
183 215 255
183 215 255
183 215 255
183 215 255
183 215 255
183 215 255
183 215 255
183 215 255
183 215 255
183 215 255
183 215 255
183 215 255
183 215 255
183 215 255
195 227 255
183 215 255
183 215 255
183 215 255
183 215 255
183 215 255
183 215 255
183 215 255
183 215 255
183 215 255
183 215 255
183 215 255
183 215 255
183 215 255
183 215 255
183 215 255
183 215 255
183 215 255
183 215 255
183 215 255
183 215 255
183 215 255
183 215 255
183 215 255
183 215 255
183 215 255
183 215 255
183 215 255
183 215 255
183 215 255
183 215 255
183 215 255
183 215 255
183 215 255
183 215 255
183 215 255
183 215 255
195 227 255
183 215 255
183 215 255
183 215 255
183 215 255
183 215 255
183 215 255
183 215 255
183 215 255
183 215 255
183 215 255
183 215 255
183 215 255
183 215 255
183 215 255
183 215 255
183 215 255
183 215 255
183 215 255
183 215 255
183 215 255
183 215 255
183 215 255
183 215 255
183 215 255
183 215 255
183 215 255
183 215 255
183 215 255
183 215 255
183 215 255
183 215 255
183 215 255
183 215 255
183 215 255
183 215 255
183 215 255
195 227 255
183 215 255
183 215 255
183 215 255
183 215 255
183 215 255
183 215 255
183 215 255
183 215 255
183 215 255
183 215 255
183 215 255
183 215 255
183 215 255
183 215 255
183 215 255
183 215 255
183 215 255
183 215 255
183 215 255
183 215 255
183 215 255
183 215 255
183 215 255
183 215 255
183 215 255
183 215 255
183 215 255
183 215 255
183 215 255
183 215 255
183 215 255
183 215 255
183 215 255
183 215 255
183 215 255
183 215 255
195 227 255
183 215 255
183 215 255
183 215 255
183 215 255
183 215 255
183 215 255
183 215 255
183 215 255
183 215 255
183 215 255
183 215 255
183 215 255
183 215 255
183 215 255
183 215 255
183 215 255
183 215 255
183 215 255
183 215 255
183 215 255
183 215 255
183 215 255
183 215 255
183 215 255
183 215 255
183 215 255
183 215 255
183 215 255
183 215 255
183 215 255
183 215 255
183 215 255
183 215 255
183 215 255
183 215 255
183 215 255
195 227 255
183 215 255
183 215 255
183 215 255
183 215 255
183 215 255
183 215 255
183 215 255
183 215 255
183 215 255
183 215 255
183 215 255
183 215 255
183 215 255
183 215 255
183 215 255
183 215 255
183 215 255
183 215 255
183 215 255
183 215 255
183 215 255
183 215 255
183 215 255
183 215 255
183 215 255
183 215 255
183 215 255
183 215 255
183 215 255
183 215 255
183 215 255
183 215 255
183 215 255
183 215 255
183 215 255
183 215 255
195 227 255
183 215 255
183 215 255
183 215 255
183 215 255
183 215 255
183 215 255
183 215 255
183 215 255
183 215 255
183 215 255
183 215 255
183 215 255
183 215 255
183 215 255
183 215 255
183 215 255
183 215 255
183 215 255
183 215 255
183 215 255
183 215 255
183 215 255
183 215 255
183 215 255
183 215 255
183 215 255
183 215 255
183 215 255
183 215 255
183 215 255
183 215 255
183 215 255
183 215 255
183 215 255
183 215 255
183 215 255
195 227 255
183 215 255
183 215 255
183 215 255
183 215 255
183 215 255
183 215 255
183 215 255
183 215 255
183 215 255
183 215 255
183 215 255
183 215 255
183 215 255
183 215 255
183 215 255
183 215 255
183 215 255
183 215 255
183 215 255
183 215 255
183 215 255
183 215 255
183 215 255
183 215 255
183 215 255
183 215 255
183 215 255
183 215 255
183 215 255
183 215 255
183 215 255
183 215 255
183 215 255
183 215 255
183 215 255
183 215 255
195 227 255
183 215 255
183 215 255
183 215 255
183 215 255
183 215 255
183 215 255
183 215 255
183 215 255
183 215 255
183 215 255
183 215 255
183 215 255
183 215 255
183 215 255
183 215 255
183 215 255
183 215 255
183 215 255
183 215 255
183 215 255
183 215 255
183 215 255
183 215 255
183 215 255
183 215 255
183 215 255
183 215 255
183 215 255
183 215 255
183 215 255
183 215 255
183 215 255
183 215 255
183 215 255
183 215 255
183 215 255
195 227 255
183 215 255
183 215 255
183 215 255
183 215 255
183 215 255
183 215 255
183 215 255
183 215 255
183 215 255
183 215 255
183 215 255
183 215 255
183 215 255
183 215 255
183 215 255
183 215 255
183 215 255
183 215 255
183 215 255
183 215 255
183 215 255
183 215 255
195 227 255
183 215 255
183 215 255
183 215 255
183 215 255
183 215 255
183 215 255
183 215 255
183 215 255
183 215 255
183 215 255
183 215 255
183 215 255
183 215 255
183 215 255
183 215 255
183 215 255
183 215 255
183 215 255
183 215 255
183 215 255
183 215 255
183 215 255
183 215 255
183 215 255
183 215 255
183 215 255
183 215 255
183 215 255
183 215 255
183 215 255
183 215 255
183 215 255
183 215 255
183 215 255
183 215 255
183 215 255
195 227 255
183 215 255
183 215 255
183 215 255
183 215 255
183 215 255
183 215 255
183 215 255
183 215 255
183 215 255
183 215 255
183 215 255
183 215 255
183 215 255
183 215 255
183 215 255
183 215 255
183 215 255
183 215 255
183 215 255
183 215 255
183 215 255
183 215 255
183 215 255
183 215 255
183 215 255
183 215 255
183 215 255
183 215 255
183 215 255
183 215 255
183 215 255
183 215 255
183 215 255
183 215 255
183 215 255
183 215 255
195 227 255
183 215 255
183 215 255
183 215 255
183 215 255
183 215 255
183 215 255
183 215 255
183 215 255
183 215 255
183 215 255
183 215 255
183 215 255
183 215 255
183 215 255
183 215 255
183 215 255
183 215 255
183 215 255
183 215 255
183 215 255
183 215 255
183 215 255
183 215 255
183 215 255
183 215 255
183 215 255
183 215 255
183 215 255
183 215 255
183 215 255
183 215 255
183 215 255
183 215 255
183 215 255
183 215 255
183 215 255
195 227 255
183 215 255
183 215 255
183 215 255
183 215 255
183 215 255
183 215 255
183 215 255
183 215 255
183 215 255
183 215 255
183 215 255
183 215 255
183 215 255
183 215 255
183 215 255
183 215 255
183 215 255
183 215 255
183 215 255
183 215 255
183 215 255
183 215 255
183 215 255
183 215 255
183 215 255
183 215 255
183 215 255
183 215 255
183 215 255
183 215 255
183 215 255
183 215 255
183 215 255
183 215 255
183 215 255
183 215 255
195 227 255
183 215 255
183 215 255
183 215 255
183 215 255
183 215 255
183 215 255
183 215 255
183 215 255
183 215 255
183 215 255
183 215 255
183 215 255
183 215 255
183 215 255
183 215 255
183 215 255
183 215 255
183 215 255
183 215 255
183 215 255
183 215 255
183 215 255
183 215 255
183 215 255
183 215 255
183 215 255
183 215 255
183 215 255
183 215 255
183 215 255
183 215 255
183 215 255
183 215 255
183 215 255
183 215 255
183 215 255
195 227 255
183 215 255
183 215 255
183 215 255
183 215 255
183 215 255
183 215 255
183 215 255
183 215 255
183 215 255
183 215 255
183 215 255
183 215 255
183 215 255
183 215 255
183 215 255
183 215 255
183 215 255
183 215 255
183 215 255
183 215 255
183 215 255
183 215 255
183 215 255
183 215 255
183 215 255
183 215 255
183 215 255
183 215 255
183 215 255
183 215 255
183 215 255
183 215 255
183 215 255
183 215 255
183 215 255
183 215 255
195 227 255
183 215 255
183 215 255
183 215 255
183 215 255
183 215 255
183 215 255
183 215 255
183 215 255
183 215 255
183 215 255
183 215 255
183 215 255
183 215 255
183 215 255
183 215 255
183 215 255
183 215 255
183 215 255
183 215 255
183 215 255
183 215 255
183 215 255
183 215 255
183 215 255
183 215 255
183 215 255
183 215 255
183 215 255
183 215 255
183 215 255
183 215 255
183 215 255
183 215 255
183 215 255
183 215 255
183 215 255
195 227 255
183 215 255
183 215 255
183 215 255
183 215 255
183 215 255
183 215 255
183 215 255
183 215 255
183 215 255
183 215 255
183 215 255
183 215 255
183 215 255
183 215 255
183 215 255
183 215 255
183 215 255
183 215 255
183 215 255
183 215 255
183 215 255
183 215 255
183 215 255
183 215 255
183 215 255
183 215 255
183 215 255
183 215 255
183 215 255
183 215 255
183 215 255
183 215 255
183 215 255
183 215 255
183 215 255
183 215 255
195 227 255
183 215 255
183 215 255
183 215 255